( Made using CamBam - http://www.cambam.co.uk )
( base clamp 10/27/2013 9:53:06 AM )
( T16 : 1.0 )
G21 G90 G91.1 G64 G40
G0 Z3.0
( T16 : 1.0 )
T16 M6
( Spot Drill )
G17
M3 S1000
G0 X4.5087 Y23.2323
G98
G81 X4.5087 Y23.2323 Z-1.0 R3.0 F80.0
G81 X18.5431 Y14.3607 Z-1.0
G81 X32.5107 Y23.2323 Z-1.0
G81 X46.5613 Y14.3607 Z-1.0
G81 X60.5125 Y23.2323 Z-1.0
G81 X74.5798 Y14.3607 Z-1.0
G81 X88.5141 Y23.2323 Z-1.0
G81 X102.5984 Y14.3607 Z-1.0
G81 X116.5164 Y23.2323 Z-1.0
G81 X130.6167 Y14.3607 Z-1.0
G81 X144.5183 Y23.2323 Z-1.0
G81 X158.6349 Y14.3605 Z-1.0
G81 X172.52 Y23.2323 Z-1.0
G81 Y5.0663 Z-1.0
G81 X144.5183 Y5.0662 Z-1.0
G81 X116.5164 Z-1.0
G81 X88.5141 Y5.0663 Z-1.0
G81 X60.5125 Y5.0662 Z-1.0
G81 X32.5107 Z-1.0
G81 X4.5087 Z-1.0
G80
G0 Z3.0
M5
M30
