( Made using CamBam - http://www.cambam.co.uk )
( base clamp 10/27/2013 9:53:13 AM )
( T9 : 3.0 )
G21 G90 G91.1 G64 G40
G0 Z3.0
( T9 : 3.0 )
T9 M6
( 3mm Drill )
G17
M3 S1000
G0 X4.5087 Y23.2323
G98
G83 X4.5087 Y23.2323 Z-8.0 Q2.0 R3.0 F50.0
G83 Y5.0662 Z-8.0
G83 X32.5107 Z-8.0
G83 Y23.2323 Z-8.0
G83 X60.5125 Z-8.0
G83 Y5.0662 Z-8.0
G83 X88.5141 Y5.0663 Z-8.0
G83 Y23.2323 Z-8.0
G83 X116.5164 Z-8.0
G83 Y5.0662 Z-8.0
G83 X144.5183 Z-8.0
G83 Y23.2323 Z-8.0
G83 X172.52 Z-8.0
G83 Y5.0663 Z-8.0
G80
G0 Z3.0
M5
M30
