( Made using CamBam - http://www.cambam.co.uk )
( base clamp 10/27/2013 9:53:33 AM )
( T4 : 4.0 )
G21 G90 G91.1 G64 G40
G0 Z3.0
( T4 : 4.0 )
T4 M6
( 4mm Mill Pocket )
G17
M3 S1000
G0 X4.7088 Y23.2322
G0 Z1.0
G1 F25.0 Z-1.0
G3 F150.0 X4.5087 Y23.4323 I-0.2004 J-0.0003
G3 X4.3086 Y23.2322 I0.0003 J-0.2004
G3 X4.5087 Y23.0322 I0.2003 J0.0003
G3 X4.7088 Y23.2322 I-0.0003 J0.2004
G1 F25.0 X5.5088 Y23.2335
G3 F150.0 X4.5086 Y24.2323 I-1.0004 J-0.0016
G3 X3.5086 Y23.2322 I0.0003 J-1.0004
G3 X4.5086 Y22.2322 I1.0003 J0.0003
G3 X5.5088 Y23.2322 I-0.0003 J1.0004
G3 Y23.2335 I-1.0004 J-0.0003
G1 F25.0 X4.7088 Y23.2322
G1 Z-2.0
G3 F150.0 X4.5087 Y23.4323 I-0.2004 J-0.0003
G3 X4.3086 Y23.2322 I0.0003 J-0.2004
G3 X4.5087 Y23.0322 I0.2003 J0.0003
G3 X4.7088 Y23.2322 I-0.0003 J0.2004
G1 F25.0 X5.5088 Y23.2335
G3 F150.0 X4.5086 Y24.2323 I-1.0004 J-0.0016
G3 X3.5086 Y23.2322 I0.0003 J-1.0004
G3 X4.5086 Y22.2322 I1.0003 J0.0003
G3 X5.5088 Y23.2322 I-0.0003 J1.0004
G3 Y23.2335 I-1.0004 J-0.0003
G0 Z3.0
G0 X4.5194 Y5.266
G0 Z1.0
G1 F25.0 Z-1.0
G3 F150.0 X4.5087 Y5.2663 I-0.011 J-0.2001
G3 X4.3086 Y5.0664 I0.0003 J-0.2004
G3 X4.5087 Y4.866 I0.2007 J0.0004
G3 X4.7088 Y5.0663 I-0.0006 J0.2007
G3 X4.5194 Y5.266 I-0.2004 J-0.0004
G1 F25.0 X4.5633 Y6.0648
G3 F150.0 X4.5086 Y6.0663 I-0.055 J-0.9989
G3 X3.5086 Y5.0663 I0.0003 J-1.0004
G3 X4.5087 Y4.066 I1.0007 J0.0005
G3 X5.5088 Y5.0663 I-0.0006 J1.0007
G3 X4.5633 Y6.0648 I-1.0004 J-0.0004
G1 F25.0 X4.5194 Y5.266
G1 Z-2.0
G3 F150.0 X4.5087 Y5.2663 I-0.011 J-0.2001
G3 X4.3086 Y5.0664 I0.0003 J-0.2004
G3 X4.5087 Y4.866 I0.2007 J0.0004
G3 X4.7088 Y5.0663 I-0.0006 J0.2007
G3 X4.5194 Y5.266 I-0.2004 J-0.0004
G1 F25.0 X4.5633 Y6.0648
G3 F150.0 X4.5086 Y6.0663 I-0.055 J-0.9989
G3 X3.5086 Y5.0663 I0.0003 J-1.0004
G3 X4.5087 Y4.066 I1.0007 J0.0005
G3 X5.5088 Y5.0663 I-0.0006 J1.0007
G3 X4.5633 Y6.0648 I-1.0004 J-0.0004
G0 Z3.0
G0 X32.3108 Y5.0734
G0 Z1.0
G1 F25.0 Z-1.0
G3 F150.0 X32.3107 Y5.0662 I0.2001 J-0.0072
G1 Y5.066
G3 X32.5107 Y4.8657 I0.2003 J0.0
G3 X32.7107 Y5.0659 I-0.0003 J0.2002
G1 Y5.066
G3 X32.5106 Y5.2665 I-0.2005 J0.0
G3 X32.3108 Y5.0734 I0.0004 J-0.2003
G1 F25.0 X31.5113 Y5.102
G3 F150.0 X31.5107 Y5.0662 I0.9996 J-0.0357
G1 Y5.0661
G3 X32.5107 Y4.0657 I1.0003 J-0.0001
G3 X33.5107 Y5.066 I-0.0002 J1.0002
G1 Y5.0661
G3 X32.5105 Y6.0665 I-1.0005 J-0.0001
G3 X31.5113 Y5.102 I0.0004 J-1.0003
G1 F25.0 X32.3108 Y5.0734
G1 Z-2.0
G3 F150.0 X32.3107 Y5.0662 I0.2001 J-0.0072
G1 Y5.066
G3 X32.5107 Y4.8657 I0.2003 J0.0
G3 X32.7107 Y5.0659 I-0.0003 J0.2002
G1 Y5.066
G3 X32.5106 Y5.2665 I-0.2005 J0.0
G3 X32.3108 Y5.0734 I0.0004 J-0.2003
G1 F25.0 X31.5113 Y5.102
G3 F150.0 X31.5107 Y5.0662 I0.9996 J-0.0357
G1 Y5.0661
G3 X32.5107 Y4.0657 I1.0003 J-0.0001
G3 X33.5107 Y5.066 I-0.0002 J1.0002
G1 Y5.0661
G3 X32.5105 Y6.0665 I-1.0005 J-0.0001
G3 X31.5113 Y5.102 I0.0004 J-1.0003
G0 Z3.0
G0 X32.4995 Y23.0327
G0 Z1.0
G1 F25.0 Z-1.0
G3 F150.0 X32.5105 Y23.0324 I0.011 J0.1995
G1 X32.5109
G3 X32.7107 Y23.2321 I0.0 J0.1998
G3 X32.5107 Y23.4323 I-0.2002 J0.0
G3 X32.3107 Y23.2321 I0.0003 J-0.2003
G1 Y23.2322
G1 Y23.2321
G3 X32.4995 Y23.0327 I0.1998 J0.0001
G1 F25.0 X32.4555 Y22.2339
G3 F150.0 X32.5105 Y22.2324 I0.055 J0.9983
G1 X32.5108
G3 X33.5107 Y23.2321 I0.0001 J0.9998
G1 Y23.2322
G3 X32.5106 Y24.2323 I-1.0002 J0.0
G3 X31.5107 Y23.2321 I0.0003 J-1.0003
G1 Y23.2322
G1 Y23.2321
G3 X32.4555 Y22.2339 I0.9998 J0.0
G1 F25.0 X32.4995 Y23.0327
G1 Z-2.0
G3 F150.0 X32.5105 Y23.0324 I0.011 J0.1995
G1 X32.5109
G3 X32.7107 Y23.2321 I0.0 J0.1998
G3 X32.5107 Y23.4323 I-0.2002 J0.0
G3 X32.3107 Y23.2321 I0.0003 J-0.2003
G1 Y23.2322
G1 Y23.2321
G3 X32.4995 Y23.0327 I0.1998 J0.0001
G1 F25.0 X32.4555 Y22.2339
G3 F150.0 X32.5105 Y22.2324 I0.055 J0.9983
G1 X32.5108
G3 X33.5107 Y23.2321 I0.0001 J0.9998
G1 Y23.2322
G3 X32.5106 Y24.2323 I-1.0002 J0.0
G3 X31.5107 Y23.2321 I0.0003 J-1.0003
G1 Y23.2322
G1 Y23.2321
G3 X32.4555 Y22.2339 I0.9998 J0.0
G0 Z3.0
G0 X60.3126 Y23.225
G0 Z1.0
G1 F25.0 Z-1.0
G3 F150.0 X60.512 Y23.0325 I0.1994 J0.0071
G2 X60.5128 I0.0004 J-2.8
G3 X60.7126 Y23.2322 I0.0 J0.1998
G1 Y23.2323
G1 Y23.2321
G1 Y23.2322
G3 X60.5125 Y23.4323 I-0.2002 J-0.0001
G1 X60.5124
G1 X60.5126
G1 X60.5125
G3 X60.3124 Y23.2322 I0.0001 J-0.2002
G1 Y23.2321
G3 X60.3126 Y23.225 I0.1995 J0.0
G1 F25.0 X59.5131 Y23.1965
G3 F150.0 X60.5121 Y22.2325 I0.9989 J0.0355
G2 X60.5127 I0.0003 J-2.0
G3 X61.5126 Y23.2322 I0.0001 J0.9998
G3 X60.5125 Y24.2323 I-1.0002 J-0.0001
G1 X60.5124
G1 X60.5125
G3 X59.5124 Y23.2322 I0.0001 J-1.0002
G1 Y23.2321
G3 X59.5131 Y23.1965 I0.9995 J0.0
G1 F25.0 X60.3126 Y23.225
G1 Z-2.0
G3 F150.0 X60.512 Y23.0325 I0.1994 J0.0071
G2 X60.5128 I0.0004 J-2.8
G3 X60.7126 Y23.2322 I0.0 J0.1998
G1 Y23.2323
G1 Y23.2321
G1 Y23.2322
G3 X60.5125 Y23.4323 I-0.2002 J-0.0001
G1 X60.5124
G1 X60.5126
G1 X60.5125
G3 X60.3124 Y23.2322 I0.0001 J-0.2002
G1 Y23.2321
G3 X60.3126 Y23.225 I0.1995 J0.0
G1 F25.0 X59.5131 Y23.1965
G3 F150.0 X60.5121 Y22.2325 I0.9989 J0.0355
G2 X60.5127 I0.0003 J-2.0
G3 X61.5126 Y23.2322 I0.0001 J0.9998
G3 X60.5125 Y24.2323 I-1.0002 J-0.0001
G1 X60.5124
G1 X60.5125
G3 X59.5124 Y23.2322 I0.0001 J-1.0002
G1 Y23.2321
G3 X59.5131 Y23.1965 I0.9995 J0.0
G0 Z3.0
G0 X60.502 Y5.266
G0 Z1.0
G1 F25.0 Z-1.0
G3 F150.0 X60.3124 Y5.0662 I0.011 J-0.2003
G3 X60.5125 Y4.866 I0.2007 J0.0005
G3 X60.7126 Y5.0663 I-0.0006 J0.2007
G3 X60.5126 Y5.2663 I-0.2004 J-0.0004
G3 X60.502 Y5.266 I0.0005 J-0.2006
G1 F25.0 X60.4579 Y6.0648
G3 F150.0 X59.5124 Y5.0662 I0.0551 J-0.9991
G3 X60.5125 Y4.066 I1.0007 J0.0005
G3 X61.5126 Y5.0663 I-0.0006 J1.0007
G3 X60.5125 Y6.0663 I-1.0004 J-0.0004
G3 X60.4579 Y6.0648 I0.0005 J-1.0006
G1 F25.0 X60.502 Y5.266
G1 Z-2.0
G3 F150.0 X60.3124 Y5.0662 I0.011 J-0.2003
G3 X60.5125 Y4.866 I0.2007 J0.0005
G3 X60.7126 Y5.0663 I-0.0006 J0.2007
G3 X60.5126 Y5.2663 I-0.2004 J-0.0004
G3 X60.502 Y5.266 I0.0005 J-0.2006
G1 F25.0 X60.4579 Y6.0648
G3 F150.0 X59.5124 Y5.0662 I0.0551 J-0.9991
G3 X60.5125 Y4.066 I1.0007 J0.0005
G3 X61.5126 Y5.0663 I-0.0006 J1.0007
G3 X60.5125 Y6.0663 I-1.0004 J-0.0004
G3 X60.4579 Y6.0648 I0.0005 J-1.0006
G0 Z3.0
G0 X88.3145 Y5.073
G0 Z1.0
G1 F25.0 Z-1.0
G3 F150.0 X88.3143 Y5.0665 I0.2001 J-0.0071
G3 X88.5145 Y4.866 I0.2011 J0.0006
G3 X88.7145 Y5.0662 I-0.001 J0.201
G3 X88.5142 Y5.2662 I-0.2008 J-0.0008
G3 X88.3145 Y5.073 I0.0004 J-0.2003
G1 F25.0 X87.515 Y5.1015
G3 F150.0 X87.5143 Y5.0664 I0.9996 J-0.0356
G3 X88.5145 Y4.066 I1.0011 J0.0007
G3 X89.5145 Y5.0662 I-0.001 J1.001
G3 X88.5143 Y6.0662 I-1.0008 J-0.0008
G3 X87.515 Y5.1015 I0.0003 J-1.0003
G1 F25.0 X88.3145 Y5.073
G1 Z-2.0
G3 F150.0 X88.3143 Y5.0665 I0.2001 J-0.0071
G3 X88.5145 Y4.866 I0.2011 J0.0006
G3 X88.7145 Y5.0662 I-0.001 J0.201
G3 X88.5142 Y5.2662 I-0.2008 J-0.0008
G3 X88.3145 Y5.073 I0.0004 J-0.2003
G1 F25.0 X87.515 Y5.1015
G3 F150.0 X87.5143 Y5.0664 I0.9996 J-0.0356
G3 X88.5145 Y4.066 I1.0011 J0.0007
G3 X89.5145 Y5.0662 I-0.001 J1.001
G3 X88.5143 Y6.0662 I-1.0008 J-0.0008
G3 X87.515 Y5.1015 I0.0003 J-1.0003
G0 Z3.0
G0 X88.5034 Y23.0327
G0 Z1.0
G1 F25.0 Z-1.0
G3 F150.0 X88.5141 Y23.0324 I0.011 J0.1997
G3 X88.7145 Y23.2322 I-0.0003 J0.2007
G3 X88.5142 Y23.4322 I-0.2008 J-0.0008
G3 X88.3143 Y23.2322 I0.0004 J-0.2003
G3 X88.5034 Y23.0327 I0.2 J0.0002
G1 F25.0 X88.4593 Y22.2339
G3 F150.0 X88.5142 Y22.2324 I0.055 J0.9985
G3 X89.5145 Y23.2322 I-0.0004 J1.0007
G3 X88.5143 Y24.2322 I-1.0008 J-0.0008
G3 X87.5143 Y23.2322 I0.0003 J-1.0003
G3 X88.4593 Y22.2339 I1.0 J0.0002
G1 F25.0 X88.5034 Y23.0327
G1 Z-2.0
G3 F150.0 X88.5141 Y23.0324 I0.011 J0.1997
G3 X88.7145 Y23.2322 I-0.0003 J0.2007
G3 X88.5142 Y23.4322 I-0.2008 J-0.0008
G3 X88.3143 Y23.2322 I0.0004 J-0.2003
G3 X88.5034 Y23.0327 I0.2 J0.0002
G1 F25.0 X88.4593 Y22.2339
G3 F150.0 X88.5142 Y22.2324 I0.055 J0.9985
G3 X89.5145 Y23.2322 I-0.0004 J1.0007
G3 X88.5143 Y24.2322 I-1.0008 J-0.0008
G3 X87.5143 Y23.2322 I0.0003 J-1.0003
G3 X88.4593 Y22.2339 I1.0 J0.0002
G0 Z3.0
G0 X116.3167 Y23.2253
G0 Z1.0
G1 F25.0 Z-1.0
G3 F150.0 X116.5164 Y23.0325 I0.1998 J0.0071
G3 X116.5165 I0.0001 J0.1999
G1 X116.5162
G3 X116.5164 I0.0 J0.2003
G3 X116.7166 Y23.2322 I-0.0001 J0.2003
G3 X116.5165 Y23.4322 I-0.2006 J-0.0006
G3 X116.3166 Y23.2321 I0.0006 J-0.2005
G3 X116.3167 Y23.2253 I0.1999 J0.0004
G1 F25.0 X115.5172 Y23.1969
G3 F150.0 X116.5163 Y22.2325 I0.9993 J0.0356
G1 X116.5164
G1 X116.5162
G1 X116.5163
G3 X117.5166 Y23.2322 I-0.0001 J1.0003
G3 X116.5164 Y24.2322 I-1.0006 J-0.0006
G3 X115.5166 Y23.2321 I0.0006 J-1.0005
G3 X115.5172 Y23.1969 I0.9999 J0.0003
G1 F25.0 X116.3167 Y23.2253
G1 Z-2.0
G3 F150.0 X116.5164 Y23.0325 I0.1998 J0.0071
G3 X116.5165 I0.0001 J0.1999
G1 X116.5162
G3 X116.5164 I0.0 J0.2003
G3 X116.7166 Y23.2322 I-0.0001 J0.2003
G3 X116.5165 Y23.4322 I-0.2006 J-0.0006
G3 X116.3166 Y23.2321 I0.0006 J-0.2005
G3 X116.3167 Y23.2253 I0.1999 J0.0004
G1 F25.0 X115.5172 Y23.1969
G3 F150.0 X116.5163 Y22.2325 I0.9993 J0.0356
G1 X116.5164
G1 X116.5162
G1 X116.5163
G3 X117.5166 Y23.2322 I-0.0001 J1.0003
G3 X116.5164 Y24.2322 I-1.0006 J-0.0006
G3 X115.5166 Y23.2321 I0.0006 J-1.0005
G3 X115.5172 Y23.1969 I0.9999 J0.0003
G0 Z3.0
G0 X116.5057 Y5.2659
G0 Z1.0
G1 F25.0 Z-1.0
G3 F150.0 X116.3166 Y5.0664 I0.011 J-0.1998
G3 X116.5163 Y4.866 I0.2006 J0.0003
G3 X116.7166 Y5.0663 I-0.0009 J0.2011
G3 X116.5163 Y5.2662 I-0.2007 J-0.0008
G3 X116.5057 Y5.2659 I0.0004 J-0.2001
G1 F25.0 X116.4616 Y6.0647
G3 F150.0 X115.5166 Y5.0663 I0.055 J-0.9986
G3 X116.5163 Y4.066 I1.0006 J0.0004
G3 X117.5166 Y5.0663 I-0.0009 J1.0011
G3 X116.5163 Y6.0662 I-1.0007 J-0.0008
G3 X116.4616 Y6.0647 I0.0004 J-1.0001
G1 F25.0 X116.5057 Y5.2659
G1 Z-2.0
G3 F150.0 X116.3166 Y5.0664 I0.011 J-0.1998
G3 X116.5163 Y4.866 I0.2006 J0.0003
G3 X116.7166 Y5.0663 I-0.0009 J0.2011
G3 X116.5163 Y5.2662 I-0.2007 J-0.0008
G3 X116.5057 Y5.2659 I0.0004 J-0.2001
G1 F25.0 X116.4616 Y6.0647
G3 F150.0 X115.5166 Y5.0663 I0.055 J-0.9986
G3 X116.5163 Y4.066 I1.0006 J0.0004
G3 X117.5166 Y5.0663 I-0.0009 J1.0011
G3 X116.5163 Y6.0662 I-1.0007 J-0.0008
G3 X116.4616 Y6.0647 I0.0004 J-1.0001
G0 Z3.0
G0 X144.3184 Y5.0739
G0 Z1.0
G1 F25.0 Z-1.0
G3 F150.0 X144.3183 Y5.0668 I0.1998 J-0.0071
G2 Y5.0658 I-2.8 J-0.0006
G3 X144.5182 Y4.8657 I0.2001 J0.0
G3 X144.7183 Y5.0661 I-0.0002 J0.2004
G1 Y5.0665
G3 X144.5182 Y5.2667 I-0.2001 J0.0
G3 X144.3184 Y5.0739 I0.0 J-0.1999
G1 F25.0 X143.519 Y5.1024
G3 F150.0 X143.5183 Y5.0666 I0.9992 J-0.0355
G2 Y5.0659 I-2.0 J-0.0004
G3 X144.5181 Y4.0657 I1.0001 J-0.0001
G3 X145.5183 Y5.0661 I-0.0002 J1.0004
G1 Y5.0664
G3 X144.5181 Y6.0667 I-1.0001 J0.0001
G3 X143.519 Y5.1024 I0.0001 J-0.9999
G1 F25.0 X144.3184 Y5.0739
G1 Z-2.0
G3 F150.0 X144.3183 Y5.0668 I0.1998 J-0.0071
G2 Y5.0658 I-2.8 J-0.0006
G3 X144.5182 Y4.8657 I0.2001 J0.0
G3 X144.7183 Y5.0661 I-0.0002 J0.2004
G1 Y5.0665
G3 X144.5182 Y5.2667 I-0.2001 J0.0
G3 X144.3184 Y5.0739 I0.0 J-0.1999
G1 F25.0 X143.519 Y5.1024
G3 F150.0 X143.5183 Y5.0666 I0.9992 J-0.0355
G2 Y5.0659 I-2.0 J-0.0004
G3 X144.5181 Y4.0657 I1.0001 J-0.0001
G3 X145.5183 Y5.0661 I-0.0002 J1.0004
G1 Y5.0664
G3 X144.5181 Y6.0667 I-1.0001 J0.0001
G3 X143.519 Y5.1024 I0.0001 J-0.9999
G0 Z3.0
G0 X144.5072 Y23.0323
G0 Z1.0
G1 F25.0 Z-1.0
G3 F150.0 X144.5182 Y23.032 I0.011 J0.1996
G1 X144.5183
G3 X144.7183 Y23.232 I0.0 J0.2
G2 Y23.2325 I2.8 J0.0002
G3 X144.5184 Y23.4325 I-0.1999 J0.0
G1 X144.5183
G1 X144.5185
G1 X144.5184
G3 X144.3183 Y23.2323 I0.0001 J-0.2002
G1 Y23.2319
G3 X144.5072 Y23.0323 I0.1999 J0.0
G1 F25.0 X144.4632 Y22.2335
G3 F150.0 X144.5181 Y22.232 I0.055 J0.9984
G1 X144.5182
G3 X145.5183 Y23.232 I0.0001 J1.0
G2 Y23.2324 I2.0 J0.0001
G3 X144.5183 Y24.2325 I-0.9999 J0.0001
G1 X144.5182
G1 X144.5183
G3 X143.5183 Y23.2322 I0.0002 J-1.0002
G1 Y23.232
G3 X144.4632 Y22.2335 I0.9999 J-0.0001
G1 F25.0 X144.5072 Y23.0323
G1 Z-2.0
G3 F150.0 X144.5182 Y23.032 I0.011 J0.1996
G1 X144.5183
G3 X144.7183 Y23.232 I0.0 J0.2
G2 Y23.2325 I2.8 J0.0002
G3 X144.5184 Y23.4325 I-0.1999 J0.0
G1 X144.5183
G1 X144.5185
G1 X144.5184
G3 X144.3183 Y23.2323 I0.0001 J-0.2002
G1 Y23.2319
G3 X144.5072 Y23.0323 I0.1999 J0.0
G1 F25.0 X144.4632 Y22.2335
G3 F150.0 X144.5181 Y22.232 I0.055 J0.9984
G1 X144.5182
G3 X145.5183 Y23.232 I0.0001 J1.0
G2 Y23.2324 I2.0 J0.0001
G3 X144.5183 Y24.2325 I-0.9999 J0.0001
G1 X144.5182
G1 X144.5183
G3 X143.5183 Y23.2322 I0.0002 J-1.0002
G1 Y23.232
G3 X144.4632 Y22.2335 I0.9999 J-0.0001
G0 Z3.0
G0 X172.3202 Y23.2252
G0 Z1.0
G1 F25.0 Z-1.0
G3 F150.0 X172.5202 Y23.0322 I0.2001 J0.0071
G1 X172.5204
G3 X172.72 Y23.2318 I0.0 J0.1996
G2 Y23.2325 I2.8 J0.0004
G3 X172.5202 Y23.4323 I-0.1998 J0.0
G1 X172.5201
G3 X172.3201 Y23.2323 I0.0 J-0.2001
G1 Y23.2324
G1 Y23.2323
G3 X172.3202 Y23.2252 I0.2002 J0.0001
G1 F25.0 X171.5207 Y23.1968
G3 F150.0 X172.5202 Y22.2322 I0.9996 J0.0356
G1 X172.5203
G3 X173.52 Y23.2319 I0.0001 J0.9996
G2 Y23.2324 I2.0 J0.0003
G3 X172.5202 Y24.2323 I-0.9998 J0.0001
G1 X172.5201
G3 X171.5201 Y23.2323 I0.0 J-1.0001
G1 Y23.2322
G1 Y23.2323
G3 X171.5207 Y23.1968 I1.0002 J0.0001
G1 F25.0 X172.3202 Y23.2252
G1 Z-2.0
G3 F150.0 X172.5202 Y23.0322 I0.2001 J0.0071
G1 X172.5204
G3 X172.72 Y23.2318 I0.0 J0.1996
G2 Y23.2325 I2.8 J0.0004
G3 X172.5202 Y23.4323 I-0.1998 J0.0
G1 X172.5201
G3 X172.3201 Y23.2323 I0.0 J-0.2001
G1 Y23.2324
G1 Y23.2323
G3 X172.3202 Y23.2252 I0.2002 J0.0001
G1 F25.0 X171.5207 Y23.1968
G3 F150.0 X172.5202 Y22.2322 I0.9996 J0.0356
G1 X172.5203
G3 X173.52 Y23.2319 I0.0001 J0.9996
G2 Y23.2324 I2.0 J0.0003
G3 X172.5202 Y24.2323 I-0.9998 J0.0001
G1 X172.5201
G3 X171.5201 Y23.2323 I0.0 J-1.0001
G1 Y23.2322
G1 Y23.2323
G3 X171.5207 Y23.1968 I1.0002 J0.0001
G0 Z3.0
G0 X172.5091 Y5.266
G0 Z1.0
G1 F25.0 Z-1.0
G3 F150.0 X172.3201 Y5.0663 I0.011 J-0.1998
G1 Y5.0662
G3 X172.5201 Y4.8657 I0.2005 J0.0
G3 X172.72 Y5.0661 I-0.0005 J0.2004
G1 Y5.0665
G3 X172.5202 Y5.2663 I-0.1998 J0.0
G1 X172.5201
G3 X172.5091 Y5.266 I0.0 J-0.2001
G1 F25.0 X172.4651 Y6.0648
G3 F150.0 X171.5201 Y5.0663 I0.055 J-0.9985
G1 Y5.0662
G3 X172.5201 Y4.0657 I1.0005 J0.0
G3 X173.52 Y5.0661 I-0.0004 J1.0004
G1 Y5.0664
G3 X172.5202 Y6.0663 I-0.9998 J0.0001
G1 X172.5201
G3 X172.4651 Y6.0648 I0.0 J-1.0001
G1 F25.0 X172.5091 Y5.266
G1 Z-2.0
G3 F150.0 X172.3201 Y5.0663 I0.011 J-0.1998
G1 Y5.0662
G3 X172.5201 Y4.8657 I0.2005 J0.0
G3 X172.72 Y5.0661 I-0.0005 J0.2004
G1 Y5.0665
G3 X172.5202 Y5.2663 I-0.1998 J0.0
G1 X172.5201
G3 X172.5091 Y5.266 I0.0 J-0.2001
G1 F25.0 X172.4651 Y6.0648
G3 F150.0 X171.5201 Y5.0663 I0.055 J-0.9985
G1 Y5.0662
G3 X172.5201 Y4.0657 I1.0005 J0.0
G3 X173.52 Y5.0661 I-0.0004 J1.0004
G1 Y5.0664
G3 X172.5202 Y6.0663 I-0.9998 J0.0001
G1 X172.5201
G3 X172.4651 Y6.0648 I0.0 J-1.0001
G0 Z3.0
M5
M30
