( Made using CamBam - http://www.cambam.co.uk )
( base clamp 10/27/2013 9:55:22 AM )
( T4 : 4.0 )
G21 G90 G91.1 G64 G40
G0 Z3.0
( T4 : 4.0 )
T4 M6
( 4mm Mill Cutout )
G17
M3 S1000
G0 X165.78 Y24.6418
G0 Z1.0
G1 F25.0 Z-1.0
G3 F150.0 X166.2083 Y24.7973 I-0.1417 J1.0575
G2 X166.2113 Y24.7992 I1.0682 J-1.6908
G3 X166.5694 Y25.2094 I-0.5048 J0.8023
G3 X166.635 Y25.5223 I-0.7256 J0.3155
G2 X167.0457 Y27.4595 I4.7535 J0.0044
G2 X168.1713 Y29.0433 I4.4697 J-1.9848
G2 X171.6376 Y30.4112 I3.4547 J-3.6785
G1 X174.1778
G2 X174.1785 I0.0 J-2.0
G2 X177.711 Y28.9439 I-0.0018 J-4.9901
G2 X179.1778 Y25.4128 I-3.5267 J-3.5351
G2 Y25.4112 I-2.0 J-0.0016
G1 Y3.0
G2 Y2.9994 I-2.0 J0.0
G2 X177.7105 Y-0.5331 I-4.9895 J0.0015
G2 X174.179 Y-2.0 I-3.5344 J3.5247
G2 X174.1778 I-0.0012 J2.0
G1 X171.6379
G2 X169.6938 Y-1.6356 I-0.0138 J5.2941
G2 X167.9779 Y-0.5212 I1.8225 J4.6847
G2 X167.1164 Y0.6561 I3.2353 J3.2714
G2 X166.635 Y2.6403 I3.8699 J1.9893
G3 X166.5842 Y2.8272 I-0.3768 J-0.002
G3 X166.3458 Y3.0789 I-0.6745 J-0.4003
G2 X166.3422 Y3.0813 I1.1119 J1.6625
G3 X166.0672 Y3.2186 I-0.6689 J-0.9956
G3 X165.6378 Y3.2891 I-0.4275 J-1.2617
G2 X165.635 I-0.0028 J2.0
G1 X151.6348
G2 X151.6281 I0.0 J2.0
G3 X151.1515 Y3.1997 I-0.0044 J-1.2927
G2 X151.1444 Y3.197 I-0.7307 J1.8617
G3 X150.7935 Y2.9691 I0.3707 J-0.9552
G2 X150.7906 Y2.9663 I-1.4087 J1.4197
G3 X150.6776 Y2.8118 I0.4226 J-0.4276
G2 X150.674 Y2.8048 I-1.7817 J0.9086
G3 X150.6349 Y2.6433 I0.314 J-0.1617
G2 X150.6348 Y2.639 I-2.0 J0.0011
G2 X150.0341 Y0.4374 I-4.378 J0.012
G2 X150.0317 Y0.4335 I-1.7255 J1.0112
G2 X148.5709 Y-1.1138 I-4.1212 J2.4277
G2 X147.3676 Y-1.7122 I-2.8961 J4.314
G2 X147.3622 Y-1.7141 I-0.6516 J1.8909
G2 X145.6336 Y-2.0 I-1.7225 J5.0457
G1 X143.6186
G2 X141.653 Y-1.623 I-0.0086 J5.2675
G2 X139.932 Y-0.4791 I1.8583 J4.6622
G2 X139.9271 Y-0.4741 I1.4263 J1.402
G2 X139.0877 Y0.7014 I3.3869 J3.3058
G2 X139.0841 Y0.7087 I1.7859 J0.9003
G2 X138.6167 Y2.6813 I3.975 J1.9834
G2 Y2.6822 I2.0 J0.0049
G3 X138.5595 Y2.8987 I-0.4415 J-0.0009
G3 X138.3176 Y3.1601 I-0.6977 J-0.403
G2 X138.3066 Y3.1677 I1.1313 J1.6493
G3 X138.049 Y3.299 I-0.6062 J-0.8713
G2 X138.0485 Y3.2991 I0.6568 J1.8891
G3 X137.6164 Y3.3723 I-0.4327 J-1.2436
G1 X123.6166
G2 X123.6126 I0.0 J2.0
G3 X123.1381 Y3.2813 I-0.0025 J-1.2692
G2 X123.1342 Y3.2797 I-0.7436 J1.8566
G3 X122.7868 Y3.0498 I0.3769 J-0.9469
G3 X122.6614 Y2.8742 I0.5233 J-0.5066
G3 X122.6166 Y2.6824 I0.3931 J-0.1929
G2 X122.0313 Y0.4873 I-4.4373 J0.0076
G2 X122.0299 Y0.4848 I-1.7362 J0.9928
G2 X120.5854 Y-1.0827 I-4.1673 J2.3909
G2 X119.3626 Y-1.7048 I-2.886 J4.1601
G1 X119.3625
G1 X119.3627 Y-1.7047
G1 X119.3626 Y-1.7048
G2 X117.6174 Y-2.0 I-1.7473 J5.0229
G2 X117.6166 I-0.0008 J2.0
G1 X115.601
G2 X113.657 Y-1.6356 I-0.0138 J5.2941
G2 X111.941 Y-0.5212 I1.8225 J4.6847
G2 X111.0795 Y0.6561 I3.2353 J3.2714
G2 X110.5981 Y2.6403 I3.8699 J1.9893
G3 X110.5473 Y2.8272 I-0.3768 J-0.002
G3 X110.3089 Y3.0789 I-0.6745 J-0.4003
G2 X110.3053 Y3.0813 I1.1119 J1.6625
G3 X110.0303 Y3.2186 I-0.6689 J-0.9956
G3 X109.6009 Y3.2891 I-0.4275 J-1.2617
G2 X109.5981 I-0.0028 J2.0
G1 X95.598
G2 X95.5912 I0.0 J2.0
G3 X95.1146 Y3.1997 I-0.0044 J-1.2927
G2 X95.1075 Y3.197 I-0.7307 J1.8617
G3 X94.7566 Y2.9691 I0.3707 J-0.9552
G2 X94.7537 Y2.9663 I-1.4087 J1.4197
G3 X94.6408 Y2.8118 I0.4226 J-0.4276
G2 X94.6372 Y2.8048 I-1.7817 J0.9086
G3 X94.598 Y2.6433 I0.314 J-0.1617
G2 Y2.639 I-2.0 J0.0011
G2 X93.9972 Y0.4374 I-4.378 J0.012
G2 X93.9949 Y0.4335 I-1.7255 J1.0112
G2 X92.534 Y-1.1138 I-4.1212 J2.4277
G2 X91.3307 Y-1.7122 I-2.8961 J4.314
G2 X91.3253 Y-1.7141 I-0.6516 J1.8909
G2 X89.5967 Y-2.0 I-1.7225 J5.0457
G1 X87.5811
G2 X85.6164 Y-1.6232 I-0.0058 J5.2799
G2 X83.8956 Y-0.4798 I1.8608 J4.6672
G2 X83.89 Y-0.4741 I1.4257 J1.4027
G2 X83.0507 Y0.7012 I3.3876 J3.3063
G2 X83.0471 Y0.7085 I1.7859 J0.9004
G2 X82.5797 Y2.6814 I3.9743 J1.9833
G2 Y2.682 I2.0 J0.0047
G3 X82.5224 Y2.8989 I-0.4424 J-0.0009
G3 X82.2806 Y3.1601 I-0.6972 J-0.4027
G2 X82.2691 Y3.1681 I1.1312 J1.6493
G3 X82.0125 Y3.2988 I-0.6027 J-0.8658
G2 X82.0106 Y3.2995 I0.6562 J1.8893
G3 X81.5801 Y3.3723 I-0.4303 J-1.235
G2 X81.5797 I-0.0004 J2.0
G1 X67.5795
G2 X67.5764 I0.0 J2.0
G3 X67.1001 Y3.281 I-0.002 J-1.2772
G2 X67.0974 Y3.2799 I-0.7427 J1.857
G3 X66.7496 Y3.0497 I0.378 J-0.9491
G3 X66.6243 Y2.8742 I0.5229 J-0.506
G3 X66.5795 Y2.6825 I0.3924 J-0.1927
G2 X65.9944 Y0.4875 I-4.4383 J0.0077
G2 X65.9929 Y0.4849 I-1.7363 J0.9926
G2 X64.5486 Y-1.0825 I-4.167 J2.3904
G2 X63.3258 Y-1.7047 I-2.8832 J4.1541
G2 X61.5794 Y-2.0 I-1.7459 J5.0136
G1 X61.5793
G1 X61.5795
G1 X61.5794
G1 X59.5634
G2 X57.6094 Y-1.6295 I-0.0087 J5.2918
G2 X55.8905 Y-0.5002 I1.8427 J4.6778
G2 X55.889 Y-0.4988 I1.4168 J1.4116
G2 X55.0368 Y0.6804 I3.3057 J3.2867
G2 X54.5616 Y2.6621 I3.9168 J1.9871
G3 X54.5074 Y2.8632 I-0.4043 J-0.001
G3 X54.2689 Y3.1184 I-0.677 J-0.3935
G2 X54.2595 Y3.1248 I1.1201 J1.6569
G3 X53.9936 Y3.2588 I-0.6322 J-0.9238
G3 X53.5637 Y3.3306 I-0.4285 J-1.2427
G2 X53.5616 I-0.0022 J2.0
G1 X39.5612
G2 X39.5569 I0.0 J2.0
G3 X39.0793 Y3.2401 I-0.0028 J-1.2898
G2 X39.0751 Y3.2384 I-0.7361 J1.8596
G3 X38.7246 Y3.0083 I0.3749 J-0.9532
G3 X38.6045 Y2.8419 I0.4669 J-0.4636
G2 X38.6037 Y2.8403 I-1.7843 J0.9035
G3 X38.5612 Y2.6633 I0.3494 J-0.1773
G2 Y2.6619 I-2.0 J0.0018
G2 X37.9679 Y0.4615 I-4.4029 J0.0071
G2 X37.9676 Y0.4611 I-1.7305 J1.0027
G2 X36.5132 Y-1.0988 I-4.1348 J2.3974
G2 X35.2994 Y-1.709 I-2.8838 J4.224
G2 X35.2989 Y-1.7092 I-0.653 J1.8904
G2 X33.5603 Y-2.0 I-1.7339 J5.0232
G1 X31.5441
G2 X29.5683 Y-1.6168 I-0.0047 J5.2606
G2 X27.8459 Y-0.4592 I1.8775 J4.654
G2 X27.8451 Y-0.4584 I1.4347 J1.3934
G2 X27.0055 Y0.731 I3.3718 J3.2713
G2 X26.5431 Y2.7063 I3.9842 J1.9743
G3 X26.4838 Y2.9324 I-0.4637 J-0.0008
G3 X26.2375 Y3.2018 I-0.7196 J-0.4107
G2 X26.2362 Y3.2026 I1.1425 J1.6416
G3 X25.9653 Y3.3426 I-0.6628 J-0.9507
G3 X25.5472 Y3.4138 I-0.4155 J-1.1776
G2 X25.5431 I-0.0041 J2.0
G1 X11.543
G2 X11.5408 I0.0 J2.0
G3 X11.0665 Y3.3218 I-0.0013 J-1.262
G2 X11.0647 Y3.3211 I-0.7496 J1.8542
G3 X10.7152 Y3.0863 I0.3802 J-0.9433
G1 X10.7153
G1 X10.7152
G3 X10.5915 Y2.9109 I0.495 J-0.4806
G2 X10.5908 Y2.9095 I-1.7937 J0.8847
G3 X10.543 Y2.7052 I0.4141 J-0.2046
G2 Y2.7033 I-2.0 J0.0016
G2 X9.966 Y0.5134 I-4.4744 J0.0078
G2 X9.9635 Y0.5089 I-1.7421 J0.9824
G2 X8.5226 Y-1.0709 I-4.1965 J2.3806
G2 X7.3087 Y-1.6964 I-2.9498 J4.2336
G2 X7.3045 Y-1.6979 I-0.6728 J1.8834
G2 X5.5413 Y-2.0 I-1.7551 J4.9478
G1 X3.0
G2 X-0.5333 Y-0.5326 I0.0 J4.9875
G2 X-2.0 Y2.999 I3.5244 J3.534
G2 Y3.0 I2.0 J0.001
G1 Y25.4112
G1 Y25.4113
G2 X-0.5325 Y28.9446 I4.9881 J-0.0003
G2 X2.9985 Y30.4112 I3.5347 J-3.5264
G2 X3.0 I0.0015 J-2.0
G1 X5.5413
G2 X7.5884 Y29.9876 I0.0076 J-5.1212
G1 X7.5885
G2 X9.3095 Y28.7545 I-2.0032 J-4.6136
G2 X9.3141 Y28.7495 I-1.4809 J-1.3442
G2 X10.1146 Y27.5367 I-3.6055 J-3.2506
G2 X10.1167 Y27.5321 I-1.8152 J-0.8396
G2 X10.543 Y25.5851 I-4.2419 J-1.9488
G2 Y25.5839 I-2.0 J-0.0008
G3 X10.6034 Y25.3076 I0.6611 J-0.0001
G3 X10.8018 Y25.0376 I0.7591 J0.3498
G3 X11.5351 Y24.7573 I0.729 J0.8077
G2 X11.543 I0.0079 J-2.0
G1 X25.5431
G2 X25.547 I0.0 J-2.0
G3 X25.9956 Y24.85 I0.0022 J1.121
G1 X25.9957
G3 X26.3456 Y25.0999 I-0.4094 J0.9431
G3 X26.4831 Y25.3085 I-0.6333 J0.5673
G3 X26.5431 Y25.5843 I-0.6055 J0.2762
G2 X26.97 Y27.5335 I4.6578 J0.0013
G2 X28.1209 Y29.0994 I4.3901 J-2.0207
G1 X28.121 Y29.0995
G2 X31.5466 Y30.4112 I3.4099 J-3.7761
G1 X33.5592
G2 X36.2565 Y29.6404 I0.0093 J-5.0726
G2 X38.1425 Y27.4902 I-2.6073 J-4.1892
G2 X38.146 Y27.4826 I-1.8213 J-0.8265
G2 X38.5612 Y25.5425 I-4.323 J-1.9398
G2 Y25.5422 I-2.0 J0.0001
G3 X38.6256 Y25.2409 I0.7363 J-0.0002
G3 X38.8293 Y24.9577 I0.7992 J0.3598
G2 X38.8299 Y24.9571 I-1.3589 J-1.4674
G3 X39.5552 Y24.6739 I0.7222 J0.7791
G2 X39.5612 I0.006 J-2.0
G1 X53.5616
G2 X53.5663 I0.0 J-2.0
G3 X54.1377 Y24.8372 I0.0025 J1.0723
G2 X54.1431 Y24.8405 I1.0609 J-1.6954
G3 X54.4985 Y25.2439 I-0.4921 J0.792
G3 X54.5616 Y25.5419 I-0.6725 J0.298
G2 X54.9772 Y27.4834 I4.7328 J0.002
G1 X54.9773 Y27.4835
G2 X56.1116 Y29.0621 I4.4454 J-1.9974
G2 X59.5642 Y30.4112 I3.4407 J-3.713
G1 X61.5774
G2 X64.2609 Y29.6524 I0.0096 J-5.0905
G2 X66.155 Y27.5156 I-2.5769 J-4.1919
G2 X66.1578 Y27.5093 I-1.8172 J-0.8353
G2 X66.5795 Y25.5635 I-4.266 J-1.9431
G3 X66.6423 Y25.2733 I0.7077 J0.0013
G3 X66.8428 Y24.9978 I0.7763 J0.3542
G2 X66.8438 Y24.9969 I-1.3496 J-1.476
G3 X67.5718 Y24.7156 I0.7239 J0.7907
G2 X67.5795 I0.0077 J-2.0
G1 X81.5797
G2 X81.5845 I0.0 J-2.0
G3 X82.1606 Y24.8785 I0.0026 J1.0908
G2 X82.1656 Y24.8815 I1.0515 J-1.7013
G3 X82.5192 Y25.2784 I-0.4827 J0.786
G3 X82.5797 Y25.5616 I-0.6298 J0.2826
G2 Y25.5649 I2.0 J0.0017
G2 X82.9998 Y27.506 I4.711 J-0.0037
G2 X83.0009 Y27.5084 I1.8216 J-0.8256
G2 X84.1435 Y29.0807 I4.4192 J-2.01
G1 X84.1436 Y29.0808
G1 X84.1435 Y29.0807
G2 X87.5828 Y30.4112 I3.4258 J-3.7453
G1 X89.597
G2 X92.3061 Y29.6289 I0.0043 J-5.067
G2 X94.185 Y27.4646 I-2.6367 J-4.1868
G2 X94.189 Y27.4556 I-1.8253 J-0.8175
G2 X94.598 Y25.524 I-4.3823 J-1.9368
G2 Y25.5182 I-2.0 J-0.0022
G3 X94.6632 Y25.2103 I0.7535 J-0.0014
G2 X94.6643 Y25.2076 I-1.827 J-0.8138
G3 X94.8696 Y24.9188 I0.814 J0.3612
G2 X94.8723 Y24.9163 I-1.367 J-1.4599
G3 X95.592 Y24.6324 I0.7166 J0.7625
G2 X95.598 I0.0059 J-2.0
G1 X109.5981
G2 X109.6003 I0.0 J-2.0
G3 X110.1714 Y24.7973 I0.0012 J1.067
G2 X110.1744 Y24.7992 I1.0682 J-1.6908
G3 X110.5325 Y25.2094 I-0.5048 J0.8023
G3 X110.5981 Y25.5223 I-0.7256 J0.3155
G2 X111.0088 Y27.4595 I4.7535 J0.0044
G2 X112.1344 Y29.0433 I4.4697 J-1.9848
G2 X115.6007 Y30.4112 I3.4547 J-3.6785
G1 X117.6141
G2 X120.2983 Y29.6521 I0.0111 J-5.0861
G2 X122.1919 Y27.5158 I-2.5772 J-4.1917
G2 X122.1949 Y27.5093 I-1.8172 J-0.8354
G2 X122.6166 Y25.5634 I-4.2667 J-1.9433
G3 X122.6794 Y25.2735 I0.7065 J0.0012
G3 X122.8799 Y24.9978 I0.7762 J0.354
G2 X122.8804 Y24.9974 I-1.3496 J-1.476
G3 X123.6096 Y24.7156 I0.7255 J0.793
G2 X123.6166 I0.0069 J-2.0
G1 X137.6168
G2 X137.6223 I0.0 J-2.0
G3 X138.1969 Y24.8781 I0.003 J1.0864
G2 X138.2026 Y24.8816 I1.0523 J-1.7008
G3 X138.5562 Y25.2784 I-0.4826 J0.7859
G3 X138.6167 Y25.5618 I-0.6305 J0.2829
G2 Y25.5647 I2.0 J0.0015
G2 X139.037 Y27.5062 I4.71 J-0.0034
G2 X139.0381 Y27.5086 I1.8215 J-0.8258
G2 X140.1804 Y29.0805 I4.42 J-2.011
G1 X140.1805 Y29.0806
G1 X140.1804 Y29.0805
G2 X143.6197 Y30.4112 I3.4257 J-3.7444
G1 X145.6339
G2 X148.343 Y29.6289 I0.0043 J-5.067
G2 X150.2219 Y27.4646 I-2.6367 J-4.1868
G2 X150.2259 Y27.4556 I-1.8253 J-0.8175
G2 X150.6349 Y25.524 I-4.3823 J-1.9368
G2 Y25.5182 I-2.0 J-0.0022
G3 X150.7 Y25.2103 I0.7535 J-0.0014
G2 X150.7012 Y25.2076 I-1.827 J-0.8138
G3 X150.9065 Y24.9188 I0.814 J0.3612
G2 X150.9092 Y24.9163 I-1.367 J-1.4599
G3 X151.6289 Y24.6324 I0.7166 J0.7625
G2 X151.6348 I0.0059 J-2.0
G1 X165.635
G2 X165.6372 I0.0 J-2.0
G3 X165.78 Y24.6418 I0.0012 J1.067
G1 F25.0 Z-2.0
G3 F150.0 X166.2083 Y24.7973 I-0.1417 J1.0575
G2 X166.2113 Y24.7992 I1.0682 J-1.6908
G3 X166.5694 Y25.2094 I-0.5048 J0.8023
G3 X166.635 Y25.5223 I-0.7256 J0.3155
G2 X167.0457 Y27.4595 I4.7535 J0.0044
G2 X168.1713 Y29.0433 I4.4697 J-1.9848
G2 X171.6376 Y30.4112 I3.4547 J-3.6785
G1 X174.1778
G2 X174.1785 I0.0 J-2.0
G2 X177.711 Y28.9439 I-0.0018 J-4.9901
G2 X179.1778 Y25.4128 I-3.5267 J-3.5351
G2 Y25.4112 I-2.0 J-0.0016
G1 Y3.0
G2 Y2.9994 I-2.0 J0.0
G2 X177.7105 Y-0.5331 I-4.9895 J0.0015
G2 X174.179 Y-2.0 I-3.5344 J3.5247
G2 X174.1778 I-0.0012 J2.0
G1 X171.6379
G2 X169.6938 Y-1.6356 I-0.0138 J5.2941
G2 X167.9779 Y-0.5212 I1.8225 J4.6847
G2 X167.1164 Y0.6561 I3.2353 J3.2714
G2 X166.635 Y2.6403 I3.8699 J1.9893
G3 X166.5842 Y2.8272 I-0.3768 J-0.002
G3 X166.3458 Y3.0789 I-0.6745 J-0.4003
G2 X166.3422 Y3.0813 I1.1119 J1.6625
G3 X166.0672 Y3.2186 I-0.6689 J-0.9956
G3 X165.6378 Y3.2891 I-0.4275 J-1.2617
G2 X165.635 I-0.0028 J2.0
G1 X151.6348
G2 X151.6281 I0.0 J2.0
G3 X151.1515 Y3.1997 I-0.0044 J-1.2927
G2 X151.1444 Y3.197 I-0.7307 J1.8617
G3 X150.7935 Y2.9691 I0.3707 J-0.9552
G2 X150.7906 Y2.9663 I-1.4087 J1.4197
G3 X150.6776 Y2.8118 I0.4226 J-0.4276
G2 X150.674 Y2.8048 I-1.7817 J0.9086
G3 X150.6349 Y2.6433 I0.314 J-0.1617
G2 X150.6348 Y2.639 I-2.0 J0.0011
G2 X150.0341 Y0.4374 I-4.378 J0.012
G2 X150.0317 Y0.4335 I-1.7255 J1.0112
G2 X148.5709 Y-1.1138 I-4.1212 J2.4277
G2 X147.3676 Y-1.7122 I-2.8961 J4.314
G2 X147.3622 Y-1.7141 I-0.6516 J1.8909
G2 X145.6336 Y-2.0 I-1.7225 J5.0457
G1 X143.6186
G2 X141.653 Y-1.623 I-0.0086 J5.2675
G2 X139.932 Y-0.4791 I1.8583 J4.6622
G2 X139.9271 Y-0.4741 I1.4263 J1.402
G2 X139.0877 Y0.7014 I3.3869 J3.3058
G2 X139.0841 Y0.7087 I1.7859 J0.9003
G2 X138.6167 Y2.6813 I3.975 J1.9834
G2 Y2.6822 I2.0 J0.0049
G3 X138.5595 Y2.8987 I-0.4415 J-0.0009
G3 X138.3176 Y3.1601 I-0.6977 J-0.403
G2 X138.3066 Y3.1677 I1.1313 J1.6493
G3 X138.049 Y3.299 I-0.6062 J-0.8713
G2 X138.0485 Y3.2991 I0.6568 J1.8891
G3 X137.6164 Y3.3723 I-0.4327 J-1.2436
G1 X123.6166
G2 X123.6126 I0.0 J2.0
G3 X123.1381 Y3.2813 I-0.0025 J-1.2692
G2 X123.1342 Y3.2797 I-0.7436 J1.8566
G3 X122.7868 Y3.0498 I0.3769 J-0.9469
G3 X122.6614 Y2.8742 I0.5233 J-0.5066
G3 X122.6166 Y2.6824 I0.3931 J-0.1929
G2 X122.0313 Y0.4873 I-4.4373 J0.0076
G2 X122.0299 Y0.4848 I-1.7362 J0.9928
G2 X120.5854 Y-1.0827 I-4.1673 J2.3909
G2 X119.3626 Y-1.7048 I-2.886 J4.1601
G1 X119.3625
G1 X119.3627 Y-1.7047
G1 X119.3626 Y-1.7048
G2 X117.6174 Y-2.0 I-1.7473 J5.0229
G2 X117.6166 I-0.0008 J2.0
G1 X115.601
G2 X113.657 Y-1.6356 I-0.0138 J5.2941
G2 X111.941 Y-0.5212 I1.8225 J4.6847
G2 X111.0795 Y0.6561 I3.2353 J3.2714
G2 X110.5981 Y2.6403 I3.8699 J1.9893
G3 X110.5473 Y2.8272 I-0.3768 J-0.002
G3 X110.3089 Y3.0789 I-0.6745 J-0.4003
G2 X110.3053 Y3.0813 I1.1119 J1.6625
G3 X110.0303 Y3.2186 I-0.6689 J-0.9956
G3 X109.6009 Y3.2891 I-0.4275 J-1.2617
G2 X109.5981 I-0.0028 J2.0
G1 X95.598
G2 X95.5912 I0.0 J2.0
G3 X95.1146 Y3.1997 I-0.0044 J-1.2927
G2 X95.1075 Y3.197 I-0.7307 J1.8617
G3 X94.7566 Y2.9691 I0.3707 J-0.9552
G2 X94.7537 Y2.9663 I-1.4087 J1.4197
G3 X94.6408 Y2.8118 I0.4226 J-0.4276
G2 X94.6372 Y2.8048 I-1.7817 J0.9086
G3 X94.598 Y2.6433 I0.314 J-0.1617
G2 Y2.639 I-2.0 J0.0011
G2 X93.9972 Y0.4374 I-4.378 J0.012
G2 X93.9949 Y0.4335 I-1.7255 J1.0112
G2 X92.534 Y-1.1138 I-4.1212 J2.4277
G2 X91.3307 Y-1.7122 I-2.8961 J4.314
G2 X91.3253 Y-1.7141 I-0.6516 J1.8909
G2 X89.5967 Y-2.0 I-1.7225 J5.0457
G1 X87.5811
G2 X85.6164 Y-1.6232 I-0.0058 J5.2799
G2 X83.8956 Y-0.4798 I1.8608 J4.6672
G2 X83.89 Y-0.4741 I1.4257 J1.4027
G2 X83.0507 Y0.7012 I3.3876 J3.3063
G2 X83.0471 Y0.7085 I1.7859 J0.9004
G2 X82.5797 Y2.6814 I3.9743 J1.9833
G2 Y2.682 I2.0 J0.0047
G3 X82.5224 Y2.8989 I-0.4424 J-0.0009
G3 X82.2806 Y3.1601 I-0.6972 J-0.4027
G2 X82.2691 Y3.1681 I1.1312 J1.6493
G3 X82.0125 Y3.2988 I-0.6027 J-0.8658
G2 X82.0106 Y3.2995 I0.6562 J1.8893
G3 X81.5801 Y3.3723 I-0.4303 J-1.235
G2 X81.5797 I-0.0004 J2.0
G1 X67.5795
G2 X67.5764 I0.0 J2.0
G3 X67.1001 Y3.281 I-0.002 J-1.2772
G2 X67.0974 Y3.2799 I-0.7427 J1.857
G3 X66.7496 Y3.0497 I0.378 J-0.9491
G3 X66.6243 Y2.8742 I0.5229 J-0.506
G3 X66.5795 Y2.6825 I0.3924 J-0.1927
G2 X65.9944 Y0.4875 I-4.4383 J0.0077
G2 X65.9929 Y0.4849 I-1.7363 J0.9926
G2 X64.5486 Y-1.0825 I-4.167 J2.3904
G2 X63.3258 Y-1.7047 I-2.8832 J4.1541
G2 X61.5794 Y-2.0 I-1.7459 J5.0136
G1 X61.5793
G1 X61.5795
G1 X61.5794
G1 X59.5634
G2 X57.6094 Y-1.6295 I-0.0087 J5.2918
G2 X55.8905 Y-0.5002 I1.8427 J4.6778
G2 X55.889 Y-0.4988 I1.4168 J1.4116
G2 X55.0368 Y0.6804 I3.3057 J3.2867
G2 X54.5616 Y2.6621 I3.9168 J1.9871
G3 X54.5074 Y2.8632 I-0.4043 J-0.001
G3 X54.2689 Y3.1184 I-0.677 J-0.3935
G2 X54.2595 Y3.1248 I1.1201 J1.6569
G3 X53.9936 Y3.2588 I-0.6322 J-0.9238
G3 X53.5637 Y3.3306 I-0.4285 J-1.2427
G2 X53.5616 I-0.0022 J2.0
G1 X39.5612
G2 X39.5569 I0.0 J2.0
G3 X39.0793 Y3.2401 I-0.0028 J-1.2898
G2 X39.0751 Y3.2384 I-0.7361 J1.8596
G3 X38.7246 Y3.0083 I0.3749 J-0.9532
G3 X38.6045 Y2.8419 I0.4669 J-0.4636
G2 X38.6037 Y2.8403 I-1.7843 J0.9035
G3 X38.5612 Y2.6633 I0.3494 J-0.1773
G2 Y2.6619 I-2.0 J0.0018
G2 X37.9679 Y0.4615 I-4.4029 J0.0071
G2 X37.9676 Y0.4611 I-1.7305 J1.0027
G2 X36.5132 Y-1.0988 I-4.1348 J2.3974
G2 X35.2994 Y-1.709 I-2.8838 J4.224
G2 X35.2989 Y-1.7092 I-0.653 J1.8904
G2 X33.5603 Y-2.0 I-1.7339 J5.0232
G1 X31.5441
G2 X29.5683 Y-1.6168 I-0.0047 J5.2606
G2 X27.8459 Y-0.4592 I1.8775 J4.654
G2 X27.8451 Y-0.4584 I1.4347 J1.3934
G2 X27.0055 Y0.731 I3.3718 J3.2713
G2 X26.5431 Y2.7063 I3.9842 J1.9743
G3 X26.4838 Y2.9324 I-0.4637 J-0.0008
G3 X26.2375 Y3.2018 I-0.7196 J-0.4107
G2 X26.2362 Y3.2026 I1.1425 J1.6416
G3 X25.9653 Y3.3426 I-0.6628 J-0.9507
G3 X25.5472 Y3.4138 I-0.4155 J-1.1776
G2 X25.5431 I-0.0041 J2.0
G1 X11.543
G2 X11.5408 I0.0 J2.0
G3 X11.0665 Y3.3218 I-0.0013 J-1.262
G2 X11.0647 Y3.3211 I-0.7496 J1.8542
G3 X10.7152 Y3.0863 I0.3802 J-0.9433
G1 X10.7153
G1 X10.7152
G3 X10.5915 Y2.9109 I0.495 J-0.4806
G2 X10.5908 Y2.9095 I-1.7937 J0.8847
G3 X10.543 Y2.7052 I0.4141 J-0.2046
G2 Y2.7033 I-2.0 J0.0016
G2 X9.966 Y0.5134 I-4.4744 J0.0078
G2 X9.9635 Y0.5089 I-1.7421 J0.9824
G2 X8.5226 Y-1.0709 I-4.1965 J2.3806
G2 X7.3087 Y-1.6964 I-2.9498 J4.2336
G2 X7.3045 Y-1.6979 I-0.6728 J1.8834
G2 X5.5413 Y-2.0 I-1.7551 J4.9478
G1 X3.0
G2 X-0.5333 Y-0.5326 I0.0 J4.9875
G2 X-2.0 Y2.999 I3.5244 J3.534
G2 Y3.0 I2.0 J0.001
G1 Y25.4112
G1 Y25.4113
G2 X-0.5325 Y28.9446 I4.9881 J-0.0003
G2 X2.9985 Y30.4112 I3.5347 J-3.5264
G2 X3.0 I0.0015 J-2.0
G1 X5.5413
G2 X7.5884 Y29.9876 I0.0076 J-5.1212
G1 X7.5885
G2 X9.3095 Y28.7545 I-2.0032 J-4.6136
G2 X9.3141 Y28.7495 I-1.4809 J-1.3442
G2 X10.1146 Y27.5367 I-3.6055 J-3.2506
G2 X10.1167 Y27.5321 I-1.8152 J-0.8396
G2 X10.543 Y25.5851 I-4.2419 J-1.9488
G2 Y25.5839 I-2.0 J-0.0008
G3 X10.6034 Y25.3076 I0.6611 J-0.0001
G3 X10.8018 Y25.0376 I0.7591 J0.3498
G3 X11.5351 Y24.7573 I0.729 J0.8077
G2 X11.543 I0.0079 J-2.0
G1 X25.5431
G2 X25.547 I0.0 J-2.0
G3 X25.9956 Y24.85 I0.0022 J1.121
G1 X25.9957
G3 X26.3456 Y25.0999 I-0.4094 J0.9431
G3 X26.4831 Y25.3085 I-0.6333 J0.5673
G3 X26.5431 Y25.5843 I-0.6055 J0.2762
G2 X26.97 Y27.5335 I4.6578 J0.0013
G2 X28.1209 Y29.0994 I4.3901 J-2.0207
G1 X28.121 Y29.0995
G2 X31.5466 Y30.4112 I3.4099 J-3.7761
G1 X33.5592
G2 X36.2565 Y29.6404 I0.0093 J-5.0726
G2 X38.1425 Y27.4902 I-2.6073 J-4.1892
G2 X38.146 Y27.4826 I-1.8213 J-0.8265
G2 X38.5612 Y25.5425 I-4.323 J-1.9398
G2 Y25.5422 I-2.0 J0.0001
G3 X38.6256 Y25.2409 I0.7363 J-0.0002
G3 X38.8293 Y24.9577 I0.7992 J0.3598
G2 X38.8299 Y24.9571 I-1.3589 J-1.4674
G3 X39.5552 Y24.6739 I0.7222 J0.7791
G2 X39.5612 I0.006 J-2.0
G1 X53.5616
G2 X53.5663 I0.0 J-2.0
G3 X54.1377 Y24.8372 I0.0025 J1.0723
G2 X54.1431 Y24.8405 I1.0609 J-1.6954
G3 X54.4985 Y25.2439 I-0.4921 J0.792
G3 X54.5616 Y25.5419 I-0.6725 J0.298
G2 X54.9772 Y27.4834 I4.7328 J0.002
G1 X54.9773 Y27.4835
G2 X56.1116 Y29.0621 I4.4454 J-1.9974
G2 X59.5642 Y30.4112 I3.4407 J-3.713
G1 X61.5774
G2 X64.2609 Y29.6524 I0.0096 J-5.0905
G2 X66.155 Y27.5156 I-2.5769 J-4.1919
G2 X66.1578 Y27.5093 I-1.8172 J-0.8353
G2 X66.5795 Y25.5635 I-4.266 J-1.9431
G3 X66.6423 Y25.2733 I0.7077 J0.0013
G3 X66.8428 Y24.9978 I0.7763 J0.3542
G2 X66.8438 Y24.9969 I-1.3496 J-1.476
G3 X67.5718 Y24.7156 I0.7239 J0.7907
G2 X67.5795 I0.0077 J-2.0
G1 X81.5797
G2 X81.5845 I0.0 J-2.0
G3 X82.1606 Y24.8785 I0.0026 J1.0908
G2 X82.1656 Y24.8815 I1.0515 J-1.7013
G3 X82.5192 Y25.2784 I-0.4827 J0.786
G3 X82.5797 Y25.5616 I-0.6298 J0.2826
G2 Y25.5649 I2.0 J0.0017
G2 X82.9998 Y27.506 I4.711 J-0.0037
G2 X83.0009 Y27.5084 I1.8216 J-0.8256
G2 X84.1435 Y29.0807 I4.4192 J-2.01
G1 X84.1436 Y29.0808
G1 X84.1435 Y29.0807
G2 X87.5828 Y30.4112 I3.4258 J-3.7453
G1 X89.597
G2 X92.3061 Y29.6289 I0.0043 J-5.067
G2 X94.185 Y27.4646 I-2.6367 J-4.1868
G2 X94.189 Y27.4556 I-1.8253 J-0.8175
G2 X94.598 Y25.524 I-4.3823 J-1.9368
G2 Y25.5182 I-2.0 J-0.0022
G3 X94.6632 Y25.2103 I0.7535 J-0.0014
G2 X94.6643 Y25.2076 I-1.827 J-0.8138
G3 X94.8696 Y24.9188 I0.814 J0.3612
G2 X94.8723 Y24.9163 I-1.367 J-1.4599
G3 X95.592 Y24.6324 I0.7166 J0.7625
G2 X95.598 I0.0059 J-2.0
G1 X109.5981
G2 X109.6003 I0.0 J-2.0
G3 X110.1714 Y24.7973 I0.0012 J1.067
G2 X110.1744 Y24.7992 I1.0682 J-1.6908
G3 X110.5325 Y25.2094 I-0.5048 J0.8023
G3 X110.5981 Y25.5223 I-0.7256 J0.3155
G2 X111.0088 Y27.4595 I4.7535 J0.0044
G2 X112.1344 Y29.0433 I4.4697 J-1.9848
G2 X115.6007 Y30.4112 I3.4547 J-3.6785
G1 X117.6141
G2 X120.2983 Y29.6521 I0.0111 J-5.0861
G2 X122.1919 Y27.5158 I-2.5772 J-4.1917
G2 X122.1949 Y27.5093 I-1.8172 J-0.8354
G2 X122.6166 Y25.5634 I-4.2667 J-1.9433
G3 X122.6794 Y25.2735 I0.7065 J0.0012
G3 X122.8799 Y24.9978 I0.7762 J0.354
G2 X122.8804 Y24.9974 I-1.3496 J-1.476
G3 X123.6096 Y24.7156 I0.7255 J0.793
G2 X123.6166 I0.0069 J-2.0
G1 X137.6168
G2 X137.6223 I0.0 J-2.0
G3 X138.1969 Y24.8781 I0.003 J1.0864
G2 X138.2026 Y24.8816 I1.0523 J-1.7008
G3 X138.5562 Y25.2784 I-0.4826 J0.7859
G3 X138.6167 Y25.5618 I-0.6305 J0.2829
G2 Y25.5647 I2.0 J0.0015
G2 X139.037 Y27.5062 I4.71 J-0.0034
G2 X139.0381 Y27.5086 I1.8215 J-0.8258
G2 X140.1804 Y29.0805 I4.42 J-2.011
G1 X140.1805 Y29.0806
G1 X140.1804 Y29.0805
G2 X143.6197 Y30.4112 I3.4257 J-3.7444
G1 X145.6339
G2 X148.343 Y29.6289 I0.0043 J-5.067
G2 X150.2219 Y27.4646 I-2.6367 J-4.1868
G2 X150.2259 Y27.4556 I-1.8253 J-0.8175
G2 X150.6349 Y25.524 I-4.3823 J-1.9368
G2 Y25.5182 I-2.0 J-0.0022
G3 X150.7 Y25.2103 I0.7535 J-0.0014
G2 X150.7012 Y25.2076 I-1.827 J-0.8138
G3 X150.9065 Y24.9188 I0.814 J0.3612
G2 X150.9092 Y24.9163 I-1.367 J-1.4599
G3 X151.6289 Y24.6324 I0.7166 J0.7625
G2 X151.6348 I0.0059 J-2.0
G1 X165.635
G2 X165.6372 I0.0 J-2.0
G3 X165.78 Y24.6418 I0.0012 J1.067
G1 F25.0 Z-3.0
G3 F150.0 X166.2083 Y24.7973 I-0.1417 J1.0575
G2 X166.2113 Y24.7992 I1.0682 J-1.6908
G3 X166.5694 Y25.2094 I-0.5048 J0.8023
G3 X166.635 Y25.5223 I-0.7256 J0.3155
G2 X167.0457 Y27.4595 I4.7535 J0.0044
G2 X168.1713 Y29.0433 I4.4697 J-1.9848
G2 X171.6376 Y30.4112 I3.4547 J-3.6785
G1 X174.1778
G2 X174.1785 I0.0 J-2.0
G2 X177.711 Y28.9439 I-0.0018 J-4.9901
G2 X179.1778 Y25.4128 I-3.5267 J-3.5351
G2 Y25.4112 I-2.0 J-0.0016
G1 Y3.0
G2 Y2.9994 I-2.0 J0.0
G2 X177.7105 Y-0.5331 I-4.9895 J0.0015
G2 X174.179 Y-2.0 I-3.5344 J3.5247
G2 X174.1778 I-0.0012 J2.0
G1 X171.6379
G2 X169.6938 Y-1.6356 I-0.0138 J5.2941
G2 X167.9779 Y-0.5212 I1.8225 J4.6847
G2 X167.1164 Y0.6561 I3.2353 J3.2714
G2 X166.635 Y2.6403 I3.8699 J1.9893
G3 X166.5842 Y2.8272 I-0.3768 J-0.002
G3 X166.3458 Y3.0789 I-0.6745 J-0.4003
G2 X166.3422 Y3.0813 I1.1119 J1.6625
G3 X166.0672 Y3.2186 I-0.6689 J-0.9956
G3 X165.6378 Y3.2891 I-0.4275 J-1.2617
G2 X165.635 I-0.0028 J2.0
G1 X151.6348
G2 X151.6281 I0.0 J2.0
G3 X151.1515 Y3.1997 I-0.0044 J-1.2927
G2 X151.1444 Y3.197 I-0.7307 J1.8617
G3 X150.7935 Y2.9691 I0.3707 J-0.9552
G2 X150.7906 Y2.9663 I-1.4087 J1.4197
G3 X150.6776 Y2.8118 I0.4226 J-0.4276
G2 X150.674 Y2.8048 I-1.7817 J0.9086
G3 X150.6349 Y2.6433 I0.314 J-0.1617
G2 X150.6348 Y2.639 I-2.0 J0.0011
G2 X150.0341 Y0.4374 I-4.378 J0.012
G2 X150.0317 Y0.4335 I-1.7255 J1.0112
G2 X148.5709 Y-1.1138 I-4.1212 J2.4277
G2 X147.3676 Y-1.7122 I-2.8961 J4.314
G2 X147.3622 Y-1.7141 I-0.6516 J1.8909
G2 X145.6336 Y-2.0 I-1.7225 J5.0457
G1 X143.6186
G2 X141.653 Y-1.623 I-0.0086 J5.2675
G2 X139.932 Y-0.4791 I1.8583 J4.6622
G2 X139.9271 Y-0.4741 I1.4263 J1.402
G2 X139.0877 Y0.7014 I3.3869 J3.3058
G2 X139.0841 Y0.7087 I1.7859 J0.9003
G2 X138.6167 Y2.6813 I3.975 J1.9834
G2 Y2.6822 I2.0 J0.0049
G3 X138.5595 Y2.8987 I-0.4415 J-0.0009
G3 X138.3176 Y3.1601 I-0.6977 J-0.403
G2 X138.3066 Y3.1677 I1.1313 J1.6493
G3 X138.049 Y3.299 I-0.6062 J-0.8713
G2 X138.0485 Y3.2991 I0.6568 J1.8891
G3 X137.6164 Y3.3723 I-0.4327 J-1.2436
G1 X123.6166
G2 X123.6126 I0.0 J2.0
G3 X123.1381 Y3.2813 I-0.0025 J-1.2692
G2 X123.1342 Y3.2797 I-0.7436 J1.8566
G3 X122.7868 Y3.0498 I0.3769 J-0.9469
G3 X122.6614 Y2.8742 I0.5233 J-0.5066
G3 X122.6166 Y2.6824 I0.3931 J-0.1929
G2 X122.0313 Y0.4873 I-4.4373 J0.0076
G2 X122.0299 Y0.4848 I-1.7362 J0.9928
G2 X120.5854 Y-1.0827 I-4.1673 J2.3909
G2 X119.3626 Y-1.7048 I-2.886 J4.1601
G1 X119.3625
G1 X119.3627 Y-1.7047
G1 X119.3626 Y-1.7048
G2 X117.6174 Y-2.0 I-1.7473 J5.0229
G2 X117.6166 I-0.0008 J2.0
G1 X115.601
G2 X113.657 Y-1.6356 I-0.0138 J5.2941
G2 X111.941 Y-0.5212 I1.8225 J4.6847
G2 X111.0795 Y0.6561 I3.2353 J3.2714
G2 X110.5981 Y2.6403 I3.8699 J1.9893
G3 X110.5473 Y2.8272 I-0.3768 J-0.002
G3 X110.3089 Y3.0789 I-0.6745 J-0.4003
G2 X110.3053 Y3.0813 I1.1119 J1.6625
G3 X110.0303 Y3.2186 I-0.6689 J-0.9956
G3 X109.6009 Y3.2891 I-0.4275 J-1.2617
G2 X109.5981 I-0.0028 J2.0
G1 X95.598
G2 X95.5912 I0.0 J2.0
G3 X95.1146 Y3.1997 I-0.0044 J-1.2927
G2 X95.1075 Y3.197 I-0.7307 J1.8617
G3 X94.7566 Y2.9691 I0.3707 J-0.9552
G2 X94.7537 Y2.9663 I-1.4087 J1.4197
G3 X94.6408 Y2.8118 I0.4226 J-0.4276
G2 X94.6372 Y2.8048 I-1.7817 J0.9086
G3 X94.598 Y2.6433 I0.314 J-0.1617
G2 Y2.639 I-2.0 J0.0011
G2 X93.9972 Y0.4374 I-4.378 J0.012
G2 X93.9949 Y0.4335 I-1.7255 J1.0112
G2 X92.534 Y-1.1138 I-4.1212 J2.4277
G2 X91.3307 Y-1.7122 I-2.8961 J4.314
G2 X91.3253 Y-1.7141 I-0.6516 J1.8909
G2 X89.5967 Y-2.0 I-1.7225 J5.0457
G1 X87.5811
G2 X85.6164 Y-1.6232 I-0.0058 J5.2799
G2 X83.8956 Y-0.4798 I1.8608 J4.6672
G2 X83.89 Y-0.4741 I1.4257 J1.4027
G2 X83.0507 Y0.7012 I3.3876 J3.3063
G2 X83.0471 Y0.7085 I1.7859 J0.9004
G2 X82.5797 Y2.6814 I3.9743 J1.9833
G2 Y2.682 I2.0 J0.0047
G3 X82.5224 Y2.8989 I-0.4424 J-0.0009
G3 X82.2806 Y3.1601 I-0.6972 J-0.4027
G2 X82.2691 Y3.1681 I1.1312 J1.6493
G3 X82.0125 Y3.2988 I-0.6027 J-0.8658
G2 X82.0106 Y3.2995 I0.6562 J1.8893
G3 X81.5801 Y3.3723 I-0.4303 J-1.235
G2 X81.5797 I-0.0004 J2.0
G1 X67.5795
G2 X67.5764 I0.0 J2.0
G3 X67.1001 Y3.281 I-0.002 J-1.2772
G2 X67.0974 Y3.2799 I-0.7427 J1.857
G3 X66.7496 Y3.0497 I0.378 J-0.9491
G3 X66.6243 Y2.8742 I0.5229 J-0.506
G3 X66.5795 Y2.6825 I0.3924 J-0.1927
G2 X65.9944 Y0.4875 I-4.4383 J0.0077
G2 X65.9929 Y0.4849 I-1.7363 J0.9926
G2 X64.5486 Y-1.0825 I-4.167 J2.3904
G2 X63.3258 Y-1.7047 I-2.8832 J4.1541
G2 X61.5794 Y-2.0 I-1.7459 J5.0136
G1 X61.5793
G1 X61.5795
G1 X61.5794
G1 X59.5634
G2 X57.6094 Y-1.6295 I-0.0087 J5.2918
G2 X55.8905 Y-0.5002 I1.8427 J4.6778
G2 X55.889 Y-0.4988 I1.4168 J1.4116
G2 X55.0368 Y0.6804 I3.3057 J3.2867
G2 X54.5616 Y2.6621 I3.9168 J1.9871
G3 X54.5074 Y2.8632 I-0.4043 J-0.001
G3 X54.2689 Y3.1184 I-0.677 J-0.3935
G2 X54.2595 Y3.1248 I1.1201 J1.6569
G3 X53.9936 Y3.2588 I-0.6322 J-0.9238
G3 X53.5637 Y3.3306 I-0.4285 J-1.2427
G2 X53.5616 I-0.0022 J2.0
G1 X39.5612
G2 X39.5569 I0.0 J2.0
G3 X39.0793 Y3.2401 I-0.0028 J-1.2898
G2 X39.0751 Y3.2384 I-0.7361 J1.8596
G3 X38.7246 Y3.0083 I0.3749 J-0.9532
G3 X38.6045 Y2.8419 I0.4669 J-0.4636
G2 X38.6037 Y2.8403 I-1.7843 J0.9035
G3 X38.5612 Y2.6633 I0.3494 J-0.1773
G2 Y2.6619 I-2.0 J0.0018
G2 X37.9679 Y0.4615 I-4.4029 J0.0071
G2 X37.9676 Y0.4611 I-1.7305 J1.0027
G2 X36.5132 Y-1.0988 I-4.1348 J2.3974
G2 X35.2994 Y-1.709 I-2.8838 J4.224
G2 X35.2989 Y-1.7092 I-0.653 J1.8904
G2 X33.5603 Y-2.0 I-1.7339 J5.0232
G1 X31.5441
G2 X29.5683 Y-1.6168 I-0.0047 J5.2606
G2 X27.8459 Y-0.4592 I1.8775 J4.654
G2 X27.8451 Y-0.4584 I1.4347 J1.3934
G2 X27.0055 Y0.731 I3.3718 J3.2713
G2 X26.5431 Y2.7063 I3.9842 J1.9743
G3 X26.4838 Y2.9324 I-0.4637 J-0.0008
G3 X26.2375 Y3.2018 I-0.7196 J-0.4107
G2 X26.2362 Y3.2026 I1.1425 J1.6416
G3 X25.9653 Y3.3426 I-0.6628 J-0.9507
G3 X25.5472 Y3.4138 I-0.4155 J-1.1776
G2 X25.5431 I-0.0041 J2.0
G1 X11.543
G2 X11.5408 I0.0 J2.0
G3 X11.0665 Y3.3218 I-0.0013 J-1.262
G2 X11.0647 Y3.3211 I-0.7496 J1.8542
G3 X10.7152 Y3.0863 I0.3802 J-0.9433
G1 X10.7153
G1 X10.7152
G3 X10.5915 Y2.9109 I0.495 J-0.4806
G2 X10.5908 Y2.9095 I-1.7937 J0.8847
G3 X10.543 Y2.7052 I0.4141 J-0.2046
G2 Y2.7033 I-2.0 J0.0016
G2 X9.966 Y0.5134 I-4.4744 J0.0078
G2 X9.9635 Y0.5089 I-1.7421 J0.9824
G2 X8.5226 Y-1.0709 I-4.1965 J2.3806
G2 X7.3087 Y-1.6964 I-2.9498 J4.2336
G2 X7.3045 Y-1.6979 I-0.6728 J1.8834
G2 X5.5413 Y-2.0 I-1.7551 J4.9478
G1 X3.0
G2 X-0.5333 Y-0.5326 I0.0 J4.9875
G2 X-2.0 Y2.999 I3.5244 J3.534
G2 Y3.0 I2.0 J0.001
G1 Y25.4112
G1 Y25.4113
G2 X-0.5325 Y28.9446 I4.9881 J-0.0003
G2 X2.9985 Y30.4112 I3.5347 J-3.5264
G2 X3.0 I0.0015 J-2.0
G1 X5.5413
G2 X7.5884 Y29.9876 I0.0076 J-5.1212
G1 X7.5885
G2 X9.3095 Y28.7545 I-2.0032 J-4.6136
G2 X9.3141 Y28.7495 I-1.4809 J-1.3442
G2 X10.1146 Y27.5367 I-3.6055 J-3.2506
G2 X10.1167 Y27.5321 I-1.8152 J-0.8396
G2 X10.543 Y25.5851 I-4.2419 J-1.9488
G2 Y25.5839 I-2.0 J-0.0008
G3 X10.6034 Y25.3076 I0.6611 J-0.0001
G3 X10.8018 Y25.0376 I0.7591 J0.3498
G3 X11.5351 Y24.7573 I0.729 J0.8077
G2 X11.543 I0.0079 J-2.0
G1 X25.5431
G2 X25.547 I0.0 J-2.0
G3 X25.9956 Y24.85 I0.0022 J1.121
G1 X25.9957
G3 X26.3456 Y25.0999 I-0.4094 J0.9431
G3 X26.4831 Y25.3085 I-0.6333 J0.5673
G3 X26.5431 Y25.5843 I-0.6055 J0.2762
G2 X26.97 Y27.5335 I4.6578 J0.0013
G2 X28.1209 Y29.0994 I4.3901 J-2.0207
G1 X28.121 Y29.0995
G2 X31.5466 Y30.4112 I3.4099 J-3.7761
G1 X33.5592
G2 X36.2565 Y29.6404 I0.0093 J-5.0726
G2 X38.1425 Y27.4902 I-2.6073 J-4.1892
G2 X38.146 Y27.4826 I-1.8213 J-0.8265
G2 X38.5612 Y25.5425 I-4.323 J-1.9398
G2 Y25.5422 I-2.0 J0.0001
G3 X38.6256 Y25.2409 I0.7363 J-0.0002
G3 X38.8293 Y24.9577 I0.7992 J0.3598
G2 X38.8299 Y24.9571 I-1.3589 J-1.4674
G3 X39.5552 Y24.6739 I0.7222 J0.7791
G2 X39.5612 I0.006 J-2.0
G1 X53.5616
G2 X53.5663 I0.0 J-2.0
G3 X54.1377 Y24.8372 I0.0025 J1.0723
G2 X54.1431 Y24.8405 I1.0609 J-1.6954
G3 X54.4985 Y25.2439 I-0.4921 J0.792
G3 X54.5616 Y25.5419 I-0.6725 J0.298
G2 X54.9772 Y27.4834 I4.7328 J0.002
G1 X54.9773 Y27.4835
G2 X56.1116 Y29.0621 I4.4454 J-1.9974
G2 X59.5642 Y30.4112 I3.4407 J-3.713
G1 X61.5774
G2 X64.2609 Y29.6524 I0.0096 J-5.0905
G2 X66.155 Y27.5156 I-2.5769 J-4.1919
G2 X66.1578 Y27.5093 I-1.8172 J-0.8353
G2 X66.5795 Y25.5635 I-4.266 J-1.9431
G3 X66.6423 Y25.2733 I0.7077 J0.0013
G3 X66.8428 Y24.9978 I0.7763 J0.3542
G2 X66.8438 Y24.9969 I-1.3496 J-1.476
G3 X67.5718 Y24.7156 I0.7239 J0.7907
G2 X67.5795 I0.0077 J-2.0
G1 X81.5797
G2 X81.5845 I0.0 J-2.0
G3 X82.1606 Y24.8785 I0.0026 J1.0908
G2 X82.1656 Y24.8815 I1.0515 J-1.7013
G3 X82.5192 Y25.2784 I-0.4827 J0.786
G3 X82.5797 Y25.5616 I-0.6298 J0.2826
G2 Y25.5649 I2.0 J0.0017
G2 X82.9998 Y27.506 I4.711 J-0.0037
G2 X83.0009 Y27.5084 I1.8216 J-0.8256
G2 X84.1435 Y29.0807 I4.4192 J-2.01
G1 X84.1436 Y29.0808
G1 X84.1435 Y29.0807
G2 X87.5828 Y30.4112 I3.4258 J-3.7453
G1 X89.597
G2 X92.3061 Y29.6289 I0.0043 J-5.067
G2 X94.185 Y27.4646 I-2.6367 J-4.1868
G2 X94.189 Y27.4556 I-1.8253 J-0.8175
G2 X94.598 Y25.524 I-4.3823 J-1.9368
G2 Y25.5182 I-2.0 J-0.0022
G3 X94.6632 Y25.2103 I0.7535 J-0.0014
G2 X94.6643 Y25.2076 I-1.827 J-0.8138
G3 X94.8696 Y24.9188 I0.814 J0.3612
G2 X94.8723 Y24.9163 I-1.367 J-1.4599
G3 X95.592 Y24.6324 I0.7166 J0.7625
G2 X95.598 I0.0059 J-2.0
G1 X109.5981
G2 X109.6003 I0.0 J-2.0
G3 X110.1714 Y24.7973 I0.0012 J1.067
G2 X110.1744 Y24.7992 I1.0682 J-1.6908
G3 X110.5325 Y25.2094 I-0.5048 J0.8023
G3 X110.5981 Y25.5223 I-0.7256 J0.3155
G2 X111.0088 Y27.4595 I4.7535 J0.0044
G2 X112.1344 Y29.0433 I4.4697 J-1.9848
G2 X115.6007 Y30.4112 I3.4547 J-3.6785
G1 X117.6141
G2 X120.2983 Y29.6521 I0.0111 J-5.0861
G2 X122.1919 Y27.5158 I-2.5772 J-4.1917
G2 X122.1949 Y27.5093 I-1.8172 J-0.8354
G2 X122.6166 Y25.5634 I-4.2667 J-1.9433
G3 X122.6794 Y25.2735 I0.7065 J0.0012
G3 X122.8799 Y24.9978 I0.7762 J0.354
G2 X122.8804 Y24.9974 I-1.3496 J-1.476
G3 X123.6096 Y24.7156 I0.7255 J0.793
G2 X123.6166 I0.0069 J-2.0
G1 X137.6168
G2 X137.6223 I0.0 J-2.0
G3 X138.1969 Y24.8781 I0.003 J1.0864
G2 X138.2026 Y24.8816 I1.0523 J-1.7008
G3 X138.5562 Y25.2784 I-0.4826 J0.7859
G3 X138.6167 Y25.5618 I-0.6305 J0.2829
G2 Y25.5647 I2.0 J0.0015
G2 X139.037 Y27.5062 I4.71 J-0.0034
G2 X139.0381 Y27.5086 I1.8215 J-0.8258
G2 X140.1804 Y29.0805 I4.42 J-2.011
G1 X140.1805 Y29.0806
G1 X140.1804 Y29.0805
G2 X143.6197 Y30.4112 I3.4257 J-3.7444
G1 X145.6339
G2 X148.343 Y29.6289 I0.0043 J-5.067
G2 X150.2219 Y27.4646 I-2.6367 J-4.1868
G2 X150.2259 Y27.4556 I-1.8253 J-0.8175
G2 X150.6349 Y25.524 I-4.3823 J-1.9368
G2 Y25.5182 I-2.0 J-0.0022
G3 X150.7 Y25.2103 I0.7535 J-0.0014
G2 X150.7012 Y25.2076 I-1.827 J-0.8138
G3 X150.9065 Y24.9188 I0.814 J0.3612
G2 X150.9092 Y24.9163 I-1.367 J-1.4599
G3 X151.6289 Y24.6324 I0.7166 J0.7625
G2 X151.6348 I0.0059 J-2.0
G1 X165.635
G2 X165.6372 I0.0 J-2.0
G3 X165.78 Y24.6418 I0.0012 J1.067
G1 F25.0 Z-4.0
G3 F150.0 X166.2083 Y24.7973 I-0.1417 J1.0575
G2 X166.2113 Y24.7992 I1.0682 J-1.6908
G3 X166.5694 Y25.2094 I-0.5048 J0.8023
G3 X166.635 Y25.5223 I-0.7256 J0.3155
G2 X167.0457 Y27.4595 I4.7535 J0.0044
G2 X168.1713 Y29.0433 I4.4697 J-1.9848
G2 X171.6376 Y30.4112 I3.4547 J-3.6785
G1 X174.1778
G2 X174.1785 I0.0 J-2.0
G2 X177.711 Y28.9439 I-0.0018 J-4.9901
G2 X179.1778 Y25.4128 I-3.5267 J-3.5351
G2 Y25.4112 I-2.0 J-0.0016
G1 Y3.0
G2 Y2.9994 I-2.0 J0.0
G2 X177.7105 Y-0.5331 I-4.9895 J0.0015
G2 X174.179 Y-2.0 I-3.5344 J3.5247
G2 X174.1778 I-0.0012 J2.0
G1 X171.6379
G2 X169.6938 Y-1.6356 I-0.0138 J5.2941
G2 X167.9779 Y-0.5212 I1.8225 J4.6847
G2 X167.1164 Y0.6561 I3.2353 J3.2714
G2 X166.635 Y2.6403 I3.8699 J1.9893
G3 X166.5842 Y2.8272 I-0.3768 J-0.002
G3 X166.3458 Y3.0789 I-0.6745 J-0.4003
G2 X166.3422 Y3.0813 I1.1119 J1.6625
G3 X166.0672 Y3.2186 I-0.6689 J-0.9956
G3 X165.6378 Y3.2891 I-0.4275 J-1.2617
G2 X165.635 I-0.0028 J2.0
G1 X151.6348
G2 X151.6281 I0.0 J2.0
G3 X151.1515 Y3.1997 I-0.0044 J-1.2927
G2 X151.1444 Y3.197 I-0.7307 J1.8617
G3 X150.7935 Y2.9691 I0.3707 J-0.9552
G2 X150.7906 Y2.9663 I-1.4087 J1.4197
G3 X150.6776 Y2.8118 I0.4226 J-0.4276
G2 X150.674 Y2.8048 I-1.7817 J0.9086
G3 X150.6349 Y2.6433 I0.314 J-0.1617
G2 X150.6348 Y2.639 I-2.0 J0.0011
G2 X150.0341 Y0.4374 I-4.378 J0.012
G2 X150.0317 Y0.4335 I-1.7255 J1.0112
G2 X148.5709 Y-1.1138 I-4.1212 J2.4277
G2 X147.3676 Y-1.7122 I-2.8961 J4.314
G2 X147.3622 Y-1.7141 I-0.6516 J1.8909
G2 X145.6336 Y-2.0 I-1.7225 J5.0457
G1 X143.6186
G2 X141.653 Y-1.623 I-0.0086 J5.2675
G2 X139.932 Y-0.4791 I1.8583 J4.6622
G2 X139.9271 Y-0.4741 I1.4263 J1.402
G2 X139.0877 Y0.7014 I3.3869 J3.3058
G2 X139.0841 Y0.7087 I1.7859 J0.9003
G2 X138.6167 Y2.6813 I3.975 J1.9834
G2 Y2.6822 I2.0 J0.0049
G3 X138.5595 Y2.8987 I-0.4415 J-0.0009
G3 X138.3176 Y3.1601 I-0.6977 J-0.403
G2 X138.3066 Y3.1677 I1.1313 J1.6493
G3 X138.049 Y3.299 I-0.6062 J-0.8713
G2 X138.0485 Y3.2991 I0.6568 J1.8891
G3 X137.6164 Y3.3723 I-0.4327 J-1.2436
G1 X123.6166
G2 X123.6126 I0.0 J2.0
G3 X123.1381 Y3.2813 I-0.0025 J-1.2692
G2 X123.1342 Y3.2797 I-0.7436 J1.8566
G3 X122.7868 Y3.0498 I0.3769 J-0.9469
G3 X122.6614 Y2.8742 I0.5233 J-0.5066
G3 X122.6166 Y2.6824 I0.3931 J-0.1929
G2 X122.0313 Y0.4873 I-4.4373 J0.0076
G2 X122.0299 Y0.4848 I-1.7362 J0.9928
G2 X120.5854 Y-1.0827 I-4.1673 J2.3909
G2 X119.3626 Y-1.7048 I-2.886 J4.1601
G1 X119.3625
G1 X119.3627 Y-1.7047
G1 X119.3626 Y-1.7048
G2 X117.6174 Y-2.0 I-1.7473 J5.0229
G2 X117.6166 I-0.0008 J2.0
G1 X115.601
G2 X113.657 Y-1.6356 I-0.0138 J5.2941
G2 X111.941 Y-0.5212 I1.8225 J4.6847
G2 X111.0795 Y0.6561 I3.2353 J3.2714
G2 X110.5981 Y2.6403 I3.8699 J1.9893
G3 X110.5473 Y2.8272 I-0.3768 J-0.002
G3 X110.3089 Y3.0789 I-0.6745 J-0.4003
G2 X110.3053 Y3.0813 I1.1119 J1.6625
G3 X110.0303 Y3.2186 I-0.6689 J-0.9956
G3 X109.6009 Y3.2891 I-0.4275 J-1.2617
G2 X109.5981 I-0.0028 J2.0
G1 X95.598
G2 X95.5912 I0.0 J2.0
G3 X95.1146 Y3.1997 I-0.0044 J-1.2927
G2 X95.1075 Y3.197 I-0.7307 J1.8617
G3 X94.7566 Y2.9691 I0.3707 J-0.9552
G2 X94.7537 Y2.9663 I-1.4087 J1.4197
G3 X94.6408 Y2.8118 I0.4226 J-0.4276
G2 X94.6372 Y2.8048 I-1.7817 J0.9086
G3 X94.598 Y2.6433 I0.314 J-0.1617
G2 Y2.639 I-2.0 J0.0011
G2 X93.9972 Y0.4374 I-4.378 J0.012
G2 X93.9949 Y0.4335 I-1.7255 J1.0112
G2 X92.534 Y-1.1138 I-4.1212 J2.4277
G2 X91.3307 Y-1.7122 I-2.8961 J4.314
G2 X91.3253 Y-1.7141 I-0.6516 J1.8909
G2 X89.5967 Y-2.0 I-1.7225 J5.0457
G1 X87.5811
G2 X85.6164 Y-1.6232 I-0.0058 J5.2799
G2 X83.8956 Y-0.4798 I1.8608 J4.6672
G2 X83.89 Y-0.4741 I1.4257 J1.4027
G2 X83.0507 Y0.7012 I3.3876 J3.3063
G2 X83.0471 Y0.7085 I1.7859 J0.9004
G2 X82.5797 Y2.6814 I3.9743 J1.9833
G2 Y2.682 I2.0 J0.0047
G3 X82.5224 Y2.8989 I-0.4424 J-0.0009
G3 X82.2806 Y3.1601 I-0.6972 J-0.4027
G2 X82.2691 Y3.1681 I1.1312 J1.6493
G3 X82.0125 Y3.2988 I-0.6027 J-0.8658
G2 X82.0106 Y3.2995 I0.6562 J1.8893
G3 X81.5801 Y3.3723 I-0.4303 J-1.235
G2 X81.5797 I-0.0004 J2.0
G1 X67.5795
G2 X67.5764 I0.0 J2.0
G3 X67.1001 Y3.281 I-0.002 J-1.2772
G2 X67.0974 Y3.2799 I-0.7427 J1.857
G3 X66.7496 Y3.0497 I0.378 J-0.9491
G3 X66.6243 Y2.8742 I0.5229 J-0.506
G3 X66.5795 Y2.6825 I0.3924 J-0.1927
G2 X65.9944 Y0.4875 I-4.4383 J0.0077
G2 X65.9929 Y0.4849 I-1.7363 J0.9926
G2 X64.5486 Y-1.0825 I-4.167 J2.3904
G2 X63.3258 Y-1.7047 I-2.8832 J4.1541
G2 X61.5794 Y-2.0 I-1.7459 J5.0136
G1 X61.5793
G1 X61.5795
G1 X61.5794
G1 X59.5634
G2 X57.6094 Y-1.6295 I-0.0087 J5.2918
G2 X55.8905 Y-0.5002 I1.8427 J4.6778
G2 X55.889 Y-0.4988 I1.4168 J1.4116
G2 X55.0368 Y0.6804 I3.3057 J3.2867
G2 X54.5616 Y2.6621 I3.9168 J1.9871
G3 X54.5074 Y2.8632 I-0.4043 J-0.001
G3 X54.2689 Y3.1184 I-0.677 J-0.3935
G2 X54.2595 Y3.1248 I1.1201 J1.6569
G3 X53.9936 Y3.2588 I-0.6322 J-0.9238
G3 X53.5637 Y3.3306 I-0.4285 J-1.2427
G2 X53.5616 I-0.0022 J2.0
G1 X39.5612
G2 X39.5569 I0.0 J2.0
G3 X39.0793 Y3.2401 I-0.0028 J-1.2898
G2 X39.0751 Y3.2384 I-0.7361 J1.8596
G3 X38.7246 Y3.0083 I0.3749 J-0.9532
G3 X38.6045 Y2.8419 I0.4669 J-0.4636
G2 X38.6037 Y2.8403 I-1.7843 J0.9035
G3 X38.5612 Y2.6633 I0.3494 J-0.1773
G2 Y2.6619 I-2.0 J0.0018
G2 X37.9679 Y0.4615 I-4.4029 J0.0071
G2 X37.9676 Y0.4611 I-1.7305 J1.0027
G2 X36.5132 Y-1.0988 I-4.1348 J2.3974
G2 X35.2994 Y-1.709 I-2.8838 J4.224
G2 X35.2989 Y-1.7092 I-0.653 J1.8904
G2 X33.5603 Y-2.0 I-1.7339 J5.0232
G1 X31.5441
G2 X29.5683 Y-1.6168 I-0.0047 J5.2606
G2 X27.8459 Y-0.4592 I1.8775 J4.654
G2 X27.8451 Y-0.4584 I1.4347 J1.3934
G2 X27.0055 Y0.731 I3.3718 J3.2713
G2 X26.5431 Y2.7063 I3.9842 J1.9743
G3 X26.4838 Y2.9324 I-0.4637 J-0.0008
G3 X26.2375 Y3.2018 I-0.7196 J-0.4107
G2 X26.2362 Y3.2026 I1.1425 J1.6416
G3 X25.9653 Y3.3426 I-0.6628 J-0.9507
G3 X25.5472 Y3.4138 I-0.4155 J-1.1776
G2 X25.5431 I-0.0041 J2.0
G1 X11.543
G2 X11.5408 I0.0 J2.0
G3 X11.0665 Y3.3218 I-0.0013 J-1.262
G2 X11.0647 Y3.3211 I-0.7496 J1.8542
G3 X10.7152 Y3.0863 I0.3802 J-0.9433
G1 X10.7153
G1 X10.7152
G3 X10.5915 Y2.9109 I0.495 J-0.4806
G2 X10.5908 Y2.9095 I-1.7937 J0.8847
G3 X10.543 Y2.7052 I0.4141 J-0.2046
G2 Y2.7033 I-2.0 J0.0016
G2 X9.966 Y0.5134 I-4.4744 J0.0078
G2 X9.9635 Y0.5089 I-1.7421 J0.9824
G2 X8.5226 Y-1.0709 I-4.1965 J2.3806
G2 X7.3087 Y-1.6964 I-2.9498 J4.2336
G2 X7.3045 Y-1.6979 I-0.6728 J1.8834
G2 X5.5413 Y-2.0 I-1.7551 J4.9478
G1 X3.0
G2 X-0.5333 Y-0.5326 I0.0 J4.9875
G2 X-2.0 Y2.999 I3.5244 J3.534
G2 Y3.0 I2.0 J0.001
G1 Y25.4112
G1 Y25.4113
G2 X-0.5325 Y28.9446 I4.9881 J-0.0003
G2 X2.9985 Y30.4112 I3.5347 J-3.5264
G2 X3.0 I0.0015 J-2.0
G1 X5.5413
G2 X7.5884 Y29.9876 I0.0076 J-5.1212
G1 X7.5885
G2 X9.3095 Y28.7545 I-2.0032 J-4.6136
G2 X9.3141 Y28.7495 I-1.4809 J-1.3442
G2 X10.1146 Y27.5367 I-3.6055 J-3.2506
G2 X10.1167 Y27.5321 I-1.8152 J-0.8396
G2 X10.543 Y25.5851 I-4.2419 J-1.9488
G2 Y25.5839 I-2.0 J-0.0008
G3 X10.6034 Y25.3076 I0.6611 J-0.0001
G3 X10.8018 Y25.0376 I0.7591 J0.3498
G3 X11.5351 Y24.7573 I0.729 J0.8077
G2 X11.543 I0.0079 J-2.0
G1 X25.5431
G2 X25.547 I0.0 J-2.0
G3 X25.9956 Y24.85 I0.0022 J1.121
G1 X25.9957
G3 X26.3456 Y25.0999 I-0.4094 J0.9431
G3 X26.4831 Y25.3085 I-0.6333 J0.5673
G3 X26.5431 Y25.5843 I-0.6055 J0.2762
G2 X26.97 Y27.5335 I4.6578 J0.0013
G2 X28.1209 Y29.0994 I4.3901 J-2.0207
G1 X28.121 Y29.0995
G2 X31.5466 Y30.4112 I3.4099 J-3.7761
G1 X33.5592
G2 X36.2565 Y29.6404 I0.0093 J-5.0726
G2 X38.1425 Y27.4902 I-2.6073 J-4.1892
G2 X38.146 Y27.4826 I-1.8213 J-0.8265
G2 X38.5612 Y25.5425 I-4.323 J-1.9398
G2 Y25.5422 I-2.0 J0.0001
G3 X38.6256 Y25.2409 I0.7363 J-0.0002
G3 X38.8293 Y24.9577 I0.7992 J0.3598
G2 X38.8299 Y24.9571 I-1.3589 J-1.4674
G3 X39.5552 Y24.6739 I0.7222 J0.7791
G2 X39.5612 I0.006 J-2.0
G1 X53.5616
G2 X53.5663 I0.0 J-2.0
G3 X54.1377 Y24.8372 I0.0025 J1.0723
G2 X54.1431 Y24.8405 I1.0609 J-1.6954
G3 X54.4985 Y25.2439 I-0.4921 J0.792
G3 X54.5616 Y25.5419 I-0.6725 J0.298
G2 X54.9772 Y27.4834 I4.7328 J0.002
G1 X54.9773 Y27.4835
G2 X56.1116 Y29.0621 I4.4454 J-1.9974
G2 X59.5642 Y30.4112 I3.4407 J-3.713
G1 X61.5774
G2 X64.2609 Y29.6524 I0.0096 J-5.0905
G2 X66.155 Y27.5156 I-2.5769 J-4.1919
G2 X66.1578 Y27.5093 I-1.8172 J-0.8353
G2 X66.5795 Y25.5635 I-4.266 J-1.9431
G3 X66.6423 Y25.2733 I0.7077 J0.0013
G3 X66.8428 Y24.9978 I0.7763 J0.3542
G2 X66.8438 Y24.9969 I-1.3496 J-1.476
G3 X67.5718 Y24.7156 I0.7239 J0.7907
G2 X67.5795 I0.0077 J-2.0
G1 X81.5797
G2 X81.5845 I0.0 J-2.0
G3 X82.1606 Y24.8785 I0.0026 J1.0908
G2 X82.1656 Y24.8815 I1.0515 J-1.7013
G3 X82.5192 Y25.2784 I-0.4827 J0.786
G3 X82.5797 Y25.5616 I-0.6298 J0.2826
G2 Y25.5649 I2.0 J0.0017
G2 X82.9998 Y27.506 I4.711 J-0.0037
G2 X83.0009 Y27.5084 I1.8216 J-0.8256
G2 X84.1435 Y29.0807 I4.4192 J-2.01
G1 X84.1436 Y29.0808
G1 X84.1435 Y29.0807
G2 X87.5828 Y30.4112 I3.4258 J-3.7453
G1 X89.597
G2 X92.3061 Y29.6289 I0.0043 J-5.067
G2 X94.185 Y27.4646 I-2.6367 J-4.1868
G2 X94.189 Y27.4556 I-1.8253 J-0.8175
G2 X94.598 Y25.524 I-4.3823 J-1.9368
G2 Y25.5182 I-2.0 J-0.0022
G3 X94.6632 Y25.2103 I0.7535 J-0.0014
G2 X94.6643 Y25.2076 I-1.827 J-0.8138
G3 X94.8696 Y24.9188 I0.814 J0.3612
G2 X94.8723 Y24.9163 I-1.367 J-1.4599
G3 X95.592 Y24.6324 I0.7166 J0.7625
G2 X95.598 I0.0059 J-2.0
G1 X109.5981
G2 X109.6003 I0.0 J-2.0
G3 X110.1714 Y24.7973 I0.0012 J1.067
G2 X110.1744 Y24.7992 I1.0682 J-1.6908
G3 X110.5325 Y25.2094 I-0.5048 J0.8023
G3 X110.5981 Y25.5223 I-0.7256 J0.3155
G2 X111.0088 Y27.4595 I4.7535 J0.0044
G2 X112.1344 Y29.0433 I4.4697 J-1.9848
G2 X115.6007 Y30.4112 I3.4547 J-3.6785
G1 X117.6141
G2 X120.2983 Y29.6521 I0.0111 J-5.0861
G2 X122.1919 Y27.5158 I-2.5772 J-4.1917
G2 X122.1949 Y27.5093 I-1.8172 J-0.8354
G2 X122.6166 Y25.5634 I-4.2667 J-1.9433
G3 X122.6794 Y25.2735 I0.7065 J0.0012
G3 X122.8799 Y24.9978 I0.7762 J0.354
G2 X122.8804 Y24.9974 I-1.3496 J-1.476
G3 X123.6096 Y24.7156 I0.7255 J0.793
G2 X123.6166 I0.0069 J-2.0
G1 X137.6168
G2 X137.6223 I0.0 J-2.0
G3 X138.1969 Y24.8781 I0.003 J1.0864
G2 X138.2026 Y24.8816 I1.0523 J-1.7008
G3 X138.5562 Y25.2784 I-0.4826 J0.7859
G3 X138.6167 Y25.5618 I-0.6305 J0.2829
G2 Y25.5647 I2.0 J0.0015
G2 X139.037 Y27.5062 I4.71 J-0.0034
G2 X139.0381 Y27.5086 I1.8215 J-0.8258
G2 X140.1804 Y29.0805 I4.42 J-2.011
G1 X140.1805 Y29.0806
G1 X140.1804 Y29.0805
G2 X143.6197 Y30.4112 I3.4257 J-3.7444
G1 X145.6339
G2 X148.343 Y29.6289 I0.0043 J-5.067
G2 X150.2219 Y27.4646 I-2.6367 J-4.1868
G2 X150.2259 Y27.4556 I-1.8253 J-0.8175
G2 X150.6349 Y25.524 I-4.3823 J-1.9368
G2 Y25.5182 I-2.0 J-0.0022
G3 X150.7 Y25.2103 I0.7535 J-0.0014
G2 X150.7012 Y25.2076 I-1.827 J-0.8138
G3 X150.9065 Y24.9188 I0.814 J0.3612
G2 X150.9092 Y24.9163 I-1.367 J-1.4599
G3 X151.6289 Y24.6324 I0.7166 J0.7625
G2 X151.6348 I0.0059 J-2.0
G1 X165.635
G2 X165.6372 I0.0 J-2.0
G3 X165.78 Y24.6418 I0.0012 J1.067
G1 F25.0 Z-5.0
G3 F150.0 X166.2083 Y24.7973 I-0.1417 J1.0575
G2 X166.2113 Y24.7992 I1.0682 J-1.6908
G3 X166.5694 Y25.2094 I-0.5048 J0.8023
G3 X166.635 Y25.5223 I-0.7256 J0.3155
G2 X167.0457 Y27.4595 I4.7535 J0.0044
G2 X168.1713 Y29.0433 I4.4697 J-1.9848
G2 X171.6376 Y30.4112 I3.4547 J-3.6785
G1 X174.1778
G2 X174.1785 I0.0 J-2.0
G2 X177.711 Y28.9439 I-0.0018 J-4.9901
G2 X179.1778 Y25.4128 I-3.5267 J-3.5351
G2 Y25.4112 I-2.0 J-0.0016
G1 Y3.0
G2 Y2.9994 I-2.0 J0.0
G2 X177.7105 Y-0.5331 I-4.9895 J0.0015
G2 X174.179 Y-2.0 I-3.5344 J3.5247
G2 X174.1778 I-0.0012 J2.0
G1 X171.6379
G2 X169.6938 Y-1.6356 I-0.0138 J5.2941
G2 X167.9779 Y-0.5212 I1.8225 J4.6847
G2 X167.1164 Y0.6561 I3.2353 J3.2714
G2 X166.635 Y2.6403 I3.8699 J1.9893
G3 X166.5842 Y2.8272 I-0.3768 J-0.002
G3 X166.3458 Y3.0789 I-0.6745 J-0.4003
G2 X166.3422 Y3.0813 I1.1119 J1.6625
G3 X166.0672 Y3.2186 I-0.6689 J-0.9956
G3 X165.6378 Y3.2891 I-0.4275 J-1.2617
G2 X165.635 I-0.0028 J2.0
G1 X151.6348
G2 X151.6281 I0.0 J2.0
G3 X151.1515 Y3.1997 I-0.0044 J-1.2927
G2 X151.1444 Y3.197 I-0.7307 J1.8617
G3 X150.7935 Y2.9691 I0.3707 J-0.9552
G2 X150.7906 Y2.9663 I-1.4087 J1.4197
G3 X150.6776 Y2.8118 I0.4226 J-0.4276
G2 X150.674 Y2.8048 I-1.7817 J0.9086
G3 X150.6349 Y2.6433 I0.314 J-0.1617
G2 X150.6348 Y2.639 I-2.0 J0.0011
G2 X150.0341 Y0.4374 I-4.378 J0.012
G2 X150.0317 Y0.4335 I-1.7255 J1.0112
G2 X148.5709 Y-1.1138 I-4.1212 J2.4277
G2 X147.3676 Y-1.7122 I-2.8961 J4.314
G2 X147.3622 Y-1.7141 I-0.6516 J1.8909
G2 X145.6336 Y-2.0 I-1.7225 J5.0457
G1 X143.6186
G2 X141.653 Y-1.623 I-0.0086 J5.2675
G2 X139.932 Y-0.4791 I1.8583 J4.6622
G2 X139.9271 Y-0.4741 I1.4263 J1.402
G2 X139.0877 Y0.7014 I3.3869 J3.3058
G2 X139.0841 Y0.7087 I1.7859 J0.9003
G2 X138.6167 Y2.6813 I3.975 J1.9834
G2 Y2.6822 I2.0 J0.0049
G3 X138.5595 Y2.8987 I-0.4415 J-0.0009
G3 X138.3176 Y3.1601 I-0.6977 J-0.403
G2 X138.3066 Y3.1677 I1.1313 J1.6493
G3 X138.049 Y3.299 I-0.6062 J-0.8713
G2 X138.0485 Y3.2991 I0.6568 J1.8891
G3 X137.6164 Y3.3723 I-0.4327 J-1.2436
G1 X123.6166
G2 X123.6126 I0.0 J2.0
G3 X123.1381 Y3.2813 I-0.0025 J-1.2692
G2 X123.1342 Y3.2797 I-0.7436 J1.8566
G3 X122.7868 Y3.0498 I0.3769 J-0.9469
G3 X122.6614 Y2.8742 I0.5233 J-0.5066
G3 X122.6166 Y2.6824 I0.3931 J-0.1929
G2 X122.0313 Y0.4873 I-4.4373 J0.0076
G2 X122.0299 Y0.4848 I-1.7362 J0.9928
G2 X120.5854 Y-1.0827 I-4.1673 J2.3909
G2 X119.3626 Y-1.7048 I-2.886 J4.1601
G1 X119.3625
G1 X119.3627 Y-1.7047
G1 X119.3626 Y-1.7048
G2 X117.6174 Y-2.0 I-1.7473 J5.0229
G2 X117.6166 I-0.0008 J2.0
G1 X115.601
G2 X113.657 Y-1.6356 I-0.0138 J5.2941
G2 X111.941 Y-0.5212 I1.8225 J4.6847
G2 X111.0795 Y0.6561 I3.2353 J3.2714
G2 X110.5981 Y2.6403 I3.8699 J1.9893
G3 X110.5473 Y2.8272 I-0.3768 J-0.002
G3 X110.3089 Y3.0789 I-0.6745 J-0.4003
G2 X110.3053 Y3.0813 I1.1119 J1.6625
G3 X110.0303 Y3.2186 I-0.6689 J-0.9956
G3 X109.6009 Y3.2891 I-0.4275 J-1.2617
G2 X109.5981 I-0.0028 J2.0
G1 X95.598
G2 X95.5912 I0.0 J2.0
G3 X95.1146 Y3.1997 I-0.0044 J-1.2927
G2 X95.1075 Y3.197 I-0.7307 J1.8617
G3 X94.7566 Y2.9691 I0.3707 J-0.9552
G2 X94.7537 Y2.9663 I-1.4087 J1.4197
G3 X94.6408 Y2.8118 I0.4226 J-0.4276
G2 X94.6372 Y2.8048 I-1.7817 J0.9086
G3 X94.598 Y2.6433 I0.314 J-0.1617
G2 Y2.639 I-2.0 J0.0011
G2 X93.9972 Y0.4374 I-4.378 J0.012
G2 X93.9949 Y0.4335 I-1.7255 J1.0112
G2 X92.534 Y-1.1138 I-4.1212 J2.4277
G2 X91.3307 Y-1.7122 I-2.8961 J4.314
G2 X91.3253 Y-1.7141 I-0.6516 J1.8909
G2 X89.5967 Y-2.0 I-1.7225 J5.0457
G1 X87.5811
G2 X85.6164 Y-1.6232 I-0.0058 J5.2799
G2 X83.8956 Y-0.4798 I1.8608 J4.6672
G2 X83.89 Y-0.4741 I1.4257 J1.4027
G2 X83.0507 Y0.7012 I3.3876 J3.3063
G2 X83.0471 Y0.7085 I1.7859 J0.9004
G2 X82.5797 Y2.6814 I3.9743 J1.9833
G2 Y2.682 I2.0 J0.0047
G3 X82.5224 Y2.8989 I-0.4424 J-0.0009
G3 X82.2806 Y3.1601 I-0.6972 J-0.4027
G2 X82.2691 Y3.1681 I1.1312 J1.6493
G3 X82.0125 Y3.2988 I-0.6027 J-0.8658
G2 X82.0106 Y3.2995 I0.6562 J1.8893
G3 X81.5801 Y3.3723 I-0.4303 J-1.235
G2 X81.5797 I-0.0004 J2.0
G1 X67.5795
G2 X67.5764 I0.0 J2.0
G3 X67.1001 Y3.281 I-0.002 J-1.2772
G2 X67.0974 Y3.2799 I-0.7427 J1.857
G3 X66.7496 Y3.0497 I0.378 J-0.9491
G3 X66.6243 Y2.8742 I0.5229 J-0.506
G3 X66.5795 Y2.6825 I0.3924 J-0.1927
G2 X65.9944 Y0.4875 I-4.4383 J0.0077
G2 X65.9929 Y0.4849 I-1.7363 J0.9926
G2 X64.5486 Y-1.0825 I-4.167 J2.3904
G2 X63.3258 Y-1.7047 I-2.8832 J4.1541
G2 X61.5794 Y-2.0 I-1.7459 J5.0136
G1 X61.5793
G1 X61.5795
G1 X61.5794
G1 X59.5634
G2 X57.6094 Y-1.6295 I-0.0087 J5.2918
G2 X55.8905 Y-0.5002 I1.8427 J4.6778
G2 X55.889 Y-0.4988 I1.4168 J1.4116
G2 X55.0368 Y0.6804 I3.3057 J3.2867
G2 X54.5616 Y2.6621 I3.9168 J1.9871
G3 X54.5074 Y2.8632 I-0.4043 J-0.001
G3 X54.2689 Y3.1184 I-0.677 J-0.3935
G2 X54.2595 Y3.1248 I1.1201 J1.6569
G3 X53.9936 Y3.2588 I-0.6322 J-0.9238
G3 X53.5637 Y3.3306 I-0.4285 J-1.2427
G2 X53.5616 I-0.0022 J2.0
G1 X39.5612
G2 X39.5569 I0.0 J2.0
G3 X39.0793 Y3.2401 I-0.0028 J-1.2898
G2 X39.0751 Y3.2384 I-0.7361 J1.8596
G3 X38.7246 Y3.0083 I0.3749 J-0.9532
G3 X38.6045 Y2.8419 I0.4669 J-0.4636
G2 X38.6037 Y2.8403 I-1.7843 J0.9035
G3 X38.5612 Y2.6633 I0.3494 J-0.1773
G2 Y2.6619 I-2.0 J0.0018
G2 X37.9679 Y0.4615 I-4.4029 J0.0071
G2 X37.9676 Y0.4611 I-1.7305 J1.0027
G2 X36.5132 Y-1.0988 I-4.1348 J2.3974
G2 X35.2994 Y-1.709 I-2.8838 J4.224
G2 X35.2989 Y-1.7092 I-0.653 J1.8904
G2 X33.5603 Y-2.0 I-1.7339 J5.0232
G1 X31.5441
G2 X29.5683 Y-1.6168 I-0.0047 J5.2606
G2 X27.8459 Y-0.4592 I1.8775 J4.654
G2 X27.8451 Y-0.4584 I1.4347 J1.3934
G2 X27.0055 Y0.731 I3.3718 J3.2713
G2 X26.5431 Y2.7063 I3.9842 J1.9743
G3 X26.4838 Y2.9324 I-0.4637 J-0.0008
G3 X26.2375 Y3.2018 I-0.7196 J-0.4107
G2 X26.2362 Y3.2026 I1.1425 J1.6416
G3 X25.9653 Y3.3426 I-0.6628 J-0.9507
G3 X25.5472 Y3.4138 I-0.4155 J-1.1776
G2 X25.5431 I-0.0041 J2.0
G1 X11.543
G2 X11.5408 I0.0 J2.0
G3 X11.0665 Y3.3218 I-0.0013 J-1.262
G2 X11.0647 Y3.3211 I-0.7496 J1.8542
G3 X10.7152 Y3.0863 I0.3802 J-0.9433
G1 X10.7153
G1 X10.7152
G3 X10.5915 Y2.9109 I0.495 J-0.4806
G2 X10.5908 Y2.9095 I-1.7937 J0.8847
G3 X10.543 Y2.7052 I0.4141 J-0.2046
G2 Y2.7033 I-2.0 J0.0016
G2 X9.966 Y0.5134 I-4.4744 J0.0078
G2 X9.9635 Y0.5089 I-1.7421 J0.9824
G2 X8.5226 Y-1.0709 I-4.1965 J2.3806
G2 X7.3087 Y-1.6964 I-2.9498 J4.2336
G2 X7.3045 Y-1.6979 I-0.6728 J1.8834
G2 X5.5413 Y-2.0 I-1.7551 J4.9478
G1 X3.0
G2 X-0.5333 Y-0.5326 I0.0 J4.9875
G2 X-2.0 Y2.999 I3.5244 J3.534
G2 Y3.0 I2.0 J0.001
G1 Y25.4112
G1 Y25.4113
G2 X-0.5325 Y28.9446 I4.9881 J-0.0003
G2 X2.9985 Y30.4112 I3.5347 J-3.5264
G2 X3.0 I0.0015 J-2.0
G1 X5.5413
G2 X7.5884 Y29.9876 I0.0076 J-5.1212
G1 X7.5885
G2 X9.3095 Y28.7545 I-2.0032 J-4.6136
G2 X9.3141 Y28.7495 I-1.4809 J-1.3442
G2 X10.1146 Y27.5367 I-3.6055 J-3.2506
G2 X10.1167 Y27.5321 I-1.8152 J-0.8396
G2 X10.543 Y25.5851 I-4.2419 J-1.9488
G2 Y25.5839 I-2.0 J-0.0008
G3 X10.6034 Y25.3076 I0.6611 J-0.0001
G3 X10.8018 Y25.0376 I0.7591 J0.3498
G3 X11.5351 Y24.7573 I0.729 J0.8077
G2 X11.543 I0.0079 J-2.0
G1 X25.5431
G2 X25.547 I0.0 J-2.0
G3 X25.9956 Y24.85 I0.0022 J1.121
G1 X25.9957
G3 X26.3456 Y25.0999 I-0.4094 J0.9431
G3 X26.4831 Y25.3085 I-0.6333 J0.5673
G3 X26.5431 Y25.5843 I-0.6055 J0.2762
G2 X26.97 Y27.5335 I4.6578 J0.0013
G2 X28.1209 Y29.0994 I4.3901 J-2.0207
G1 X28.121 Y29.0995
G2 X31.5466 Y30.4112 I3.4099 J-3.7761
G1 X33.5592
G2 X36.2565 Y29.6404 I0.0093 J-5.0726
G2 X38.1425 Y27.4902 I-2.6073 J-4.1892
G2 X38.146 Y27.4826 I-1.8213 J-0.8265
G2 X38.5612 Y25.5425 I-4.323 J-1.9398
G2 Y25.5422 I-2.0 J0.0001
G3 X38.6256 Y25.2409 I0.7363 J-0.0002
G3 X38.8293 Y24.9577 I0.7992 J0.3598
G2 X38.8299 Y24.9571 I-1.3589 J-1.4674
G3 X39.5552 Y24.6739 I0.7222 J0.7791
G2 X39.5612 I0.006 J-2.0
G1 X53.5616
G2 X53.5663 I0.0 J-2.0
G3 X54.1377 Y24.8372 I0.0025 J1.0723
G2 X54.1431 Y24.8405 I1.0609 J-1.6954
G3 X54.4985 Y25.2439 I-0.4921 J0.792
G3 X54.5616 Y25.5419 I-0.6725 J0.298
G2 X54.9772 Y27.4834 I4.7328 J0.002
G1 X54.9773 Y27.4835
G2 X56.1116 Y29.0621 I4.4454 J-1.9974
G2 X59.5642 Y30.4112 I3.4407 J-3.713
G1 X61.5774
G2 X64.2609 Y29.6524 I0.0096 J-5.0905
G2 X66.155 Y27.5156 I-2.5769 J-4.1919
G2 X66.1578 Y27.5093 I-1.8172 J-0.8353
G2 X66.5795 Y25.5635 I-4.266 J-1.9431
G3 X66.6423 Y25.2733 I0.7077 J0.0013
G3 X66.8428 Y24.9978 I0.7763 J0.3542
G2 X66.8438 Y24.9969 I-1.3496 J-1.476
G3 X67.5718 Y24.7156 I0.7239 J0.7907
G2 X67.5795 I0.0077 J-2.0
G1 X81.5797
G2 X81.5845 I0.0 J-2.0
G3 X82.1606 Y24.8785 I0.0026 J1.0908
G2 X82.1656 Y24.8815 I1.0515 J-1.7013
G3 X82.5192 Y25.2784 I-0.4827 J0.786
G3 X82.5797 Y25.5616 I-0.6298 J0.2826
G2 Y25.5649 I2.0 J0.0017
G2 X82.9998 Y27.506 I4.711 J-0.0037
G2 X83.0009 Y27.5084 I1.8216 J-0.8256
G2 X84.1435 Y29.0807 I4.4192 J-2.01
G1 X84.1436 Y29.0808
G1 X84.1435 Y29.0807
G2 X87.5828 Y30.4112 I3.4258 J-3.7453
G1 X89.597
G2 X92.3061 Y29.6289 I0.0043 J-5.067
G2 X94.185 Y27.4646 I-2.6367 J-4.1868
G2 X94.189 Y27.4556 I-1.8253 J-0.8175
G2 X94.598 Y25.524 I-4.3823 J-1.9368
G2 Y25.5182 I-2.0 J-0.0022
G3 X94.6632 Y25.2103 I0.7535 J-0.0014
G2 X94.6643 Y25.2076 I-1.827 J-0.8138
G3 X94.8696 Y24.9188 I0.814 J0.3612
G2 X94.8723 Y24.9163 I-1.367 J-1.4599
G3 X95.592 Y24.6324 I0.7166 J0.7625
G2 X95.598 I0.0059 J-2.0
G1 X109.5981
G2 X109.6003 I0.0 J-2.0
G3 X110.1714 Y24.7973 I0.0012 J1.067
G2 X110.1744 Y24.7992 I1.0682 J-1.6908
G3 X110.5325 Y25.2094 I-0.5048 J0.8023
G3 X110.5981 Y25.5223 I-0.7256 J0.3155
G2 X111.0088 Y27.4595 I4.7535 J0.0044
G2 X112.1344 Y29.0433 I4.4697 J-1.9848
G2 X115.6007 Y30.4112 I3.4547 J-3.6785
G1 X117.6141
G2 X120.2983 Y29.6521 I0.0111 J-5.0861
G2 X122.1919 Y27.5158 I-2.5772 J-4.1917
G2 X122.1949 Y27.5093 I-1.8172 J-0.8354
G2 X122.6166 Y25.5634 I-4.2667 J-1.9433
G3 X122.6794 Y25.2735 I0.7065 J0.0012
G3 X122.8799 Y24.9978 I0.7762 J0.354
G2 X122.8804 Y24.9974 I-1.3496 J-1.476
G3 X123.6096 Y24.7156 I0.7255 J0.793
G2 X123.6166 I0.0069 J-2.0
G1 X137.6168
G2 X137.6223 I0.0 J-2.0
G3 X138.1969 Y24.8781 I0.003 J1.0864
G2 X138.2026 Y24.8816 I1.0523 J-1.7008
G3 X138.5562 Y25.2784 I-0.4826 J0.7859
G3 X138.6167 Y25.5618 I-0.6305 J0.2829
G2 Y25.5647 I2.0 J0.0015
G2 X139.037 Y27.5062 I4.71 J-0.0034
G2 X139.0381 Y27.5086 I1.8215 J-0.8258
G2 X140.1804 Y29.0805 I4.42 J-2.011
G1 X140.1805 Y29.0806
G1 X140.1804 Y29.0805
G2 X143.6197 Y30.4112 I3.4257 J-3.7444
G1 X145.6339
G2 X148.343 Y29.6289 I0.0043 J-5.067
G2 X150.2219 Y27.4646 I-2.6367 J-4.1868
G2 X150.2259 Y27.4556 I-1.8253 J-0.8175
G2 X150.6349 Y25.524 I-4.3823 J-1.9368
G2 Y25.5182 I-2.0 J-0.0022
G3 X150.7 Y25.2103 I0.7535 J-0.0014
G2 X150.7012 Y25.2076 I-1.827 J-0.8138
G3 X150.9065 Y24.9188 I0.814 J0.3612
G2 X150.9092 Y24.9163 I-1.367 J-1.4599
G3 X151.6289 Y24.6324 I0.7166 J0.7625
G2 X151.6348 I0.0059 J-2.0
G1 X165.635
G2 X165.6372 I0.0 J-2.0
G3 X165.78 Y24.6418 I0.0012 J1.067
G1 F25.0 Z-6.0
G3 F150.0 X166.2083 Y24.7973 I-0.1417 J1.0575
G2 X166.2113 Y24.7992 I1.0682 J-1.6908
G3 X166.5694 Y25.2094 I-0.5048 J0.8023
G3 X166.635 Y25.5223 I-0.7256 J0.3155
G2 X167.0457 Y27.4595 I4.7535 J0.0044
G2 X168.1713 Y29.0433 I4.4697 J-1.9848
G2 X171.6376 Y30.4112 I3.4547 J-3.6785
G1 X174.1778
G2 X174.1785 I0.0 J-2.0
G2 X177.711 Y28.9439 I-0.0018 J-4.9901
G2 X179.1778 Y25.4128 I-3.5267 J-3.5351
G2 Y25.4112 I-2.0 J-0.0016
G1 Y3.0
G2 Y2.9994 I-2.0 J0.0
G2 X177.7105 Y-0.5331 I-4.9895 J0.0015
G2 X174.179 Y-2.0 I-3.5344 J3.5247
G2 X174.1778 I-0.0012 J2.0
G1 X171.6379
G2 X169.6938 Y-1.6356 I-0.0138 J5.2941
G2 X167.9779 Y-0.5212 I1.8225 J4.6847
G2 X167.1164 Y0.6561 I3.2353 J3.2714
G2 X166.635 Y2.6403 I3.8699 J1.9893
G3 X166.5842 Y2.8272 I-0.3768 J-0.002
G3 X166.3458 Y3.0789 I-0.6745 J-0.4003
G2 X166.3422 Y3.0813 I1.1119 J1.6625
G3 X166.0672 Y3.2186 I-0.6689 J-0.9956
G3 X165.6378 Y3.2891 I-0.4275 J-1.2617
G2 X165.635 I-0.0028 J2.0
G1 X151.6348
G2 X151.6281 I0.0 J2.0
G3 X151.1515 Y3.1997 I-0.0044 J-1.2927
G2 X151.1444 Y3.197 I-0.7307 J1.8617
G3 X150.7935 Y2.9691 I0.3707 J-0.9552
G2 X150.7906 Y2.9663 I-1.4087 J1.4197
G3 X150.6776 Y2.8118 I0.4226 J-0.4276
G2 X150.674 Y2.8048 I-1.7817 J0.9086
G3 X150.6349 Y2.6433 I0.314 J-0.1617
G2 X150.6348 Y2.639 I-2.0 J0.0011
G2 X150.0341 Y0.4374 I-4.378 J0.012
G2 X150.0317 Y0.4335 I-1.7255 J1.0112
G2 X148.5709 Y-1.1138 I-4.1212 J2.4277
G2 X147.3676 Y-1.7122 I-2.8961 J4.314
G2 X147.3622 Y-1.7141 I-0.6516 J1.8909
G2 X145.6336 Y-2.0 I-1.7225 J5.0457
G1 X143.6186
G2 X141.653 Y-1.623 I-0.0086 J5.2675
G2 X139.932 Y-0.4791 I1.8583 J4.6622
G2 X139.9271 Y-0.4741 I1.4263 J1.402
G2 X139.0877 Y0.7014 I3.3869 J3.3058
G2 X139.0841 Y0.7087 I1.7859 J0.9003
G2 X138.6167 Y2.6813 I3.975 J1.9834
G2 Y2.6822 I2.0 J0.0049
G3 X138.5595 Y2.8987 I-0.4415 J-0.0009
G3 X138.3176 Y3.1601 I-0.6977 J-0.403
G2 X138.3066 Y3.1677 I1.1313 J1.6493
G3 X138.049 Y3.299 I-0.6062 J-0.8713
G2 X138.0485 Y3.2991 I0.6568 J1.8891
G3 X137.6164 Y3.3723 I-0.4327 J-1.2436
G1 X123.6166
G2 X123.6126 I0.0 J2.0
G3 X123.1381 Y3.2813 I-0.0025 J-1.2692
G2 X123.1342 Y3.2797 I-0.7436 J1.8566
G3 X122.7868 Y3.0498 I0.3769 J-0.9469
G3 X122.6614 Y2.8742 I0.5233 J-0.5066
G3 X122.6166 Y2.6824 I0.3931 J-0.1929
G2 X122.0313 Y0.4873 I-4.4373 J0.0076
G2 X122.0299 Y0.4848 I-1.7362 J0.9928
G2 X120.5854 Y-1.0827 I-4.1673 J2.3909
G2 X119.3626 Y-1.7048 I-2.886 J4.1601
G1 X119.3625
G1 X119.3627 Y-1.7047
G1 X119.3626 Y-1.7048
G2 X117.6174 Y-2.0 I-1.7473 J5.0229
G2 X117.6166 I-0.0008 J2.0
G1 X115.601
G2 X113.657 Y-1.6356 I-0.0138 J5.2941
G2 X111.941 Y-0.5212 I1.8225 J4.6847
G2 X111.0795 Y0.6561 I3.2353 J3.2714
G2 X110.5981 Y2.6403 I3.8699 J1.9893
G3 X110.5473 Y2.8272 I-0.3768 J-0.002
G3 X110.3089 Y3.0789 I-0.6745 J-0.4003
G2 X110.3053 Y3.0813 I1.1119 J1.6625
G3 X110.0303 Y3.2186 I-0.6689 J-0.9956
G3 X109.6009 Y3.2891 I-0.4275 J-1.2617
G2 X109.5981 I-0.0028 J2.0
G1 X95.598
G2 X95.5912 I0.0 J2.0
G3 X95.1146 Y3.1997 I-0.0044 J-1.2927
G2 X95.1075 Y3.197 I-0.7307 J1.8617
G3 X94.7566 Y2.9691 I0.3707 J-0.9552
G2 X94.7537 Y2.9663 I-1.4087 J1.4197
G3 X94.6408 Y2.8118 I0.4226 J-0.4276
G2 X94.6372 Y2.8048 I-1.7817 J0.9086
G3 X94.598 Y2.6433 I0.314 J-0.1617
G2 Y2.639 I-2.0 J0.0011
G2 X93.9972 Y0.4374 I-4.378 J0.012
G2 X93.9949 Y0.4335 I-1.7255 J1.0112
G2 X92.534 Y-1.1138 I-4.1212 J2.4277
G2 X91.3307 Y-1.7122 I-2.8961 J4.314
G2 X91.3253 Y-1.7141 I-0.6516 J1.8909
G2 X89.5967 Y-2.0 I-1.7225 J5.0457
G1 X87.5811
G2 X85.6164 Y-1.6232 I-0.0058 J5.2799
G2 X83.8956 Y-0.4798 I1.8608 J4.6672
G2 X83.89 Y-0.4741 I1.4257 J1.4027
G2 X83.0507 Y0.7012 I3.3876 J3.3063
G2 X83.0471 Y0.7085 I1.7859 J0.9004
G2 X82.5797 Y2.6814 I3.9743 J1.9833
G2 Y2.682 I2.0 J0.0047
G3 X82.5224 Y2.8989 I-0.4424 J-0.0009
G3 X82.2806 Y3.1601 I-0.6972 J-0.4027
G2 X82.2691 Y3.1681 I1.1312 J1.6493
G3 X82.0125 Y3.2988 I-0.6027 J-0.8658
G2 X82.0106 Y3.2995 I0.6562 J1.8893
G3 X81.5801 Y3.3723 I-0.4303 J-1.235
G2 X81.5797 I-0.0004 J2.0
G1 X67.5795
G2 X67.5764 I0.0 J2.0
G3 X67.1001 Y3.281 I-0.002 J-1.2772
G2 X67.0974 Y3.2799 I-0.7427 J1.857
G3 X66.7496 Y3.0497 I0.378 J-0.9491
G3 X66.6243 Y2.8742 I0.5229 J-0.506
G3 X66.5795 Y2.6825 I0.3924 J-0.1927
G2 X65.9944 Y0.4875 I-4.4383 J0.0077
G2 X65.9929 Y0.4849 I-1.7363 J0.9926
G2 X64.5486 Y-1.0825 I-4.167 J2.3904
G2 X63.3258 Y-1.7047 I-2.8832 J4.1541
G2 X61.5794 Y-2.0 I-1.7459 J5.0136
G1 X61.5793
G1 X61.5795
G1 X61.5794
G1 X59.5634
G2 X57.6094 Y-1.6295 I-0.0087 J5.2918
G2 X55.8905 Y-0.5002 I1.8427 J4.6778
G2 X55.889 Y-0.4988 I1.4168 J1.4116
G2 X55.0368 Y0.6804 I3.3057 J3.2867
G2 X54.5616 Y2.6621 I3.9168 J1.9871
G3 X54.5074 Y2.8632 I-0.4043 J-0.001
G3 X54.2689 Y3.1184 I-0.677 J-0.3935
G2 X54.2595 Y3.1248 I1.1201 J1.6569
G3 X53.9936 Y3.2588 I-0.6322 J-0.9238
G3 X53.5637 Y3.3306 I-0.4285 J-1.2427
G2 X53.5616 I-0.0022 J2.0
G1 X39.5612
G2 X39.5569 I0.0 J2.0
G3 X39.0793 Y3.2401 I-0.0028 J-1.2898
G2 X39.0751 Y3.2384 I-0.7361 J1.8596
G3 X38.7246 Y3.0083 I0.3749 J-0.9532
G3 X38.6045 Y2.8419 I0.4669 J-0.4636
G2 X38.6037 Y2.8403 I-1.7843 J0.9035
G3 X38.5612 Y2.6633 I0.3494 J-0.1773
G2 Y2.6619 I-2.0 J0.0018
G2 X37.9679 Y0.4615 I-4.4029 J0.0071
G2 X37.9676 Y0.4611 I-1.7305 J1.0027
G2 X36.5132 Y-1.0988 I-4.1348 J2.3974
G2 X35.2994 Y-1.709 I-2.8838 J4.224
G2 X35.2989 Y-1.7092 I-0.653 J1.8904
G2 X33.5603 Y-2.0 I-1.7339 J5.0232
G1 X31.5441
G2 X29.5683 Y-1.6168 I-0.0047 J5.2606
G2 X27.8459 Y-0.4592 I1.8775 J4.654
G2 X27.8451 Y-0.4584 I1.4347 J1.3934
G2 X27.0055 Y0.731 I3.3718 J3.2713
G2 X26.5431 Y2.7063 I3.9842 J1.9743
G3 X26.4838 Y2.9324 I-0.4637 J-0.0008
G3 X26.2375 Y3.2018 I-0.7196 J-0.4107
G2 X26.2362 Y3.2026 I1.1425 J1.6416
G3 X25.9653 Y3.3426 I-0.6628 J-0.9507
G3 X25.5472 Y3.4138 I-0.4155 J-1.1776
G2 X25.5431 I-0.0041 J2.0
G1 X11.543
G2 X11.5408 I0.0 J2.0
G3 X11.0665 Y3.3218 I-0.0013 J-1.262
G2 X11.0647 Y3.3211 I-0.7496 J1.8542
G3 X10.7152 Y3.0863 I0.3802 J-0.9433
G1 X10.7153
G1 X10.7152
G3 X10.5915 Y2.9109 I0.495 J-0.4806
G2 X10.5908 Y2.9095 I-1.7937 J0.8847
G3 X10.543 Y2.7052 I0.4141 J-0.2046
G2 Y2.7033 I-2.0 J0.0016
G2 X9.966 Y0.5134 I-4.4744 J0.0078
G2 X9.9635 Y0.5089 I-1.7421 J0.9824
G2 X8.5226 Y-1.0709 I-4.1965 J2.3806
G2 X7.3087 Y-1.6964 I-2.9498 J4.2336
G2 X7.3045 Y-1.6979 I-0.6728 J1.8834
G2 X5.5413 Y-2.0 I-1.7551 J4.9478
G1 X3.0
G2 X-0.5333 Y-0.5326 I0.0 J4.9875
G2 X-2.0 Y2.999 I3.5244 J3.534
G2 Y3.0 I2.0 J0.001
G1 Y25.4112
G1 Y25.4113
G2 X-0.5325 Y28.9446 I4.9881 J-0.0003
G2 X2.9985 Y30.4112 I3.5347 J-3.5264
G2 X3.0 I0.0015 J-2.0
G1 X5.5413
G2 X7.5884 Y29.9876 I0.0076 J-5.1212
G1 X7.5885
G2 X9.3095 Y28.7545 I-2.0032 J-4.6136
G2 X9.3141 Y28.7495 I-1.4809 J-1.3442
G2 X10.1146 Y27.5367 I-3.6055 J-3.2506
G2 X10.1167 Y27.5321 I-1.8152 J-0.8396
G2 X10.543 Y25.5851 I-4.2419 J-1.9488
G2 Y25.5839 I-2.0 J-0.0008
G3 X10.6034 Y25.3076 I0.6611 J-0.0001
G3 X10.8018 Y25.0376 I0.7591 J0.3498
G3 X11.5351 Y24.7573 I0.729 J0.8077
G2 X11.543 I0.0079 J-2.0
G1 X25.5431
G2 X25.547 I0.0 J-2.0
G3 X25.9956 Y24.85 I0.0022 J1.121
G1 X25.9957
G3 X26.3456 Y25.0999 I-0.4094 J0.9431
G3 X26.4831 Y25.3085 I-0.6333 J0.5673
G3 X26.5431 Y25.5843 I-0.6055 J0.2762
G2 X26.97 Y27.5335 I4.6578 J0.0013
G2 X28.1209 Y29.0994 I4.3901 J-2.0207
G1 X28.121 Y29.0995
G2 X31.5466 Y30.4112 I3.4099 J-3.7761
G1 X33.5592
G2 X36.2565 Y29.6404 I0.0093 J-5.0726
G2 X38.1425 Y27.4902 I-2.6073 J-4.1892
G2 X38.146 Y27.4826 I-1.8213 J-0.8265
G2 X38.5612 Y25.5425 I-4.323 J-1.9398
G2 Y25.5422 I-2.0 J0.0001
G3 X38.6256 Y25.2409 I0.7363 J-0.0002
G3 X38.8293 Y24.9577 I0.7992 J0.3598
G2 X38.8299 Y24.9571 I-1.3589 J-1.4674
G3 X39.5552 Y24.6739 I0.7222 J0.7791
G2 X39.5612 I0.006 J-2.0
G1 X53.5616
G2 X53.5663 I0.0 J-2.0
G3 X54.1377 Y24.8372 I0.0025 J1.0723
G2 X54.1431 Y24.8405 I1.0609 J-1.6954
G3 X54.4985 Y25.2439 I-0.4921 J0.792
G3 X54.5616 Y25.5419 I-0.6725 J0.298
G2 X54.9772 Y27.4834 I4.7328 J0.002
G1 X54.9773 Y27.4835
G2 X56.1116 Y29.0621 I4.4454 J-1.9974
G2 X59.5642 Y30.4112 I3.4407 J-3.713
G1 X61.5774
G2 X64.2609 Y29.6524 I0.0096 J-5.0905
G2 X66.155 Y27.5156 I-2.5769 J-4.1919
G2 X66.1578 Y27.5093 I-1.8172 J-0.8353
G2 X66.5795 Y25.5635 I-4.266 J-1.9431
G3 X66.6423 Y25.2733 I0.7077 J0.0013
G3 X66.8428 Y24.9978 I0.7763 J0.3542
G2 X66.8438 Y24.9969 I-1.3496 J-1.476
G3 X67.5718 Y24.7156 I0.7239 J0.7907
G2 X67.5795 I0.0077 J-2.0
G1 X81.5797
G2 X81.5845 I0.0 J-2.0
G3 X82.1606 Y24.8785 I0.0026 J1.0908
G2 X82.1656 Y24.8815 I1.0515 J-1.7013
G3 X82.5192 Y25.2784 I-0.4827 J0.786
G3 X82.5797 Y25.5616 I-0.6298 J0.2826
G2 Y25.5649 I2.0 J0.0017
G2 X82.9998 Y27.506 I4.711 J-0.0037
G2 X83.0009 Y27.5084 I1.8216 J-0.8256
G2 X84.1435 Y29.0807 I4.4192 J-2.01
G1 X84.1436 Y29.0808
G1 X84.1435 Y29.0807
G2 X87.5828 Y30.4112 I3.4258 J-3.7453
G1 X89.597
G2 X92.3061 Y29.6289 I0.0043 J-5.067
G2 X94.185 Y27.4646 I-2.6367 J-4.1868
G2 X94.189 Y27.4556 I-1.8253 J-0.8175
G2 X94.598 Y25.524 I-4.3823 J-1.9368
G2 Y25.5182 I-2.0 J-0.0022
G3 X94.6632 Y25.2103 I0.7535 J-0.0014
G2 X94.6643 Y25.2076 I-1.827 J-0.8138
G3 X94.8696 Y24.9188 I0.814 J0.3612
G2 X94.8723 Y24.9163 I-1.367 J-1.4599
G3 X95.592 Y24.6324 I0.7166 J0.7625
G2 X95.598 I0.0059 J-2.0
G1 X109.5981
G2 X109.6003 I0.0 J-2.0
G3 X110.1714 Y24.7973 I0.0012 J1.067
G2 X110.1744 Y24.7992 I1.0682 J-1.6908
G3 X110.5325 Y25.2094 I-0.5048 J0.8023
G3 X110.5981 Y25.5223 I-0.7256 J0.3155
G2 X111.0088 Y27.4595 I4.7535 J0.0044
G2 X112.1344 Y29.0433 I4.4697 J-1.9848
G2 X115.6007 Y30.4112 I3.4547 J-3.6785
G1 X117.6141
G2 X120.2983 Y29.6521 I0.0111 J-5.0861
G2 X122.1919 Y27.5158 I-2.5772 J-4.1917
G2 X122.1949 Y27.5093 I-1.8172 J-0.8354
G2 X122.6166 Y25.5634 I-4.2667 J-1.9433
G3 X122.6794 Y25.2735 I0.7065 J0.0012
G3 X122.8799 Y24.9978 I0.7762 J0.354
G2 X122.8804 Y24.9974 I-1.3496 J-1.476
G3 X123.6096 Y24.7156 I0.7255 J0.793
G2 X123.6166 I0.0069 J-2.0
G1 X137.6168
G2 X137.6223 I0.0 J-2.0
G3 X138.1969 Y24.8781 I0.003 J1.0864
G2 X138.2026 Y24.8816 I1.0523 J-1.7008
G3 X138.5562 Y25.2784 I-0.4826 J0.7859
G3 X138.6167 Y25.5618 I-0.6305 J0.2829
G2 Y25.5647 I2.0 J0.0015
G2 X139.037 Y27.5062 I4.71 J-0.0034
G2 X139.0381 Y27.5086 I1.8215 J-0.8258
G2 X140.1804 Y29.0805 I4.42 J-2.011
G1 X140.1805 Y29.0806
G1 X140.1804 Y29.0805
G2 X143.6197 Y30.4112 I3.4257 J-3.7444
G1 X145.6339
G2 X148.343 Y29.6289 I0.0043 J-5.067
G2 X150.2219 Y27.4646 I-2.6367 J-4.1868
G2 X150.2259 Y27.4556 I-1.8253 J-0.8175
G2 X150.6349 Y25.524 I-4.3823 J-1.9368
G2 Y25.5182 I-2.0 J-0.0022
G3 X150.7 Y25.2103 I0.7535 J-0.0014
G2 X150.7012 Y25.2076 I-1.827 J-0.8138
G3 X150.9065 Y24.9188 I0.814 J0.3612
G2 X150.9092 Y24.9163 I-1.367 J-1.4599
G3 X151.6289 Y24.6324 I0.7166 J0.7625
G2 X151.6348 I0.0059 J-2.0
G1 X165.635
G2 X165.6372 I0.0 J-2.0
G3 X165.78 Y24.6418 I0.0012 J1.067
G1 F25.0 Z-7.0
G3 F150.0 X166.2083 Y24.7973 I-0.1417 J1.0575
G2 X166.2113 Y24.7992 I1.0682 J-1.6908
G3 X166.5694 Y25.2094 I-0.5048 J0.8023
G3 X166.635 Y25.5223 I-0.7256 J0.3155
G2 X167.0457 Y27.4595 I4.7535 J0.0044
G2 X168.1713 Y29.0433 I4.4697 J-1.9848
G2 X171.6376 Y30.4112 I3.4547 J-3.6785
G1 X174.1778
G2 X174.1785 I0.0 J-2.0
G2 X177.711 Y28.9439 I-0.0018 J-4.9901
G2 X179.1778 Y25.4128 I-3.5267 J-3.5351
G2 Y25.4112 I-2.0 J-0.0016
G1 Y3.0
G2 Y2.9994 I-2.0 J0.0
G2 X177.7105 Y-0.5331 I-4.9895 J0.0015
G2 X174.179 Y-2.0 I-3.5344 J3.5247
G2 X174.1778 I-0.0012 J2.0
G1 X171.6379
G2 X169.6938 Y-1.6356 I-0.0138 J5.2941
G2 X167.9779 Y-0.5212 I1.8225 J4.6847
G2 X167.1164 Y0.6561 I3.2353 J3.2714
G2 X166.635 Y2.6403 I3.8699 J1.9893
G3 X166.5842 Y2.8272 I-0.3768 J-0.002
G3 X166.3458 Y3.0789 I-0.6745 J-0.4003
G2 X166.3422 Y3.0813 I1.1119 J1.6625
G3 X166.0672 Y3.2186 I-0.6689 J-0.9956
G3 X165.6378 Y3.2891 I-0.4275 J-1.2617
G2 X165.635 I-0.0028 J2.0
G1 X151.6348
G2 X151.6281 I0.0 J2.0
G3 X151.1515 Y3.1997 I-0.0044 J-1.2927
G2 X151.1444 Y3.197 I-0.7307 J1.8617
G3 X150.7935 Y2.9691 I0.3707 J-0.9552
G2 X150.7906 Y2.9663 I-1.4087 J1.4197
G3 X150.6776 Y2.8118 I0.4226 J-0.4276
G2 X150.674 Y2.8048 I-1.7817 J0.9086
G3 X150.6349 Y2.6433 I0.314 J-0.1617
G2 X150.6348 Y2.639 I-2.0 J0.0011
G2 X150.0341 Y0.4374 I-4.378 J0.012
G2 X150.0317 Y0.4335 I-1.7255 J1.0112
G2 X148.5709 Y-1.1138 I-4.1212 J2.4277
G2 X147.3676 Y-1.7122 I-2.8961 J4.314
G2 X147.3622 Y-1.7141 I-0.6516 J1.8909
G2 X145.6336 Y-2.0 I-1.7225 J5.0457
G1 X143.6186
G2 X141.653 Y-1.623 I-0.0086 J5.2675
G2 X139.932 Y-0.4791 I1.8583 J4.6622
G2 X139.9271 Y-0.4741 I1.4263 J1.402
G2 X139.0877 Y0.7014 I3.3869 J3.3058
G2 X139.0841 Y0.7087 I1.7859 J0.9003
G2 X138.6167 Y2.6813 I3.975 J1.9834
G2 Y2.6822 I2.0 J0.0049
G3 X138.5595 Y2.8987 I-0.4415 J-0.0009
G3 X138.3176 Y3.1601 I-0.6977 J-0.403
G2 X138.3066 Y3.1677 I1.1313 J1.6493
G3 X138.049 Y3.299 I-0.6062 J-0.8713
G2 X138.0485 Y3.2991 I0.6568 J1.8891
G3 X137.6164 Y3.3723 I-0.4327 J-1.2436
G1 X123.6166
G2 X123.6126 I0.0 J2.0
G3 X123.1381 Y3.2813 I-0.0025 J-1.2692
G2 X123.1342 Y3.2797 I-0.7436 J1.8566
G3 X122.7868 Y3.0498 I0.3769 J-0.9469
G3 X122.6614 Y2.8742 I0.5233 J-0.5066
G3 X122.6166 Y2.6824 I0.3931 J-0.1929
G2 X122.0313 Y0.4873 I-4.4373 J0.0076
G2 X122.0299 Y0.4848 I-1.7362 J0.9928
G2 X120.5854 Y-1.0827 I-4.1673 J2.3909
G2 X119.3626 Y-1.7048 I-2.886 J4.1601
G1 X119.3625
G1 X119.3627 Y-1.7047
G1 X119.3626 Y-1.7048
G2 X117.6174 Y-2.0 I-1.7473 J5.0229
G2 X117.6166 I-0.0008 J2.0
G1 X115.601
G2 X113.657 Y-1.6356 I-0.0138 J5.2941
G2 X111.941 Y-0.5212 I1.8225 J4.6847
G2 X111.0795 Y0.6561 I3.2353 J3.2714
G2 X110.5981 Y2.6403 I3.8699 J1.9893
G3 X110.5473 Y2.8272 I-0.3768 J-0.002
G3 X110.3089 Y3.0789 I-0.6745 J-0.4003
G2 X110.3053 Y3.0813 I1.1119 J1.6625
G3 X110.0303 Y3.2186 I-0.6689 J-0.9956
G3 X109.6009 Y3.2891 I-0.4275 J-1.2617
G2 X109.5981 I-0.0028 J2.0
G1 X95.598
G2 X95.5912 I0.0 J2.0
G3 X95.1146 Y3.1997 I-0.0044 J-1.2927
G2 X95.1075 Y3.197 I-0.7307 J1.8617
G3 X94.7566 Y2.9691 I0.3707 J-0.9552
G2 X94.7537 Y2.9663 I-1.4087 J1.4197
G3 X94.6408 Y2.8118 I0.4226 J-0.4276
G2 X94.6372 Y2.8048 I-1.7817 J0.9086
G3 X94.598 Y2.6433 I0.314 J-0.1617
G2 Y2.639 I-2.0 J0.0011
G2 X93.9972 Y0.4374 I-4.378 J0.012
G2 X93.9949 Y0.4335 I-1.7255 J1.0112
G2 X92.534 Y-1.1138 I-4.1212 J2.4277
G2 X91.3307 Y-1.7122 I-2.8961 J4.314
G2 X91.3253 Y-1.7141 I-0.6516 J1.8909
G2 X89.5967 Y-2.0 I-1.7225 J5.0457
G1 X87.5811
G2 X85.6164 Y-1.6232 I-0.0058 J5.2799
G2 X83.8956 Y-0.4798 I1.8608 J4.6672
G2 X83.89 Y-0.4741 I1.4257 J1.4027
G2 X83.0507 Y0.7012 I3.3876 J3.3063
G2 X83.0471 Y0.7085 I1.7859 J0.9004
G2 X82.5797 Y2.6814 I3.9743 J1.9833
G2 Y2.682 I2.0 J0.0047
G3 X82.5224 Y2.8989 I-0.4424 J-0.0009
G3 X82.2806 Y3.1601 I-0.6972 J-0.4027
G2 X82.2691 Y3.1681 I1.1312 J1.6493
G3 X82.0125 Y3.2988 I-0.6027 J-0.8658
G2 X82.0106 Y3.2995 I0.6562 J1.8893
G3 X81.5801 Y3.3723 I-0.4303 J-1.235
G2 X81.5797 I-0.0004 J2.0
G1 X67.5795
G2 X67.5764 I0.0 J2.0
G3 X67.1001 Y3.281 I-0.002 J-1.2772
G2 X67.0974 Y3.2799 I-0.7427 J1.857
G3 X66.7496 Y3.0497 I0.378 J-0.9491
G3 X66.6243 Y2.8742 I0.5229 J-0.506
G3 X66.5795 Y2.6825 I0.3924 J-0.1927
G2 X65.9944 Y0.4875 I-4.4383 J0.0077
G2 X65.9929 Y0.4849 I-1.7363 J0.9926
G2 X64.5486 Y-1.0825 I-4.167 J2.3904
G2 X63.3258 Y-1.7047 I-2.8832 J4.1541
G2 X61.5794 Y-2.0 I-1.7459 J5.0136
G1 X61.5793
G1 X61.5795
G1 X61.5794
G1 X59.5634
G2 X57.6094 Y-1.6295 I-0.0087 J5.2918
G2 X55.8905 Y-0.5002 I1.8427 J4.6778
G2 X55.889 Y-0.4988 I1.4168 J1.4116
G2 X55.0368 Y0.6804 I3.3057 J3.2867
G2 X54.5616 Y2.6621 I3.9168 J1.9871
G3 X54.5074 Y2.8632 I-0.4043 J-0.001
G3 X54.2689 Y3.1184 I-0.677 J-0.3935
G2 X54.2595 Y3.1248 I1.1201 J1.6569
G3 X53.9936 Y3.2588 I-0.6322 J-0.9238
G3 X53.5637 Y3.3306 I-0.4285 J-1.2427
G2 X53.5616 I-0.0022 J2.0
G1 X39.5612
G2 X39.5569 I0.0 J2.0
G3 X39.0793 Y3.2401 I-0.0028 J-1.2898
G2 X39.0751 Y3.2384 I-0.7361 J1.8596
G3 X38.7246 Y3.0083 I0.3749 J-0.9532
G3 X38.6045 Y2.8419 I0.4669 J-0.4636
G2 X38.6037 Y2.8403 I-1.7843 J0.9035
G3 X38.5612 Y2.6633 I0.3494 J-0.1773
G2 Y2.6619 I-2.0 J0.0018
G2 X37.9679 Y0.4615 I-4.4029 J0.0071
G2 X37.9676 Y0.4611 I-1.7305 J1.0027
G2 X36.5132 Y-1.0988 I-4.1348 J2.3974
G2 X35.2994 Y-1.709 I-2.8838 J4.224
G2 X35.2989 Y-1.7092 I-0.653 J1.8904
G2 X33.5603 Y-2.0 I-1.7339 J5.0232
G1 X31.5441
G2 X29.5683 Y-1.6168 I-0.0047 J5.2606
G2 X27.8459 Y-0.4592 I1.8775 J4.654
G2 X27.8451 Y-0.4584 I1.4347 J1.3934
G2 X27.0055 Y0.731 I3.3718 J3.2713
G2 X26.5431 Y2.7063 I3.9842 J1.9743
G3 X26.4838 Y2.9324 I-0.4637 J-0.0008
G3 X26.2375 Y3.2018 I-0.7196 J-0.4107
G2 X26.2362 Y3.2026 I1.1425 J1.6416
G3 X25.9653 Y3.3426 I-0.6628 J-0.9507
G3 X25.5472 Y3.4138 I-0.4155 J-1.1776
G2 X25.5431 I-0.0041 J2.0
G1 X11.543
G2 X11.5408 I0.0 J2.0
G3 X11.0665 Y3.3218 I-0.0013 J-1.262
G2 X11.0647 Y3.3211 I-0.7496 J1.8542
G3 X10.7152 Y3.0863 I0.3802 J-0.9433
G1 X10.7153
G1 X10.7152
G3 X10.5915 Y2.9109 I0.495 J-0.4806
G2 X10.5908 Y2.9095 I-1.7937 J0.8847
G3 X10.543 Y2.7052 I0.4141 J-0.2046
G2 Y2.7033 I-2.0 J0.0016
G2 X9.966 Y0.5134 I-4.4744 J0.0078
G2 X9.9635 Y0.5089 I-1.7421 J0.9824
G2 X8.5226 Y-1.0709 I-4.1965 J2.3806
G2 X7.3087 Y-1.6964 I-2.9498 J4.2336
G2 X7.3045 Y-1.6979 I-0.6728 J1.8834
G2 X5.5413 Y-2.0 I-1.7551 J4.9478
G1 X3.0
G2 X-0.5333 Y-0.5326 I0.0 J4.9875
G2 X-2.0 Y2.999 I3.5244 J3.534
G2 Y3.0 I2.0 J0.001
G1 Y25.4112
G1 Y25.4113
G2 X-0.5325 Y28.9446 I4.9881 J-0.0003
G2 X2.9985 Y30.4112 I3.5347 J-3.5264
G2 X3.0 I0.0015 J-2.0
G1 X5.5413
G2 X7.5884 Y29.9876 I0.0076 J-5.1212
G1 X7.5885
G2 X9.3095 Y28.7545 I-2.0032 J-4.6136
G2 X9.3141 Y28.7495 I-1.4809 J-1.3442
G2 X10.1146 Y27.5367 I-3.6055 J-3.2506
G2 X10.1167 Y27.5321 I-1.8152 J-0.8396
G2 X10.543 Y25.5851 I-4.2419 J-1.9488
G2 Y25.5839 I-2.0 J-0.0008
G3 X10.6034 Y25.3076 I0.6611 J-0.0001
G3 X10.8018 Y25.0376 I0.7591 J0.3498
G3 X11.5351 Y24.7573 I0.729 J0.8077
G2 X11.543 I0.0079 J-2.0
G1 X25.5431
G2 X25.547 I0.0 J-2.0
G3 X25.9956 Y24.85 I0.0022 J1.121
G1 X25.9957
G3 X26.3456 Y25.0999 I-0.4094 J0.9431
G3 X26.4831 Y25.3085 I-0.6333 J0.5673
G3 X26.5431 Y25.5843 I-0.6055 J0.2762
G2 X26.97 Y27.5335 I4.6578 J0.0013
G2 X28.1209 Y29.0994 I4.3901 J-2.0207
G1 X28.121 Y29.0995
G2 X31.5466 Y30.4112 I3.4099 J-3.7761
G1 X33.5592
G2 X36.2565 Y29.6404 I0.0093 J-5.0726
G2 X38.1425 Y27.4902 I-2.6073 J-4.1892
G2 X38.146 Y27.4826 I-1.8213 J-0.8265
G2 X38.5612 Y25.5425 I-4.323 J-1.9398
G2 Y25.5422 I-2.0 J0.0001
G3 X38.6256 Y25.2409 I0.7363 J-0.0002
G3 X38.8293 Y24.9577 I0.7992 J0.3598
G2 X38.8299 Y24.9571 I-1.3589 J-1.4674
G3 X39.5552 Y24.6739 I0.7222 J0.7791
G2 X39.5612 I0.006 J-2.0
G1 X53.5616
G2 X53.5663 I0.0 J-2.0
G3 X54.1377 Y24.8372 I0.0025 J1.0723
G2 X54.1431 Y24.8405 I1.0609 J-1.6954
G3 X54.4985 Y25.2439 I-0.4921 J0.792
G3 X54.5616 Y25.5419 I-0.6725 J0.298
G2 X54.9772 Y27.4834 I4.7328 J0.002
G1 X54.9773 Y27.4835
G2 X56.1116 Y29.0621 I4.4454 J-1.9974
G2 X59.5642 Y30.4112 I3.4407 J-3.713
G1 X61.5774
G2 X64.2609 Y29.6524 I0.0096 J-5.0905
G2 X66.155 Y27.5156 I-2.5769 J-4.1919
G2 X66.1578 Y27.5093 I-1.8172 J-0.8353
G2 X66.5795 Y25.5635 I-4.266 J-1.9431
G3 X66.6423 Y25.2733 I0.7077 J0.0013
G3 X66.8428 Y24.9978 I0.7763 J0.3542
G2 X66.8438 Y24.9969 I-1.3496 J-1.476
G3 X67.5718 Y24.7156 I0.7239 J0.7907
G2 X67.5795 I0.0077 J-2.0
G1 X81.5797
G2 X81.5845 I0.0 J-2.0
G3 X82.1606 Y24.8785 I0.0026 J1.0908
G2 X82.1656 Y24.8815 I1.0515 J-1.7013
G3 X82.5192 Y25.2784 I-0.4827 J0.786
G3 X82.5797 Y25.5616 I-0.6298 J0.2826
G2 Y25.5649 I2.0 J0.0017
G2 X82.9998 Y27.506 I4.711 J-0.0037
G2 X83.0009 Y27.5084 I1.8216 J-0.8256
G2 X84.1435 Y29.0807 I4.4192 J-2.01
G1 X84.1436 Y29.0808
G1 X84.1435 Y29.0807
G2 X87.5828 Y30.4112 I3.4258 J-3.7453
G1 X89.597
G2 X92.3061 Y29.6289 I0.0043 J-5.067
G2 X94.185 Y27.4646 I-2.6367 J-4.1868
G2 X94.189 Y27.4556 I-1.8253 J-0.8175
G2 X94.598 Y25.524 I-4.3823 J-1.9368
G2 Y25.5182 I-2.0 J-0.0022
G3 X94.6632 Y25.2103 I0.7535 J-0.0014
G2 X94.6643 Y25.2076 I-1.827 J-0.8138
G3 X94.8696 Y24.9188 I0.814 J0.3612
G2 X94.8723 Y24.9163 I-1.367 J-1.4599
G3 X95.592 Y24.6324 I0.7166 J0.7625
G2 X95.598 I0.0059 J-2.0
G1 X109.5981
G2 X109.6003 I0.0 J-2.0
G3 X110.1714 Y24.7973 I0.0012 J1.067
G2 X110.1744 Y24.7992 I1.0682 J-1.6908
G3 X110.5325 Y25.2094 I-0.5048 J0.8023
G3 X110.5981 Y25.5223 I-0.7256 J0.3155
G2 X111.0088 Y27.4595 I4.7535 J0.0044
G2 X112.1344 Y29.0433 I4.4697 J-1.9848
G2 X115.6007 Y30.4112 I3.4547 J-3.6785
G1 X117.6141
G2 X120.2983 Y29.6521 I0.0111 J-5.0861
G2 X122.1919 Y27.5158 I-2.5772 J-4.1917
G2 X122.1949 Y27.5093 I-1.8172 J-0.8354
G2 X122.6166 Y25.5634 I-4.2667 J-1.9433
G3 X122.6794 Y25.2735 I0.7065 J0.0012
G3 X122.8799 Y24.9978 I0.7762 J0.354
G2 X122.8804 Y24.9974 I-1.3496 J-1.476
G3 X123.6096 Y24.7156 I0.7255 J0.793
G2 X123.6166 I0.0069 J-2.0
G1 X137.6168
G2 X137.6223 I0.0 J-2.0
G3 X138.1969 Y24.8781 I0.003 J1.0864
G2 X138.2026 Y24.8816 I1.0523 J-1.7008
G3 X138.5562 Y25.2784 I-0.4826 J0.7859
G3 X138.6167 Y25.5618 I-0.6305 J0.2829
G2 Y25.5647 I2.0 J0.0015
G2 X139.037 Y27.5062 I4.71 J-0.0034
G2 X139.0381 Y27.5086 I1.8215 J-0.8258
G2 X140.1804 Y29.0805 I4.42 J-2.011
G1 X140.1805 Y29.0806
G1 X140.1804 Y29.0805
G2 X143.6197 Y30.4112 I3.4257 J-3.7444
G1 X145.6339
G2 X148.343 Y29.6289 I0.0043 J-5.067
G2 X150.2219 Y27.4646 I-2.6367 J-4.1868
G2 X150.2259 Y27.4556 I-1.8253 J-0.8175
G2 X150.6349 Y25.524 I-4.3823 J-1.9368
G2 Y25.5182 I-2.0 J-0.0022
G3 X150.7 Y25.2103 I0.7535 J-0.0014
G2 X150.7012 Y25.2076 I-1.827 J-0.8138
G3 X150.9065 Y24.9188 I0.814 J0.3612
G2 X150.9092 Y24.9163 I-1.367 J-1.4599
G3 X151.6289 Y24.6324 I0.7166 J0.7625
G2 X151.6348 I0.0059 J-2.0
G1 X165.635
G2 X165.6372 I0.0 J-2.0
G3 X165.78 Y24.6418 I0.0012 J1.067
G0 Z3.0
M5
M30
