( Made using CamBam - http://www.cambam.co.uk )
( head-top plate 10/22/2012 5:08:11 PM )
( T6 : 6.0 )
G21 G90 G64 G40
G0 Z3.0
( T6 : 6.0 )
T6 M6
( 6mm Cutout )
G17
M3 S1000
G0 X17.9433 Y92.998
G1 F300.0 Z-1.0
G2 F150.0 X25.0556 Y90.0523 I0.0116 J-10.031
G2 X28.0 Y82.9407 I-7.0912 J-7.1014
G1 Y76.5752
G1 Y70.5025
G1 Y13.4247
G2 X27.2362 Y8.3177 I-17.3124 J-0.0214
G2 X24.9541 Y3.6423 I-16.0106 J4.9204
G2 X24.9518 Y3.639 I-2.4589 J1.7187
G2 X22.6474 Y1.0063 I-13.3384 J9.3497
G2 X22.6473 Y1.0062 I-11.034 J11.9825
G1 X22.6476 Y1.0064
G2 X22.6474 Y1.0063 I-10.4303 J11.325
G2 X18.7218 Y-1.6235 I-10.4302 J11.3251
G2 X18.7202 Y-1.6242 I-1.2674 J2.7191
G2 X12.5006 Y-3.0 I-6.2168 J13.358
G2 X7.5278 Y-2.1366 I-0.0099 J14.6945
G2 X7.5238 Y-2.1351 I1.0132 J2.8237
G2 X3.1585 Y0.3147 I5.152 J14.294
G2 X0.8107 Y2.6353 I10.0365 J12.5026
G1 X0.8105 Y2.6354
G2 X-1.4897 Y6.3425 I12.7375 J10.4708
G2 X-1.4898 Y6.3427 I15.0377 J6.7637
G1 X-1.4896 Y6.3424
G2 X-1.4897 Y6.3425 I15.6134 J7.0246
G2 X-2.9341 Y11.8996 I15.6134 J7.0244
G2 X-2.9346 Y11.9059 I2.989 J0.2571
G2 X-3.0 Y13.414 I18.6274 J1.5629
G2 Y13.4228 I3.0 J0.0088
G1 Y76.5752
G2 X-2.9997 Y76.6206 I3.0 J0.0
G1 Y82.9406
G2 X-0.0546 Y90.0527 I10.0338 J0.0108
G2 X7.0578 Y92.998 I7.1009 J-7.0874
G1 X17.9433
G1 F300.0 Z-2.0
G2 F150.0 X25.0556 Y90.0523 I0.0116 J-10.031
G2 X28.0 Y82.9407 I-7.0912 J-7.1014
G1 Y76.5752
G1 Y70.5025
G1 Y13.4247
G2 X27.2362 Y8.3177 I-17.3124 J-0.0214
G2 X24.9541 Y3.6423 I-16.0106 J4.9204
G2 X24.9518 Y3.639 I-2.4589 J1.7187
G2 X22.6474 Y1.0063 I-13.3384 J9.3497
G2 X22.6473 Y1.0062 I-11.034 J11.9825
G1 X22.6476 Y1.0064
G2 X22.6474 Y1.0063 I-10.4303 J11.325
G2 X18.7218 Y-1.6235 I-10.4302 J11.3251
G2 X18.7202 Y-1.6242 I-1.2674 J2.7191
G2 X12.5006 Y-3.0 I-6.2168 J13.358
G2 X7.5278 Y-2.1366 I-0.0099 J14.6945
G2 X7.5238 Y-2.1351 I1.0132 J2.8237
G2 X3.1585 Y0.3147 I5.152 J14.294
G2 X0.8107 Y2.6353 I10.0365 J12.5026
G1 X0.8105 Y2.6354
G2 X-1.4897 Y6.3425 I12.7375 J10.4708
G2 X-1.4898 Y6.3427 I15.0377 J6.7637
G1 X-1.4896 Y6.3424
G2 X-1.4897 Y6.3425 I15.6134 J7.0246
G2 X-2.9341 Y11.8996 I15.6134 J7.0244
G2 X-2.9346 Y11.9059 I2.989 J0.2571
G2 X-3.0 Y13.414 I18.6274 J1.5629
G2 Y13.4228 I3.0 J0.0088
G1 Y76.5752
G2 X-2.9997 Y76.6206 I3.0 J0.0
G1 Y82.9406
G2 X-0.0546 Y90.0527 I10.0338 J0.0108
G2 X7.0578 Y92.998 I7.1009 J-7.0874
G1 X17.9433
G1 F300.0 Z-3.0
G2 F150.0 X25.0556 Y90.0523 I0.0116 J-10.031
G2 X28.0 Y82.9407 I-7.0912 J-7.1014
G1 Y76.5752
G1 Y70.5025
G1 Y13.4247
G2 X27.2362 Y8.3177 I-17.3124 J-0.0214
G2 X24.9541 Y3.6423 I-16.0106 J4.9204
G2 X24.9518 Y3.639 I-2.4589 J1.7187
G2 X22.6474 Y1.0063 I-13.3384 J9.3497
G2 X22.6473 Y1.0062 I-11.034 J11.9825
G1 X22.6476 Y1.0064
G2 X22.6474 Y1.0063 I-10.4303 J11.325
G2 X18.7218 Y-1.6235 I-10.4302 J11.3251
G2 X18.7202 Y-1.6242 I-1.2674 J2.7191
G2 X12.5006 Y-3.0 I-6.2168 J13.358
G2 X7.5278 Y-2.1366 I-0.0099 J14.6945
G2 X7.5238 Y-2.1351 I1.0132 J2.8237
G2 X3.1585 Y0.3147 I5.152 J14.294
G2 X0.8107 Y2.6353 I10.0365 J12.5026
G1 X0.8105 Y2.6354
G2 X-1.4897 Y6.3425 I12.7375 J10.4708
G2 X-1.4898 Y6.3427 I15.0377 J6.7637
G1 X-1.4896 Y6.3424
G2 X-1.4897 Y6.3425 I15.6134 J7.0246
G2 X-2.9341 Y11.8996 I15.6134 J7.0244
G2 X-2.9346 Y11.9059 I2.989 J0.2571
G2 X-3.0 Y13.414 I18.6274 J1.5629
G2 Y13.4228 I3.0 J0.0088
G1 Y76.5752
G2 X-2.9997 Y76.6206 I3.0 J0.0
G1 Y82.9406
G2 X-0.0546 Y90.0527 I10.0338 J0.0108
G2 X7.0578 Y92.998 I7.1009 J-7.0874
G1 X17.9433
G1 F300.0 Z-4.0
G2 F150.0 X25.0556 Y90.0523 I0.0116 J-10.031
G2 X28.0 Y82.9407 I-7.0912 J-7.1014
G1 Y76.5752
G1 Y70.5025
G1 Y13.4247
G2 X27.2362 Y8.3177 I-17.3124 J-0.0214
G2 X24.9541 Y3.6423 I-16.0106 J4.9204
G2 X24.9518 Y3.639 I-2.4589 J1.7187
G2 X22.6474 Y1.0063 I-13.3384 J9.3497
G2 X22.6473 Y1.0062 I-11.034 J11.9825
G1 X22.6476 Y1.0064
G2 X22.6474 Y1.0063 I-10.4303 J11.325
G2 X18.7218 Y-1.6235 I-10.4302 J11.3251
G2 X18.7202 Y-1.6242 I-1.2674 J2.7191
G2 X12.5006 Y-3.0 I-6.2168 J13.358
G2 X7.5278 Y-2.1366 I-0.0099 J14.6945
G2 X7.5238 Y-2.1351 I1.0132 J2.8237
G2 X3.1585 Y0.3147 I5.152 J14.294
G2 X0.8107 Y2.6353 I10.0365 J12.5026
G1 X0.8105 Y2.6354
G2 X-1.4897 Y6.3425 I12.7375 J10.4708
G2 X-1.4898 Y6.3427 I15.0377 J6.7637
G1 X-1.4896 Y6.3424
G2 X-1.4897 Y6.3425 I15.6134 J7.0246
G2 X-2.9341 Y11.8996 I15.6134 J7.0244
G2 X-2.9346 Y11.9059 I2.989 J0.2571
G2 X-3.0 Y13.414 I18.6274 J1.5629
G2 Y13.4228 I3.0 J0.0088
G1 Y76.5752
G2 X-2.9997 Y76.6206 I3.0 J0.0
G1 Y82.9406
G2 X-0.0546 Y90.0527 I10.0338 J0.0108
G2 X7.0578 Y92.998 I7.1009 J-7.0874
G1 X17.9433
G1 F300.0 Z-5.0
G2 F150.0 X25.0556 Y90.0523 I0.0116 J-10.031
G2 X28.0 Y82.9407 I-7.0912 J-7.1014
G1 Y76.5752
G1 Y70.5025
G1 Y13.4247
G2 X27.2362 Y8.3177 I-17.3124 J-0.0214
G2 X24.9541 Y3.6423 I-16.0106 J4.9204
G2 X24.9518 Y3.639 I-2.4589 J1.7187
G2 X22.6474 Y1.0063 I-13.3384 J9.3497
G2 X22.6473 Y1.0062 I-11.034 J11.9825
G1 X22.6476 Y1.0064
G2 X22.6474 Y1.0063 I-10.4303 J11.325
G2 X18.7218 Y-1.6235 I-10.4302 J11.3251
G2 X18.7202 Y-1.6242 I-1.2674 J2.7191
G2 X12.5006 Y-3.0 I-6.2168 J13.358
G2 X7.5278 Y-2.1366 I-0.0099 J14.6945
G2 X7.5238 Y-2.1351 I1.0132 J2.8237
G2 X3.1585 Y0.3147 I5.152 J14.294
G2 X0.8107 Y2.6353 I10.0365 J12.5026
G1 X0.8105 Y2.6354
G2 X-1.4897 Y6.3425 I12.7375 J10.4708
G2 X-1.4898 Y6.3427 I15.0377 J6.7637
G1 X-1.4896 Y6.3424
G2 X-1.4897 Y6.3425 I15.6134 J7.0246
G2 X-2.9341 Y11.8996 I15.6134 J7.0244
G2 X-2.9346 Y11.9059 I2.989 J0.2571
G2 X-3.0 Y13.414 I18.6274 J1.5629
G2 Y13.4228 I3.0 J0.0088
G1 Y76.5752
G2 X-2.9997 Y76.6206 I3.0 J0.0
G1 Y82.9406
G2 X-0.0546 Y90.0527 I10.0338 J0.0108
G2 X7.0578 Y92.998 I7.1009 J-7.0874
G1 X17.9433
G1 F300.0 Z-6.0
G2 F150.0 X25.0556 Y90.0523 I0.0116 J-10.031
G2 X28.0 Y82.9407 I-7.0912 J-7.1014
G1 Y76.5752
G1 Y70.5025
G1 Y13.4247
G2 X27.2362 Y8.3177 I-17.3124 J-0.0214
G2 X24.9541 Y3.6423 I-16.0106 J4.9204
G2 X24.9518 Y3.639 I-2.4589 J1.7187
G2 X22.6474 Y1.0063 I-13.3384 J9.3497
G2 X22.6473 Y1.0062 I-11.034 J11.9825
G1 X22.6476 Y1.0064
G2 X22.6474 Y1.0063 I-10.4303 J11.325
G2 X18.7218 Y-1.6235 I-10.4302 J11.3251
G2 X18.7202 Y-1.6242 I-1.2674 J2.7191
G2 X12.5006 Y-3.0 I-6.2168 J13.358
G2 X7.5278 Y-2.1366 I-0.0099 J14.6945
G2 X7.5238 Y-2.1351 I1.0132 J2.8237
G2 X3.1585 Y0.3147 I5.152 J14.294
G2 X0.8107 Y2.6353 I10.0365 J12.5026
G1 X0.8105 Y2.6354
G2 X-1.4897 Y6.3425 I12.7375 J10.4708
G2 X-1.4898 Y6.3427 I15.0377 J6.7637
G1 X-1.4896 Y6.3424
G2 X-1.4897 Y6.3425 I15.6134 J7.0246
G2 X-2.9341 Y11.8996 I15.6134 J7.0244
G2 X-2.9346 Y11.9059 I2.989 J0.2571
G2 X-3.0 Y13.414 I18.6274 J1.5629
G2 Y13.4228 I3.0 J0.0088
G1 Y76.5752
G2 X-2.9997 Y76.6206 I3.0 J0.0
G1 Y82.9406
G2 X-0.0546 Y90.0527 I10.0338 J0.0108
G2 X7.0578 Y92.998 I7.1009 J-7.0874
G1 X17.9433
G1 F300.0 Z-7.0
G2 F150.0 X25.0556 Y90.0523 I0.0116 J-10.031
G2 X28.0 Y82.9407 I-7.0912 J-7.1014
G1 Y76.5752
G1 Y70.5025
G1 Y13.4247
G2 X27.2362 Y8.3177 I-17.3124 J-0.0214
G2 X24.9541 Y3.6423 I-16.0106 J4.9204
G2 X24.9518 Y3.639 I-2.4589 J1.7187
G2 X22.6474 Y1.0063 I-13.3384 J9.3497
G2 X22.6473 Y1.0062 I-11.034 J11.9825
G1 X22.6476 Y1.0064
G2 X22.6474 Y1.0063 I-10.4303 J11.325
G2 X18.7218 Y-1.6235 I-10.4302 J11.3251
G2 X18.7202 Y-1.6242 I-1.2674 J2.7191
G2 X12.5006 Y-3.0 I-6.2168 J13.358
G2 X7.5278 Y-2.1366 I-0.0099 J14.6945
G2 X7.5238 Y-2.1351 I1.0132 J2.8237
G2 X3.1585 Y0.3147 I5.152 J14.294
G2 X0.8107 Y2.6353 I10.0365 J12.5026
G1 X0.8105 Y2.6354
G2 X-1.4897 Y6.3425 I12.7375 J10.4708
G2 X-1.4898 Y6.3427 I15.0377 J6.7637
G1 X-1.4896 Y6.3424
G2 X-1.4897 Y6.3425 I15.6134 J7.0246
G2 X-2.9341 Y11.8996 I15.6134 J7.0244
G2 X-2.9346 Y11.9059 I2.989 J0.2571
G2 X-3.0 Y13.414 I18.6274 J1.5629
G2 Y13.4228 I3.0 J0.0088
G1 Y76.5752
G2 X-2.9997 Y76.6206 I3.0 J0.0
G1 Y82.9406
G2 X-0.0546 Y90.0527 I10.0338 J0.0108
G2 X7.0578 Y92.998 I7.1009 J-7.0874
G1 X17.9433
G1 F300.0 Z-8.0
G2 F150.0 X25.0556 Y90.0523 I0.0116 J-10.031
G2 X28.0 Y82.9407 I-7.0912 J-7.1014
G1 Y76.5752
G1 Y70.5025
G1 Y13.4247
G2 X27.2362 Y8.3177 I-17.3124 J-0.0214
G2 X24.9541 Y3.6423 I-16.0106 J4.9204
G2 X24.9518 Y3.639 I-2.4589 J1.7187
G2 X22.6474 Y1.0063 I-13.3384 J9.3497
G2 X22.6473 Y1.0062 I-11.034 J11.9825
G1 X22.6476 Y1.0064
G2 X22.6474 Y1.0063 I-10.4303 J11.325
G2 X18.7218 Y-1.6235 I-10.4302 J11.3251
G2 X18.7202 Y-1.6242 I-1.2674 J2.7191
G2 X12.5006 Y-3.0 I-6.2168 J13.358
G2 X7.5278 Y-2.1366 I-0.0099 J14.6945
G2 X7.5238 Y-2.1351 I1.0132 J2.8237
G2 X3.1585 Y0.3147 I5.152 J14.294
G2 X0.8107 Y2.6353 I10.0365 J12.5026
G1 X0.8105 Y2.6354
G2 X-1.4897 Y6.3425 I12.7375 J10.4708
G2 X-1.4898 Y6.3427 I15.0377 J6.7637
G1 X-1.4896 Y6.3424
G2 X-1.4897 Y6.3425 I15.6134 J7.0246
G2 X-2.9341 Y11.8996 I15.6134 J7.0244
G2 X-2.9346 Y11.9059 I2.989 J0.2571
G2 X-3.0 Y13.414 I18.6274 J1.5629
G2 Y13.4228 I3.0 J0.0088
G1 Y76.5752
G2 X-2.9997 Y76.6206 I3.0 J0.0
G1 Y82.9406
G2 X-0.0546 Y90.0527 I10.0338 J0.0108
G2 X7.0578 Y92.998 I7.1009 J-7.0874
G1 X17.9433
G1 F300.0 Z-9.0
G2 F150.0 X25.0556 Y90.0523 I0.0116 J-10.031
G2 X28.0 Y82.9407 I-7.0912 J-7.1014
G1 Y76.5752
G1 Y70.5025
G1 Y13.4247
G2 X27.2362 Y8.3177 I-17.3124 J-0.0214
G2 X24.9541 Y3.6423 I-16.0106 J4.9204
G2 X24.9518 Y3.639 I-2.4589 J1.7187
G2 X22.6474 Y1.0063 I-13.3384 J9.3497
G2 X22.6473 Y1.0062 I-11.034 J11.9825
G1 X22.6476 Y1.0064
G2 X22.6474 Y1.0063 I-10.4303 J11.325
G2 X18.7218 Y-1.6235 I-10.4302 J11.3251
G2 X18.7202 Y-1.6242 I-1.2674 J2.7191
G2 X12.5006 Y-3.0 I-6.2168 J13.358
G2 X7.5278 Y-2.1366 I-0.0099 J14.6945
G2 X7.5238 Y-2.1351 I1.0132 J2.8237
G2 X3.1585 Y0.3147 I5.152 J14.294
G2 X0.8107 Y2.6353 I10.0365 J12.5026
G1 X0.8105 Y2.6354
G2 X-1.4897 Y6.3425 I12.7375 J10.4708
G2 X-1.4898 Y6.3427 I15.0377 J6.7637
G1 X-1.4896 Y6.3424
G2 X-1.4897 Y6.3425 I15.6134 J7.0246
G2 X-2.9341 Y11.8996 I15.6134 J7.0244
G2 X-2.9346 Y11.9059 I2.989 J0.2571
G2 X-3.0 Y13.414 I18.6274 J1.5629
G2 Y13.4228 I3.0 J0.0088
G1 Y76.5752
G2 X-2.9997 Y76.6206 I3.0 J0.0
G1 Y82.9406
G2 X-0.0546 Y90.0527 I10.0338 J0.0108
G2 X7.0578 Y92.998 I7.1009 J-7.0874
G1 X17.9433
G1 F300.0 Z-10.0
G2 F150.0 X25.0556 Y90.0523 I0.0116 J-10.031
G2 X28.0 Y82.9407 I-7.0912 J-7.1014
G1 Y76.5752
G1 Y70.5025
G1 Y13.4247
G2 X27.2362 Y8.3177 I-17.3124 J-0.0214
G2 X24.9541 Y3.6423 I-16.0106 J4.9204
G2 X24.9518 Y3.639 I-2.4589 J1.7187
G2 X22.6474 Y1.0063 I-13.3384 J9.3497
G2 X22.6473 Y1.0062 I-11.034 J11.9825
G1 X22.6476 Y1.0064
G2 X22.6474 Y1.0063 I-10.4303 J11.325
G2 X18.7218 Y-1.6235 I-10.4302 J11.3251
G2 X18.7202 Y-1.6242 I-1.2674 J2.7191
G2 X12.5006 Y-3.0 I-6.2168 J13.358
G2 X7.5278 Y-2.1366 I-0.0099 J14.6945
G2 X7.5238 Y-2.1351 I1.0132 J2.8237
G2 X3.1585 Y0.3147 I5.152 J14.294
G2 X0.8107 Y2.6353 I10.0365 J12.5026
G1 X0.8105 Y2.6354
G2 X-1.4897 Y6.3425 I12.7375 J10.4708
G2 X-1.4898 Y6.3427 I15.0377 J6.7637
G1 X-1.4896 Y6.3424
G2 X-1.4897 Y6.3425 I15.6134 J7.0246
G2 X-2.9341 Y11.8996 I15.6134 J7.0244
G2 X-2.9346 Y11.9059 I2.989 J0.2571
G2 X-3.0 Y13.414 I18.6274 J1.5629
G2 Y13.4228 I3.0 J0.0088
G1 Y76.5752
G2 X-2.9997 Y76.6206 I3.0 J0.0
G1 Y82.9406
G2 X-0.0546 Y90.0527 I10.0338 J0.0108
G2 X7.0578 Y92.998 I7.1009 J-7.0874
G1 X17.9433
G1 F300.0 Z-11.0
G2 F150.0 X25.0556 Y90.0523 I0.0116 J-10.031
G2 X28.0 Y82.9407 I-7.0912 J-7.1014
G1 Y76.5752
G1 Y70.5025
G1 Y13.4247
G2 X27.2362 Y8.3177 I-17.3124 J-0.0214
G2 X24.9541 Y3.6423 I-16.0106 J4.9204
G2 X24.9518 Y3.639 I-2.4589 J1.7187
G2 X22.6474 Y1.0063 I-13.3384 J9.3497
G2 X22.6473 Y1.0062 I-11.034 J11.9825
G1 X22.6476 Y1.0064
G2 X22.6474 Y1.0063 I-10.4303 J11.325
G2 X18.7218 Y-1.6235 I-10.4302 J11.3251
G2 X18.7202 Y-1.6242 I-1.2674 J2.7191
G2 X12.5006 Y-3.0 I-6.2168 J13.358
G2 X7.5278 Y-2.1366 I-0.0099 J14.6945
G2 X7.5238 Y-2.1351 I1.0132 J2.8237
G2 X3.1585 Y0.3147 I5.152 J14.294
G2 X0.8107 Y2.6353 I10.0365 J12.5026
G1 X0.8105 Y2.6354
G2 X-1.4897 Y6.3425 I12.7375 J10.4708
G2 X-1.4898 Y6.3427 I15.0377 J6.7637
G1 X-1.4896 Y6.3424
G2 X-1.4897 Y6.3425 I15.6134 J7.0246
G2 X-2.9341 Y11.8996 I15.6134 J7.0244
G2 X-2.9346 Y11.9059 I2.989 J0.2571
G2 X-3.0 Y13.414 I18.6274 J1.5629
G2 Y13.4228 I3.0 J0.0088
G1 Y76.5752
G2 X-2.9997 Y76.6206 I3.0 J0.0
G1 Y82.9406
G2 X-0.0546 Y90.0527 I10.0338 J0.0108
G2 X7.0578 Y92.998 I7.1009 J-7.0874
G1 X17.9433
G0 Z3.0
M5
M30
