( Made using CamBam - http://www.cambam.co.uk )
( head-top plate 10/22/2012 5:24:30 PM )
( T6 : 6.0 )
G21 G90 G64 G40
G0 Z3.0
( T6 : 6.0 )
T6 M6
( 6mm Pocket 1 )
G17
M3 S1000
G0 X14.8517 Y77.505
G1 F50.0 Z-1.0
G3 F150.0 X14.1684 Y79.1545 I-2.3253 J0.0031
G2 X14.1581 Y79.1649 I3.8134 J3.8234
G3 X12.5092 Y79.8479 I-1.6456 J-1.641
G2 X12.4941 I-0.0075 J5.4
G3 X10.8454 Y79.1649 I-0.0033 J-2.3237
G2 X10.8353 Y79.1548 I-3.8238 J3.813
G3 X10.1516 Y77.5043 I1.6437 J-1.6477
G2 Y77.4902 I-5.4 J-0.0065
G3 X10.8346 Y75.8414 I2.3237 J-0.0033
G2 X10.8447 Y75.8314 I-3.813 J-3.8238
G3 X12.4952 Y75.1477 I1.6477 J1.6437
G2 X12.5085 I0.0065 J-5.4
G3 X14.1586 Y75.8312 I0.0029 J2.3265
G2 X14.1683 Y75.8408 I3.8232 J-3.8135
G3 X14.8517 Y77.4908 I-1.6427 J1.6469
G2 Y77.505 I5.4 J0.007
G1 F50.0 X17.2517 Y77.5018
G3 F150.0 X15.8633 Y80.8538 I-4.7253 J0.0063
G2 X15.8575 Y80.8595 I2.1185 J2.1241
G3 X12.5059 Y82.2479 I-3.345 J-3.3357
G2 X12.4975 I-0.0042 J3.0
G3 X9.146 Y80.8596 I-0.0067 J-4.7237
G2 X9.1404 Y80.854 I-2.1243 J2.1183
G3 X7.7516 Y77.5014 I3.3387 J-3.3469
G2 Y77.4935 I-3.0 J-0.0036
G3 X9.1399 Y74.142 I4.7237 J-0.0067
G2 X9.1455 Y74.1364 I-2.1183 J-2.1243
G3 X12.4981 Y72.7477 I3.3469 J3.3387
G2 X12.5055 I0.0036 J-3.0
G3 X15.8578 Y74.1363 I0.0059 J4.7265
G2 X15.8632 Y74.1416 I2.124 J-2.1186
G3 X17.2517 Y77.4939 I-3.3377 J3.3461
G2 Y77.5018 I3.0 J0.0039
G1 F50.0 X14.8517 Y77.505
G1 Z-2.0
G3 F150.0 X14.1684 Y79.1545 I-2.3253 J0.0031
G2 X14.1581 Y79.1649 I3.8134 J3.8234
G3 X12.5092 Y79.8479 I-1.6456 J-1.641
G2 X12.4941 I-0.0075 J5.4
G3 X10.8454 Y79.1649 I-0.0033 J-2.3237
G2 X10.8353 Y79.1548 I-3.8238 J3.813
G3 X10.1516 Y77.5043 I1.6437 J-1.6477
G2 Y77.4902 I-5.4 J-0.0065
G3 X10.8346 Y75.8414 I2.3237 J-0.0033
G2 X10.8447 Y75.8314 I-3.813 J-3.8238
G3 X12.4952 Y75.1477 I1.6477 J1.6437
G2 X12.5085 I0.0065 J-5.4
G3 X14.1586 Y75.8312 I0.0029 J2.3265
G2 X14.1683 Y75.8408 I3.8232 J-3.8135
G3 X14.8517 Y77.4908 I-1.6427 J1.6469
G2 Y77.505 I5.4 J0.007
G1 F50.0 X17.2517 Y77.5018
G3 F150.0 X15.8633 Y80.8538 I-4.7253 J0.0063
G2 X15.8575 Y80.8595 I2.1185 J2.1241
G3 X12.5059 Y82.2479 I-3.345 J-3.3357
G2 X12.4975 I-0.0042 J3.0
G3 X9.146 Y80.8596 I-0.0067 J-4.7237
G2 X9.1404 Y80.854 I-2.1243 J2.1183
G3 X7.7516 Y77.5014 I3.3387 J-3.3469
G2 Y77.4935 I-3.0 J-0.0036
G3 X9.1399 Y74.142 I4.7237 J-0.0067
G2 X9.1455 Y74.1364 I-2.1183 J-2.1243
G3 X12.4981 Y72.7477 I3.3469 J3.3387
G2 X12.5055 I0.0036 J-3.0
G3 X15.8578 Y74.1363 I0.0059 J4.7265
G2 X15.8632 Y74.1416 I2.124 J-2.1186
G3 X17.2517 Y77.4939 I-3.3377 J3.3461
G2 Y77.5018 I3.0 J0.0039
G1 F50.0 X14.8517 Y77.505
G1 Z-3.0
G3 F150.0 X14.1684 Y79.1545 I-2.3253 J0.0031
G2 X14.1581 Y79.1649 I3.8134 J3.8234
G3 X12.5092 Y79.8479 I-1.6456 J-1.641
G2 X12.4941 I-0.0075 J5.4
G3 X10.8454 Y79.1649 I-0.0033 J-2.3237
G2 X10.8353 Y79.1548 I-3.8238 J3.813
G3 X10.1516 Y77.5043 I1.6437 J-1.6477
G2 Y77.4902 I-5.4 J-0.0065
G3 X10.8346 Y75.8414 I2.3237 J-0.0033
G2 X10.8447 Y75.8314 I-3.813 J-3.8238
G3 X12.4952 Y75.1477 I1.6477 J1.6437
G2 X12.5085 I0.0065 J-5.4
G3 X14.1586 Y75.8312 I0.0029 J2.3265
G2 X14.1683 Y75.8408 I3.8232 J-3.8135
G3 X14.8517 Y77.4908 I-1.6427 J1.6469
G2 Y77.505 I5.4 J0.007
G1 F50.0 X17.2517 Y77.5018
G3 F150.0 X15.8633 Y80.8538 I-4.7253 J0.0063
G2 X15.8575 Y80.8595 I2.1185 J2.1241
G3 X12.5059 Y82.2479 I-3.345 J-3.3357
G2 X12.4975 I-0.0042 J3.0
G3 X9.146 Y80.8596 I-0.0067 J-4.7237
G2 X9.1404 Y80.854 I-2.1243 J2.1183
G3 X7.7516 Y77.5014 I3.3387 J-3.3469
G2 Y77.4935 I-3.0 J-0.0036
G3 X9.1399 Y74.142 I4.7237 J-0.0067
G2 X9.1455 Y74.1364 I-2.1183 J-2.1243
G3 X12.4981 Y72.7477 I3.3469 J3.3387
G2 X12.5055 I0.0036 J-3.0
G3 X15.8578 Y74.1363 I0.0059 J4.7265
G2 X15.8632 Y74.1416 I2.124 J-2.1186
G3 X17.2517 Y77.4939 I-3.3377 J3.3461
G2 Y77.5018 I3.0 J0.0039
G1 F50.0 X14.8517 Y77.505
G1 Z-4.0
G3 F150.0 X14.1684 Y79.1545 I-2.3253 J0.0031
G2 X14.1581 Y79.1649 I3.8134 J3.8234
G3 X12.5092 Y79.8479 I-1.6456 J-1.641
G2 X12.4941 I-0.0075 J5.4
G3 X10.8454 Y79.1649 I-0.0033 J-2.3237
G2 X10.8353 Y79.1548 I-3.8238 J3.813
G3 X10.1516 Y77.5043 I1.6437 J-1.6477
G2 Y77.4902 I-5.4 J-0.0065
G3 X10.8346 Y75.8414 I2.3237 J-0.0033
G2 X10.8447 Y75.8314 I-3.813 J-3.8238
G3 X12.4952 Y75.1477 I1.6477 J1.6437
G2 X12.5085 I0.0065 J-5.4
G3 X14.1586 Y75.8312 I0.0029 J2.3265
G2 X14.1683 Y75.8408 I3.8232 J-3.8135
G3 X14.8517 Y77.4908 I-1.6427 J1.6469
G2 Y77.505 I5.4 J0.007
G1 F50.0 X17.2517 Y77.5018
G3 F150.0 X15.8633 Y80.8538 I-4.7253 J0.0063
G2 X15.8575 Y80.8595 I2.1185 J2.1241
G3 X12.5059 Y82.2479 I-3.345 J-3.3357
G2 X12.4975 I-0.0042 J3.0
G3 X9.146 Y80.8596 I-0.0067 J-4.7237
G2 X9.1404 Y80.854 I-2.1243 J2.1183
G3 X7.7516 Y77.5014 I3.3387 J-3.3469
G2 Y77.4935 I-3.0 J-0.0036
G3 X9.1399 Y74.142 I4.7237 J-0.0067
G2 X9.1455 Y74.1364 I-2.1183 J-2.1243
G3 X12.4981 Y72.7477 I3.3469 J3.3387
G2 X12.5055 I0.0036 J-3.0
G3 X15.8578 Y74.1363 I0.0059 J4.7265
G2 X15.8632 Y74.1416 I2.124 J-2.1186
G3 X17.2517 Y77.4939 I-3.3377 J3.3461
G2 Y77.5018 I3.0 J0.0039
G1 F50.0 X14.8517 Y77.505
G1 Z-5.0
G3 F150.0 X14.1684 Y79.1545 I-2.3253 J0.0031
G2 X14.1581 Y79.1649 I3.8134 J3.8234
G3 X12.5092 Y79.8479 I-1.6456 J-1.641
G2 X12.4941 I-0.0075 J5.4
G3 X10.8454 Y79.1649 I-0.0033 J-2.3237
G2 X10.8353 Y79.1548 I-3.8238 J3.813
G3 X10.1516 Y77.5043 I1.6437 J-1.6477
G2 Y77.4902 I-5.4 J-0.0065
G3 X10.8346 Y75.8414 I2.3237 J-0.0033
G2 X10.8447 Y75.8314 I-3.813 J-3.8238
G3 X12.4952 Y75.1477 I1.6477 J1.6437
G2 X12.5085 I0.0065 J-5.4
G3 X14.1586 Y75.8312 I0.0029 J2.3265
G2 X14.1683 Y75.8408 I3.8232 J-3.8135
G3 X14.8517 Y77.4908 I-1.6427 J1.6469
G2 Y77.505 I5.4 J0.007
G1 F50.0 X17.2517 Y77.5018
G3 F150.0 X15.8633 Y80.8538 I-4.7253 J0.0063
G2 X15.8575 Y80.8595 I2.1185 J2.1241
G3 X12.5059 Y82.2479 I-3.345 J-3.3357
G2 X12.4975 I-0.0042 J3.0
G3 X9.146 Y80.8596 I-0.0067 J-4.7237
G2 X9.1404 Y80.854 I-2.1243 J2.1183
G3 X7.7516 Y77.5014 I3.3387 J-3.3469
G2 Y77.4935 I-3.0 J-0.0036
G3 X9.1399 Y74.142 I4.7237 J-0.0067
G2 X9.1455 Y74.1364 I-2.1183 J-2.1243
G3 X12.4981 Y72.7477 I3.3469 J3.3387
G2 X12.5055 I0.0036 J-3.0
G3 X15.8578 Y74.1363 I0.0059 J4.7265
G2 X15.8632 Y74.1416 I2.124 J-2.1186
G3 X17.2517 Y77.4939 I-3.3377 J3.3461
G2 Y77.5018 I3.0 J0.0039
G1 F50.0 X14.8517 Y77.505
G1 Z-6.0
G3 F150.0 X14.1684 Y79.1545 I-2.3253 J0.0031
G2 X14.1581 Y79.1649 I3.8134 J3.8234
G3 X12.5092 Y79.8479 I-1.6456 J-1.641
G2 X12.4941 I-0.0075 J5.4
G3 X10.8454 Y79.1649 I-0.0033 J-2.3237
G2 X10.8353 Y79.1548 I-3.8238 J3.813
G3 X10.1516 Y77.5043 I1.6437 J-1.6477
G2 Y77.4902 I-5.4 J-0.0065
G3 X10.8346 Y75.8414 I2.3237 J-0.0033
G2 X10.8447 Y75.8314 I-3.813 J-3.8238
G3 X12.4952 Y75.1477 I1.6477 J1.6437
G2 X12.5085 I0.0065 J-5.4
G3 X14.1586 Y75.8312 I0.0029 J2.3265
G2 X14.1683 Y75.8408 I3.8232 J-3.8135
G3 X14.8517 Y77.4908 I-1.6427 J1.6469
G2 Y77.505 I5.4 J0.007
G1 F50.0 X17.2517 Y77.5018
G3 F150.0 X15.8633 Y80.8538 I-4.7253 J0.0063
G2 X15.8575 Y80.8595 I2.1185 J2.1241
G3 X12.5059 Y82.2479 I-3.345 J-3.3357
G2 X12.4975 I-0.0042 J3.0
G3 X9.146 Y80.8596 I-0.0067 J-4.7237
G2 X9.1404 Y80.854 I-2.1243 J2.1183
G3 X7.7516 Y77.5014 I3.3387 J-3.3469
G2 Y77.4935 I-3.0 J-0.0036
G3 X9.1399 Y74.142 I4.7237 J-0.0067
G2 X9.1455 Y74.1364 I-2.1183 J-2.1243
G3 X12.4981 Y72.7477 I3.3469 J3.3387
G2 X12.5055 I0.0036 J-3.0
G3 X15.8578 Y74.1363 I0.0059 J4.7265
G2 X15.8632 Y74.1416 I2.124 J-2.1186
G3 X17.2517 Y77.4939 I-3.3377 J3.3461
G2 Y77.5018 I3.0 J0.0039
G1 F50.0 X14.8517 Y77.505
G1 Z-7.0
G3 F150.0 X14.1684 Y79.1545 I-2.3253 J0.0031
G2 X14.1581 Y79.1649 I3.8134 J3.8234
G3 X12.5092 Y79.8479 I-1.6456 J-1.641
G2 X12.4941 I-0.0075 J5.4
G3 X10.8454 Y79.1649 I-0.0033 J-2.3237
G2 X10.8353 Y79.1548 I-3.8238 J3.813
G3 X10.1516 Y77.5043 I1.6437 J-1.6477
G2 Y77.4902 I-5.4 J-0.0065
G3 X10.8346 Y75.8414 I2.3237 J-0.0033
G2 X10.8447 Y75.8314 I-3.813 J-3.8238
G3 X12.4952 Y75.1477 I1.6477 J1.6437
G2 X12.5085 I0.0065 J-5.4
G3 X14.1586 Y75.8312 I0.0029 J2.3265
G2 X14.1683 Y75.8408 I3.8232 J-3.8135
G3 X14.8517 Y77.4908 I-1.6427 J1.6469
G2 Y77.505 I5.4 J0.007
G1 F50.0 X17.2517 Y77.5018
G3 F150.0 X15.8633 Y80.8538 I-4.7253 J0.0063
G2 X15.8575 Y80.8595 I2.1185 J2.1241
G3 X12.5059 Y82.2479 I-3.345 J-3.3357
G2 X12.4975 I-0.0042 J3.0
G3 X9.146 Y80.8596 I-0.0067 J-4.7237
G2 X9.1404 Y80.854 I-2.1243 J2.1183
G3 X7.7516 Y77.5014 I3.3387 J-3.3469
G2 Y77.4935 I-3.0 J-0.0036
G3 X9.1399 Y74.142 I4.7237 J-0.0067
G2 X9.1455 Y74.1364 I-2.1183 J-2.1243
G3 X12.4981 Y72.7477 I3.3469 J3.3387
G2 X12.5055 I0.0036 J-3.0
G3 X15.8578 Y74.1363 I0.0059 J4.7265
G2 X15.8632 Y74.1416 I2.124 J-2.1186
G3 X17.2517 Y77.4939 I-3.3377 J3.3461
G2 Y77.5018 I3.0 J0.0039
G1 F50.0 X14.8517 Y77.505
G1 Z-8.0
G3 F150.0 X14.1684 Y79.1545 I-2.3253 J0.0031
G2 X14.1581 Y79.1649 I3.8134 J3.8234
G3 X12.5092 Y79.8479 I-1.6456 J-1.641
G2 X12.4941 I-0.0075 J5.4
G3 X10.8454 Y79.1649 I-0.0033 J-2.3237
G2 X10.8353 Y79.1548 I-3.8238 J3.813
G3 X10.1516 Y77.5043 I1.6437 J-1.6477
G2 Y77.4902 I-5.4 J-0.0065
G3 X10.8346 Y75.8414 I2.3237 J-0.0033
G2 X10.8447 Y75.8314 I-3.813 J-3.8238
G3 X12.4952 Y75.1477 I1.6477 J1.6437
G2 X12.5085 I0.0065 J-5.4
G3 X14.1586 Y75.8312 I0.0029 J2.3265
G2 X14.1683 Y75.8408 I3.8232 J-3.8135
G3 X14.8517 Y77.4908 I-1.6427 J1.6469
G2 Y77.505 I5.4 J0.007
G1 F50.0 X17.2517 Y77.5018
G3 F150.0 X15.8633 Y80.8538 I-4.7253 J0.0063
G2 X15.8575 Y80.8595 I2.1185 J2.1241
G3 X12.5059 Y82.2479 I-3.345 J-3.3357
G2 X12.4975 I-0.0042 J3.0
G3 X9.146 Y80.8596 I-0.0067 J-4.7237
G2 X9.1404 Y80.854 I-2.1243 J2.1183
G3 X7.7516 Y77.5014 I3.3387 J-3.3469
G2 Y77.4935 I-3.0 J-0.0036
G3 X9.1399 Y74.142 I4.7237 J-0.0067
G2 X9.1455 Y74.1364 I-2.1183 J-2.1243
G3 X12.4981 Y72.7477 I3.3469 J3.3387
G2 X12.5055 I0.0036 J-3.0
G3 X15.8578 Y74.1363 I0.0059 J4.7265
G2 X15.8632 Y74.1416 I2.124 J-2.1186
G3 X17.2517 Y77.4939 I-3.3377 J3.3461
G2 Y77.5018 I3.0 J0.0039
G1 F50.0 X14.8517 Y77.505
G1 Z-9.0
G3 F150.0 X14.1684 Y79.1545 I-2.3253 J0.0031
G2 X14.1581 Y79.1649 I3.8134 J3.8234
G3 X12.5092 Y79.8479 I-1.6456 J-1.641
G2 X12.4941 I-0.0075 J5.4
G3 X10.8454 Y79.1649 I-0.0033 J-2.3237
G2 X10.8353 Y79.1548 I-3.8238 J3.813
G3 X10.1516 Y77.5043 I1.6437 J-1.6477
G2 Y77.4902 I-5.4 J-0.0065
G3 X10.8346 Y75.8414 I2.3237 J-0.0033
G2 X10.8447 Y75.8314 I-3.813 J-3.8238
G3 X12.4952 Y75.1477 I1.6477 J1.6437
G2 X12.5085 I0.0065 J-5.4
G3 X14.1586 Y75.8312 I0.0029 J2.3265
G2 X14.1683 Y75.8408 I3.8232 J-3.8135
G3 X14.8517 Y77.4908 I-1.6427 J1.6469
G2 Y77.505 I5.4 J0.007
G1 F50.0 X17.2517 Y77.5018
G3 F150.0 X15.8633 Y80.8538 I-4.7253 J0.0063
G2 X15.8575 Y80.8595 I2.1185 J2.1241
G3 X12.5059 Y82.2479 I-3.345 J-3.3357
G2 X12.4975 I-0.0042 J3.0
G3 X9.146 Y80.8596 I-0.0067 J-4.7237
G2 X9.1404 Y80.854 I-2.1243 J2.1183
G3 X7.7516 Y77.5014 I3.3387 J-3.3469
G2 Y77.4935 I-3.0 J-0.0036
G3 X9.1399 Y74.142 I4.7237 J-0.0067
G2 X9.1455 Y74.1364 I-2.1183 J-2.1243
G3 X12.4981 Y72.7477 I3.3469 J3.3387
G2 X12.5055 I0.0036 J-3.0
G3 X15.8578 Y74.1363 I0.0059 J4.7265
G2 X15.8632 Y74.1416 I2.124 J-2.1186
G3 X17.2517 Y77.4939 I-3.3377 J3.3461
G2 Y77.5018 I3.0 J0.0039
G1 F50.0 X14.8517 Y77.505
G1 Z-10.0
G3 F150.0 X14.1684 Y79.1545 I-2.3253 J0.0031
G2 X14.1581 Y79.1649 I3.8134 J3.8234
G3 X12.5092 Y79.8479 I-1.6456 J-1.641
G2 X12.4941 I-0.0075 J5.4
G3 X10.8454 Y79.1649 I-0.0033 J-2.3237
G2 X10.8353 Y79.1548 I-3.8238 J3.813
G3 X10.1516 Y77.5043 I1.6437 J-1.6477
G2 Y77.4902 I-5.4 J-0.0065
G3 X10.8346 Y75.8414 I2.3237 J-0.0033
G2 X10.8447 Y75.8314 I-3.813 J-3.8238
G3 X12.4952 Y75.1477 I1.6477 J1.6437
G2 X12.5085 I0.0065 J-5.4
G3 X14.1586 Y75.8312 I0.0029 J2.3265
G2 X14.1683 Y75.8408 I3.8232 J-3.8135
G3 X14.8517 Y77.4908 I-1.6427 J1.6469
G2 Y77.505 I5.4 J0.007
G1 F50.0 X17.2517 Y77.5018
G3 F150.0 X15.8633 Y80.8538 I-4.7253 J0.0063
G2 X15.8575 Y80.8595 I2.1185 J2.1241
G3 X12.5059 Y82.2479 I-3.345 J-3.3357
G2 X12.4975 I-0.0042 J3.0
G3 X9.146 Y80.8596 I-0.0067 J-4.7237
G2 X9.1404 Y80.854 I-2.1243 J2.1183
G3 X7.7516 Y77.5014 I3.3387 J-3.3469
G2 Y77.4935 I-3.0 J-0.0036
G3 X9.1399 Y74.142 I4.7237 J-0.0067
G2 X9.1455 Y74.1364 I-2.1183 J-2.1243
G3 X12.4981 Y72.7477 I3.3469 J3.3387
G2 X12.5055 I0.0036 J-3.0
G3 X15.8578 Y74.1363 I0.0059 J4.7265
G2 X15.8632 Y74.1416 I2.124 J-2.1186
G3 X17.2517 Y77.4939 I-3.3377 J3.3461
G2 Y77.5018 I3.0 J0.0039
G1 F50.0 X14.8517 Y77.505
G1 Z-11.0
G3 F150.0 X14.1684 Y79.1545 I-2.3253 J0.0031
G2 X14.1581 Y79.1649 I3.8134 J3.8234
G3 X12.5092 Y79.8479 I-1.6456 J-1.641
G2 X12.4941 I-0.0075 J5.4
G3 X10.8454 Y79.1649 I-0.0033 J-2.3237
G2 X10.8353 Y79.1548 I-3.8238 J3.813
G3 X10.1516 Y77.5043 I1.6437 J-1.6477
G2 Y77.4902 I-5.4 J-0.0065
G3 X10.8346 Y75.8414 I2.3237 J-0.0033
G2 X10.8447 Y75.8314 I-3.813 J-3.8238
G3 X12.4952 Y75.1477 I1.6477 J1.6437
G2 X12.5085 I0.0065 J-5.4
G3 X14.1586 Y75.8312 I0.0029 J2.3265
G2 X14.1683 Y75.8408 I3.8232 J-3.8135
G3 X14.8517 Y77.4908 I-1.6427 J1.6469
G2 Y77.505 I5.4 J0.007
G1 F50.0 X17.2517 Y77.5018
G3 F150.0 X15.8633 Y80.8538 I-4.7253 J0.0063
G2 X15.8575 Y80.8595 I2.1185 J2.1241
G3 X12.5059 Y82.2479 I-3.345 J-3.3357
G2 X12.4975 I-0.0042 J3.0
G3 X9.146 Y80.8596 I-0.0067 J-4.7237
G2 X9.1404 Y80.854 I-2.1243 J2.1183
G3 X7.7516 Y77.5014 I3.3387 J-3.3469
G2 Y77.4935 I-3.0 J-0.0036
G3 X9.1399 Y74.142 I4.7237 J-0.0067
G2 X9.1455 Y74.1364 I-2.1183 J-2.1243
G3 X12.4981 Y72.7477 I3.3469 J3.3387
G2 X12.5055 I0.0036 J-3.0
G3 X15.8578 Y74.1363 I0.0059 J4.7265
G2 X15.8632 Y74.1416 I2.124 J-2.1186
G3 X17.2517 Y77.4939 I-3.3377 J3.3461
G2 Y77.5018 I3.0 J0.0039
G0 Z3.0
M5
M30
