( Made using CamBam - http://www.cambam.co.uk )
( head-top plate 10/22/2012 5:52:40 PM )
( T7 : 4.0 )
G21 G90 G64 G40
G0 Z3.0
( T7 : 4.0 )
T7 M6
( 4mm Cutout )
G17
M3 S1000
G0 X17.9439 Y91.998
G1 F300.0 Z-1.0
G2 F150.0 X24.3483 Y89.3453 I0.011 J-9.031
G2 X27.0 Y82.9413 I-6.384 J-6.3944
G1 Y76.5752
G1 Y70.5025
G1 Y13.4241
G2 X26.2803 Y8.6114 I-16.3124 J-0.0207
G2 X24.1345 Y4.2152 I-15.0547 J4.6266
G2 X24.1329 Y4.213 I-1.6393 J1.1458
G2 X21.97 Y1.7419 I-12.5195 J8.7757
G1 Y1.7418
G1 X21.9701 Y1.7419
G1 X21.97
G2 X18.2993 Y-0.7171 I-9.7528 J10.5895
G2 X18.2983 Y-0.7176 I-0.845 J1.8127
G2 X12.5003 Y-2.0 I-5.7948 J12.4513
G2 X7.8655 Y-1.1953 I-0.0097 J13.6945
G2 X7.8628 Y-1.1944 I0.6755 J1.8825
G2 X3.7847 Y1.0944 I4.8129 J13.3532
G2 X1.5831 Y3.2703 I9.4103 J11.7229
G1 X1.583 Y3.2705
G2 X-0.5777 Y6.7528 I11.965 J9.8358
G2 X-0.5778 Y6.7529 I14.1258 J6.3534
G1 X-0.5777 Y6.7527
G2 Y6.7528 I14.7014 J6.6143
G2 X-1.9378 Y11.9853 I14.7015 J6.6142
G2 X-1.9381 Y11.9895 I1.9926 J0.1714
G2 X-2.0 Y13.4169 I17.6309 J1.4793
G2 Y13.4228 I2.0 J0.0059
G1 Y76.5752
G2 X-1.9997 Y76.6123 I2.0 J0.0
G1 Y82.9412
G2 X0.6526 Y89.3456 I9.0338 J0.0103
G2 X7.0572 Y91.998 I6.3938 J-6.3803
G1 X17.9439
G1 F300.0 Z-2.0
G2 F150.0 X24.3483 Y89.3453 I0.011 J-9.031
G2 X27.0 Y82.9413 I-6.384 J-6.3944
G1 Y76.5752
G1 Y70.5025
G1 Y13.4241
G2 X26.2803 Y8.6114 I-16.3124 J-0.0207
G2 X24.1345 Y4.2152 I-15.0547 J4.6266
G2 X24.1329 Y4.213 I-1.6393 J1.1458
G2 X21.97 Y1.7419 I-12.5195 J8.7757
G1 Y1.7418
G1 X21.9701 Y1.7419
G1 X21.97
G2 X18.2993 Y-0.7171 I-9.7528 J10.5895
G2 X18.2983 Y-0.7176 I-0.845 J1.8127
G2 X12.5003 Y-2.0 I-5.7948 J12.4513
G2 X7.8655 Y-1.1953 I-0.0097 J13.6945
G2 X7.8628 Y-1.1944 I0.6755 J1.8825
G2 X3.7847 Y1.0944 I4.8129 J13.3532
G2 X1.5831 Y3.2703 I9.4103 J11.7229
G1 X1.583 Y3.2705
G2 X-0.5777 Y6.7528 I11.965 J9.8358
G2 X-0.5778 Y6.7529 I14.1258 J6.3534
G1 X-0.5777 Y6.7527
G2 Y6.7528 I14.7014 J6.6143
G2 X-1.9378 Y11.9853 I14.7015 J6.6142
G2 X-1.9381 Y11.9895 I1.9926 J0.1714
G2 X-2.0 Y13.4169 I17.6309 J1.4793
G2 Y13.4228 I2.0 J0.0059
G1 Y76.5752
G2 X-1.9997 Y76.6123 I2.0 J0.0
G1 Y82.9412
G2 X0.6526 Y89.3456 I9.0338 J0.0103
G2 X7.0572 Y91.998 I6.3938 J-6.3803
G1 X17.9439
G1 F300.0 Z-3.0
G2 F150.0 X24.3483 Y89.3453 I0.011 J-9.031
G2 X27.0 Y82.9413 I-6.384 J-6.3944
G1 Y76.5752
G1 Y70.5025
G1 Y13.4241
G2 X26.2803 Y8.6114 I-16.3124 J-0.0207
G2 X24.1345 Y4.2152 I-15.0547 J4.6266
G2 X24.1329 Y4.213 I-1.6393 J1.1458
G2 X21.97 Y1.7419 I-12.5195 J8.7757
G1 Y1.7418
G1 X21.9701 Y1.7419
G1 X21.97
G2 X18.2993 Y-0.7171 I-9.7528 J10.5895
G2 X18.2983 Y-0.7176 I-0.845 J1.8127
G2 X12.5003 Y-2.0 I-5.7948 J12.4513
G2 X7.8655 Y-1.1953 I-0.0097 J13.6945
G2 X7.8628 Y-1.1944 I0.6755 J1.8825
G2 X3.7847 Y1.0944 I4.8129 J13.3532
G2 X1.5831 Y3.2703 I9.4103 J11.7229
G1 X1.583 Y3.2705
G2 X-0.5777 Y6.7528 I11.965 J9.8358
G2 X-0.5778 Y6.7529 I14.1258 J6.3534
G1 X-0.5777 Y6.7527
G2 Y6.7528 I14.7014 J6.6143
G2 X-1.9378 Y11.9853 I14.7015 J6.6142
G2 X-1.9381 Y11.9895 I1.9926 J0.1714
G2 X-2.0 Y13.4169 I17.6309 J1.4793
G2 Y13.4228 I2.0 J0.0059
G1 Y76.5752
G2 X-1.9997 Y76.6123 I2.0 J0.0
G1 Y82.9412
G2 X0.6526 Y89.3456 I9.0338 J0.0103
G2 X7.0572 Y91.998 I6.3938 J-6.3803
G1 X17.9439
G1 F300.0 Z-4.0
G2 F150.0 X24.3483 Y89.3453 I0.011 J-9.031
G2 X27.0 Y82.9413 I-6.384 J-6.3944
G1 Y76.5752
G1 Y70.5025
G1 Y13.4241
G2 X26.2803 Y8.6114 I-16.3124 J-0.0207
G2 X24.1345 Y4.2152 I-15.0547 J4.6266
G2 X24.1329 Y4.213 I-1.6393 J1.1458
G2 X21.97 Y1.7419 I-12.5195 J8.7757
G1 Y1.7418
G1 X21.9701 Y1.7419
G1 X21.97
G2 X18.2993 Y-0.7171 I-9.7528 J10.5895
G2 X18.2983 Y-0.7176 I-0.845 J1.8127
G2 X12.5003 Y-2.0 I-5.7948 J12.4513
G2 X7.8655 Y-1.1953 I-0.0097 J13.6945
G2 X7.8628 Y-1.1944 I0.6755 J1.8825
G2 X3.7847 Y1.0944 I4.8129 J13.3532
G2 X1.5831 Y3.2703 I9.4103 J11.7229
G1 X1.583 Y3.2705
G2 X-0.5777 Y6.7528 I11.965 J9.8358
G2 X-0.5778 Y6.7529 I14.1258 J6.3534
G1 X-0.5777 Y6.7527
G2 Y6.7528 I14.7014 J6.6143
G2 X-1.9378 Y11.9853 I14.7015 J6.6142
G2 X-1.9381 Y11.9895 I1.9926 J0.1714
G2 X-2.0 Y13.4169 I17.6309 J1.4793
G2 Y13.4228 I2.0 J0.0059
G1 Y76.5752
G2 X-1.9997 Y76.6123 I2.0 J0.0
G1 Y82.9412
G2 X0.6526 Y89.3456 I9.0338 J0.0103
G2 X7.0572 Y91.998 I6.3938 J-6.3803
G1 X17.9439
G1 F300.0 Z-5.0
G2 F150.0 X24.3483 Y89.3453 I0.011 J-9.031
G2 X27.0 Y82.9413 I-6.384 J-6.3944
G1 Y76.5752
G1 Y70.5025
G1 Y13.4241
G2 X26.2803 Y8.6114 I-16.3124 J-0.0207
G2 X24.1345 Y4.2152 I-15.0547 J4.6266
G2 X24.1329 Y4.213 I-1.6393 J1.1458
G2 X21.97 Y1.7419 I-12.5195 J8.7757
G1 Y1.7418
G1 X21.9701 Y1.7419
G1 X21.97
G2 X18.2993 Y-0.7171 I-9.7528 J10.5895
G2 X18.2983 Y-0.7176 I-0.845 J1.8127
G2 X12.5003 Y-2.0 I-5.7948 J12.4513
G2 X7.8655 Y-1.1953 I-0.0097 J13.6945
G2 X7.8628 Y-1.1944 I0.6755 J1.8825
G2 X3.7847 Y1.0944 I4.8129 J13.3532
G2 X1.5831 Y3.2703 I9.4103 J11.7229
G1 X1.583 Y3.2705
G2 X-0.5777 Y6.7528 I11.965 J9.8358
G2 X-0.5778 Y6.7529 I14.1258 J6.3534
G1 X-0.5777 Y6.7527
G2 Y6.7528 I14.7014 J6.6143
G2 X-1.9378 Y11.9853 I14.7015 J6.6142
G2 X-1.9381 Y11.9895 I1.9926 J0.1714
G2 X-2.0 Y13.4169 I17.6309 J1.4793
G2 Y13.4228 I2.0 J0.0059
G1 Y76.5752
G2 X-1.9997 Y76.6123 I2.0 J0.0
G1 Y82.9412
G2 X0.6526 Y89.3456 I9.0338 J0.0103
G2 X7.0572 Y91.998 I6.3938 J-6.3803
G1 X17.9439
G1 F300.0 Z-6.0
G2 F150.0 X24.3483 Y89.3453 I0.011 J-9.031
G2 X27.0 Y82.9413 I-6.384 J-6.3944
G1 Y76.5752
G1 Y70.5025
G1 Y13.4241
G2 X26.2803 Y8.6114 I-16.3124 J-0.0207
G2 X24.1345 Y4.2152 I-15.0547 J4.6266
G2 X24.1329 Y4.213 I-1.6393 J1.1458
G2 X21.97 Y1.7419 I-12.5195 J8.7757
G1 Y1.7418
G1 X21.9701 Y1.7419
G1 X21.97
G2 X18.2993 Y-0.7171 I-9.7528 J10.5895
G2 X18.2983 Y-0.7176 I-0.845 J1.8127
G2 X12.5003 Y-2.0 I-5.7948 J12.4513
G2 X7.8655 Y-1.1953 I-0.0097 J13.6945
G2 X7.8628 Y-1.1944 I0.6755 J1.8825
G2 X3.7847 Y1.0944 I4.8129 J13.3532
G2 X1.5831 Y3.2703 I9.4103 J11.7229
G1 X1.583 Y3.2705
G2 X-0.5777 Y6.7528 I11.965 J9.8358
G2 X-0.5778 Y6.7529 I14.1258 J6.3534
G1 X-0.5777 Y6.7527
G2 Y6.7528 I14.7014 J6.6143
G2 X-1.9378 Y11.9853 I14.7015 J6.6142
G2 X-1.9381 Y11.9895 I1.9926 J0.1714
G2 X-2.0 Y13.4169 I17.6309 J1.4793
G2 Y13.4228 I2.0 J0.0059
G1 Y76.5752
G2 X-1.9997 Y76.6123 I2.0 J0.0
G1 Y82.9412
G2 X0.6526 Y89.3456 I9.0338 J0.0103
G2 X7.0572 Y91.998 I6.3938 J-6.3803
G1 X17.9439
G1 F300.0 Z-7.0
G2 F150.0 X24.3483 Y89.3453 I0.011 J-9.031
G2 X27.0 Y82.9413 I-6.384 J-6.3944
G1 Y76.5752
G1 Y70.5025
G1 Y13.4241
G2 X26.2803 Y8.6114 I-16.3124 J-0.0207
G2 X24.1345 Y4.2152 I-15.0547 J4.6266
G2 X24.1329 Y4.213 I-1.6393 J1.1458
G2 X21.97 Y1.7419 I-12.5195 J8.7757
G1 Y1.7418
G1 X21.9701 Y1.7419
G1 X21.97
G2 X18.2993 Y-0.7171 I-9.7528 J10.5895
G2 X18.2983 Y-0.7176 I-0.845 J1.8127
G2 X12.5003 Y-2.0 I-5.7948 J12.4513
G2 X7.8655 Y-1.1953 I-0.0097 J13.6945
G2 X7.8628 Y-1.1944 I0.6755 J1.8825
G2 X3.7847 Y1.0944 I4.8129 J13.3532
G2 X1.5831 Y3.2703 I9.4103 J11.7229
G1 X1.583 Y3.2705
G2 X-0.5777 Y6.7528 I11.965 J9.8358
G2 X-0.5778 Y6.7529 I14.1258 J6.3534
G1 X-0.5777 Y6.7527
G2 Y6.7528 I14.7014 J6.6143
G2 X-1.9378 Y11.9853 I14.7015 J6.6142
G2 X-1.9381 Y11.9895 I1.9926 J0.1714
G2 X-2.0 Y13.4169 I17.6309 J1.4793
G2 Y13.4228 I2.0 J0.0059
G1 Y76.5752
G2 X-1.9997 Y76.6123 I2.0 J0.0
G1 Y82.9412
G2 X0.6526 Y89.3456 I9.0338 J0.0103
G2 X7.0572 Y91.998 I6.3938 J-6.3803
G1 X17.9439
G1 F300.0 Z-8.0
G2 F150.0 X24.3483 Y89.3453 I0.011 J-9.031
G2 X27.0 Y82.9413 I-6.384 J-6.3944
G1 Y76.5752
G1 Y70.5025
G1 Y13.4241
G2 X26.2803 Y8.6114 I-16.3124 J-0.0207
G2 X24.1345 Y4.2152 I-15.0547 J4.6266
G2 X24.1329 Y4.213 I-1.6393 J1.1458
G2 X21.97 Y1.7419 I-12.5195 J8.7757
G1 Y1.7418
G1 X21.9701 Y1.7419
G1 X21.97
G2 X18.2993 Y-0.7171 I-9.7528 J10.5895
G2 X18.2983 Y-0.7176 I-0.845 J1.8127
G2 X12.5003 Y-2.0 I-5.7948 J12.4513
G2 X7.8655 Y-1.1953 I-0.0097 J13.6945
G2 X7.8628 Y-1.1944 I0.6755 J1.8825
G2 X3.7847 Y1.0944 I4.8129 J13.3532
G2 X1.5831 Y3.2703 I9.4103 J11.7229
G1 X1.583 Y3.2705
G2 X-0.5777 Y6.7528 I11.965 J9.8358
G2 X-0.5778 Y6.7529 I14.1258 J6.3534
G1 X-0.5777 Y6.7527
G2 Y6.7528 I14.7014 J6.6143
G2 X-1.9378 Y11.9853 I14.7015 J6.6142
G2 X-1.9381 Y11.9895 I1.9926 J0.1714
G2 X-2.0 Y13.4169 I17.6309 J1.4793
G2 Y13.4228 I2.0 J0.0059
G1 Y76.5752
G2 X-1.9997 Y76.6123 I2.0 J0.0
G1 Y82.9412
G2 X0.6526 Y89.3456 I9.0338 J0.0103
G2 X7.0572 Y91.998 I6.3938 J-6.3803
G1 X17.9439
G1 F300.0 Z-9.0
G2 F150.0 X24.3483 Y89.3453 I0.011 J-9.031
G2 X27.0 Y82.9413 I-6.384 J-6.3944
G1 Y76.5752
G1 Y70.5025
G1 Y13.4241
G2 X26.2803 Y8.6114 I-16.3124 J-0.0207
G2 X24.1345 Y4.2152 I-15.0547 J4.6266
G2 X24.1329 Y4.213 I-1.6393 J1.1458
G2 X21.97 Y1.7419 I-12.5195 J8.7757
G1 Y1.7418
G1 X21.9701 Y1.7419
G1 X21.97
G2 X18.2993 Y-0.7171 I-9.7528 J10.5895
G2 X18.2983 Y-0.7176 I-0.845 J1.8127
G2 X12.5003 Y-2.0 I-5.7948 J12.4513
G2 X7.8655 Y-1.1953 I-0.0097 J13.6945
G2 X7.8628 Y-1.1944 I0.6755 J1.8825
G2 X3.7847 Y1.0944 I4.8129 J13.3532
G2 X1.5831 Y3.2703 I9.4103 J11.7229
G1 X1.583 Y3.2705
G2 X-0.5777 Y6.7528 I11.965 J9.8358
G2 X-0.5778 Y6.7529 I14.1258 J6.3534
G1 X-0.5777 Y6.7527
G2 Y6.7528 I14.7014 J6.6143
G2 X-1.9378 Y11.9853 I14.7015 J6.6142
G2 X-1.9381 Y11.9895 I1.9926 J0.1714
G2 X-2.0 Y13.4169 I17.6309 J1.4793
G2 Y13.4228 I2.0 J0.0059
G1 Y76.5752
G2 X-1.9997 Y76.6123 I2.0 J0.0
G1 Y82.9412
G2 X0.6526 Y89.3456 I9.0338 J0.0103
G2 X7.0572 Y91.998 I6.3938 J-6.3803
G1 X17.9439
G1 F300.0 Z-10.0
G2 F150.0 X24.3483 Y89.3453 I0.011 J-9.031
G2 X27.0 Y82.9413 I-6.384 J-6.3944
G1 Y76.5752
G1 Y70.5025
G1 Y13.4241
G2 X26.2803 Y8.6114 I-16.3124 J-0.0207
G2 X24.1345 Y4.2152 I-15.0547 J4.6266
G2 X24.1329 Y4.213 I-1.6393 J1.1458
G2 X21.97 Y1.7419 I-12.5195 J8.7757
G1 Y1.7418
G1 X21.9701 Y1.7419
G1 X21.97
G2 X18.2993 Y-0.7171 I-9.7528 J10.5895
G2 X18.2983 Y-0.7176 I-0.845 J1.8127
G2 X12.5003 Y-2.0 I-5.7948 J12.4513
G2 X7.8655 Y-1.1953 I-0.0097 J13.6945
G2 X7.8628 Y-1.1944 I0.6755 J1.8825
G2 X3.7847 Y1.0944 I4.8129 J13.3532
G2 X1.5831 Y3.2703 I9.4103 J11.7229
G1 X1.583 Y3.2705
G2 X-0.5777 Y6.7528 I11.965 J9.8358
G2 X-0.5778 Y6.7529 I14.1258 J6.3534
G1 X-0.5777 Y6.7527
G2 Y6.7528 I14.7014 J6.6143
G2 X-1.9378 Y11.9853 I14.7015 J6.6142
G2 X-1.9381 Y11.9895 I1.9926 J0.1714
G2 X-2.0 Y13.4169 I17.6309 J1.4793
G2 Y13.4228 I2.0 J0.0059
G1 Y76.5752
G2 X-1.9997 Y76.6123 I2.0 J0.0
G1 Y82.9412
G2 X0.6526 Y89.3456 I9.0338 J0.0103
G2 X7.0572 Y91.998 I6.3938 J-6.3803
G1 X17.9439
G1 F300.0 Z-11.0
G2 F150.0 X24.3483 Y89.3453 I0.011 J-9.031
G2 X27.0 Y82.9413 I-6.384 J-6.3944
G1 Y76.5752
G1 Y70.5025
G1 Y13.4241
G2 X26.2803 Y8.6114 I-16.3124 J-0.0207
G2 X24.1345 Y4.2152 I-15.0547 J4.6266
G2 X24.1329 Y4.213 I-1.6393 J1.1458
G2 X21.97 Y1.7419 I-12.5195 J8.7757
G1 Y1.7418
G1 X21.9701 Y1.7419
G1 X21.97
G2 X18.2993 Y-0.7171 I-9.7528 J10.5895
G2 X18.2983 Y-0.7176 I-0.845 J1.8127
G2 X12.5003 Y-2.0 I-5.7948 J12.4513
G2 X7.8655 Y-1.1953 I-0.0097 J13.6945
G2 X7.8628 Y-1.1944 I0.6755 J1.8825
G2 X3.7847 Y1.0944 I4.8129 J13.3532
G2 X1.5831 Y3.2703 I9.4103 J11.7229
G1 X1.583 Y3.2705
G2 X-0.5777 Y6.7528 I11.965 J9.8358
G2 X-0.5778 Y6.7529 I14.1258 J6.3534
G1 X-0.5777 Y6.7527
G2 Y6.7528 I14.7014 J6.6143
G2 X-1.9378 Y11.9853 I14.7015 J6.6142
G2 X-1.9381 Y11.9895 I1.9926 J0.1714
G2 X-2.0 Y13.4169 I17.6309 J1.4793
G2 Y13.4228 I2.0 J0.0059
G1 Y76.5752
G2 X-1.9997 Y76.6123 I2.0 J0.0
G1 Y82.9412
G2 X0.6526 Y89.3456 I9.0338 J0.0103
G2 X7.0572 Y91.998 I6.3938 J-6.3803
G1 X17.9439
G0 Z3.0
M5
M30
