( Made using CamBam - http://www.cambam.co.uk )
( head-top plate 10/22/2012 5:08:06 PM )
( T6 : 6.0 )
G21 G90 G64 G40
G0 Z3.0
( T6 : 6.0 )
T6 M6
( 6mm Pocket 2 )
G17
M3 S1000
G0 X10.9201 Y17.0455
G1 F40.0 Z-1.0
G2 F120.0 X12.7934 Y17.213 I1.8739 J-10.396
G2 X12.7937 I0.0005 J-10.5636
G1 X12.7931
G2 X12.7934 I0.001 J-10.5629
G2 X14.3199 Y17.1023 I0.0007 J-10.5629
G1 Y48.7678
G1 X10.9201
G1 Y17.0455
G1 F40.0 X11.3458 Y14.6836
G2 F120.0 X12.7936 Y14.813 I1.4482 J-8.0341
G1 X12.7937
G1 X12.7934
G1 X12.7936
G2 X16.4246 Y13.9612 I0.0006 J-8.1629
G3 X16.7199 Y15.486 I-3.7571 J1.5186
G2 Y15.4943 I5.4 J0.0083
G1 Y51.1678
G1 X8.5201
G1 Y15.4943
G2 X8.52 Y15.4862 I-5.4 J0.0
G3 X8.8788 Y13.8129 I4.0535 J-0.0061
G2 X11.3458 Y14.6836 I3.9152 J-7.1635
G1 F40.0 X11.7715 Y12.3216
G2 F120.0 X12.7937 Y12.413 I1.0224 J-5.6721
G1 X12.7938
G1 X12.7936
G1 X12.7937
G2 X16.9469 Y10.6458 I0.0004 J-5.7629
G3 X17.8797 Y11.6763 I-4.3421 J4.8681
G2 X17.8814 Y11.6787 I2.4259 J-1.7649
G3 X19.1199 Y15.4897 I-5.2138 J3.8011
G2 Y15.4943 I3.0 J0.0046
G1 Y53.5678
G1 X6.1201
G1 Y15.4943
G2 X6.12 Y15.4898 I-3.0 J0.0
G3 X7.4325 Y11.5792 I6.4535 J-0.0097
G2 X7.4345 Y11.5766 I-2.3899 J-1.8134
G3 X8.4873 Y10.4798 I5.1963 J3.9339
G2 X11.7715 Y12.3216 I4.3067 J-3.8303
G0 Z3.0
G0 X10.9201 Y17.0455
G1 F40.0 Z-2.0
G2 F120.0 X12.7934 Y17.213 I1.8739 J-10.396
G2 X12.7937 I0.0005 J-10.5636
G1 X12.7931
G2 X12.7934 I0.001 J-10.5629
G2 X14.3199 Y17.1023 I0.0007 J-10.5629
G1 Y48.7678
G1 X10.9201
G1 Y17.0455
G1 F40.0 X11.3458 Y14.6836
G2 F120.0 X12.7936 Y14.813 I1.4482 J-8.0341
G1 X12.7937
G1 X12.7934
G1 X12.7936
G2 X16.4246 Y13.9612 I0.0006 J-8.1629
G3 X16.7199 Y15.486 I-3.7571 J1.5186
G2 Y15.4943 I5.4 J0.0083
G1 Y51.1678
G1 X8.5201
G1 Y15.4943
G2 X8.52 Y15.4862 I-5.4 J0.0
G3 X8.8788 Y13.8129 I4.0535 J-0.0061
G2 X11.3458 Y14.6836 I3.9152 J-7.1635
G1 F40.0 X11.7715 Y12.3216
G2 F120.0 X12.7937 Y12.413 I1.0224 J-5.6721
G1 X12.7938
G1 X12.7936
G1 X12.7937
G2 X16.9469 Y10.6458 I0.0004 J-5.7629
G3 X17.8797 Y11.6763 I-4.3421 J4.8681
G2 X17.8814 Y11.6787 I2.4259 J-1.7649
G3 X19.1199 Y15.4897 I-5.2138 J3.8011
G2 Y15.4943 I3.0 J0.0046
G1 Y53.5678
G1 X6.1201
G1 Y15.4943
G2 X6.12 Y15.4898 I-3.0 J0.0
G3 X7.4325 Y11.5792 I6.4535 J-0.0097
G2 X7.4345 Y11.5766 I-2.3899 J-1.8134
G3 X8.4873 Y10.4798 I5.1963 J3.9339
G2 X11.7715 Y12.3216 I4.3067 J-3.8303
G0 Z3.0
G0 X10.9201 Y17.0455
G1 F40.0 Z-3.0
G2 F120.0 X12.7934 Y17.213 I1.8739 J-10.396
G2 X12.7937 I0.0005 J-10.5636
G1 X12.7931
G2 X12.7934 I0.001 J-10.5629
G2 X14.3199 Y17.1023 I0.0007 J-10.5629
G1 Y48.7678
G1 X10.9201
G1 Y17.0455
G1 F40.0 X11.3458 Y14.6836
G2 F120.0 X12.7936 Y14.813 I1.4482 J-8.0341
G1 X12.7937
G1 X12.7934
G1 X12.7936
G2 X16.4246 Y13.9612 I0.0006 J-8.1629
G3 X16.7199 Y15.486 I-3.7571 J1.5186
G2 Y15.4943 I5.4 J0.0083
G1 Y51.1678
G1 X8.5201
G1 Y15.4943
G2 X8.52 Y15.4862 I-5.4 J0.0
G3 X8.8788 Y13.8129 I4.0535 J-0.0061
G2 X11.3458 Y14.6836 I3.9152 J-7.1635
G1 F40.0 X11.7715 Y12.3216
G2 F120.0 X12.7937 Y12.413 I1.0224 J-5.6721
G1 X12.7938
G1 X12.7936
G1 X12.7937
G2 X16.9469 Y10.6458 I0.0004 J-5.7629
G3 X17.8797 Y11.6763 I-4.3421 J4.8681
G2 X17.8814 Y11.6787 I2.4259 J-1.7649
G3 X19.1199 Y15.4897 I-5.2138 J3.8011
G2 Y15.4943 I3.0 J0.0046
G1 Y53.5678
G1 X6.1201
G1 Y15.4943
G2 X6.12 Y15.4898 I-3.0 J0.0
G3 X7.4325 Y11.5792 I6.4535 J-0.0097
G2 X7.4345 Y11.5766 I-2.3899 J-1.8134
G3 X8.4873 Y10.4798 I5.1963 J3.9339
G2 X11.7715 Y12.3216 I4.3067 J-3.8303
G0 Z3.0
G0 X10.9201 Y17.0455
G1 F40.0 Z-4.0
G2 F120.0 X12.7934 Y17.213 I1.8739 J-10.396
G2 X12.7937 I0.0005 J-10.5636
G1 X12.7931
G2 X12.7934 I0.001 J-10.5629
G2 X14.3199 Y17.1023 I0.0007 J-10.5629
G1 Y48.7678
G1 X10.9201
G1 Y17.0455
G1 F40.0 X11.3458 Y14.6836
G2 F120.0 X12.7936 Y14.813 I1.4482 J-8.0341
G1 X12.7937
G1 X12.7934
G1 X12.7936
G2 X16.4246 Y13.9612 I0.0006 J-8.1629
G3 X16.7199 Y15.486 I-3.7571 J1.5186
G2 Y15.4943 I5.4 J0.0083
G1 Y51.1678
G1 X8.5201
G1 Y15.4943
G2 X8.52 Y15.4862 I-5.4 J0.0
G3 X8.8788 Y13.8129 I4.0535 J-0.0061
G2 X11.3458 Y14.6836 I3.9152 J-7.1635
G1 F40.0 X11.7715 Y12.3216
G2 F120.0 X12.7937 Y12.413 I1.0224 J-5.6721
G1 X12.7938
G1 X12.7936
G1 X12.7937
G2 X16.9469 Y10.6458 I0.0004 J-5.7629
G3 X17.8797 Y11.6763 I-4.3421 J4.8681
G2 X17.8814 Y11.6787 I2.4259 J-1.7649
G3 X19.1199 Y15.4897 I-5.2138 J3.8011
G2 Y15.4943 I3.0 J0.0046
G1 Y53.5678
G1 X6.1201
G1 Y15.4943
G2 X6.12 Y15.4898 I-3.0 J0.0
G3 X7.4325 Y11.5792 I6.4535 J-0.0097
G2 X7.4345 Y11.5766 I-2.3899 J-1.8134
G3 X8.4873 Y10.4798 I5.1963 J3.9339
G2 X11.7715 Y12.3216 I4.3067 J-3.8303
G0 Z3.0
G0 X10.9201 Y17.0455
G1 F40.0 Z-5.0
G2 F120.0 X12.7934 Y17.213 I1.8739 J-10.396
G2 X12.7937 I0.0005 J-10.5636
G1 X12.7931
G2 X12.7934 I0.001 J-10.5629
G2 X14.3199 Y17.1023 I0.0007 J-10.5629
G1 Y48.7678
G1 X10.9201
G1 Y17.0455
G1 F40.0 X11.3458 Y14.6836
G2 F120.0 X12.7936 Y14.813 I1.4482 J-8.0341
G1 X12.7937
G1 X12.7934
G1 X12.7936
G2 X16.4246 Y13.9612 I0.0006 J-8.1629
G3 X16.7199 Y15.486 I-3.7571 J1.5186
G2 Y15.4943 I5.4 J0.0083
G1 Y51.1678
G1 X8.5201
G1 Y15.4943
G2 X8.52 Y15.4862 I-5.4 J0.0
G3 X8.8788 Y13.8129 I4.0535 J-0.0061
G2 X11.3458 Y14.6836 I3.9152 J-7.1635
G1 F40.0 X11.7715 Y12.3216
G2 F120.0 X12.7937 Y12.413 I1.0224 J-5.6721
G1 X12.7938
G1 X12.7936
G1 X12.7937
G2 X16.9469 Y10.6458 I0.0004 J-5.7629
G3 X17.8797 Y11.6763 I-4.3421 J4.8681
G2 X17.8814 Y11.6787 I2.4259 J-1.7649
G3 X19.1199 Y15.4897 I-5.2138 J3.8011
G2 Y15.4943 I3.0 J0.0046
G1 Y53.5678
G1 X6.1201
G1 Y15.4943
G2 X6.12 Y15.4898 I-3.0 J0.0
G3 X7.4325 Y11.5792 I6.4535 J-0.0097
G2 X7.4345 Y11.5766 I-2.3899 J-1.8134
G3 X8.4873 Y10.4798 I5.1963 J3.9339
G2 X11.7715 Y12.3216 I4.3067 J-3.8303
G0 Z3.0
G0 X10.9201 Y17.0455
G1 F40.0 Z-6.0
G2 F120.0 X12.7934 Y17.213 I1.8739 J-10.396
G2 X12.7937 I0.0005 J-10.5636
G1 X12.7931
G2 X12.7934 I0.001 J-10.5629
G2 X14.3199 Y17.1023 I0.0007 J-10.5629
G1 Y48.7678
G1 X10.9201
G1 Y17.0455
G1 F40.0 X11.3458 Y14.6836
G2 F120.0 X12.7936 Y14.813 I1.4482 J-8.0341
G1 X12.7937
G1 X12.7934
G1 X12.7936
G2 X16.4246 Y13.9612 I0.0006 J-8.1629
G3 X16.7199 Y15.486 I-3.7571 J1.5186
G2 Y15.4943 I5.4 J0.0083
G1 Y51.1678
G1 X8.5201
G1 Y15.4943
G2 X8.52 Y15.4862 I-5.4 J0.0
G3 X8.8788 Y13.8129 I4.0535 J-0.0061
G2 X11.3458 Y14.6836 I3.9152 J-7.1635
G1 F40.0 X11.7715 Y12.3216
G2 F120.0 X12.7937 Y12.413 I1.0224 J-5.6721
G1 X12.7938
G1 X12.7936
G1 X12.7937
G2 X16.9469 Y10.6458 I0.0004 J-5.7629
G3 X17.8797 Y11.6763 I-4.3421 J4.8681
G2 X17.8814 Y11.6787 I2.4259 J-1.7649
G3 X19.1199 Y15.4897 I-5.2138 J3.8011
G2 Y15.4943 I3.0 J0.0046
G1 Y53.5678
G1 X6.1201
G1 Y15.4943
G2 X6.12 Y15.4898 I-3.0 J0.0
G3 X7.4325 Y11.5792 I6.4535 J-0.0097
G2 X7.4345 Y11.5766 I-2.3899 J-1.8134
G3 X8.4873 Y10.4798 I5.1963 J3.9339
G2 X11.7715 Y12.3216 I4.3067 J-3.8303
G0 Z3.0
G0 X10.9201 Y17.0455
G1 F40.0 Z-7.0
G2 F120.0 X12.7934 Y17.213 I1.8739 J-10.396
G2 X12.7937 I0.0005 J-10.5636
G1 X12.7931
G2 X12.7934 I0.001 J-10.5629
G2 X14.3199 Y17.1023 I0.0007 J-10.5629
G1 Y48.7678
G1 X10.9201
G1 Y17.0455
G1 F40.0 X11.3458 Y14.6836
G2 F120.0 X12.7936 Y14.813 I1.4482 J-8.0341
G1 X12.7937
G1 X12.7934
G1 X12.7936
G2 X16.4246 Y13.9612 I0.0006 J-8.1629
G3 X16.7199 Y15.486 I-3.7571 J1.5186
G2 Y15.4943 I5.4 J0.0083
G1 Y51.1678
G1 X8.5201
G1 Y15.4943
G2 X8.52 Y15.4862 I-5.4 J0.0
G3 X8.8788 Y13.8129 I4.0535 J-0.0061
G2 X11.3458 Y14.6836 I3.9152 J-7.1635
G1 F40.0 X11.7715 Y12.3216
G2 F120.0 X12.7937 Y12.413 I1.0224 J-5.6721
G1 X12.7938
G1 X12.7936
G1 X12.7937
G2 X16.9469 Y10.6458 I0.0004 J-5.7629
G3 X17.8797 Y11.6763 I-4.3421 J4.8681
G2 X17.8814 Y11.6787 I2.4259 J-1.7649
G3 X19.1199 Y15.4897 I-5.2138 J3.8011
G2 Y15.4943 I3.0 J0.0046
G1 Y53.5678
G1 X6.1201
G1 Y15.4943
G2 X6.12 Y15.4898 I-3.0 J0.0
G3 X7.4325 Y11.5792 I6.4535 J-0.0097
G2 X7.4345 Y11.5766 I-2.3899 J-1.8134
G3 X8.4873 Y10.4798 I5.1963 J3.9339
G2 X11.7715 Y12.3216 I4.3067 J-3.8303
G0 Z3.0
G0 X10.9201 Y17.0455
G1 F40.0 Z-8.0
G2 F120.0 X12.7934 Y17.213 I1.8739 J-10.396
G2 X12.7937 I0.0005 J-10.5636
G1 X12.7931
G2 X12.7934 I0.001 J-10.5629
G2 X14.3199 Y17.1023 I0.0007 J-10.5629
G1 Y48.7678
G1 X10.9201
G1 Y17.0455
G1 F40.0 X11.3458 Y14.6836
G2 F120.0 X12.7936 Y14.813 I1.4482 J-8.0341
G1 X12.7937
G1 X12.7934
G1 X12.7936
G2 X16.4246 Y13.9612 I0.0006 J-8.1629
G3 X16.7199 Y15.486 I-3.7571 J1.5186
G2 Y15.4943 I5.4 J0.0083
G1 Y51.1678
G1 X8.5201
G1 Y15.4943
G2 X8.52 Y15.4862 I-5.4 J0.0
G3 X8.8788 Y13.8129 I4.0535 J-0.0061
G2 X11.3458 Y14.6836 I3.9152 J-7.1635
G1 F40.0 X11.7715 Y12.3216
G2 F120.0 X12.7937 Y12.413 I1.0224 J-5.6721
G1 X12.7938
G1 X12.7936
G1 X12.7937
G2 X16.9469 Y10.6458 I0.0004 J-5.7629
G3 X17.8797 Y11.6763 I-4.3421 J4.8681
G2 X17.8814 Y11.6787 I2.4259 J-1.7649
G3 X19.1199 Y15.4897 I-5.2138 J3.8011
G2 Y15.4943 I3.0 J0.0046
G1 Y53.5678
G1 X6.1201
G1 Y15.4943
G2 X6.12 Y15.4898 I-3.0 J0.0
G3 X7.4325 Y11.5792 I6.4535 J-0.0097
G2 X7.4345 Y11.5766 I-2.3899 J-1.8134
G3 X8.4873 Y10.4798 I5.1963 J3.9339
G2 X11.7715 Y12.3216 I4.3067 J-3.8303
G0 Z3.0
G0 X10.9201 Y17.0455
G1 F40.0 Z-8.5
G2 F120.0 X12.7934 Y17.213 I1.8739 J-10.396
G2 X12.7937 I0.0005 J-10.5636
G1 X12.7931
G2 X12.7934 I0.001 J-10.5629
G2 X14.3199 Y17.1023 I0.0007 J-10.5629
G1 Y48.7678
G1 X10.9201
G1 Y17.0455
G1 F40.0 X11.3458 Y14.6836
G2 F120.0 X12.7936 Y14.813 I1.4482 J-8.0341
G1 X12.7937
G1 X12.7934
G1 X12.7936
G2 X16.4246 Y13.9612 I0.0006 J-8.1629
G3 X16.7199 Y15.486 I-3.7571 J1.5186
G2 Y15.4943 I5.4 J0.0083
G1 Y51.1678
G1 X8.5201
G1 Y15.4943
G2 X8.52 Y15.4862 I-5.4 J0.0
G3 X8.8788 Y13.8129 I4.0535 J-0.0061
G2 X11.3458 Y14.6836 I3.9152 J-7.1635
G1 F40.0 X11.7715 Y12.3216
G2 F120.0 X12.7937 Y12.413 I1.0224 J-5.6721
G1 X12.7938
G1 X12.7936
G1 X12.7937
G2 X16.9469 Y10.6458 I0.0004 J-5.7629
G3 X17.8797 Y11.6763 I-4.3421 J4.8681
G2 X17.8814 Y11.6787 I2.4259 J-1.7649
G3 X19.1199 Y15.4897 I-5.2138 J3.8011
G2 Y15.4943 I3.0 J0.0046
G1 Y53.5678
G1 X6.1201
G1 Y15.4943
G2 X6.12 Y15.4898 I-3.0 J0.0
G3 X7.4325 Y11.5792 I6.4535 J-0.0097
G2 X7.4345 Y11.5766 I-2.3899 J-1.8134
G3 X8.4873 Y10.4798 I5.1963 J3.9339
G2 X11.7715 Y12.3216 I4.3067 J-3.8303
G0 Z3.0
M5
M30
