( Made using CamBam - http://www.cambam.co.uk )
( LED Array mounts 11/2/2013 4:39:48 PM )
( T3 : 3.0 )
G21 G90 G91.1 G64 G40
G0 Z3.0
( T3 : 3.0 )
T3 M6
( Profile1 )
G17
M3 S1000
G0 X29.9997 Y6.3729
G0 Z1.0
G1 F25.0 Z-2.0
G1 F150.0 X54.4806 Y20.5069
G1 Y48.775
G1 X29.9997 Y62.909
G1 X5.5189 Y48.775
G1 X5.519 Y20.5069
G1 X29.9997 Y6.3729
G1 F25.0 Z-3.5
G1 F150.0 X54.4806 Y20.5069
G1 Y48.775
G1 X29.9997 Y62.909
G1 X5.5189 Y48.775
G1 X5.519 Y20.5069
G1 X29.9997 Y6.3729
( Profile2 )
S1000
G0 Z3.0
G0 X29.2501 Y-1.299
G0 Z1.0
G1 F25.0 Z-2.0
G1 F150.0 X-0.75 Y16.0215
G2 X-1.5 Y17.3206 I0.75 J1.299
G1 X-1.4998 Y51.9613
G2 X-0.7498 Y53.2604 I1.5 J0.0
G1 X29.2495 Y70.5806
G2 X30.7496 I0.75 J-1.299
G1 X60.7493 Y53.26
G2 X61.4993 Y51.961 I-0.75 J-1.299
G1 Y17.3202
G2 X60.7493 Y16.0212 I-1.5 J0.0
G1 X30.7501 Y-1.299
G2 X29.2501 I-0.75 J1.299
G1 F25.0 Z-3.5
G1 F150.0 X-0.75 Y16.0215
G2 X-1.5 Y17.3206 I0.75 J1.299
G1 X-1.4998 Y51.9613
G2 X-0.7498 Y53.2604 I1.5 J0.0
G1 X29.2495 Y70.5806
G2 X30.7496 I0.75 J-1.299
G1 X60.7493 Y53.26
G2 X61.4993 Y51.961 I-0.75 J-1.299
G1 Y17.3202
G2 X60.7493 Y16.0212 I-1.5 J0.0
G1 X30.7501 Y-1.299
G2 X29.2501 I-0.75 J1.299
( Profile3 )
S1000
G0 Z3.0
G0 X128.8628 Y16.0215
G0 Z1.0
G1 F25.0 Z-2.0
G1 F150.0 X98.8627 Y-1.299
G2 X97.3627 I-0.75 J1.299
G1 X67.3631 Y16.0215
G2 X66.6132 Y17.3206 I0.75 J1.299
G1 Y51.9613
G2 X67.3632 Y53.2604 I1.5 J0.0
G1 X97.3631 Y70.5804
G2 X98.863 I0.75 J-1.299
G1 X128.8628 Y53.2604
G2 X129.6128 Y51.9613 I-0.75 J-1.299
G1 Y17.3206
G2 X128.8628 Y16.0215 I-1.5 J0.0
G1 F25.0 Z-3.5
G1 F150.0 X98.8627 Y-1.299
G2 X97.3627 I-0.75 J1.299
G1 X67.3631 Y16.0215
G2 X66.6132 Y17.3206 I0.75 J1.299
G1 Y51.9613
G2 X67.3632 Y53.2604 I1.5 J0.0
G1 X97.3631 Y70.5804
G2 X98.863 I0.75 J-1.299
G1 X128.8628 Y53.2604
G2 X129.6128 Y51.9613 I-0.75 J-1.299
G1 Y17.3206
G2 X128.8628 Y16.0215 I-1.5 J0.0
G0 Z3.0
M5
M30
