( Made using CamBam - http://www.cambam.co.uk )
( spacers 11/2/2013 4:58:33 PM )
( T3 : 3.0 )
G21 G90 G91.1 G64 G40
G0 Z3.0
( T3 : 3.0 )
T3 M6
( Profile1 )
G17
M3 S1000
G0 X34.0 Y-1.5
G0 Z1.0
G1 F25.0 Z-2.0
G1 F150.0 X0.0
G2 X-1.5 Y0.0 I0.0 J1.5
G1 Y34.0
G2 X0.0 Y35.5 I1.5 J0.0
G1 X34.0
G2 X35.5 Y34.0 I0.0 J-1.5
G1 Y0.0
G2 X34.0 Y-1.5 I-1.5 J0.0
G1 F25.0 Z-3.5
G1 F150.0 X0.0
G2 X-1.5 Y0.0 I0.0 J1.5
G1 Y34.0
G2 X0.0 Y35.5 I1.5 J0.0
G1 X34.0
G2 X35.5 Y34.0 I0.0 J-1.5
G1 Y0.0
G2 X34.0 Y-1.5 I-1.5 J0.0
( Profile2 )
S1000
G0 Z3.0
G0 X72.0004
G0 Z1.0
G1 F25.0 Z-2.0
G1 F150.0 X38.0001
G2 X36.5001 Y0.0 I0.0 J1.5
G1 Y34.0
G2 X38.0001 Y35.5 I1.5 J0.0
G1 X72.0004
G2 X73.5004 Y34.0 I0.0 J-1.5
G1 Y0.0
G2 X72.0004 Y-1.5 I-1.5 J0.0
G1 F25.0 Z-3.5
G1 F150.0 X38.0001
G2 X36.5001 Y0.0 I0.0 J1.5
G1 Y34.0
G2 X38.0001 Y35.5 I1.5 J0.0
G1 X72.0004
G2 X73.5004 Y34.0 I0.0 J-1.5
G1 Y0.0
G2 X72.0004 Y-1.5 I-1.5 J0.0
( Profile3 )
S1000
G0 Z3.0
G0 X110.0002
G0 Z1.0
G1 F25.0 Z-2.0
G1 F150.0 X76.0002
G2 X74.5002 Y0.0 I0.0 J1.5
G1 Y34.0
G2 X76.0002 Y35.5 I1.5 J0.0
G1 X110.0002
G2 X111.5002 Y34.0 I0.0 J-1.5
G1 Y0.0
G2 X110.0002 Y-1.5 I-1.5 J0.0
G1 F25.0 Z-3.5
G1 F150.0 X76.0002
G2 X74.5002 Y0.0 I0.0 J1.5
G1 Y34.0
G2 X76.0002 Y35.5 I1.5 J0.0
G1 X110.0002
G2 X111.5002 Y34.0 I0.0 J-1.5
G1 Y0.0
G2 X110.0002 Y-1.5 I-1.5 J0.0
G0 Z3.0
M5
M30
