( Made using CamBam - http://www.cambam.co.uk )
( Side Plates 11/3/2013 3:48:59 PM )
( T21 : 1.0 )
G21 G90 G91.1 G64 G40
G0 Z3.0
( T21 : 1.0 )
T21 M6
( Spot Drill )
G17
M3 S1000
G0 X5.5296 Y21.1274
G98
G81 X5.5296 Y21.1274 Z-1.0 R3.0 F80.0
G81 Y29.9468 Z-1.0
G81 X5.5297 Y47.6853 Z-1.0
G81 Y56.5047 Z-1.0
G81 X4.089 Y73.632 Z-1.0
G81 X13.0001 Z-1.0
G81 X13.0 Y4.0001 Z-1.0
G81 X4.0889 Z-1.0
G81 X100.1386 Y3.0 Z-1.0
G81 X117.3331 Y3.9998 Z-1.0
G81 X126.2441 Z-1.0
G81 X135.0636 Y3.0 Z-1.0
G81 X126.2441 Y73.6324 Z-1.0
G81 X135.0636 Y74.6321 Z-1.0
G81 X117.3331 Y73.6324 Z-1.0
G81 X100.1386 Y74.6321 Z-1.0
G80
G0 Z3.0
M5
M30
