( Made using CamBam - http://www.cambam.co.uk )
( Side Plates 11/3/2013 3:49:14 PM )
( T13 : 1.0 )
G21 G90 G91.1 G64 G40
G0 Z3.0
( T13 : 1.0 )
T13 M6
( 3mm Drill )
G17
M3 S1000
G0 X5.5296 Y21.1274
G98
G83 X5.5296 Y21.1274 Z-6.0 Q2.0 R3.0 F50.0
G83 Y29.9468 Z-6.0
G83 X5.5297 Y47.6853 Z-6.0
G83 Y56.5047 Z-6.0
G83 X4.089 Y73.632 Z-6.0
G83 X13.0001 Z-6.0
G83 X13.0 Y4.0001 Z-6.0
G83 X4.0889 Z-6.0
G83 X100.1386 Y3.0 Z-6.0
G83 X117.3331 Y3.9998 Z-6.0
G83 X126.2441 Z-6.0
G83 X135.0636 Y3.0 Z-6.0
G83 X126.2441 Y73.6324 Z-6.0
G83 X135.0636 Y74.6321 Z-6.0
G83 X117.3331 Y73.6324 Z-6.0
G83 X100.1386 Y74.6321 Z-6.0
G80
G0 Z3.0
M5
M30
