( Made using CamBam - http://www.cambam.co.uk )
( Side Plates 11/3/2013 3:49:24 PM )
( T4 : 4.0 )
G21 G90 G91.1 G64 G40
G0 Z3.0
( T4 : 4.0 )
T4 M6
( Pockets )
G17
M3 S1000
G0 X117.5331 Y73.6318
G0 Z1.0
G1 F25.0 Z-1.0
G3 F150.0 Y73.632 I-0.2003 J0.0
G3 X117.3332 Y73.832 I-0.2003 J-0.0002
G3 X117.1331 Y73.6319 I0.0004 J-0.2005
G3 X117.3325 Y73.4327 I0.1994 J0.0003
G2 X117.3336 I0.0005 J-2.8
G3 X117.5331 Y73.632 I0.0 J0.1994
G3 Y73.6321 I-0.1994 J0.0002
G1 Y73.6318
G1 F25.0 X118.333 Y73.6303
G3 F150.0 X118.3331 Y73.6321 I-0.9994 J0.0018
G3 Y73.6322 I-0.9994 J0.0001
G1 Y73.6319
G3 Y73.6321 I-1.0003 J-0.0002
G3 X117.3331 Y74.632 I-1.0003 J-0.0004
G3 X116.3331 Y73.632 I0.0005 J-1.0005
G3 X117.3327 Y72.6327 I0.9994 J0.0002
G2 X117.3335 I0.0004 J-2.0
G3 X118.333 Y73.6303 I0.0002 J0.9994
G1 F25.0 X117.5331 Y73.6318
G1 Z-2.0
G3 F150.0 Y73.632 I-0.2003 J0.0
G3 X117.3332 Y73.832 I-0.2003 J-0.0002
G3 X117.1331 Y73.6319 I0.0004 J-0.2005
G3 X117.3325 Y73.4327 I0.1994 J0.0003
G2 X117.3336 I0.0005 J-2.8
G3 X117.5331 Y73.632 I0.0 J0.1994
G3 Y73.6321 I-0.1994 J0.0002
G1 Y73.6318
G1 F25.0 X118.333 Y73.6303
G3 F150.0 X118.3331 Y73.6321 I-0.9994 J0.0018
G3 Y73.6322 I-0.9994 J0.0001
G1 Y73.6319
G3 Y73.6321 I-1.0003 J-0.0002
G3 X117.3331 Y74.632 I-1.0003 J-0.0004
G3 X116.3331 Y73.632 I0.0005 J-1.0005
G3 X117.3327 Y72.6327 I0.9994 J0.0002
G2 X117.3335 I0.0004 J-2.0
G3 X118.333 Y73.6303 I0.0002 J0.9994
G0 Z3.0
G0 X126.0442 Y73.6319
G0 Z1.0
G1 F25.0 Z-1.0
G3 F150.0 X126.2436 Y73.4327 I0.1994 J0.0003
G2 X126.2447 I0.0005 J-2.8
G3 X126.4441 Y73.632 I0.0 J0.1994
G3 Y73.6321 I-0.1994 J0.0002
G1 Y73.6318
G3 Y73.632 I-0.2003 J0.0
G3 X126.2443 Y73.832 I-0.2003 J-0.0002
G3 X126.0442 Y73.6319 I0.0004 J-0.2005
G1 F25.0 X125.2442 Y73.6306
G3 F150.0 X126.2438 Y72.6327 I0.9994 J0.0015
G2 X126.2445 I0.0004 J-2.0
G3 X127.2441 Y73.6321 I0.0002 J0.9994
G3 Y73.6322 I-0.9994 J0.0001
G1 Y73.6319
G3 Y73.6321 I-1.0003 J-0.0002
G3 X126.2442 Y74.632 I-1.0003 J-0.0004
G3 X125.2442 Y73.632 I0.0005 J-1.0005
G3 Y73.6306 I0.9994 J0.0002
G1 F25.0 X126.0442 Y73.6319
G1 Z-2.0
G3 F150.0 X126.2436 Y73.4327 I0.1994 J0.0003
G2 X126.2447 I0.0005 J-2.8
G3 X126.4441 Y73.632 I0.0 J0.1994
G3 Y73.6321 I-0.1994 J0.0002
G1 Y73.6318
G3 Y73.632 I-0.2003 J0.0
G3 X126.2443 Y73.832 I-0.2003 J-0.0002
G3 X126.0442 Y73.6319 I0.0004 J-0.2005
G1 F25.0 X125.2442 Y73.6306
G3 F150.0 X126.2438 Y72.6327 I0.9994 J0.0015
G2 X126.2445 I0.0004 J-2.0
G3 X127.2441 Y73.6321 I0.0002 J0.9994
G3 Y73.6322 I-0.9994 J0.0001
G1 Y73.6319
G3 Y73.6321 I-1.0003 J-0.0002
G3 X126.2442 Y74.632 I-1.0003 J-0.0004
G3 X125.2442 Y73.632 I0.0005 J-1.0005
G3 Y73.6306 I0.9994 J0.0002
G0 Z3.0
G0 X126.2407 Y4.1994
G0 Z1.0
G1 F25.0 Z-1.0
G3 F150.0 X126.0442 Y4.0003 I0.0029 J-0.1994
G3 X126.2443 Y3.8001 I0.2005 J0.0004
G3 X126.4441 Y4.0002 I-0.0004 J0.2003
G3 Y4.0004 I-0.2003 J0.0002
G1 Y4.0
G3 Y4.0002 I-0.1994 J0.0
G3 X126.2447 Y4.1994 I-0.1994 J-0.0002
G2 X126.2436 I-0.0005 J2.8
G3 X126.2407 I0.0 J-0.1994
G1 F25.0 X126.2292 Y4.9993
G3 F150.0 X125.2442 Y4.0001 I0.0143 J-0.9993
G3 X126.2442 Y3.0001 I1.0005 J0.0005
G3 X127.2441 Y4.0001 I-0.0004 J1.0003
G3 Y4.0002 I-1.0003 J0.0004
G1 Y3.9999
G3 Y4.0001 I-0.9994 J0.0001
G3 X126.2445 Y4.9994 I-0.9994 J-0.0001
G2 X126.2438 I-0.0004 J2.0
G3 X126.2292 Y4.9993 I-0.0002 J-0.9994
G1 F25.0 X126.2407 Y4.1994
G1 Z-2.0
G3 F150.0 X126.0442 Y4.0003 I0.0029 J-0.1994
G3 X126.2443 Y3.8001 I0.2005 J0.0004
G3 X126.4441 Y4.0002 I-0.0004 J0.2003
G3 Y4.0004 I-0.2003 J0.0002
G1 Y4.0
G3 Y4.0002 I-0.1994 J0.0
G3 X126.2447 Y4.1994 I-0.1994 J-0.0002
G2 X126.2436 I-0.0005 J2.8
G3 X126.2407 I0.0 J-0.1994
G1 F25.0 X126.2292 Y4.9993
G3 F150.0 X125.2442 Y4.0001 I0.0143 J-0.9993
G3 X126.2442 Y3.0001 I1.0005 J0.0005
G3 X127.2441 Y4.0001 I-0.0004 J1.0003
G3 Y4.0002 I-1.0003 J0.0004
G1 Y3.9999
G3 Y4.0001 I-0.9994 J0.0001
G3 X126.2445 Y4.9994 I-0.9994 J-0.0001
G2 X126.2438 I-0.0004 J2.0
G3 X126.2292 Y4.9993 I-0.0002 J-0.9994
G0 Z3.0
G0 X117.5318 Y4.0223
G0 Z1.0
G1 F25.0 Z-1.0
G3 F150.0 X117.3336 Y4.1994 I-0.1982 J-0.0223
G2 X117.3325 I-0.0005 J2.8
G3 X117.1331 Y4.0003 I0.0 J-0.1994
G3 X117.3332 Y3.8001 I0.2005 J0.0004
G3 X117.5331 Y4.0002 I-0.0004 J0.2003
G3 Y4.0004 I-0.2003 J0.0002
G1 Y4.0
G3 Y4.0002 I-0.1994 J0.0
G3 X117.5318 Y4.0223 I-0.1994 J-0.0002
G1 F25.0 X118.3268 Y4.1116
G3 F150.0 X117.3335 Y4.9994 I-0.9932 J-0.1116
G2 X117.3327 I-0.0004 J2.0
G3 X116.3331 Y4.0001 I-0.0002 J-0.9994
G3 X117.3331 Y3.0001 I1.0005 J0.0005
G3 X118.3331 Y4.0001 I-0.0004 J1.0003
G3 Y4.0002 I-1.0003 J0.0004
G1 Y3.9999
G3 Y4.0001 I-0.9994 J0.0001
G3 X118.3268 Y4.1116 I-0.9994 J-0.0001
G1 F25.0 X117.5318 Y4.0223
G1 Z-2.0
G3 F150.0 X117.3336 Y4.1994 I-0.1982 J-0.0223
G2 X117.3325 I-0.0005 J2.8
G3 X117.1331 Y4.0003 I0.0 J-0.1994
G3 X117.3332 Y3.8001 I0.2005 J0.0004
G3 X117.5331 Y4.0002 I-0.0004 J0.2003
G3 Y4.0004 I-0.2003 J0.0002
G1 Y4.0
G3 Y4.0002 I-0.1994 J0.0
G3 X117.5318 Y4.0223 I-0.1994 J-0.0002
G1 F25.0 X118.3268 Y4.1116
G3 F150.0 X117.3335 Y4.9994 I-0.9932 J-0.1116
G2 X117.3327 I-0.0004 J2.0
G3 X116.3331 Y4.0001 I-0.0002 J-0.9994
G3 X117.3331 Y3.0001 I1.0005 J0.0005
G3 X118.3331 Y4.0001 I-0.0004 J1.0003
G3 Y4.0002 I-1.0003 J0.0004
G1 Y3.9999
G3 Y4.0001 I-0.9994 J0.0001
G3 X118.3268 Y4.1116 I-0.9994 J-0.0001
G0 Z3.0
M5
M30
