( Made using CamBam - http://www.cambam.co.uk )
( Side Plates 11/3/2013 3:49:58 PM )
( T4 : 4.0 )
G21 G90 G91.1 G64 G40
G0 Z3.0
( T4 : 4.0 )
T4 M6
( Profile1 )
G17
M3 S1000
G0 X64.243 Y68.632
G0 Z1.0
G1 F25.0 Z-1.0
G1 F150.0 X17.5005
G3 X14.6803 Y67.4589 I0.0021 J-3.9815
G2 X14.6766 Y67.4552 I-1.4177 J1.4107
G3 X13.8038 Y66.1549 I2.8656 J-2.8664
G3 X13.5001 Y64.6344 I3.6304 J-1.5158
G2 Y64.6321 I-2.0 J-0.0024
G1 Y54.7436
G2 Y54.7347 I-2.0 J0.0
G3 X13.5592 Y54.061 I3.6803 J-0.0164
G2 X13.5603 Y54.0548 I-1.9678 J-0.3572
G3 X13.7034 Y53.5458 I2.6688 J0.4758
G3 X13.8952 Y53.1654 I2.0915 J0.8161
G2 X13.8955 Y53.165 I-1.6923 J-1.0659
G3 X14.3348 Y52.695 I1.4434 J0.9086
G3 X14.749 Y52.4788 I0.9603 J1.3351
G3 X15.5544 Y52.3639 I0.7054 J2.0659
G2 X15.5558 Y52.364 I0.0916 J-1.9979
G3 X16.5333 Y52.5507 I-0.1567 J3.4728
G2 X16.547 Y52.5554 I0.6525 J-1.8906
G1 X64.243 Y68.632
G1 F25.0 Z-2.0
G1 F150.0 X17.5005
G3 X14.6803 Y67.4589 I0.0021 J-3.9815
G2 X14.6766 Y67.4552 I-1.4177 J1.4107
G3 X13.8038 Y66.1549 I2.8656 J-2.8664
G3 X13.5001 Y64.6344 I3.6304 J-1.5158
G2 Y64.6321 I-2.0 J-0.0024
G1 Y54.7436
G2 Y54.7347 I-2.0 J0.0
G3 X13.5592 Y54.061 I3.6803 J-0.0164
G2 X13.5603 Y54.0548 I-1.9678 J-0.3572
G3 X13.7034 Y53.5458 I2.6688 J0.4758
G3 X13.8952 Y53.1654 I2.0915 J0.8161
G2 X13.8955 Y53.165 I-1.6923 J-1.0659
G3 X14.3348 Y52.695 I1.4434 J0.9086
G3 X14.749 Y52.4788 I0.9603 J1.3351
G3 X15.5544 Y52.3639 I0.7054 J2.0659
G2 X15.5558 Y52.364 I0.0916 J-1.9979
G3 X16.5333 Y52.5507 I-0.1567 J3.4728
G2 X16.547 Y52.5554 I0.6525 J-1.8906
G1 X64.243 Y68.632
G1 F25.0 Z-3.0
G1 F150.0 X17.5005
G3 X14.6803 Y67.4589 I0.0021 J-3.9815
G2 X14.6766 Y67.4552 I-1.4177 J1.4107
G3 X13.8038 Y66.1549 I2.8656 J-2.8664
G3 X13.5001 Y64.6344 I3.6304 J-1.5158
G2 Y64.6321 I-2.0 J-0.0024
G1 Y54.7436
G2 Y54.7347 I-2.0 J0.0
G3 X13.5592 Y54.061 I3.6803 J-0.0164
G2 X13.5603 Y54.0548 I-1.9678 J-0.3572
G3 X13.7034 Y53.5458 I2.6688 J0.4758
G3 X13.8952 Y53.1654 I2.0915 J0.8161
G2 X13.8955 Y53.165 I-1.6923 J-1.0659
G3 X14.3348 Y52.695 I1.4434 J0.9086
G3 X14.749 Y52.4788 I0.9603 J1.3351
G3 X15.5544 Y52.3639 I0.7054 J2.0659
G2 X15.5558 Y52.364 I0.0916 J-1.9979
G3 X16.5333 Y52.5507 I-0.1567 J3.4728
G2 X16.547 Y52.5554 I0.6525 J-1.8906
G1 X64.243 Y68.632
G1 F25.0 Z-4.0
G1 F150.0 X17.5005
G3 X14.6803 Y67.4589 I0.0021 J-3.9815
G2 X14.6766 Y67.4552 I-1.4177 J1.4107
G3 X13.8038 Y66.1549 I2.8656 J-2.8664
G3 X13.5001 Y64.6344 I3.6304 J-1.5158
G2 Y64.6321 I-2.0 J-0.0024
G1 Y54.7436
G2 Y54.7347 I-2.0 J0.0
G3 X13.5592 Y54.061 I3.6803 J-0.0164
G2 X13.5603 Y54.0548 I-1.9678 J-0.3572
G3 X13.7034 Y53.5458 I2.6688 J0.4758
G3 X13.8952 Y53.1654 I2.0915 J0.8161
G2 X13.8955 Y53.165 I-1.6923 J-1.0659
G3 X14.3348 Y52.695 I1.4434 J0.9086
G3 X14.749 Y52.4788 I0.9603 J1.3351
G3 X15.5544 Y52.3639 I0.7054 J2.0659
G2 X15.5558 Y52.364 I0.0916 J-1.9979
G3 X16.5333 Y52.5507 I-0.1567 J3.4728
G2 X16.547 Y52.5554 I0.6525 J-1.8906
G1 X64.243 Y68.632
G1 F25.0 Z-4.5
G1 F150.0 X17.5005
G3 X14.6803 Y67.4589 I0.0021 J-3.9815
G2 X14.6766 Y67.4552 I-1.4177 J1.4107
G3 X13.8038 Y66.1549 I2.8656 J-2.8664
G3 X13.5001 Y64.6344 I3.6304 J-1.5158
G2 Y64.6321 I-2.0 J-0.0024
G1 Y54.7436
G2 Y54.7347 I-2.0 J0.0
G3 X13.5592 Y54.061 I3.6803 J-0.0164
G2 X13.5603 Y54.0548 I-1.9678 J-0.3572
G3 X13.7034 Y53.5458 I2.6688 J0.4758
G3 X13.8952 Y53.1654 I2.0915 J0.8161
G2 X13.8955 Y53.165 I-1.6923 J-1.0659
G3 X14.3348 Y52.695 I1.4434 J0.9086
G3 X14.749 Y52.4788 I0.9603 J1.3351
G3 X15.5544 Y52.3639 I0.7054 J2.0659
G2 X15.5558 Y52.364 I0.0916 J-1.9979
G3 X16.5333 Y52.5507 I-0.1567 J3.4728
G2 X16.547 Y52.5554 I0.6525 J-1.8906
G1 X64.243 Y68.632
( Profile2 )
S1000
G0 Z3.0
G0 Y9.0001
G0 Z1.0
G1 F25.0 Z-1.0
G1 F150.0 X16.5469 Y25.0768
G2 X16.5328 Y25.0815 I0.6388 J1.8952
G3 X15.556 Y25.2681 I-1.1327 J-3.2798
G2 X15.554 Y25.2682 I0.0898 J1.998
G3 X14.7489 Y25.1534 I-0.1001 J-2.1774
G3 X14.3347 Y24.9372 I0.5451 J-1.5493
G3 X13.8953 Y24.4671 I1.0043 J-1.3789
G2 X13.8951 Y24.4667 I-1.6925 J1.0655
G3 X13.7032 Y24.0862 I1.9014 J-1.1976
G3 X13.5601 Y23.5772 I2.5274 J-0.9853
G2 X13.559 Y23.5712 I-1.9689 J0.3511
G3 X13.4999 Y22.8973 I3.6239 J-0.6577
G2 Y22.8885 I-2.0 J-0.0088
G1 Y13.0001
G2 Y12.9977 I-2.0 J0.0
G3 X13.8036 Y11.4772 I3.9341 J-0.0047
G3 X14.6764 Y10.177 I3.7383 J1.5661
G2 X14.6801 Y10.1733 I-1.414 J-1.4144
G3 X17.5003 Y9.0001 I2.8223 J2.8083
G1 X64.243
G1 F25.0 Z-2.0
G1 F150.0 X16.5469 Y25.0768
G2 X16.5328 Y25.0815 I0.6388 J1.8952
G3 X15.556 Y25.2681 I-1.1327 J-3.2798
G2 X15.554 Y25.2682 I0.0898 J1.998
G3 X14.7489 Y25.1534 I-0.1001 J-2.1774
G3 X14.3347 Y24.9372 I0.5451 J-1.5493
G3 X13.8953 Y24.4671 I1.0043 J-1.3789
G2 X13.8951 Y24.4667 I-1.6925 J1.0655
G3 X13.7032 Y24.0862 I1.9014 J-1.1976
G3 X13.5601 Y23.5772 I2.5274 J-0.9853
G2 X13.559 Y23.5712 I-1.9689 J0.3511
G3 X13.4999 Y22.8973 I3.6239 J-0.6577
G2 Y22.8885 I-2.0 J-0.0088
G1 Y13.0001
G2 Y12.9977 I-2.0 J0.0
G3 X13.8036 Y11.4772 I3.9341 J-0.0047
G3 X14.6764 Y10.177 I3.7383 J1.5661
G2 X14.6801 Y10.1733 I-1.414 J-1.4144
G3 X17.5003 Y9.0001 I2.8223 J2.8083
G1 X64.243
G1 F25.0 Z-3.0
G1 F150.0 X16.5469 Y25.0768
G2 X16.5328 Y25.0815 I0.6388 J1.8952
G3 X15.556 Y25.2681 I-1.1327 J-3.2798
G2 X15.554 Y25.2682 I0.0898 J1.998
G3 X14.7489 Y25.1534 I-0.1001 J-2.1774
G3 X14.3347 Y24.9372 I0.5451 J-1.5493
G3 X13.8953 Y24.4671 I1.0043 J-1.3789
G2 X13.8951 Y24.4667 I-1.6925 J1.0655
G3 X13.7032 Y24.0862 I1.9014 J-1.1976
G3 X13.5601 Y23.5772 I2.5274 J-0.9853
G2 X13.559 Y23.5712 I-1.9689 J0.3511
G3 X13.4999 Y22.8973 I3.6239 J-0.6577
G2 Y22.8885 I-2.0 J-0.0088
G1 Y13.0001
G2 Y12.9977 I-2.0 J0.0
G3 X13.8036 Y11.4772 I3.9341 J-0.0047
G3 X14.6764 Y10.177 I3.7383 J1.5661
G2 X14.6801 Y10.1733 I-1.414 J-1.4144
G3 X17.5003 Y9.0001 I2.8223 J2.8083
G1 X64.243
G1 F25.0 Z-4.0
G1 F150.0 X16.5469 Y25.0768
G2 X16.5328 Y25.0815 I0.6388 J1.8952
G3 X15.556 Y25.2681 I-1.1327 J-3.2798
G2 X15.554 Y25.2682 I0.0898 J1.998
G3 X14.7489 Y25.1534 I-0.1001 J-2.1774
G3 X14.3347 Y24.9372 I0.5451 J-1.5493
G3 X13.8953 Y24.4671 I1.0043 J-1.3789
G2 X13.8951 Y24.4667 I-1.6925 J1.0655
G3 X13.7032 Y24.0862 I1.9014 J-1.1976
G3 X13.5601 Y23.5772 I2.5274 J-0.9853
G2 X13.559 Y23.5712 I-1.9689 J0.3511
G3 X13.4999 Y22.8973 I3.6239 J-0.6577
G2 Y22.8885 I-2.0 J-0.0088
G1 Y13.0001
G2 Y12.9977 I-2.0 J0.0
G3 X13.8036 Y11.4772 I3.9341 J-0.0047
G3 X14.6764 Y10.177 I3.7383 J1.5661
G2 X14.6801 Y10.1733 I-1.414 J-1.4144
G3 X17.5003 Y9.0001 I2.8223 J2.8083
G1 X64.243
G1 F25.0 Z-4.5
G1 F150.0 X16.5469 Y25.0768
G2 X16.5328 Y25.0815 I0.6388 J1.8952
G3 X15.556 Y25.2681 I-1.1327 J-3.2798
G2 X15.554 Y25.2682 I0.0898 J1.998
G3 X14.7489 Y25.1534 I-0.1001 J-2.1774
G3 X14.3347 Y24.9372 I0.5451 J-1.5493
G3 X13.8953 Y24.4671 I1.0043 J-1.3789
G2 X13.8951 Y24.4667 I-1.6925 J1.0655
G3 X13.7032 Y24.0862 I1.9014 J-1.1976
G3 X13.5601 Y23.5772 I2.5274 J-0.9853
G2 X13.559 Y23.5712 I-1.9689 J0.3511
G3 X13.4999 Y22.8973 I3.6239 J-0.6577
G2 Y22.8885 I-2.0 J-0.0088
G1 Y13.0001
G2 Y12.9977 I-2.0 J0.0
G3 X13.8036 Y11.4772 I3.9341 J-0.0047
G3 X14.6764 Y10.177 I3.7383 J1.5661
G2 X14.6801 Y10.1733 I-1.414 J-1.4144
G3 X17.5003 Y9.0001 I2.8223 J2.8083
G1 X64.243
G0 Z3.0
M5
M30
