( Made using CamBam - http://www.cambam.co.uk )
( Side Plates 11/3/2013 3:50:07 PM )
( T4 : 4.0 )
G21 G90 G91.1 G64 G40
G0 Z3.0
( T4 : 4.0 )
T4 M6
( Profile2 )
G17
M3 S1000
G0 X152.0001 Y71.6307
G0 Z1.0
G1 F25.0 Z-1.0
G2 F150.0 X150.2394 Y67.3933 I-5.9896 J0.0042
G2 X146.0004 Y65.6324 I-4.2401 J4.2245
G2 X146.0 I-0.0004 J2.0
G1 X88.0095
G1 X87.7843 Y65.6303
G1 X87.6832 Y65.628
G3 X86.8467 Y65.584 I0.4869 J-17.232
G1 X86.6438 Y65.5678
G2 X86.6064 Y65.5652 I-0.1595 J1.9936
G2 X86.5682 Y65.5613 I-0.2218 J1.9877
G1 X86.3794 Y65.5439
G3 X84.963 Y65.3707 I3.1724 J-31.8299
G3 X82.8487 Y64.987 I4.6546 J-31.6659
G3 X81.8224 Y64.7402 I5.77 J-26.2453
G1 X81.6932 Y64.7054
G3 X80.8522 Y64.4506 I3.9697 J-14.6169
G1 X13.9586 Y41.7264
G2 X13.9408 Y41.7204 I-0.6433 J1.8937
G1 X13.7057 Y41.643
G2 X13.6811 Y41.6351 I-0.6255 J1.8997
G1 X13.5668 Y41.5991
G2 X13.5569 Y41.596 I-0.6009 J1.9076
G2 X12.5522 Y41.3125 I-6.1718 J19.951
G2 X12.5477 Y41.3113 I-0.4948 J1.9378
G1 X12.3475 Y41.2607
G2 X12.3319 Y41.2568 I-0.4903 J1.939
G2 X8.9989 Y40.6162 I-8.1012 J33.1556
G2 X7.3048 Y40.4194 I-4.3552 J30.1003
G2 X5.5408 Y40.3334 I-1.898 J20.7946
G2 X5.528 Y40.3333 I-0.0128 J2.0
G1 X4.0001
G2 X3.9996 I0.0 J2.0
G2 X-0.2394 Y42.0944 I0.0015 J5.986
G2 X-2.0 Y46.3323 I4.2283 J4.2413
G2 Y46.3334 I2.0 J0.0011
G1 Y63.6323
G1 Y71.6325
G1 Y73.632
G1 Y77.6321
G2 X0.0 Y79.6321 I2.0 J0.0
G1 X4.0001
G1 X146.0
G1 X150.0001
G2 X152.0001 Y77.6321 I0.0 J-2.0
G1 Y73.632
G1 Y71.6321
G2 Y71.6307 I-2.0 J0.0
G1 F25.0 Z-2.0
G2 F150.0 X150.2394 Y67.3933 I-5.9896 J0.0042
G2 X146.0004 Y65.6324 I-4.2401 J4.2245
G2 X146.0 I-0.0004 J2.0
G1 X88.0095
G1 X87.7843 Y65.6303
G1 X87.6832 Y65.628
G3 X86.8467 Y65.584 I0.4869 J-17.232
G1 X86.6438 Y65.5678
G2 X86.6064 Y65.5652 I-0.1595 J1.9936
G2 X86.5682 Y65.5613 I-0.2218 J1.9877
G1 X86.3794 Y65.5439
G3 X84.963 Y65.3707 I3.1724 J-31.8299
G3 X82.8487 Y64.987 I4.6546 J-31.6659
G3 X81.8224 Y64.7402 I5.77 J-26.2453
G1 X81.6932 Y64.7054
G3 X80.8522 Y64.4506 I3.9697 J-14.6169
G1 X13.9586 Y41.7264
G2 X13.9408 Y41.7204 I-0.6433 J1.8937
G1 X13.7057 Y41.643
G2 X13.6811 Y41.6351 I-0.6255 J1.8997
G1 X13.5668 Y41.5991
G2 X13.5569 Y41.596 I-0.6009 J1.9076
G2 X12.5522 Y41.3125 I-6.1718 J19.951
G2 X12.5477 Y41.3113 I-0.4948 J1.9378
G1 X12.3475 Y41.2607
G2 X12.3319 Y41.2568 I-0.4903 J1.939
G2 X8.9989 Y40.6162 I-8.1012 J33.1556
G2 X7.3048 Y40.4194 I-4.3552 J30.1003
G2 X5.5408 Y40.3334 I-1.898 J20.7946
G2 X5.528 Y40.3333 I-0.0128 J2.0
G1 X4.0001
G2 X3.9996 I0.0 J2.0
G2 X-0.2394 Y42.0944 I0.0015 J5.986
G2 X-2.0 Y46.3323 I4.2283 J4.2413
G2 Y46.3334 I2.0 J0.0011
G1 Y63.6323
G1 Y71.6325
G1 Y73.632
G1 Y77.6321
G2 X0.0 Y79.6321 I2.0 J0.0
G1 X4.0001
G1 X146.0
G1 X150.0001
G2 X152.0001 Y77.6321 I0.0 J-2.0
G1 Y73.632
G1 Y71.6321
G2 Y71.6307 I-2.0 J0.0
G1 F25.0 Z-3.0
G2 F150.0 X150.2394 Y67.3933 I-5.9896 J0.0042
G2 X146.0004 Y65.6324 I-4.2401 J4.2245
G2 X146.0 I-0.0004 J2.0
G1 X88.0095
G1 X87.7843 Y65.6303
G1 X87.6832 Y65.628
G3 X86.8467 Y65.584 I0.4869 J-17.232
G1 X86.6438 Y65.5678
G2 X86.6064 Y65.5652 I-0.1595 J1.9936
G2 X86.5682 Y65.5613 I-0.2218 J1.9877
G1 X86.3794 Y65.5439
G3 X84.963 Y65.3707 I3.1724 J-31.8299
G3 X82.8487 Y64.987 I4.6546 J-31.6659
G3 X81.8224 Y64.7402 I5.77 J-26.2453
G1 X81.6932 Y64.7054
G3 X80.8522 Y64.4506 I3.9697 J-14.6169
G1 X13.9586 Y41.7264
G2 X13.9408 Y41.7204 I-0.6433 J1.8937
G1 X13.7057 Y41.643
G2 X13.6811 Y41.6351 I-0.6255 J1.8997
G1 X13.5668 Y41.5991
G2 X13.5569 Y41.596 I-0.6009 J1.9076
G2 X12.5522 Y41.3125 I-6.1718 J19.951
G2 X12.5477 Y41.3113 I-0.4948 J1.9378
G1 X12.3475 Y41.2607
G2 X12.3319 Y41.2568 I-0.4903 J1.939
G2 X8.9989 Y40.6162 I-8.1012 J33.1556
G2 X7.3048 Y40.4194 I-4.3552 J30.1003
G2 X5.5408 Y40.3334 I-1.898 J20.7946
G2 X5.528 Y40.3333 I-0.0128 J2.0
G1 X4.0001
G2 X3.9996 I0.0 J2.0
G2 X-0.2394 Y42.0944 I0.0015 J5.986
G2 X-2.0 Y46.3323 I4.2283 J4.2413
G2 Y46.3334 I2.0 J0.0011
G1 Y63.6323
G1 Y71.6325
G1 Y73.632
G1 Y77.6321
G2 X0.0 Y79.6321 I2.0 J0.0
G1 X4.0001
G1 X146.0
G1 X150.0001
G2 X152.0001 Y77.6321 I0.0 J-2.0
G1 Y73.632
G1 Y71.6321
G2 Y71.6307 I-2.0 J0.0
G1 F25.0 Z-4.0
G2 F150.0 X150.2394 Y67.3933 I-5.9896 J0.0042
G2 X146.0004 Y65.6324 I-4.2401 J4.2245
G2 X146.0 I-0.0004 J2.0
G1 X88.0095
G1 X87.7843 Y65.6303
G1 X87.6832 Y65.628
G3 X86.8467 Y65.584 I0.4869 J-17.232
G1 X86.6438 Y65.5678
G2 X86.6064 Y65.5652 I-0.1595 J1.9936
G2 X86.5682 Y65.5613 I-0.2218 J1.9877
G1 X86.3794 Y65.5439
G3 X84.963 Y65.3707 I3.1724 J-31.8299
G3 X82.8487 Y64.987 I4.6546 J-31.6659
G3 X81.8224 Y64.7402 I5.77 J-26.2453
G1 X81.6932 Y64.7054
G3 X80.8522 Y64.4506 I3.9697 J-14.6169
G1 X13.9586 Y41.7264
G2 X13.9408 Y41.7204 I-0.6433 J1.8937
G1 X13.7057 Y41.643
G2 X13.6811 Y41.6351 I-0.6255 J1.8997
G1 X13.5668 Y41.5991
G2 X13.5569 Y41.596 I-0.6009 J1.9076
G2 X12.5522 Y41.3125 I-6.1718 J19.951
G2 X12.5477 Y41.3113 I-0.4948 J1.9378
G1 X12.3475 Y41.2607
G2 X12.3319 Y41.2568 I-0.4903 J1.939
G2 X8.9989 Y40.6162 I-8.1012 J33.1556
G2 X7.3048 Y40.4194 I-4.3552 J30.1003
G2 X5.5408 Y40.3334 I-1.898 J20.7946
G2 X5.528 Y40.3333 I-0.0128 J2.0
G1 X4.0001
G2 X3.9996 I0.0 J2.0
G2 X-0.2394 Y42.0944 I0.0015 J5.986
G2 X-2.0 Y46.3323 I4.2283 J4.2413
G2 Y46.3334 I2.0 J0.0011
G1 Y63.6323
G1 Y71.6325
G1 Y73.632
G1 Y77.6321
G2 X0.0 Y79.6321 I2.0 J0.0
G1 X4.0001
G1 X146.0
G1 X150.0001
G2 X152.0001 Y77.6321 I0.0 J-2.0
G1 Y73.632
G1 Y71.6321
G2 Y71.6307 I-2.0 J0.0
G1 F25.0 Z-4.5
G2 F150.0 X150.2394 Y67.3933 I-5.9896 J0.0042
G2 X146.0004 Y65.6324 I-4.2401 J4.2245
G2 X146.0 I-0.0004 J2.0
G1 X88.0095
G1 X87.7843 Y65.6303
G1 X87.6832 Y65.628
G3 X86.8467 Y65.584 I0.4869 J-17.232
G1 X86.6438 Y65.5678
G2 X86.6064 Y65.5652 I-0.1595 J1.9936
G2 X86.5682 Y65.5613 I-0.2218 J1.9877
G1 X86.3794 Y65.5439
G3 X84.963 Y65.3707 I3.1724 J-31.8299
G3 X82.8487 Y64.987 I4.6546 J-31.6659
G3 X81.8224 Y64.7402 I5.77 J-26.2453
G1 X81.6932 Y64.7054
G3 X80.8522 Y64.4506 I3.9697 J-14.6169
G1 X13.9586 Y41.7264
G2 X13.9408 Y41.7204 I-0.6433 J1.8937
G1 X13.7057 Y41.643
G2 X13.6811 Y41.6351 I-0.6255 J1.8997
G1 X13.5668 Y41.5991
G2 X13.5569 Y41.596 I-0.6009 J1.9076
G2 X12.5522 Y41.3125 I-6.1718 J19.951
G2 X12.5477 Y41.3113 I-0.4948 J1.9378
G1 X12.3475 Y41.2607
G2 X12.3319 Y41.2568 I-0.4903 J1.939
G2 X8.9989 Y40.6162 I-8.1012 J33.1556
G2 X7.3048 Y40.4194 I-4.3552 J30.1003
G2 X5.5408 Y40.3334 I-1.898 J20.7946
G2 X5.528 Y40.3333 I-0.0128 J2.0
G1 X4.0001
G2 X3.9996 I0.0 J2.0
G2 X-0.2394 Y42.0944 I0.0015 J5.986
G2 X-2.0 Y46.3323 I4.2283 J4.2413
G2 Y46.3334 I2.0 J0.0011
G1 Y63.6323
G1 Y71.6325
G1 Y73.632
G1 Y77.6321
G2 X0.0 Y79.6321 I2.0 J0.0
G1 X4.0001
G1 X146.0
G1 X150.0001
G2 X152.0001 Y77.6321 I0.0 J-2.0
G1 Y73.632
G1 Y71.6321
G2 Y71.6307 I-2.0 J0.0
( Profile1 )
S1000
G0 Z3.0
G0 Y6.0
G0 Z1.0
G1 F25.0 Z-1.0
G1 F150.0 Y4.0001
G1 Y0.0
G2 X150.0001 Y-2.0 I-2.0 J0.0
G1 X146.0
G1 X3.9999
G1 X0.0
G2 X-2.0 Y0.0 I0.0 J2.0
G1 Y4.0001
G1 Y5.9996
G1 Y13.9998
G1 Y31.2987
G2 Y31.2999 I2.0 J0.0
G2 X-0.2394 Y35.5377 I5.9893 J-0.0035
G2 X3.9991 Y37.2988 I4.2411 J-4.2263
G2 X3.9999 I0.0009 J-2.0
G1 X5.5278
G2 X5.5366 I0.0 J-2.0
G2 X6.653 Y37.2616 I-0.085 J-19.3561
G2 X6.6582 Y37.2613 I-0.1241 J-1.9961
G1 X6.8011 Y37.252
G2 X6.8152 Y37.2511 I-0.1294 J-1.9958
G2 X8.033 Y37.1395 I-2.24 J-31.1371
G2 X8.0399 Y37.1387 I-0.2215 J-1.9877
G2 X10.436 Y36.7815 I-4.1218 J-35.8653
G2 X10.4403 Y36.7807 I-0.3611 J-1.9671
G2 X12.0208 Y36.4505 I-6.6346 J-35.705
G2 X12.0353 Y36.4471 I-0.4524 J-1.9482
G1 X12.2054 Y36.4062
G2 X12.3683 Y36.3661 I-0.7535 J-3.4097
G1 X12.5475 Y36.3208
G2 X12.5537 Y36.3192 I-0.4903 J-1.939
G2 X13.5552 Y36.0366 I-5.3467 J-20.8638
G2 X13.5666 Y36.0331 I-0.5895 J-1.9112
G1 X13.681 Y35.997
G2 X13.7056 Y35.9891 I-0.6009 J-1.9076
G1 X13.9406 Y35.9117
G2 X13.9584 Y35.9058 I-0.6255 J-1.8997
G1 X80.8522 Y13.1815
G3 X81.6932 Y12.9267 I4.8107 J14.3621
G1 X81.8224 Y12.892
G3 X82.8487 Y12.6451 I6.7963 J25.9985
G3 X84.963 Y12.2614 I6.769 J31.2822
G3 X86.3794 Y12.0883 I4.5887 J31.6567
G1 X86.5682 Y12.0709
G2 X86.6064 Y12.067 I-0.1835 J-1.9916
G2 X86.6438 Y12.0643 I-0.1221 J-1.9963
G1 X86.8467 Y12.0481
G3 X87.6832 Y12.0041 I1.3234 J17.188
G1 X87.7843 Y12.0018
G1 X88.0095 Y11.9997
G1 X146.0
G2 X146.0004 I0.0 J-2.0
G2 X150.2394 Y10.2389 I-0.0011 J-5.9854
G2 X152.0001 Y6.0014 I-4.2289 J-4.2417
G2 Y6.0 I-2.0 J-0.0014
G1 F25.0 Z-2.0
G1 F150.0 Y4.0001
G1 Y0.0
G2 X150.0001 Y-2.0 I-2.0 J0.0
G1 X146.0
G1 X3.9999
G1 X0.0
G2 X-2.0 Y0.0 I0.0 J2.0
G1 Y4.0001
G1 Y5.9996
G1 Y13.9998
G1 Y31.2987
G2 Y31.2999 I2.0 J0.0
G2 X-0.2394 Y35.5377 I5.9893 J-0.0035
G2 X3.9991 Y37.2988 I4.2411 J-4.2263
G2 X3.9999 I0.0009 J-2.0
G1 X5.5278
G2 X5.5366 I0.0 J-2.0
G2 X6.653 Y37.2616 I-0.085 J-19.3561
G2 X6.6582 Y37.2613 I-0.1241 J-1.9961
G1 X6.8011 Y37.252
G2 X6.8152 Y37.2511 I-0.1294 J-1.9958
G2 X8.033 Y37.1395 I-2.24 J-31.1371
G2 X8.0399 Y37.1387 I-0.2215 J-1.9877
G2 X10.436 Y36.7815 I-4.1218 J-35.8653
G2 X10.4403 Y36.7807 I-0.3611 J-1.9671
G2 X12.0208 Y36.4505 I-6.6346 J-35.705
G2 X12.0353 Y36.4471 I-0.4524 J-1.9482
G1 X12.2054 Y36.4062
G2 X12.3683 Y36.3661 I-0.7535 J-3.4097
G1 X12.5475 Y36.3208
G2 X12.5537 Y36.3192 I-0.4903 J-1.939
G2 X13.5552 Y36.0366 I-5.3467 J-20.8638
G2 X13.5666 Y36.0331 I-0.5895 J-1.9112
G1 X13.681 Y35.997
G2 X13.7056 Y35.9891 I-0.6009 J-1.9076
G1 X13.9406 Y35.9117
G2 X13.9584 Y35.9058 I-0.6255 J-1.8997
G1 X80.8522 Y13.1815
G3 X81.6932 Y12.9267 I4.8107 J14.3621
G1 X81.8224 Y12.892
G3 X82.8487 Y12.6451 I6.7963 J25.9985
G3 X84.963 Y12.2614 I6.769 J31.2822
G3 X86.3794 Y12.0883 I4.5887 J31.6567
G1 X86.5682 Y12.0709
G2 X86.6064 Y12.067 I-0.1835 J-1.9916
G2 X86.6438 Y12.0643 I-0.1221 J-1.9963
G1 X86.8467 Y12.0481
G3 X87.6832 Y12.0041 I1.3234 J17.188
G1 X87.7843 Y12.0018
G1 X88.0095 Y11.9997
G1 X146.0
G2 X146.0004 I0.0 J-2.0
G2 X150.2394 Y10.2389 I-0.0011 J-5.9854
G2 X152.0001 Y6.0014 I-4.2289 J-4.2417
G2 Y6.0 I-2.0 J-0.0014
G1 F25.0 Z-3.0
G1 F150.0 Y4.0001
G1 Y0.0
G2 X150.0001 Y-2.0 I-2.0 J0.0
G1 X146.0
G1 X3.9999
G1 X0.0
G2 X-2.0 Y0.0 I0.0 J2.0
G1 Y4.0001
G1 Y5.9996
G1 Y13.9998
G1 Y31.2987
G2 Y31.2999 I2.0 J0.0
G2 X-0.2394 Y35.5377 I5.9893 J-0.0035
G2 X3.9991 Y37.2988 I4.2411 J-4.2263
G2 X3.9999 I0.0009 J-2.0
G1 X5.5278
G2 X5.5366 I0.0 J-2.0
G2 X6.653 Y37.2616 I-0.085 J-19.3561
G2 X6.6582 Y37.2613 I-0.1241 J-1.9961
G1 X6.8011 Y37.252
G2 X6.8152 Y37.2511 I-0.1294 J-1.9958
G2 X8.033 Y37.1395 I-2.24 J-31.1371
G2 X8.0399 Y37.1387 I-0.2215 J-1.9877
G2 X10.436 Y36.7815 I-4.1218 J-35.8653
G2 X10.4403 Y36.7807 I-0.3611 J-1.9671
G2 X12.0208 Y36.4505 I-6.6346 J-35.705
G2 X12.0353 Y36.4471 I-0.4524 J-1.9482
G1 X12.2054 Y36.4062
G2 X12.3683 Y36.3661 I-0.7535 J-3.4097
G1 X12.5475 Y36.3208
G2 X12.5537 Y36.3192 I-0.4903 J-1.939
G2 X13.5552 Y36.0366 I-5.3467 J-20.8638
G2 X13.5666 Y36.0331 I-0.5895 J-1.9112
G1 X13.681 Y35.997
G2 X13.7056 Y35.9891 I-0.6009 J-1.9076
G1 X13.9406 Y35.9117
G2 X13.9584 Y35.9058 I-0.6255 J-1.8997
G1 X80.8522 Y13.1815
G3 X81.6932 Y12.9267 I4.8107 J14.3621
G1 X81.8224 Y12.892
G3 X82.8487 Y12.6451 I6.7963 J25.9985
G3 X84.963 Y12.2614 I6.769 J31.2822
G3 X86.3794 Y12.0883 I4.5887 J31.6567
G1 X86.5682 Y12.0709
G2 X86.6064 Y12.067 I-0.1835 J-1.9916
G2 X86.6438 Y12.0643 I-0.1221 J-1.9963
G1 X86.8467 Y12.0481
G3 X87.6832 Y12.0041 I1.3234 J17.188
G1 X87.7843 Y12.0018
G1 X88.0095 Y11.9997
G1 X146.0
G2 X146.0004 I0.0 J-2.0
G2 X150.2394 Y10.2389 I-0.0011 J-5.9854
G2 X152.0001 Y6.0014 I-4.2289 J-4.2417
G2 Y6.0 I-2.0 J-0.0014
G1 F25.0 Z-4.0
G1 F150.0 Y4.0001
G1 Y0.0
G2 X150.0001 Y-2.0 I-2.0 J0.0
G1 X146.0
G1 X3.9999
G1 X0.0
G2 X-2.0 Y0.0 I0.0 J2.0
G1 Y4.0001
G1 Y5.9996
G1 Y13.9998
G1 Y31.2987
G2 Y31.2999 I2.0 J0.0
G2 X-0.2394 Y35.5377 I5.9893 J-0.0035
G2 X3.9991 Y37.2988 I4.2411 J-4.2263
G2 X3.9999 I0.0009 J-2.0
G1 X5.5278
G2 X5.5366 I0.0 J-2.0
G2 X6.653 Y37.2616 I-0.085 J-19.3561
G2 X6.6582 Y37.2613 I-0.1241 J-1.9961
G1 X6.8011 Y37.252
G2 X6.8152 Y37.2511 I-0.1294 J-1.9958
G2 X8.033 Y37.1395 I-2.24 J-31.1371
G2 X8.0399 Y37.1387 I-0.2215 J-1.9877
G2 X10.436 Y36.7815 I-4.1218 J-35.8653
G2 X10.4403 Y36.7807 I-0.3611 J-1.9671
G2 X12.0208 Y36.4505 I-6.6346 J-35.705
G2 X12.0353 Y36.4471 I-0.4524 J-1.9482
G1 X12.2054 Y36.4062
G2 X12.3683 Y36.3661 I-0.7535 J-3.4097
G1 X12.5475 Y36.3208
G2 X12.5537 Y36.3192 I-0.4903 J-1.939
G2 X13.5552 Y36.0366 I-5.3467 J-20.8638
G2 X13.5666 Y36.0331 I-0.5895 J-1.9112
G1 X13.681 Y35.997
G2 X13.7056 Y35.9891 I-0.6009 J-1.9076
G1 X13.9406 Y35.9117
G2 X13.9584 Y35.9058 I-0.6255 J-1.8997
G1 X80.8522 Y13.1815
G3 X81.6932 Y12.9267 I4.8107 J14.3621
G1 X81.8224 Y12.892
G3 X82.8487 Y12.6451 I6.7963 J25.9985
G3 X84.963 Y12.2614 I6.769 J31.2822
G3 X86.3794 Y12.0883 I4.5887 J31.6567
G1 X86.5682 Y12.0709
G2 X86.6064 Y12.067 I-0.1835 J-1.9916
G2 X86.6438 Y12.0643 I-0.1221 J-1.9963
G1 X86.8467 Y12.0481
G3 X87.6832 Y12.0041 I1.3234 J17.188
G1 X87.7843 Y12.0018
G1 X88.0095 Y11.9997
G1 X146.0
G2 X146.0004 I0.0 J-2.0
G2 X150.2394 Y10.2389 I-0.0011 J-5.9854
G2 X152.0001 Y6.0014 I-4.2289 J-4.2417
G2 Y6.0 I-2.0 J-0.0014
G1 F25.0 Z-4.5
G1 F150.0 Y4.0001
G1 Y0.0
G2 X150.0001 Y-2.0 I-2.0 J0.0
G1 X146.0
G1 X3.9999
G1 X0.0
G2 X-2.0 Y0.0 I0.0 J2.0
G1 Y4.0001
G1 Y5.9996
G1 Y13.9998
G1 Y31.2987
G2 Y31.2999 I2.0 J0.0
G2 X-0.2394 Y35.5377 I5.9893 J-0.0035
G2 X3.9991 Y37.2988 I4.2411 J-4.2263
G2 X3.9999 I0.0009 J-2.0
G1 X5.5278
G2 X5.5366 I0.0 J-2.0
G2 X6.653 Y37.2616 I-0.085 J-19.3561
G2 X6.6582 Y37.2613 I-0.1241 J-1.9961
G1 X6.8011 Y37.252
G2 X6.8152 Y37.2511 I-0.1294 J-1.9958
G2 X8.033 Y37.1395 I-2.24 J-31.1371
G2 X8.0399 Y37.1387 I-0.2215 J-1.9877
G2 X10.436 Y36.7815 I-4.1218 J-35.8653
G2 X10.4403 Y36.7807 I-0.3611 J-1.9671
G2 X12.0208 Y36.4505 I-6.6346 J-35.705
G2 X12.0353 Y36.4471 I-0.4524 J-1.9482
G1 X12.2054 Y36.4062
G2 X12.3683 Y36.3661 I-0.7535 J-3.4097
G1 X12.5475 Y36.3208
G2 X12.5537 Y36.3192 I-0.4903 J-1.939
G2 X13.5552 Y36.0366 I-5.3467 J-20.8638
G2 X13.5666 Y36.0331 I-0.5895 J-1.9112
G1 X13.681 Y35.997
G2 X13.7056 Y35.9891 I-0.6009 J-1.9076
G1 X13.9406 Y35.9117
G2 X13.9584 Y35.9058 I-0.6255 J-1.8997
G1 X80.8522 Y13.1815
G3 X81.6932 Y12.9267 I4.8107 J14.3621
G1 X81.8224 Y12.892
G3 X82.8487 Y12.6451 I6.7963 J25.9985
G3 X84.963 Y12.2614 I6.769 J31.2822
G3 X86.3794 Y12.0883 I4.5887 J31.6567
G1 X86.5682 Y12.0709
G2 X86.6064 Y12.067 I-0.1835 J-1.9916
G2 X86.6438 Y12.0643 I-0.1221 J-1.9963
G1 X86.8467 Y12.0481
G3 X87.6832 Y12.0041 I1.3234 J17.188
G1 X87.7843 Y12.0018
G1 X88.0095 Y11.9997
G1 X146.0
G2 X146.0004 I0.0 J-2.0
G2 X150.2394 Y10.2389 I-0.0011 J-5.9854
G2 X152.0001 Y6.0014 I-4.2289 J-4.2417
G2 Y6.0 I-2.0 J-0.0014
G0 Z3.0
M5
M30
