( Made using CamBam - http://www.cambam.co.uk )
( Feeder Keypad Drill 3/29/2013 10:20:38 AM )
( T2 : 2.0 )
G21 G90 G64 G40
G0 Z3.0
( T2 : 2.0 )
T2 M6
( Profile 2mm Mill )
G17
M3 S1000
G0 X0.0 Y8.525
G1 F100.0 Z-0.9
G1 X23.1566
G3 X24.1566 Y9.525 I0.0 J1.0
G1 Y69.3422
G3 X23.1566 Y70.3422 I-1.0 J0.0
G1 X0.0
G3 X-1.0 Y69.3422 I0.0 J-1.0
G1 Y9.525
G3 X0.0 Y8.525 I1.0 J0.0
G1 Z-1.8
G1 X23.1566
G3 X24.1566 Y9.525 I0.0 J1.0
G1 Y69.3422
G3 X23.1566 Y70.3422 I-1.0 J0.0
G1 X0.0
G3 X-1.0 Y69.3422 I0.0 J-1.0
G1 Y9.525
G3 X0.0 Y8.525 I1.0 J0.0
G0 Z3.0
G0 X28.2103
G1 Z-0.9
G1 Y0.0
G3 X29.2103 Y-1.0 I1.0 J0.0
G1 X113.623
G3 X114.623 Y0.0 I0.0 J1.0
G1 Y77.597
G3 X113.623 Y78.597 I-1.0 J0.0
G1 X29.2103
G3 X28.2103 Y77.597 I0.0 J-1.0
G1 Y8.525
G1 Z-1.8
G1 Y0.0
G3 X29.2103 Y-1.0 I1.0 J0.0
G1 X113.623
G3 X114.623 Y0.0 I0.0 J1.0
G1 Y77.597
G3 X113.623 Y78.597 I-1.0 J0.0
G1 X29.2103
G3 X28.2103 Y77.597 I0.0 J-1.0
G1 Y8.525
G0 Z3.0
M5
M30
