( Made using CamBam - http://www.cambam.co.uk )
( Feeder Keypad Drill 3/29/2013 10:20:28 AM )
( T11 : 1.0 )
G21 G90 G64 G40
G0 Z3.0
( T11 : 1.0 )
T11 M6
( Drill1mm )
G17
M3 S1000
G0 X20.4683 Y66.4845
G98
G81 X20.4683 Y66.4845 Z-2.0 R3.0 F150.0
G81 X17.9495 Y66.5055 Z-2.0
G81 X15.4096 Z-2.0
G81 X12.8695 Z-2.0
G81 X10.3294 Z-2.0
G81 X7.7895 Z-2.0
G81 Y63.3305 Z-2.0
G81 X10.3294 Z-2.0
G81 X12.8695 Z-2.0
G81 X15.4096 Z-2.0
G81 X17.9495 Z-2.0
G81 X20.4895 Z-2.0
G81 Y50.6305 Z-2.0
G81 X17.9495 Z-2.0
G81 X15.4096 Z-2.0
G81 X12.8695 Z-2.0
G81 X10.3294 Z-2.0
G81 X7.7895 Z-2.0
G81 X5.2495 Z-2.0
G81 X2.7096 Z-2.0
G81 X2.7094 Y46.2067 Z-2.0
G81 Y43.6669 Z-2.0
G81 Y41.1269 Z-2.0
G81 Y38.5868 Z-2.0
G81 Y36.0469 Z-2.0
G81 Y33.5067 Z-2.0
G81 Y30.9669 Z-2.0
G81 Y28.4269 Z-2.0
G81 Y25.8868 Z-2.0
G81 Y23.3471 Z-2.0
G81 Y20.8067 Z-2.0
G81 Y18.2669 Z-2.0
G81 X3.9796 Y15.7269 Z-2.0
G81 X6.5193 Z-2.0
G81 X9.0594 Z-2.0
G81 X11.5995 Z-2.0
G81 X14.1395 Z-2.0
G81 X16.6796 Z-2.0
G81 X17.9495 Y18.2669 Z-2.0
G81 Y20.8067 Z-2.0
G81 Y23.3471 Z-2.0
G81 Y25.8868 Z-2.0
G81 Y28.4269 Z-2.0
G81 Y30.9879 Z-2.0
G81 Y33.5068 Z-2.0
G81 Y36.0469 Z-2.0
G81 Y38.5868 Z-2.0
G81 Y41.1269 Z-2.0
G81 Y43.6669 Z-2.0
G81 Y46.2067 Z-2.0
G81 X21.2938 Y46.1856 Z-2.0
G81 Y43.6457 Z-2.0
G81 Y41.1055 Z-2.0
G81 Y38.587 Z-2.0
G81 Y36.0467 Z-2.0
G81 Y33.5068 Z-2.0
G81 Y30.9668 Z-2.0
G81 X15.4094 Y29.6969 Z-2.0
G81 Y27.1567 Z-2.0
G81 Y37.3169 Z-2.0
G81 Y39.8567 Z-2.0
G81 X36.8513 Y43.18 Z-2.0
G81 X39.8358 Y50.1649 Z-2.0
G81 X44.8312 Z-2.0
G81 X47.8367 Y43.18 Z-2.0
G81 X44.8312 Y35.6871 Z-2.0
G81 X42.3335 Z-2.0
G81 X39.8358 Z-2.0
G81 X42.3759 Y29.8449 Z-2.0
G81 Y27.3051 Z-2.0
G81 X44.7676 Y17.2296 Z-2.0
G81 X39.7724 Z-2.0
G81 Y12.2342 Z-2.0
G81 X44.7676 Z-2.0
G81 X32.7238 Y3.3443 Z-2.0
G81 X20.4895 Y11.7686 Z-2.0
G81 X17.9495 Z-2.0
G81 X15.4096 Z-2.0
G81 X12.8695 Z-2.0
G81 X10.3294 Z-2.0
G81 X7.7895 Z-2.0
G81 X5.2495 Z-2.0
G81 X2.7096 Z-2.0
G81 Y63.3305 Z-2.0
G81 X5.2495 Z-2.0
G81 X33.3589 Y61.7644 Z-2.0
G81 X35.8988 Z-2.0
G81 Y59.2245 Z-2.0
G81 X33.3589 Z-2.0
G81 X38.4388 Z-2.0
G81 X40.9577 Z-2.0
G81 Y61.7644 Z-2.0
G81 X38.4388 Z-2.0
G81 X43.4976 Z-2.0
G81 Y59.2245 Z-2.0
G81 X46.0377 Z-2.0
G81 Y61.7644 Z-2.0
G81 X48.5777 Z-2.0
G81 X51.1176 Z-2.0
G81 Y59.2243 Z-2.0
G81 X48.5777 Y59.2245 Z-2.0
G81 X61.9127 Y69.1939 Z-2.0
G81 X32.7238 Y74.7606 Z-2.0
G81 X61.9127 Y10.1601 Z-2.0
G81 X74.9088 Y4.6354 Z-2.0
G81 X77.4492 Z-2.0
G81 X79.9889 Z-2.0
G81 X82.529 Z-2.0
G81 X85.0691 Z-2.0
G81 X87.6088 Z-2.0
G81 X90.1492 Z-2.0
G81 X92.6889 Z-2.0
G81 X95.229 Z-2.0
G81 X107.929 Y10.1601 Z-2.0
G81 X110.3209 Y3.3443 Z-2.0
G81 X107.929 Y69.1939 Z-2.0
G81 X110.3209 Y74.7606 Z-2.0
G80
M5
M30
