( Made using CamBam - http://www.cambam.co.uk )
( mounting plates 11/4/2013 10:54:26 AM )
( T4 : 4.0 )
G21 G90 G91.1 G64 G40
G0 Z3.0
( T4 : 4.0 )
T4 M6
( Profile1 )
G17
M3 S1000
G0 X-3.7644 Y-21.6615
G0 Z1.0
G1 F25.0 Z-1.0
G2 F150.0 X-10.426 Y-24.3899 I-6.6504 J6.7408
G2 X-17.1214 Y-21.6279 I-0.0099 J9.4722
G2 X-19.9221 Y-15.0664 I6.6789 J6.7292
G2 X-19.9262 Y-14.9378 I1.9959 J0.1286
G1 Y-2.9381
G2 X-17.9262 Y-0.9381 I2.0 J0.0
G1 X-2.9259
G2 X-0.9259 Y-2.9381 I0.0 J-2.0
G1 Y-14.9378
G2 X-0.93 Y-15.0661 I-2.0 J0.0
G2 X-3.7305 Y-21.6278 I-9.4775 J0.1664
G2 X-3.7644 Y-21.6615 I-6.6844 J6.7072
G1 F25.0 Z-2.0
G2 F150.0 X-10.426 Y-24.3899 I-6.6504 J6.7408
G2 X-17.1214 Y-21.6279 I-0.0099 J9.4722
G2 X-19.9221 Y-15.0664 I6.6789 J6.7292
G2 X-19.9262 Y-14.9378 I1.9959 J0.1286
G1 Y-2.9381
G2 X-17.9262 Y-0.9381 I2.0 J0.0
G1 X-2.9259
G2 X-0.9259 Y-2.9381 I0.0 J-2.0
G1 Y-14.9378
G2 X-0.93 Y-15.0661 I-2.0 J0.0
G2 X-3.7305 Y-21.6278 I-9.4775 J0.1664
G2 X-3.7644 Y-21.6615 I-6.6844 J6.7072
G1 F25.0 Z-3.0
G2 F150.0 X-10.426 Y-24.3899 I-6.6504 J6.7408
G2 X-17.1214 Y-21.6279 I-0.0099 J9.4722
G2 X-19.9221 Y-15.0664 I6.6789 J6.7292
G2 X-19.9262 Y-14.9378 I1.9959 J0.1286
G1 Y-2.9381
G2 X-17.9262 Y-0.9381 I2.0 J0.0
G1 X-2.9259
G2 X-0.9259 Y-2.9381 I0.0 J-2.0
G1 Y-14.9378
G2 X-0.93 Y-15.0661 I-2.0 J0.0
G2 X-3.7305 Y-21.6278 I-9.4775 J0.1664
G2 X-3.7644 Y-21.6615 I-6.6844 J6.7072
G1 F25.0 Z-4.0
G2 F150.0 X-10.426 Y-24.3899 I-6.6504 J6.7408
G2 X-17.1214 Y-21.6279 I-0.0099 J9.4722
G2 X-19.9221 Y-15.0664 I6.6789 J6.7292
G2 X-19.9262 Y-14.9378 I1.9959 J0.1286
G1 Y-2.9381
G2 X-17.9262 Y-0.9381 I2.0 J0.0
G1 X-2.9259
G2 X-0.9259 Y-2.9381 I0.0 J-2.0
G1 Y-14.9378
G2 X-0.93 Y-15.0661 I-2.0 J0.0
G2 X-3.7305 Y-21.6278 I-9.4775 J0.1664
G2 X-3.7644 Y-21.6615 I-6.6844 J6.7072
G1 F25.0 Z-5.0
G2 F150.0 X-10.426 Y-24.3899 I-6.6504 J6.7408
G2 X-17.1214 Y-21.6279 I-0.0099 J9.4722
G2 X-19.9221 Y-15.0664 I6.6789 J6.7292
G2 X-19.9262 Y-14.9378 I1.9959 J0.1286
G1 Y-2.9381
G2 X-17.9262 Y-0.9381 I2.0 J0.0
G1 X-2.9259
G2 X-0.9259 Y-2.9381 I0.0 J-2.0
G1 Y-14.9378
G2 X-0.93 Y-15.0661 I-2.0 J0.0
G2 X-3.7305 Y-21.6278 I-9.4775 J0.1664
G2 X-3.7644 Y-21.6615 I-6.6844 J6.7072
G1 F25.0 Z-6.0
G2 F150.0 X-10.426 Y-24.3899 I-6.6504 J6.7408
G2 X-17.1214 Y-21.6279 I-0.0099 J9.4722
G2 X-19.9221 Y-15.0664 I6.6789 J6.7292
G2 X-19.9262 Y-14.9378 I1.9959 J0.1286
G1 Y-2.9381
G2 X-17.9262 Y-0.9381 I2.0 J0.0
G1 X-2.9259
G2 X-0.9259 Y-2.9381 I0.0 J-2.0
G1 Y-14.9378
G2 X-0.93 Y-15.0661 I-2.0 J0.0
G2 X-3.7305 Y-21.6278 I-9.4775 J0.1664
G2 X-3.7644 Y-21.6615 I-6.6844 J6.7072
G1 F25.0 Z-6.5
G2 F150.0 X-10.426 Y-24.3899 I-6.6504 J6.7408
G2 X-17.1214 Y-21.6279 I-0.0099 J9.4722
G2 X-19.9221 Y-15.0664 I6.6789 J6.7292
G2 X-19.9262 Y-14.9378 I1.9959 J0.1286
G1 Y-2.9381
G2 X-17.9262 Y-0.9381 I2.0 J0.0
G1 X-2.9259
G2 X-0.9259 Y-2.9381 I0.0 J-2.0
G1 Y-14.9378
G2 X-0.93 Y-15.0661 I-2.0 J0.0
G2 X-3.7305 Y-21.6278 I-9.4775 J0.1664
G2 X-3.7644 Y-21.6615 I-6.6844 J6.7072
( Profile2 )
S1000
G0 Z3.0
G0 X17.2392 Y-21.7826
G0 Z1.0
G1 F25.0 Z-1.0
G2 F150.0 X10.5742 Y-24.5143 I-6.6538 J6.7375
G2 X3.8788 Y-21.7523 I-0.0099 J9.4722
G2 X1.0782 Y-15.1908 I6.6789 J6.7292
G2 X1.0741 Y-15.0622 I1.9959 J0.1286
G1 Y-3.0624
G2 X3.0741 Y-1.0624 I2.0 J0.0
G1 X18.0743
G2 X20.0743 Y-3.0624 I0.0 J-2.0
G1 Y-15.0622
G2 X20.0702 Y-15.1905 I-2.0 J0.0
G2 X17.2698 Y-21.7522 I-9.4775 J0.1664
G2 X17.2392 Y-21.7826 I-6.6844 J6.7072
G1 F25.0 Z-2.0
G2 F150.0 X10.5742 Y-24.5143 I-6.6538 J6.7375
G2 X3.8788 Y-21.7523 I-0.0099 J9.4722
G2 X1.0782 Y-15.1908 I6.6789 J6.7292
G2 X1.0741 Y-15.0622 I1.9959 J0.1286
G1 Y-3.0624
G2 X3.0741 Y-1.0624 I2.0 J0.0
G1 X18.0743
G2 X20.0743 Y-3.0624 I0.0 J-2.0
G1 Y-15.0622
G2 X20.0702 Y-15.1905 I-2.0 J0.0
G2 X17.2698 Y-21.7522 I-9.4775 J0.1664
G2 X17.2392 Y-21.7826 I-6.6844 J6.7072
G1 F25.0 Z-3.0
G2 F150.0 X10.5742 Y-24.5143 I-6.6538 J6.7375
G2 X3.8788 Y-21.7523 I-0.0099 J9.4722
G2 X1.0782 Y-15.1908 I6.6789 J6.7292
G2 X1.0741 Y-15.0622 I1.9959 J0.1286
G1 Y-3.0624
G2 X3.0741 Y-1.0624 I2.0 J0.0
G1 X18.0743
G2 X20.0743 Y-3.0624 I0.0 J-2.0
G1 Y-15.0622
G2 X20.0702 Y-15.1905 I-2.0 J0.0
G2 X17.2698 Y-21.7522 I-9.4775 J0.1664
G2 X17.2392 Y-21.7826 I-6.6844 J6.7072
G1 F25.0 Z-4.0
G2 F150.0 X10.5742 Y-24.5143 I-6.6538 J6.7375
G2 X3.8788 Y-21.7523 I-0.0099 J9.4722
G2 X1.0782 Y-15.1908 I6.6789 J6.7292
G2 X1.0741 Y-15.0622 I1.9959 J0.1286
G1 Y-3.0624
G2 X3.0741 Y-1.0624 I2.0 J0.0
G1 X18.0743
G2 X20.0743 Y-3.0624 I0.0 J-2.0
G1 Y-15.0622
G2 X20.0702 Y-15.1905 I-2.0 J0.0
G2 X17.2698 Y-21.7522 I-9.4775 J0.1664
G2 X17.2392 Y-21.7826 I-6.6844 J6.7072
G1 F25.0 Z-5.0
G2 F150.0 X10.5742 Y-24.5143 I-6.6538 J6.7375
G2 X3.8788 Y-21.7523 I-0.0099 J9.4722
G2 X1.0782 Y-15.1908 I6.6789 J6.7292
G2 X1.0741 Y-15.0622 I1.9959 J0.1286
G1 Y-3.0624
G2 X3.0741 Y-1.0624 I2.0 J0.0
G1 X18.0743
G2 X20.0743 Y-3.0624 I0.0 J-2.0
G1 Y-15.0622
G2 X20.0702 Y-15.1905 I-2.0 J0.0
G2 X17.2698 Y-21.7522 I-9.4775 J0.1664
G2 X17.2392 Y-21.7826 I-6.6844 J6.7072
G1 F25.0 Z-6.0
G2 F150.0 X10.5742 Y-24.5143 I-6.6538 J6.7375
G2 X3.8788 Y-21.7523 I-0.0099 J9.4722
G2 X1.0782 Y-15.1908 I6.6789 J6.7292
G2 X1.0741 Y-15.0622 I1.9959 J0.1286
G1 Y-3.0624
G2 X3.0741 Y-1.0624 I2.0 J0.0
G1 X18.0743
G2 X20.0743 Y-3.0624 I0.0 J-2.0
G1 Y-15.0622
G2 X20.0702 Y-15.1905 I-2.0 J0.0
G2 X17.2698 Y-21.7522 I-9.4775 J0.1664
G2 X17.2392 Y-21.7826 I-6.6844 J6.7072
G1 F25.0 Z-6.5
G2 F150.0 X10.5742 Y-24.5143 I-6.6538 J6.7375
G2 X3.8788 Y-21.7523 I-0.0099 J9.4722
G2 X1.0782 Y-15.1908 I6.6789 J6.7292
G2 X1.0741 Y-15.0622 I1.9959 J0.1286
G1 Y-3.0624
G2 X3.0741 Y-1.0624 I2.0 J0.0
G1 X18.0743
G2 X20.0743 Y-3.0624 I0.0 J-2.0
G1 Y-15.0622
G2 X20.0702 Y-15.1905 I-2.0 J0.0
G2 X17.2698 Y-21.7522 I-9.4775 J0.1664
G2 X17.2392 Y-21.7826 I-6.6844 J6.7072
( Profile3 )
S1000
G0 Z3.0
G0 X-3.8936 Y3.8096
G0 Z1.0
G1 F25.0 Z-1.0
G2 F150.0 X-10.5742 Y1.0624 I-6.6694 J6.7221
G2 X-17.2696 Y3.8245 I-0.0099 J9.4722
G2 X-20.0702 Y10.3859 I6.6789 J6.7292
G2 X-20.0743 Y10.5145 I1.9959 J0.1286
G1 Y22.5143
G2 X-18.0743 Y24.5143 I2.0 J0.0
G1 X-3.0741
G2 X-1.0741 Y22.5143 I0.0 J-2.0
G1 Y10.5145
G2 X-1.0782 Y10.3862 I-2.0 J0.0
G2 X-3.8786 Y3.8245 I-9.4775 J0.1664
G2 X-3.8936 Y3.8096 I-6.6844 J6.7072
G1 F25.0 Z-2.0
G2 F150.0 X-10.5742 Y1.0624 I-6.6694 J6.7221
G2 X-17.2696 Y3.8245 I-0.0099 J9.4722
G2 X-20.0702 Y10.3859 I6.6789 J6.7292
G2 X-20.0743 Y10.5145 I1.9959 J0.1286
G1 Y22.5143
G2 X-18.0743 Y24.5143 I2.0 J0.0
G1 X-3.0741
G2 X-1.0741 Y22.5143 I0.0 J-2.0
G1 Y10.5145
G2 X-1.0782 Y10.3862 I-2.0 J0.0
G2 X-3.8786 Y3.8245 I-9.4775 J0.1664
G2 X-3.8936 Y3.8096 I-6.6844 J6.7072
G1 F25.0 Z-3.0
G2 F150.0 X-10.5742 Y1.0624 I-6.6694 J6.7221
G2 X-17.2696 Y3.8245 I-0.0099 J9.4722
G2 X-20.0702 Y10.3859 I6.6789 J6.7292
G2 X-20.0743 Y10.5145 I1.9959 J0.1286
G1 Y22.5143
G2 X-18.0743 Y24.5143 I2.0 J0.0
G1 X-3.0741
G2 X-1.0741 Y22.5143 I0.0 J-2.0
G1 Y10.5145
G2 X-1.0782 Y10.3862 I-2.0 J0.0
G2 X-3.8786 Y3.8245 I-9.4775 J0.1664
G2 X-3.8936 Y3.8096 I-6.6844 J6.7072
G1 F25.0 Z-4.0
G2 F150.0 X-10.5742 Y1.0624 I-6.6694 J6.7221
G2 X-17.2696 Y3.8245 I-0.0099 J9.4722
G2 X-20.0702 Y10.3859 I6.6789 J6.7292
G2 X-20.0743 Y10.5145 I1.9959 J0.1286
G1 Y22.5143
G2 X-18.0743 Y24.5143 I2.0 J0.0
G1 X-3.0741
G2 X-1.0741 Y22.5143 I0.0 J-2.0
G1 Y10.5145
G2 X-1.0782 Y10.3862 I-2.0 J0.0
G2 X-3.8786 Y3.8245 I-9.4775 J0.1664
G2 X-3.8936 Y3.8096 I-6.6844 J6.7072
G1 F25.0 Z-5.0
G2 F150.0 X-10.5742 Y1.0624 I-6.6694 J6.7221
G2 X-17.2696 Y3.8245 I-0.0099 J9.4722
G2 X-20.0702 Y10.3859 I6.6789 J6.7292
G2 X-20.0743 Y10.5145 I1.9959 J0.1286
G1 Y22.5143
G2 X-18.0743 Y24.5143 I2.0 J0.0
G1 X-3.0741
G2 X-1.0741 Y22.5143 I0.0 J-2.0
G1 Y10.5145
G2 X-1.0782 Y10.3862 I-2.0 J0.0
G2 X-3.8786 Y3.8245 I-9.4775 J0.1664
G2 X-3.8936 Y3.8096 I-6.6844 J6.7072
G1 F25.0 Z-6.0
G2 F150.0 X-10.5742 Y1.0624 I-6.6694 J6.7221
G2 X-17.2696 Y3.8245 I-0.0099 J9.4722
G2 X-20.0702 Y10.3859 I6.6789 J6.7292
G2 X-20.0743 Y10.5145 I1.9959 J0.1286
G1 Y22.5143
G2 X-18.0743 Y24.5143 I2.0 J0.0
G1 X-3.0741
G2 X-1.0741 Y22.5143 I0.0 J-2.0
G1 Y10.5145
G2 X-1.0782 Y10.3862 I-2.0 J0.0
G2 X-3.8786 Y3.8245 I-9.4775 J0.1664
G2 X-3.8936 Y3.8096 I-6.6844 J6.7072
G1 F25.0 Z-6.5
G2 F150.0 X-10.5742 Y1.0624 I-6.6694 J6.7221
G2 X-17.2696 Y3.8245 I-0.0099 J9.4722
G2 X-20.0702 Y10.3859 I6.6789 J6.7292
G2 X-20.0743 Y10.5145 I1.9959 J0.1286
G1 Y22.5143
G2 X-18.0743 Y24.5143 I2.0 J0.0
G1 X-3.0741
G2 X-1.0741 Y22.5143 I0.0 J-2.0
G1 Y10.5145
G2 X-1.0782 Y10.3862 I-2.0 J0.0
G2 X-3.8786 Y3.8245 I-9.4775 J0.1664
G2 X-3.8936 Y3.8096 I-6.6844 J6.7072
( Profile4 )
S1000
G0 Z3.0
G0 X17.2504 Y3.8056
G0 Z1.0
G1 F25.0 Z-1.0
G2 F150.0 X10.5739 Y1.0624 I-6.6653 J6.7261
G2 X3.8785 Y3.8245 I-0.0099 J9.4722
G2 X1.0779 Y10.3859 I6.6789 J6.7292
G2 X1.0737 Y10.5145 I1.9959 J0.1286
G1 Y22.5143
G2 X3.0737 Y24.5143 I2.0 J0.0
G1 X18.074
G2 X20.074 Y22.5143 I0.0 J-2.0
G1 Y10.5145
G2 X20.0699 Y10.3862 I-2.0 J0.0
G2 X17.2695 Y3.8245 I-9.4775 J0.1664
G2 X17.2504 Y3.8056 I-6.6844 J6.7072
G1 F25.0 Z-2.0
G2 F150.0 X10.5739 Y1.0624 I-6.6653 J6.7261
G2 X3.8785 Y3.8245 I-0.0099 J9.4722
G2 X1.0779 Y10.3859 I6.6789 J6.7292
G2 X1.0737 Y10.5145 I1.9959 J0.1286
G1 Y22.5143
G2 X3.0737 Y24.5143 I2.0 J0.0
G1 X18.074
G2 X20.074 Y22.5143 I0.0 J-2.0
G1 Y10.5145
G2 X20.0699 Y10.3862 I-2.0 J0.0
G2 X17.2695 Y3.8245 I-9.4775 J0.1664
G2 X17.2504 Y3.8056 I-6.6844 J6.7072
G1 F25.0 Z-3.0
G2 F150.0 X10.5739 Y1.0624 I-6.6653 J6.7261
G2 X3.8785 Y3.8245 I-0.0099 J9.4722
G2 X1.0779 Y10.3859 I6.6789 J6.7292
G2 X1.0737 Y10.5145 I1.9959 J0.1286
G1 Y22.5143
G2 X3.0737 Y24.5143 I2.0 J0.0
G1 X18.074
G2 X20.074 Y22.5143 I0.0 J-2.0
G1 Y10.5145
G2 X20.0699 Y10.3862 I-2.0 J0.0
G2 X17.2695 Y3.8245 I-9.4775 J0.1664
G2 X17.2504 Y3.8056 I-6.6844 J6.7072
G1 F25.0 Z-4.0
G2 F150.0 X10.5739 Y1.0624 I-6.6653 J6.7261
G2 X3.8785 Y3.8245 I-0.0099 J9.4722
G2 X1.0779 Y10.3859 I6.6789 J6.7292
G2 X1.0737 Y10.5145 I1.9959 J0.1286
G1 Y22.5143
G2 X3.0737 Y24.5143 I2.0 J0.0
G1 X18.074
G2 X20.074 Y22.5143 I0.0 J-2.0
G1 Y10.5145
G2 X20.0699 Y10.3862 I-2.0 J0.0
G2 X17.2695 Y3.8245 I-9.4775 J0.1664
G2 X17.2504 Y3.8056 I-6.6844 J6.7072
G1 F25.0 Z-5.0
G2 F150.0 X10.5739 Y1.0624 I-6.6653 J6.7261
G2 X3.8785 Y3.8245 I-0.0099 J9.4722
G2 X1.0779 Y10.3859 I6.6789 J6.7292
G2 X1.0737 Y10.5145 I1.9959 J0.1286
G1 Y22.5143
G2 X3.0737 Y24.5143 I2.0 J0.0
G1 X18.074
G2 X20.074 Y22.5143 I0.0 J-2.0
G1 Y10.5145
G2 X20.0699 Y10.3862 I-2.0 J0.0
G2 X17.2695 Y3.8245 I-9.4775 J0.1664
G2 X17.2504 Y3.8056 I-6.6844 J6.7072
G1 F25.0 Z-6.0
G2 F150.0 X10.5739 Y1.0624 I-6.6653 J6.7261
G2 X3.8785 Y3.8245 I-0.0099 J9.4722
G2 X1.0779 Y10.3859 I6.6789 J6.7292
G2 X1.0737 Y10.5145 I1.9959 J0.1286
G1 Y22.5143
G2 X3.0737 Y24.5143 I2.0 J0.0
G1 X18.074
G2 X20.074 Y22.5143 I0.0 J-2.0
G1 Y10.5145
G2 X20.0699 Y10.3862 I-2.0 J0.0
G2 X17.2695 Y3.8245 I-9.4775 J0.1664
G2 X17.2504 Y3.8056 I-6.6844 J6.7072
G1 F25.0 Z-6.5
G2 F150.0 X10.5739 Y1.0624 I-6.6653 J6.7261
G2 X3.8785 Y3.8245 I-0.0099 J9.4722
G2 X1.0779 Y10.3859 I6.6789 J6.7292
G2 X1.0737 Y10.5145 I1.9959 J0.1286
G1 Y22.5143
G2 X3.0737 Y24.5143 I2.0 J0.0
G1 X18.074
G2 X20.074 Y22.5143 I0.0 J-2.0
G1 Y10.5145
G2 X20.0699 Y10.3862 I-2.0 J0.0
G2 X17.2695 Y3.8245 I-9.4775 J0.1664
G2 X17.2504 Y3.8056 I-6.6844 J6.7072
G0 Z3.0
M5
M30
