( Made using CamBam - http://www.cambam.co.uk )
( mounting plates 11/4/2013 11:30:10 AM )
( T4 : 4.0 )
G21 G90 G91.1 G64 G40
G0 Z3.0
( T4 : 4.0 )
T4 M6
( Profile3 )
G17
M3 S1000
G0 X-2.7726 Y24.4914
G0 Z1.0
G1 F25.0 Z-1.0
G2 F150.0 X-1.0741 Y22.5143 I-0.3015 J-1.9771
G1 Y10.5145
G2 X-1.0782 Y10.3862 I-2.0 J0.0
G2 X-3.8786 Y3.8245 I-9.4775 J0.1664
G2 X-10.5742 Y1.0624 I-6.6844 J6.7072
G2 X-17.2696 Y3.8245 I-0.0099 J9.4722
G2 X-20.0702 Y10.3859 I6.6789 J6.7292
G2 X-20.0743 Y10.5145 I1.9959 J0.1286
G1 Y22.5143
G2 X-18.0743 Y24.5143 I2.0 J0.0
G1 X-3.0741
G2 X-2.7726 Y24.4914 I0.0 J-2.0
G1 F25.0 Z-2.0
G2 F150.0 X-1.0741 Y22.5143 I-0.3015 J-1.9771
G1 Y10.5145
G2 X-1.0782 Y10.3862 I-2.0 J0.0
G2 X-3.8786 Y3.8245 I-9.4775 J0.1664
G2 X-10.5742 Y1.0624 I-6.6844 J6.7072
G2 X-17.2696 Y3.8245 I-0.0099 J9.4722
G2 X-20.0702 Y10.3859 I6.6789 J6.7292
G2 X-20.0743 Y10.5145 I1.9959 J0.1286
G1 Y22.5143
G2 X-18.0743 Y24.5143 I2.0 J0.0
G1 X-3.0741
G2 X-2.7726 Y24.4914 I0.0 J-2.0
G1 F25.0 Z-3.0
G2 F150.0 X-1.0741 Y22.5143 I-0.3015 J-1.9771
G1 Y10.5145
G2 X-1.0782 Y10.3862 I-2.0 J0.0
G2 X-3.8786 Y3.8245 I-9.4775 J0.1664
G2 X-10.5742 Y1.0624 I-6.6844 J6.7072
G2 X-17.2696 Y3.8245 I-0.0099 J9.4722
G2 X-20.0702 Y10.3859 I6.6789 J6.7292
G2 X-20.0743 Y10.5145 I1.9959 J0.1286
G1 Y22.5143
G2 X-18.0743 Y24.5143 I2.0 J0.0
G1 X-3.0741
G2 X-2.7726 Y24.4914 I0.0 J-2.0
G1 F25.0 Z-4.0
G2 F150.0 X-1.0741 Y22.5143 I-0.3015 J-1.9771
G1 Y10.5145
G2 X-1.0782 Y10.3862 I-2.0 J0.0
G2 X-3.8786 Y3.8245 I-9.4775 J0.1664
G2 X-10.5742 Y1.0624 I-6.6844 J6.7072
G2 X-17.2696 Y3.8245 I-0.0099 J9.4722
G2 X-20.0702 Y10.3859 I6.6789 J6.7292
G2 X-20.0743 Y10.5145 I1.9959 J0.1286
G1 Y22.5143
G2 X-18.0743 Y24.5143 I2.0 J0.0
G1 X-3.0741
G2 X-2.7726 Y24.4914 I0.0 J-2.0
G1 F25.0 Z-5.0
G2 F150.0 X-1.0741 Y22.5143 I-0.3015 J-1.9771
G1 Y10.5145
G2 X-1.0782 Y10.3862 I-2.0 J0.0
G2 X-3.8786 Y3.8245 I-9.4775 J0.1664
G2 X-10.5742 Y1.0624 I-6.6844 J6.7072
G2 X-17.2696 Y3.8245 I-0.0099 J9.4722
G2 X-20.0702 Y10.3859 I6.6789 J6.7292
G2 X-20.0743 Y10.5145 I1.9959 J0.1286
G1 Y22.5143
G2 X-18.0743 Y24.5143 I2.0 J0.0
G1 X-3.0741
G2 X-2.7726 Y24.4914 I0.0 J-2.0
G1 F25.0 Z-6.0
G2 F150.0 X-1.0741 Y22.5143 I-0.3015 J-1.9771
G1 Y10.5145
G2 X-1.0782 Y10.3862 I-2.0 J0.0
G2 X-3.8786 Y3.8245 I-9.4775 J0.1664
G2 X-10.5742 Y1.0624 I-6.6844 J6.7072
G2 X-17.2696 Y3.8245 I-0.0099 J9.4722
G2 X-20.0702 Y10.3859 I6.6789 J6.7292
G2 X-20.0743 Y10.5145 I1.9959 J0.1286
G1 Y22.5143
G2 X-18.0743 Y24.5143 I2.0 J0.0
G1 X-3.0741
G2 X-2.7726 Y24.4914 I0.0 J-2.0
G1 F25.0 Z-6.5
G2 F150.0 X-1.0741 Y22.5143 I-0.3015 J-1.9771
G1 Y10.5145
G2 X-1.0782 Y10.3862 I-2.0 J0.0
G2 X-3.8786 Y3.8245 I-9.4775 J0.1664
G2 X-10.5742 Y1.0624 I-6.6844 J6.7072
G2 X-17.2696 Y3.8245 I-0.0099 J9.4722
G2 X-20.0702 Y10.3859 I6.6789 J6.7292
G2 X-20.0743 Y10.5145 I1.9959 J0.1286
G1 Y22.5143
G2 X-18.0743 Y24.5143 I2.0 J0.0
G1 X-3.0741
G2 X-2.7726 Y24.4914 I0.0 J-2.0
( Profile4 )
S1000
G0 Z3.0
G0 X18.0 Y24.5143
G0 Z1.0
G1 F25.0 Z-1.0
G1 F150.0 X18.074
G2 X20.074 Y22.5143 I0.0 J-2.0
G1 Y10.5145
G2 X20.0699 Y10.3862 I-2.0 J0.0
G2 X17.2695 Y3.8245 I-9.4775 J0.1664
G2 X10.5739 Y1.0624 I-6.6844 J6.7072
G2 X3.8785 Y3.8245 I-0.0099 J9.4722
G2 X1.0779 Y10.3859 I6.6789 J6.7292
G2 X1.0737 Y10.5145 I1.9959 J0.1286
G1 Y22.5143
G2 X3.0737 Y24.5143 I2.0 J0.0
G1 X18.0
G1 F25.0 Z-2.0
G1 F150.0 X18.074
G2 X20.074 Y22.5143 I0.0 J-2.0
G1 Y10.5145
G2 X20.0699 Y10.3862 I-2.0 J0.0
G2 X17.2695 Y3.8245 I-9.4775 J0.1664
G2 X10.5739 Y1.0624 I-6.6844 J6.7072
G2 X3.8785 Y3.8245 I-0.0099 J9.4722
G2 X1.0779 Y10.3859 I6.6789 J6.7292
G2 X1.0737 Y10.5145 I1.9959 J0.1286
G1 Y22.5143
G2 X3.0737 Y24.5143 I2.0 J0.0
G1 X18.0
G1 F25.0 Z-3.0
G1 F150.0 X18.074
G2 X20.074 Y22.5143 I0.0 J-2.0
G1 Y10.5145
G2 X20.0699 Y10.3862 I-2.0 J0.0
G2 X17.2695 Y3.8245 I-9.4775 J0.1664
G2 X10.5739 Y1.0624 I-6.6844 J6.7072
G2 X3.8785 Y3.8245 I-0.0099 J9.4722
G2 X1.0779 Y10.3859 I6.6789 J6.7292
G2 X1.0737 Y10.5145 I1.9959 J0.1286
G1 Y22.5143
G2 X3.0737 Y24.5143 I2.0 J0.0
G1 X18.0
G1 F25.0 Z-4.0
G1 F150.0 X18.074
G2 X20.074 Y22.5143 I0.0 J-2.0
G1 Y10.5145
G2 X20.0699 Y10.3862 I-2.0 J0.0
G2 X17.2695 Y3.8245 I-9.4775 J0.1664
G2 X10.5739 Y1.0624 I-6.6844 J6.7072
G2 X3.8785 Y3.8245 I-0.0099 J9.4722
G2 X1.0779 Y10.3859 I6.6789 J6.7292
G2 X1.0737 Y10.5145 I1.9959 J0.1286
G1 Y22.5143
G2 X3.0737 Y24.5143 I2.0 J0.0
G1 X18.0
G1 F25.0 Z-5.0
G1 F150.0 X18.074
G2 X20.074 Y22.5143 I0.0 J-2.0
G1 Y10.5145
G2 X20.0699 Y10.3862 I-2.0 J0.0
G2 X17.2695 Y3.8245 I-9.4775 J0.1664
G2 X10.5739 Y1.0624 I-6.6844 J6.7072
G2 X3.8785 Y3.8245 I-0.0099 J9.4722
G2 X1.0779 Y10.3859 I6.6789 J6.7292
G2 X1.0737 Y10.5145 I1.9959 J0.1286
G1 Y22.5143
G2 X3.0737 Y24.5143 I2.0 J0.0
G1 X18.0
G1 F25.0 Z-6.0
G1 F150.0 X18.074
G2 X20.074 Y22.5143 I0.0 J-2.0
G1 Y10.5145
G2 X20.0699 Y10.3862 I-2.0 J0.0
G2 X17.2695 Y3.8245 I-9.4775 J0.1664
G2 X10.5739 Y1.0624 I-6.6844 J6.7072
G2 X3.8785 Y3.8245 I-0.0099 J9.4722
G2 X1.0779 Y10.3859 I6.6789 J6.7292
G2 X1.0737 Y10.5145 I1.9959 J0.1286
G1 Y22.5143
G2 X3.0737 Y24.5143 I2.0 J0.0
G1 X18.0
G1 F25.0 Z-6.5
G1 F150.0 X18.074
G2 X20.074 Y22.5143 I0.0 J-2.0
G1 Y10.5145
G2 X20.0699 Y10.3862 I-2.0 J0.0
G2 X17.2695 Y3.8245 I-9.4775 J0.1664
G2 X10.5739 Y1.0624 I-6.6844 J6.7072
G2 X3.8785 Y3.8245 I-0.0099 J9.4722
G2 X1.0779 Y10.3859 I6.6789 J6.7292
G2 X1.0737 Y10.5145 I1.9959 J0.1286
G1 Y22.5143
G2 X3.0737 Y24.5143 I2.0 J0.0
G1 X18.0
G0 Z3.0
M5
M30
