( Made using CamBam - http://www.cambam.co.uk )
( mounting plates 11/4/2013 10:54:16 AM )
( T4 : 4.0 )
G21 G90 G91.1 G64 G40
G0 Z3.0
( T4 : 4.0 )
T4 M6
( Pocket1 )
G17
M3 S1000
G0 X-10.5747 Y11.3627
G0 Z1.0
G1 F25.0 Z-1.0
G3 F150.0 X-11.3745 Y10.5629 I0.0 J-0.7998
G2 Y10.5597 I-2.8 J-0.0001
G3 X-11.1423 Y9.9991 I0.7907 J-0.0009
G2 X-11.1371 Y9.9939 I-1.9779 J-1.9819
G3 X-10.5789 Y9.7626 I0.5571 J0.5553
G2 X-10.5748 I0.0042 J-2.8
G3 X-9.7746 Y10.5627 I0.0 J0.8003
G3 Y10.5629 I-0.8003 J0.0002
G1 Y10.5626
G3 Y10.5627 I-0.8002 J0.0
G3 X-10.5747 Y11.3627 I-0.8002 J-0.0002
G1 F25.0 X-10.5746 Y12.1627
G1 F150.0 X-10.5747
G3 X-12.1745 Y10.5628 I0.0 J-1.5998
G2 Y10.5605 I-2.0 J-0.0001
G3 X-11.7074 Y9.4328 I1.5907 J-0.0018
G2 X-11.7037 Y9.4291 I-1.4128 J-1.4157
G3 X-10.5777 Y8.9626 I1.1237 J1.1201
G2 X-10.5748 I0.003 J-2.0
G3 X-8.9746 Y10.5627 I-0.0001 J1.6003
G3 Y10.5628 I-1.6003 J0.0002
G1 Y10.5626
G3 Y10.5627 I-1.6002 J-0.0001
G3 X-10.5746 Y12.1627 I-1.6002 J-0.0002
G1 F25.0 X-10.5747 Y11.3627
G1 Z-2.0
G3 F150.0 X-11.3745 Y10.5629 I0.0 J-0.7998
G2 Y10.5597 I-2.8 J-0.0001
G3 X-11.1423 Y9.9991 I0.7907 J-0.0009
G2 X-11.1371 Y9.9939 I-1.9779 J-1.9819
G3 X-10.5789 Y9.7626 I0.5571 J0.5553
G2 X-10.5748 I0.0042 J-2.8
G3 X-9.7746 Y10.5627 I0.0 J0.8003
G3 Y10.5629 I-0.8003 J0.0002
G1 Y10.5626
G3 Y10.5627 I-0.8002 J0.0
G3 X-10.5747 Y11.3627 I-0.8002 J-0.0002
G1 F25.0 X-10.5746 Y12.1627
G1 F150.0 X-10.5747
G3 X-12.1745 Y10.5628 I0.0 J-1.5998
G2 Y10.5605 I-2.0 J-0.0001
G3 X-11.7074 Y9.4328 I1.5907 J-0.0018
G2 X-11.7037 Y9.4291 I-1.4128 J-1.4157
G3 X-10.5777 Y8.9626 I1.1237 J1.1201
G2 X-10.5748 I0.003 J-2.0
G3 X-8.9746 Y10.5627 I-0.0001 J1.6003
G3 Y10.5628 I-1.6003 J0.0002
G1 Y10.5626
G3 Y10.5627 I-1.6002 J-0.0001
G3 X-10.5746 Y12.1627 I-1.6002 J-0.0002
G1 F25.0 X-10.5747 Y11.3627
G1 Z-3.0
G3 F150.0 X-11.3745 Y10.5629 I0.0 J-0.7998
G2 Y10.5597 I-2.8 J-0.0001
G3 X-11.1423 Y9.9991 I0.7907 J-0.0009
G2 X-11.1371 Y9.9939 I-1.9779 J-1.9819
G3 X-10.5789 Y9.7626 I0.5571 J0.5553
G2 X-10.5748 I0.0042 J-2.8
G3 X-9.7746 Y10.5627 I0.0 J0.8003
G3 Y10.5629 I-0.8003 J0.0002
G1 Y10.5626
G3 Y10.5627 I-0.8002 J0.0
G3 X-10.5747 Y11.3627 I-0.8002 J-0.0002
G1 F25.0 X-10.5746 Y12.1627
G1 F150.0 X-10.5747
G3 X-12.1745 Y10.5628 I0.0 J-1.5998
G2 Y10.5605 I-2.0 J-0.0001
G3 X-11.7074 Y9.4328 I1.5907 J-0.0018
G2 X-11.7037 Y9.4291 I-1.4128 J-1.4157
G3 X-10.5777 Y8.9626 I1.1237 J1.1201
G2 X-10.5748 I0.003 J-2.0
G3 X-8.9746 Y10.5627 I-0.0001 J1.6003
G3 Y10.5628 I-1.6003 J0.0002
G1 Y10.5626
G3 Y10.5627 I-1.6002 J-0.0001
G3 X-10.5746 Y12.1627 I-1.6002 J-0.0002
G1 F25.0 X-10.5747 Y11.3627
G1 Z-4.0
G3 F150.0 X-11.3745 Y10.5629 I0.0 J-0.7998
G2 Y10.5597 I-2.8 J-0.0001
G3 X-11.1423 Y9.9991 I0.7907 J-0.0009
G2 X-11.1371 Y9.9939 I-1.9779 J-1.9819
G3 X-10.5789 Y9.7626 I0.5571 J0.5553
G2 X-10.5748 I0.0042 J-2.8
G3 X-9.7746 Y10.5627 I0.0 J0.8003
G3 Y10.5629 I-0.8003 J0.0002
G1 Y10.5626
G3 Y10.5627 I-0.8002 J0.0
G3 X-10.5747 Y11.3627 I-0.8002 J-0.0002
G1 F25.0 X-10.5746 Y12.1627
G1 F150.0 X-10.5747
G3 X-12.1745 Y10.5628 I0.0 J-1.5998
G2 Y10.5605 I-2.0 J-0.0001
G3 X-11.7074 Y9.4328 I1.5907 J-0.0018
G2 X-11.7037 Y9.4291 I-1.4128 J-1.4157
G3 X-10.5777 Y8.9626 I1.1237 J1.1201
G2 X-10.5748 I0.003 J-2.0
G3 X-8.9746 Y10.5627 I-0.0001 J1.6003
G3 Y10.5628 I-1.6003 J0.0002
G1 Y10.5626
G3 Y10.5627 I-1.6002 J-0.0001
G3 X-10.5746 Y12.1627 I-1.6002 J-0.0002
G1 F25.0 X-10.5747 Y11.3627
G1 Z-5.0
G3 F150.0 X-11.3745 Y10.5629 I0.0 J-0.7998
G2 Y10.5597 I-2.8 J-0.0001
G3 X-11.1423 Y9.9991 I0.7907 J-0.0009
G2 X-11.1371 Y9.9939 I-1.9779 J-1.9819
G3 X-10.5789 Y9.7626 I0.5571 J0.5553
G2 X-10.5748 I0.0042 J-2.8
G3 X-9.7746 Y10.5627 I0.0 J0.8003
G3 Y10.5629 I-0.8003 J0.0002
G1 Y10.5626
G3 Y10.5627 I-0.8002 J0.0
G3 X-10.5747 Y11.3627 I-0.8002 J-0.0002
G1 F25.0 X-10.5746 Y12.1627
G1 F150.0 X-10.5747
G3 X-12.1745 Y10.5628 I0.0 J-1.5998
G2 Y10.5605 I-2.0 J-0.0001
G3 X-11.7074 Y9.4328 I1.5907 J-0.0018
G2 X-11.7037 Y9.4291 I-1.4128 J-1.4157
G3 X-10.5777 Y8.9626 I1.1237 J1.1201
G2 X-10.5748 I0.003 J-2.0
G3 X-8.9746 Y10.5627 I-0.0001 J1.6003
G3 Y10.5628 I-1.6003 J0.0002
G1 Y10.5626
G3 Y10.5627 I-1.6002 J-0.0001
G3 X-10.5746 Y12.1627 I-1.6002 J-0.0002
G1 F25.0 X-10.5747 Y11.3627
G1 Z-6.0
G3 F150.0 X-11.3745 Y10.5629 I0.0 J-0.7998
G2 Y10.5597 I-2.8 J-0.0001
G3 X-11.1423 Y9.9991 I0.7907 J-0.0009
G2 X-11.1371 Y9.9939 I-1.9779 J-1.9819
G3 X-10.5789 Y9.7626 I0.5571 J0.5553
G2 X-10.5748 I0.0042 J-2.8
G3 X-9.7746 Y10.5627 I0.0 J0.8003
G3 Y10.5629 I-0.8003 J0.0002
G1 Y10.5626
G3 Y10.5627 I-0.8002 J0.0
G3 X-10.5747 Y11.3627 I-0.8002 J-0.0002
G1 F25.0 X-10.5746 Y12.1627
G1 F150.0 X-10.5747
G3 X-12.1745 Y10.5628 I0.0 J-1.5998
G2 Y10.5605 I-2.0 J-0.0001
G3 X-11.7074 Y9.4328 I1.5907 J-0.0018
G2 X-11.7037 Y9.4291 I-1.4128 J-1.4157
G3 X-10.5777 Y8.9626 I1.1237 J1.1201
G2 X-10.5748 I0.003 J-2.0
G3 X-8.9746 Y10.5627 I-0.0001 J1.6003
G3 Y10.5628 I-1.6003 J0.0002
G1 Y10.5626
G3 Y10.5627 I-1.6002 J-0.0001
G3 X-10.5746 Y12.1627 I-1.6002 J-0.0002
G1 F25.0 X-10.5747 Y11.3627
G1 Z-6.5
G3 F150.0 X-11.3745 Y10.5629 I0.0 J-0.7998
G2 Y10.5597 I-2.8 J-0.0001
G3 X-11.1423 Y9.9991 I0.7907 J-0.0009
G2 X-11.1371 Y9.9939 I-1.9779 J-1.9819
G3 X-10.5789 Y9.7626 I0.5571 J0.5553
G2 X-10.5748 I0.0042 J-2.8
G3 X-9.7746 Y10.5627 I0.0 J0.8003
G3 Y10.5629 I-0.8003 J0.0002
G1 Y10.5626
G3 Y10.5627 I-0.8002 J0.0
G3 X-10.5747 Y11.3627 I-0.8002 J-0.0002
G1 F25.0 X-10.5746 Y12.1627
G1 F150.0 X-10.5747
G3 X-12.1745 Y10.5628 I0.0 J-1.5998
G2 Y10.5605 I-2.0 J-0.0001
G3 X-11.7074 Y9.4328 I1.5907 J-0.0018
G2 X-11.7037 Y9.4291 I-1.4128 J-1.4157
G3 X-10.5777 Y8.9626 I1.1237 J1.1201
G2 X-10.5748 I0.003 J-2.0
G3 X-8.9746 Y10.5627 I-0.0001 J1.6003
G3 Y10.5628 I-1.6003 J0.0002
G1 Y10.5626
G3 Y10.5627 I-1.6002 J-0.0001
G3 X-10.5746 Y12.1627 I-1.6002 J-0.0002
G0 Z3.0
G0 X9.7758 Y10.6232
G0 Z1.0
G1 F25.0 Z-1.0
G3 F150.0 X9.7736 Y10.5629 I0.7975 J-0.0603
G2 Y10.5597 I-2.8 J-0.0001
G3 X10.0057 Y9.9991 I0.7907 J-0.0009
G2 X10.0109 Y9.9939 I-1.9779 J-1.9819
G3 X10.5692 Y9.7626 I0.5571 J0.5553
G2 X10.5732 I0.0042 J-2.8
G3 X11.3735 Y10.5627 I0.0 J0.8003
G3 Y10.5629 I-0.8003 J0.0002
G1 Y10.5626
G3 Y10.5627 I-0.8002 J0.0
G3 X10.5733 Y11.3627 I-0.8002 J-0.0002
G1 X10.5734
G1 X10.5733
G3 X9.7758 Y10.6232 I0.0 J-0.7998
G1 F25.0 X8.9781 Y10.6836
G3 F150.0 X8.9736 Y10.5628 I1.5953 J-0.1207
G2 Y10.5605 I-2.0 J-0.0001
G3 X9.4406 Y9.4328 I1.5907 J-0.0018
G2 X9.4443 Y9.4291 I-1.4128 J-1.4157
G3 X10.5704 Y8.9626 I1.1237 J1.1201
G2 X10.5733 I0.003 J-2.0
G3 X12.1735 Y10.5627 I-0.0001 J1.6003
G3 Y10.5628 I-1.6003 J0.0002
G1 Y10.5626
G3 Y10.5627 I-1.6002 J-0.0001
G3 X10.5733 Y12.1627 I-1.6002 J-0.0002
G1 X10.5734
G1 X10.5733
G3 X8.9781 Y10.6836 I0.0 J-1.5998
G1 F25.0 X9.7758 Y10.6232
G1 Z-2.0
G3 F150.0 X9.7736 Y10.5629 I0.7975 J-0.0603
G2 Y10.5597 I-2.8 J-0.0001
G3 X10.0057 Y9.9991 I0.7907 J-0.0009
G2 X10.0109 Y9.9939 I-1.9779 J-1.9819
G3 X10.5692 Y9.7626 I0.5571 J0.5553
G2 X10.5732 I0.0042 J-2.8
G3 X11.3735 Y10.5627 I0.0 J0.8003
G3 Y10.5629 I-0.8003 J0.0002
G1 Y10.5626
G3 Y10.5627 I-0.8002 J0.0
G3 X10.5733 Y11.3627 I-0.8002 J-0.0002
G1 X10.5734
G1 X10.5733
G3 X9.7758 Y10.6232 I0.0 J-0.7998
G1 F25.0 X8.9781 Y10.6836
G3 F150.0 X8.9736 Y10.5628 I1.5953 J-0.1207
G2 Y10.5605 I-2.0 J-0.0001
G3 X9.4406 Y9.4328 I1.5907 J-0.0018
G2 X9.4443 Y9.4291 I-1.4128 J-1.4157
G3 X10.5704 Y8.9626 I1.1237 J1.1201
G2 X10.5733 I0.003 J-2.0
G3 X12.1735 Y10.5627 I-0.0001 J1.6003
G3 Y10.5628 I-1.6003 J0.0002
G1 Y10.5626
G3 Y10.5627 I-1.6002 J-0.0001
G3 X10.5733 Y12.1627 I-1.6002 J-0.0002
G1 X10.5734
G1 X10.5733
G3 X8.9781 Y10.6836 I0.0 J-1.5998
G1 F25.0 X9.7758 Y10.6232
G1 Z-3.0
G3 F150.0 X9.7736 Y10.5629 I0.7975 J-0.0603
G2 Y10.5597 I-2.8 J-0.0001
G3 X10.0057 Y9.9991 I0.7907 J-0.0009
G2 X10.0109 Y9.9939 I-1.9779 J-1.9819
G3 X10.5692 Y9.7626 I0.5571 J0.5553
G2 X10.5732 I0.0042 J-2.8
G3 X11.3735 Y10.5627 I0.0 J0.8003
G3 Y10.5629 I-0.8003 J0.0002
G1 Y10.5626
G3 Y10.5627 I-0.8002 J0.0
G3 X10.5733 Y11.3627 I-0.8002 J-0.0002
G1 X10.5734
G1 X10.5733
G3 X9.7758 Y10.6232 I0.0 J-0.7998
G1 F25.0 X8.9781 Y10.6836
G3 F150.0 X8.9736 Y10.5628 I1.5953 J-0.1207
G2 Y10.5605 I-2.0 J-0.0001
G3 X9.4406 Y9.4328 I1.5907 J-0.0018
G2 X9.4443 Y9.4291 I-1.4128 J-1.4157
G3 X10.5704 Y8.9626 I1.1237 J1.1201
G2 X10.5733 I0.003 J-2.0
G3 X12.1735 Y10.5627 I-0.0001 J1.6003
G3 Y10.5628 I-1.6003 J0.0002
G1 Y10.5626
G3 Y10.5627 I-1.6002 J-0.0001
G3 X10.5733 Y12.1627 I-1.6002 J-0.0002
G1 X10.5734
G1 X10.5733
G3 X8.9781 Y10.6836 I0.0 J-1.5998
G1 F25.0 X9.7758 Y10.6232
G1 Z-4.0
G3 F150.0 X9.7736 Y10.5629 I0.7975 J-0.0603
G2 Y10.5597 I-2.8 J-0.0001
G3 X10.0057 Y9.9991 I0.7907 J-0.0009
G2 X10.0109 Y9.9939 I-1.9779 J-1.9819
G3 X10.5692 Y9.7626 I0.5571 J0.5553
G2 X10.5732 I0.0042 J-2.8
G3 X11.3735 Y10.5627 I0.0 J0.8003
G3 Y10.5629 I-0.8003 J0.0002
G1 Y10.5626
G3 Y10.5627 I-0.8002 J0.0
G3 X10.5733 Y11.3627 I-0.8002 J-0.0002
G1 X10.5734
G1 X10.5733
G3 X9.7758 Y10.6232 I0.0 J-0.7998
G1 F25.0 X8.9781 Y10.6836
G3 F150.0 X8.9736 Y10.5628 I1.5953 J-0.1207
G2 Y10.5605 I-2.0 J-0.0001
G3 X9.4406 Y9.4328 I1.5907 J-0.0018
G2 X9.4443 Y9.4291 I-1.4128 J-1.4157
G3 X10.5704 Y8.9626 I1.1237 J1.1201
G2 X10.5733 I0.003 J-2.0
G3 X12.1735 Y10.5627 I-0.0001 J1.6003
G3 Y10.5628 I-1.6003 J0.0002
G1 Y10.5626
G3 Y10.5627 I-1.6002 J-0.0001
G3 X10.5733 Y12.1627 I-1.6002 J-0.0002
G1 X10.5734
G1 X10.5733
G3 X8.9781 Y10.6836 I0.0 J-1.5998
G1 F25.0 X9.7758 Y10.6232
G1 Z-5.0
G3 F150.0 X9.7736 Y10.5629 I0.7975 J-0.0603
G2 Y10.5597 I-2.8 J-0.0001
G3 X10.0057 Y9.9991 I0.7907 J-0.0009
G2 X10.0109 Y9.9939 I-1.9779 J-1.9819
G3 X10.5692 Y9.7626 I0.5571 J0.5553
G2 X10.5732 I0.0042 J-2.8
G3 X11.3735 Y10.5627 I0.0 J0.8003
G3 Y10.5629 I-0.8003 J0.0002
G1 Y10.5626
G3 Y10.5627 I-0.8002 J0.0
G3 X10.5733 Y11.3627 I-0.8002 J-0.0002
G1 X10.5734
G1 X10.5733
G3 X9.7758 Y10.6232 I0.0 J-0.7998
G1 F25.0 X8.9781 Y10.6836
G3 F150.0 X8.9736 Y10.5628 I1.5953 J-0.1207
G2 Y10.5605 I-2.0 J-0.0001
G3 X9.4406 Y9.4328 I1.5907 J-0.0018
G2 X9.4443 Y9.4291 I-1.4128 J-1.4157
G3 X10.5704 Y8.9626 I1.1237 J1.1201
G2 X10.5733 I0.003 J-2.0
G3 X12.1735 Y10.5627 I-0.0001 J1.6003
G3 Y10.5628 I-1.6003 J0.0002
G1 Y10.5626
G3 Y10.5627 I-1.6002 J-0.0001
G3 X10.5733 Y12.1627 I-1.6002 J-0.0002
G1 X10.5734
G1 X10.5733
G3 X8.9781 Y10.6836 I0.0 J-1.5998
G1 F25.0 X9.7758 Y10.6232
G1 Z-6.0
G3 F150.0 X9.7736 Y10.5629 I0.7975 J-0.0603
G2 Y10.5597 I-2.8 J-0.0001
G3 X10.0057 Y9.9991 I0.7907 J-0.0009
G2 X10.0109 Y9.9939 I-1.9779 J-1.9819
G3 X10.5692 Y9.7626 I0.5571 J0.5553
G2 X10.5732 I0.0042 J-2.8
G3 X11.3735 Y10.5627 I0.0 J0.8003
G3 Y10.5629 I-0.8003 J0.0002
G1 Y10.5626
G3 Y10.5627 I-0.8002 J0.0
G3 X10.5733 Y11.3627 I-0.8002 J-0.0002
G1 X10.5734
G1 X10.5733
G3 X9.7758 Y10.6232 I0.0 J-0.7998
G1 F25.0 X8.9781 Y10.6836
G3 F150.0 X8.9736 Y10.5628 I1.5953 J-0.1207
G2 Y10.5605 I-2.0 J-0.0001
G3 X9.4406 Y9.4328 I1.5907 J-0.0018
G2 X9.4443 Y9.4291 I-1.4128 J-1.4157
G3 X10.5704 Y8.9626 I1.1237 J1.1201
G2 X10.5733 I0.003 J-2.0
G3 X12.1735 Y10.5627 I-0.0001 J1.6003
G3 Y10.5628 I-1.6003 J0.0002
G1 Y10.5626
G3 Y10.5627 I-1.6002 J-0.0001
G3 X10.5733 Y12.1627 I-1.6002 J-0.0002
G1 X10.5734
G1 X10.5733
G3 X8.9781 Y10.6836 I0.0 J-1.5998
G1 F25.0 X9.7758 Y10.6232
G1 Z-6.5
G3 F150.0 X9.7736 Y10.5629 I0.7975 J-0.0603
G2 Y10.5597 I-2.8 J-0.0001
G3 X10.0057 Y9.9991 I0.7907 J-0.0009
G2 X10.0109 Y9.9939 I-1.9779 J-1.9819
G3 X10.5692 Y9.7626 I0.5571 J0.5553
G2 X10.5732 I0.0042 J-2.8
G3 X11.3735 Y10.5627 I0.0 J0.8003
G3 Y10.5629 I-0.8003 J0.0002
G1 Y10.5626
G3 Y10.5627 I-0.8002 J0.0
G3 X10.5733 Y11.3627 I-0.8002 J-0.0002
G1 X10.5734
G1 X10.5733
G3 X9.7758 Y10.6232 I0.0 J-0.7998
G1 F25.0 X8.9781 Y10.6836
G3 F150.0 X8.9736 Y10.5628 I1.5953 J-0.1207
G2 Y10.5605 I-2.0 J-0.0001
G3 X9.4406 Y9.4328 I1.5907 J-0.0018
G2 X9.4443 Y9.4291 I-1.4128 J-1.4157
G3 X10.5704 Y8.9626 I1.1237 J1.1201
G2 X10.5733 I0.003 J-2.0
G3 X12.1735 Y10.5627 I-0.0001 J1.6003
G3 Y10.5628 I-1.6003 J0.0002
G1 Y10.5626
G3 Y10.5627 I-1.6002 J-0.0001
G3 X10.5733 Y12.1627 I-1.6002 J-0.0002
G1 X10.5734
G1 X10.5733
G3 X8.9781 Y10.6836 I0.0 J-1.5998
G0 Z3.0
G0 X10.5242 Y-14.2156
G0 Z1.0
G1 F25.0 Z-1.0
G3 F150.0 X9.7739 Y-15.0139 I0.0496 J-0.7983
G2 Y-15.0171 I-2.8 J-0.0001
G3 X10.0061 Y-15.5777 I0.7907 J-0.0009
G2 X10.0113 Y-15.5828 I-1.9779 J-1.9819
G3 X10.5695 Y-15.8141 I0.5571 J0.5553
G2 X10.5736 I0.0042 J-2.8
G3 X11.3738 Y-15.014 I0.0 J0.8003
G3 Y-15.0139 I-0.8003 J0.0002
G1 Y-15.0141
G3 Y-15.014 I-0.8002 J0.0
G3 X10.5737 Y-14.214 I-0.8002 J-0.0002
G3 X10.5242 Y-14.2156 I0.0 J-0.7998
G1 F25.0 X10.4746 Y-13.4171
G3 F150.0 X8.9739 Y-15.0139 I0.0991 J-1.5967
G2 Y-15.0162 I-2.0 J-0.0001
G3 X9.441 Y-16.1439 I1.5907 J-0.0018
G2 X9.4447 Y-16.1476 I-1.4128 J-1.4157
G3 X10.5707 Y-16.6141 I1.1237 J1.1201
G2 X10.5736 I0.003 J-2.0
G3 X12.1738 Y-15.014 I-0.0001 J1.6003
G3 Y-15.0139 I-1.6003 J0.0002
G1 Y-15.0141
G3 Y-15.014 I-1.6002 J-0.0001
G3 X10.5737 Y-13.414 I-1.6002 J-0.0002
G3 X10.4746 Y-13.4171 I0.0 J-1.5998
G1 F25.0 X10.5242 Y-14.2156
G1 Z-2.0
G3 F150.0 X9.7739 Y-15.0139 I0.0496 J-0.7983
G2 Y-15.0171 I-2.8 J-0.0001
G3 X10.0061 Y-15.5777 I0.7907 J-0.0009
G2 X10.0113 Y-15.5828 I-1.9779 J-1.9819
G3 X10.5695 Y-15.8141 I0.5571 J0.5553
G2 X10.5736 I0.0042 J-2.8
G3 X11.3738 Y-15.014 I0.0 J0.8003
G3 Y-15.0139 I-0.8003 J0.0002
G1 Y-15.0141
G3 Y-15.014 I-0.8002 J0.0
G3 X10.5737 Y-14.214 I-0.8002 J-0.0002
G3 X10.5242 Y-14.2156 I0.0 J-0.7998
G1 F25.0 X10.4746 Y-13.4171
G3 F150.0 X8.9739 Y-15.0139 I0.0991 J-1.5967
G2 Y-15.0162 I-2.0 J-0.0001
G3 X9.441 Y-16.1439 I1.5907 J-0.0018
G2 X9.4447 Y-16.1476 I-1.4128 J-1.4157
G3 X10.5707 Y-16.6141 I1.1237 J1.1201
G2 X10.5736 I0.003 J-2.0
G3 X12.1738 Y-15.014 I-0.0001 J1.6003
G3 Y-15.0139 I-1.6003 J0.0002
G1 Y-15.0141
G3 Y-15.014 I-1.6002 J-0.0001
G3 X10.5737 Y-13.414 I-1.6002 J-0.0002
G3 X10.4746 Y-13.4171 I0.0 J-1.5998
G1 F25.0 X10.5242 Y-14.2156
G1 Z-3.0
G3 F150.0 X9.7739 Y-15.0139 I0.0496 J-0.7983
G2 Y-15.0171 I-2.8 J-0.0001
G3 X10.0061 Y-15.5777 I0.7907 J-0.0009
G2 X10.0113 Y-15.5828 I-1.9779 J-1.9819
G3 X10.5695 Y-15.8141 I0.5571 J0.5553
G2 X10.5736 I0.0042 J-2.8
G3 X11.3738 Y-15.014 I0.0 J0.8003
G3 Y-15.0139 I-0.8003 J0.0002
G1 Y-15.0141
G3 Y-15.014 I-0.8002 J0.0
G3 X10.5737 Y-14.214 I-0.8002 J-0.0002
G3 X10.5242 Y-14.2156 I0.0 J-0.7998
G1 F25.0 X10.4746 Y-13.4171
G3 F150.0 X8.9739 Y-15.0139 I0.0991 J-1.5967
G2 Y-15.0162 I-2.0 J-0.0001
G3 X9.441 Y-16.1439 I1.5907 J-0.0018
G2 X9.4447 Y-16.1476 I-1.4128 J-1.4157
G3 X10.5707 Y-16.6141 I1.1237 J1.1201
G2 X10.5736 I0.003 J-2.0
G3 X12.1738 Y-15.014 I-0.0001 J1.6003
G3 Y-15.0139 I-1.6003 J0.0002
G1 Y-15.0141
G3 Y-15.014 I-1.6002 J-0.0001
G3 X10.5737 Y-13.414 I-1.6002 J-0.0002
G3 X10.4746 Y-13.4171 I0.0 J-1.5998
G1 F25.0 X10.5242 Y-14.2156
G1 Z-4.0
G3 F150.0 X9.7739 Y-15.0139 I0.0496 J-0.7983
G2 Y-15.0171 I-2.8 J-0.0001
G3 X10.0061 Y-15.5777 I0.7907 J-0.0009
G2 X10.0113 Y-15.5828 I-1.9779 J-1.9819
G3 X10.5695 Y-15.8141 I0.5571 J0.5553
G2 X10.5736 I0.0042 J-2.8
G3 X11.3738 Y-15.014 I0.0 J0.8003
G3 Y-15.0139 I-0.8003 J0.0002
G1 Y-15.0141
G3 Y-15.014 I-0.8002 J0.0
G3 X10.5737 Y-14.214 I-0.8002 J-0.0002
G3 X10.5242 Y-14.2156 I0.0 J-0.7998
G1 F25.0 X10.4746 Y-13.4171
G3 F150.0 X8.9739 Y-15.0139 I0.0991 J-1.5967
G2 Y-15.0162 I-2.0 J-0.0001
G3 X9.441 Y-16.1439 I1.5907 J-0.0018
G2 X9.4447 Y-16.1476 I-1.4128 J-1.4157
G3 X10.5707 Y-16.6141 I1.1237 J1.1201
G2 X10.5736 I0.003 J-2.0
G3 X12.1738 Y-15.014 I-0.0001 J1.6003
G3 Y-15.0139 I-1.6003 J0.0002
G1 Y-15.0141
G3 Y-15.014 I-1.6002 J-0.0001
G3 X10.5737 Y-13.414 I-1.6002 J-0.0002
G3 X10.4746 Y-13.4171 I0.0 J-1.5998
G1 F25.0 X10.5242 Y-14.2156
G1 Z-5.0
G3 F150.0 X9.7739 Y-15.0139 I0.0496 J-0.7983
G2 Y-15.0171 I-2.8 J-0.0001
G3 X10.0061 Y-15.5777 I0.7907 J-0.0009
G2 X10.0113 Y-15.5828 I-1.9779 J-1.9819
G3 X10.5695 Y-15.8141 I0.5571 J0.5553
G2 X10.5736 I0.0042 J-2.8
G3 X11.3738 Y-15.014 I0.0 J0.8003
G3 Y-15.0139 I-0.8003 J0.0002
G1 Y-15.0141
G3 Y-15.014 I-0.8002 J0.0
G3 X10.5737 Y-14.214 I-0.8002 J-0.0002
G3 X10.5242 Y-14.2156 I0.0 J-0.7998
G1 F25.0 X10.4746 Y-13.4171
G3 F150.0 X8.9739 Y-15.0139 I0.0991 J-1.5967
G2 Y-15.0162 I-2.0 J-0.0001
G3 X9.441 Y-16.1439 I1.5907 J-0.0018
G2 X9.4447 Y-16.1476 I-1.4128 J-1.4157
G3 X10.5707 Y-16.6141 I1.1237 J1.1201
G2 X10.5736 I0.003 J-2.0
G3 X12.1738 Y-15.014 I-0.0001 J1.6003
G3 Y-15.0139 I-1.6003 J0.0002
G1 Y-15.0141
G3 Y-15.014 I-1.6002 J-0.0001
G3 X10.5737 Y-13.414 I-1.6002 J-0.0002
G3 X10.4746 Y-13.4171 I0.0 J-1.5998
G1 F25.0 X10.5242 Y-14.2156
G1 Z-6.0
G3 F150.0 X9.7739 Y-15.0139 I0.0496 J-0.7983
G2 Y-15.0171 I-2.8 J-0.0001
G3 X10.0061 Y-15.5777 I0.7907 J-0.0009
G2 X10.0113 Y-15.5828 I-1.9779 J-1.9819
G3 X10.5695 Y-15.8141 I0.5571 J0.5553
G2 X10.5736 I0.0042 J-2.8
G3 X11.3738 Y-15.014 I0.0 J0.8003
G3 Y-15.0139 I-0.8003 J0.0002
G1 Y-15.0141
G3 Y-15.014 I-0.8002 J0.0
G3 X10.5737 Y-14.214 I-0.8002 J-0.0002
G3 X10.5242 Y-14.2156 I0.0 J-0.7998
G1 F25.0 X10.4746 Y-13.4171
G3 F150.0 X8.9739 Y-15.0139 I0.0991 J-1.5967
G2 Y-15.0162 I-2.0 J-0.0001
G3 X9.441 Y-16.1439 I1.5907 J-0.0018
G2 X9.4447 Y-16.1476 I-1.4128 J-1.4157
G3 X10.5707 Y-16.6141 I1.1237 J1.1201
G2 X10.5736 I0.003 J-2.0
G3 X12.1738 Y-15.014 I-0.0001 J1.6003
G3 Y-15.0139 I-1.6003 J0.0002
G1 Y-15.0141
G3 Y-15.014 I-1.6002 J-0.0001
G3 X10.5737 Y-13.414 I-1.6002 J-0.0002
G3 X10.4746 Y-13.4171 I0.0 J-1.5998
G1 F25.0 X10.5242 Y-14.2156
G1 Z-6.5
G3 F150.0 X9.7739 Y-15.0139 I0.0496 J-0.7983
G2 Y-15.0171 I-2.8 J-0.0001
G3 X10.0061 Y-15.5777 I0.7907 J-0.0009
G2 X10.0113 Y-15.5828 I-1.9779 J-1.9819
G3 X10.5695 Y-15.8141 I0.5571 J0.5553
G2 X10.5736 I0.0042 J-2.8
G3 X11.3738 Y-15.014 I0.0 J0.8003
G3 Y-15.0139 I-0.8003 J0.0002
G1 Y-15.0141
G3 Y-15.014 I-0.8002 J0.0
G3 X10.5737 Y-14.214 I-0.8002 J-0.0002
G3 X10.5242 Y-14.2156 I0.0 J-0.7998
G1 F25.0 X10.4746 Y-13.4171
G3 F150.0 X8.9739 Y-15.0139 I0.0991 J-1.5967
G2 Y-15.0162 I-2.0 J-0.0001
G3 X9.441 Y-16.1439 I1.5907 J-0.0018
G2 X9.4447 Y-16.1476 I-1.4128 J-1.4157
G3 X10.5707 Y-16.6141 I1.1237 J1.1201
G2 X10.5736 I0.003 J-2.0
G3 X12.1738 Y-15.014 I-0.0001 J1.6003
G3 Y-15.0139 I-1.6003 J0.0002
G1 Y-15.0141
G3 Y-15.014 I-1.6002 J-0.0001
G3 X10.5737 Y-13.414 I-1.6002 J-0.0002
G3 X10.4746 Y-13.4171 I0.0 J-1.5998
G0 Z3.0
G0 X-9.6284 Y-14.8336
G0 Z1.0
G1 F25.0 Z-1.0
G3 F150.0 X-10.4266 Y-14.0897 I-0.7982 J-0.0562
G3 X-11.2264 Y-14.8895 I0.0 J-0.7998
G2 Y-14.8927 I-2.8 J-0.0001
G3 X-10.9942 Y-15.4533 I0.7907 J-0.0009
G2 X-10.989 Y-15.4585 I-1.9779 J-1.9819
G3 X-10.4307 Y-15.6897 I0.5571 J0.5553
G2 X-10.4267 I0.0042 J-2.8
G3 X-9.6265 Y-14.8896 I0.0 J0.8003
G3 Y-14.8895 I-0.8003 J0.0002
G1 Y-14.8898
G3 Y-14.8896 I-0.8002 J0.0
G3 X-9.6284 Y-14.8336 I-0.8002 J-0.0002
G1 F25.0 X-8.8304 Y-14.7773
G3 F150.0 X-10.4266 Y-13.2897 I-1.5962 J-0.1125
G3 X-12.0264 Y-14.8895 I0.0 J-1.5998
G2 Y-14.8918 I-2.0 J-0.0001
G3 X-11.5593 Y-16.0196 I1.5907 J-0.0018
G2 X-11.5556 Y-16.0233 I-1.4128 J-1.4157
G3 X-10.4296 Y-16.4897 I1.1237 J1.1201
G2 X-10.4267 I0.003 J-2.0
G3 X-8.8265 Y-14.8896 I-0.0001 J1.6003
G3 Y-14.8895 I-1.6003 J0.0002
G1 Y-14.8897
G3 Y-14.8896 I-1.6002 J-0.0001
G3 X-8.8304 Y-14.7773 I-1.6002 J-0.0002
G1 F25.0 X-9.6284 Y-14.8336
G1 Z-2.0
G3 F150.0 X-10.4266 Y-14.0897 I-0.7982 J-0.0562
G3 X-11.2264 Y-14.8895 I0.0 J-0.7998
G2 Y-14.8927 I-2.8 J-0.0001
G3 X-10.9942 Y-15.4533 I0.7907 J-0.0009
G2 X-10.989 Y-15.4585 I-1.9779 J-1.9819
G3 X-10.4307 Y-15.6897 I0.5571 J0.5553
G2 X-10.4267 I0.0042 J-2.8
G3 X-9.6265 Y-14.8896 I0.0 J0.8003
G3 Y-14.8895 I-0.8003 J0.0002
G1 Y-14.8898
G3 Y-14.8896 I-0.8002 J0.0
G3 X-9.6284 Y-14.8336 I-0.8002 J-0.0002
G1 F25.0 X-8.8304 Y-14.7773
G3 F150.0 X-10.4266 Y-13.2897 I-1.5962 J-0.1125
G3 X-12.0264 Y-14.8895 I0.0 J-1.5998
G2 Y-14.8918 I-2.0 J-0.0001
G3 X-11.5593 Y-16.0196 I1.5907 J-0.0018
G2 X-11.5556 Y-16.0233 I-1.4128 J-1.4157
G3 X-10.4296 Y-16.4897 I1.1237 J1.1201
G2 X-10.4267 I0.003 J-2.0
G3 X-8.8265 Y-14.8896 I-0.0001 J1.6003
G3 Y-14.8895 I-1.6003 J0.0002
G1 Y-14.8897
G3 Y-14.8896 I-1.6002 J-0.0001
G3 X-8.8304 Y-14.7773 I-1.6002 J-0.0002
G1 F25.0 X-9.6284 Y-14.8336
G1 Z-3.0
G3 F150.0 X-10.4266 Y-14.0897 I-0.7982 J-0.0562
G3 X-11.2264 Y-14.8895 I0.0 J-0.7998
G2 Y-14.8927 I-2.8 J-0.0001
G3 X-10.9942 Y-15.4533 I0.7907 J-0.0009
G2 X-10.989 Y-15.4585 I-1.9779 J-1.9819
G3 X-10.4307 Y-15.6897 I0.5571 J0.5553
G2 X-10.4267 I0.0042 J-2.8
G3 X-9.6265 Y-14.8896 I0.0 J0.8003
G3 Y-14.8895 I-0.8003 J0.0002
G1 Y-14.8898
G3 Y-14.8896 I-0.8002 J0.0
G3 X-9.6284 Y-14.8336 I-0.8002 J-0.0002
G1 F25.0 X-8.8304 Y-14.7773
G3 F150.0 X-10.4266 Y-13.2897 I-1.5962 J-0.1125
G3 X-12.0264 Y-14.8895 I0.0 J-1.5998
G2 Y-14.8918 I-2.0 J-0.0001
G3 X-11.5593 Y-16.0196 I1.5907 J-0.0018
G2 X-11.5556 Y-16.0233 I-1.4128 J-1.4157
G3 X-10.4296 Y-16.4897 I1.1237 J1.1201
G2 X-10.4267 I0.003 J-2.0
G3 X-8.8265 Y-14.8896 I-0.0001 J1.6003
G3 Y-14.8895 I-1.6003 J0.0002
G1 Y-14.8897
G3 Y-14.8896 I-1.6002 J-0.0001
G3 X-8.8304 Y-14.7773 I-1.6002 J-0.0002
G1 F25.0 X-9.6284 Y-14.8336
G1 Z-4.0
G3 F150.0 X-10.4266 Y-14.0897 I-0.7982 J-0.0562
G3 X-11.2264 Y-14.8895 I0.0 J-0.7998
G2 Y-14.8927 I-2.8 J-0.0001
G3 X-10.9942 Y-15.4533 I0.7907 J-0.0009
G2 X-10.989 Y-15.4585 I-1.9779 J-1.9819
G3 X-10.4307 Y-15.6897 I0.5571 J0.5553
G2 X-10.4267 I0.0042 J-2.8
G3 X-9.6265 Y-14.8896 I0.0 J0.8003
G3 Y-14.8895 I-0.8003 J0.0002
G1 Y-14.8898
G3 Y-14.8896 I-0.8002 J0.0
G3 X-9.6284 Y-14.8336 I-0.8002 J-0.0002
G1 F25.0 X-8.8304 Y-14.7773
G3 F150.0 X-10.4266 Y-13.2897 I-1.5962 J-0.1125
G3 X-12.0264 Y-14.8895 I0.0 J-1.5998
G2 Y-14.8918 I-2.0 J-0.0001
G3 X-11.5593 Y-16.0196 I1.5907 J-0.0018
G2 X-11.5556 Y-16.0233 I-1.4128 J-1.4157
G3 X-10.4296 Y-16.4897 I1.1237 J1.1201
G2 X-10.4267 I0.003 J-2.0
G3 X-8.8265 Y-14.8896 I-0.0001 J1.6003
G3 Y-14.8895 I-1.6003 J0.0002
G1 Y-14.8897
G3 Y-14.8896 I-1.6002 J-0.0001
G3 X-8.8304 Y-14.7773 I-1.6002 J-0.0002
G1 F25.0 X-9.6284 Y-14.8336
G1 Z-5.0
G3 F150.0 X-10.4266 Y-14.0897 I-0.7982 J-0.0562
G3 X-11.2264 Y-14.8895 I0.0 J-0.7998
G2 Y-14.8927 I-2.8 J-0.0001
G3 X-10.9942 Y-15.4533 I0.7907 J-0.0009
G2 X-10.989 Y-15.4585 I-1.9779 J-1.9819
G3 X-10.4307 Y-15.6897 I0.5571 J0.5553
G2 X-10.4267 I0.0042 J-2.8
G3 X-9.6265 Y-14.8896 I0.0 J0.8003
G3 Y-14.8895 I-0.8003 J0.0002
G1 Y-14.8898
G3 Y-14.8896 I-0.8002 J0.0
G3 X-9.6284 Y-14.8336 I-0.8002 J-0.0002
G1 F25.0 X-8.8304 Y-14.7773
G3 F150.0 X-10.4266 Y-13.2897 I-1.5962 J-0.1125
G3 X-12.0264 Y-14.8895 I0.0 J-1.5998
G2 Y-14.8918 I-2.0 J-0.0001
G3 X-11.5593 Y-16.0196 I1.5907 J-0.0018
G2 X-11.5556 Y-16.0233 I-1.4128 J-1.4157
G3 X-10.4296 Y-16.4897 I1.1237 J1.1201
G2 X-10.4267 I0.003 J-2.0
G3 X-8.8265 Y-14.8896 I-0.0001 J1.6003
G3 Y-14.8895 I-1.6003 J0.0002
G1 Y-14.8897
G3 Y-14.8896 I-1.6002 J-0.0001
G3 X-8.8304 Y-14.7773 I-1.6002 J-0.0002
G1 F25.0 X-9.6284 Y-14.8336
G1 Z-6.0
G3 F150.0 X-10.4266 Y-14.0897 I-0.7982 J-0.0562
G3 X-11.2264 Y-14.8895 I0.0 J-0.7998
G2 Y-14.8927 I-2.8 J-0.0001
G3 X-10.9942 Y-15.4533 I0.7907 J-0.0009
G2 X-10.989 Y-15.4585 I-1.9779 J-1.9819
G3 X-10.4307 Y-15.6897 I0.5571 J0.5553
G2 X-10.4267 I0.0042 J-2.8
G3 X-9.6265 Y-14.8896 I0.0 J0.8003
G3 Y-14.8895 I-0.8003 J0.0002
G1 Y-14.8898
G3 Y-14.8896 I-0.8002 J0.0
G3 X-9.6284 Y-14.8336 I-0.8002 J-0.0002
G1 F25.0 X-8.8304 Y-14.7773
G3 F150.0 X-10.4266 Y-13.2897 I-1.5962 J-0.1125
G3 X-12.0264 Y-14.8895 I0.0 J-1.5998
G2 Y-14.8918 I-2.0 J-0.0001
G3 X-11.5593 Y-16.0196 I1.5907 J-0.0018
G2 X-11.5556 Y-16.0233 I-1.4128 J-1.4157
G3 X-10.4296 Y-16.4897 I1.1237 J1.1201
G2 X-10.4267 I0.003 J-2.0
G3 X-8.8265 Y-14.8896 I-0.0001 J1.6003
G3 Y-14.8895 I-1.6003 J0.0002
G1 Y-14.8897
G3 Y-14.8896 I-1.6002 J-0.0001
G3 X-8.8304 Y-14.7773 I-1.6002 J-0.0002
G1 F25.0 X-9.6284 Y-14.8336
G1 Z-6.5
G3 F150.0 X-10.4266 Y-14.0897 I-0.7982 J-0.0562
G3 X-11.2264 Y-14.8895 I0.0 J-0.7998
G2 Y-14.8927 I-2.8 J-0.0001
G3 X-10.9942 Y-15.4533 I0.7907 J-0.0009
G2 X-10.989 Y-15.4585 I-1.9779 J-1.9819
G3 X-10.4307 Y-15.6897 I0.5571 J0.5553
G2 X-10.4267 I0.0042 J-2.8
G3 X-9.6265 Y-14.8896 I0.0 J0.8003
G3 Y-14.8895 I-0.8003 J0.0002
G1 Y-14.8898
G3 Y-14.8896 I-0.8002 J0.0
G3 X-9.6284 Y-14.8336 I-0.8002 J-0.0002
G1 F25.0 X-8.8304 Y-14.7773
G3 F150.0 X-10.4266 Y-13.2897 I-1.5962 J-0.1125
G3 X-12.0264 Y-14.8895 I0.0 J-1.5998
G2 Y-14.8918 I-2.0 J-0.0001
G3 X-11.5593 Y-16.0196 I1.5907 J-0.0018
G2 X-11.5556 Y-16.0233 I-1.4128 J-1.4157
G3 X-10.4296 Y-16.4897 I1.1237 J1.1201
G2 X-10.4267 I0.003 J-2.0
G3 X-8.8265 Y-14.8896 I-0.0001 J1.6003
G3 Y-14.8895 I-1.6003 J0.0002
G1 Y-14.8897
G3 Y-14.8896 I-1.6002 J-0.0001
G3 X-8.8304 Y-14.7773 I-1.6002 J-0.0002
( Pocket2 )
S1000
G0 Z3.0
G0 X-10.5829 Y11.0628
G0 Z1.0
G1 F25.0 Z-1.0
G3 F150.0 X-10.9212 Y10.9227 I-0.0007 J-0.4766
G2 X-10.9331 Y10.9107 I-4.2491 J4.2362
G3 X-11.0739 Y10.5707 I0.3384 J-0.3393
G2 Y10.5548 I-6.0 J-0.0083
G3 X-10.9328 Y10.2143 I0.4801 J-0.0006
G2 X-10.9223 Y10.2037 I-4.2373 J-4.248
G3 X-10.5815 Y10.0625 I0.3402 J0.3394
G2 X-10.5657 I0.0074 J-6.0
G3 X-10.2267 Y10.203 I0.0007 J0.4778
G2 X-10.2151 Y10.2145 I4.2487 J-4.2366
G3 X-10.0742 Y10.5548 I-0.3388 J0.3397
G2 Y10.5704 I6.0 J0.0076
G3 X-10.2151 Y10.9108 I-0.4799 J0.0006
G2 X-10.227 Y10.9226 I4.2373 J4.2479
G3 X-10.5653 Y11.0628 I-0.3376 J-0.3366
G2 X-10.5829 I-0.0087 J6.0
G1 F25.0 X-10.5817 Y11.8628
G3 F150.0 X-11.4877 Y11.4875 I-0.0019 J-1.2766
G2 X-11.4981 Y11.4771 I-3.6826 J3.6713
G3 X-11.8739 Y10.5696 I0.9034 J-0.9057
G2 Y10.5558 I-5.2 J-0.0072
G3 X-11.4978 Y9.6479 I1.2801 J-0.0016
G2 X-11.4886 Y9.6387 I-3.6723 J-3.6816
G3 X-10.5805 Y9.2625 I0.9066 J0.9043
G2 X-10.5668 I0.0064 J-5.2
G3 X-9.6602 Y9.6381 I0.0018 J1.2778
G2 X-9.6502 Y9.6481 I3.6822 J-3.6717
G3 X-9.2742 Y10.5558 I-0.9038 J0.9061
G2 Y10.5693 I5.2 J0.0066
G3 X-9.6502 Y11.4772 I-1.2799 J0.0017
G2 X-9.6604 Y11.4874 I3.6724 J3.6816
G3 X-10.5665 Y11.8628 I-0.9042 J-0.9014
G2 X-10.5817 I-0.0075 J5.2
G1 F25.0 X-10.5793 Y13.4628
G3 F150.0 X-12.6208 Y12.6171 I-0.0042 J-2.8766
G2 X-12.628 Y12.61 I-2.5495 J2.5417
G3 X-13.4739 Y10.5674 I2.0333 J-2.0386
G2 Y10.5579 I-3.6 J-0.005
G3 X-12.6278 Y8.5151 I2.8801 J-0.0036
G2 X-12.6214 Y8.5087 I-2.5424 J-2.5488
G3 X-10.5785 Y7.6625 I2.0394 J2.0343
G2 X-10.569 I0.0045 J-3.6
G3 X-8.5272 Y8.5083 I0.004 J2.8778
G2 X-8.5203 Y8.5153 I2.5492 J-2.5419
G3 X-7.6742 Y10.5578 I-2.0337 J2.0389
G2 Y10.5672 I3.6 J0.0046
G3 X-8.5202 Y12.61 I-2.8799 J0.0038
G2 X-8.5273 Y12.6171 I2.5424 J2.5488
G3 X-10.5688 Y13.4628 I-2.0373 J-2.031
G2 X-10.5793 I-0.0052 J3.6
G1 F25.0 X-10.577 Y15.0628
G3 F150.0 X-13.7539 Y13.7468 I-0.0066 J-4.4766
G2 X-13.7579 Y13.7428 I-1.4164 J1.4121
G3 X-15.0739 Y10.5652 I3.1632 J-3.1714
G2 Y10.5599 I-2.0 J-0.0028
G3 X-13.7577 Y7.3823 I4.4801 J-0.0057
G2 X-13.7542 Y7.3788 I-1.4124 J-1.416
G3 X-10.5765 Y6.0625 I3.1721 J3.1643
G2 X-10.5712 I0.0025 J-2.0
G3 X-7.3942 Y7.3786 I0.0062 J4.4778
G2 X-7.3904 Y7.3824 I1.4162 J-1.4122
G3 X-6.0742 Y10.5599 I-3.1636 J3.1718
G2 Y10.5651 I2.0 J0.0025
G3 X-7.3903 Y13.7427 I-4.4799 J0.0059
G2 X-7.3942 Y13.7467 I1.4124 J1.416
G3 X-10.5711 Y15.0628 I-3.1704 J-3.1606
G2 X-10.577 I-0.0029 J2.0
G0 Z3.0
G0 X-10.5829 Y11.0628
G0 Z0.0
G1 F25.0 Z-2.0
G3 F150.0 X-10.9212 Y10.9227 I-0.0007 J-0.4766
G2 X-10.9331 Y10.9107 I-4.2491 J4.2362
G3 X-11.0739 Y10.5707 I0.3384 J-0.3393
G2 Y10.5548 I-6.0 J-0.0083
G3 X-10.9328 Y10.2143 I0.4801 J-0.0006
G2 X-10.9223 Y10.2037 I-4.2373 J-4.248
G3 X-10.5815 Y10.0625 I0.3402 J0.3394
G2 X-10.5657 I0.0074 J-6.0
G3 X-10.2267 Y10.203 I0.0007 J0.4778
G2 X-10.2151 Y10.2145 I4.2487 J-4.2366
G3 X-10.0742 Y10.5548 I-0.3388 J0.3397
G2 Y10.5704 I6.0 J0.0076
G3 X-10.2151 Y10.9108 I-0.4799 J0.0006
G2 X-10.227 Y10.9226 I4.2373 J4.2479
G3 X-10.5653 Y11.0628 I-0.3376 J-0.3366
G2 X-10.5829 I-0.0087 J6.0
G1 F25.0 X-10.5817 Y11.8628
G3 F150.0 X-11.4877 Y11.4875 I-0.0019 J-1.2766
G2 X-11.4981 Y11.4771 I-3.6826 J3.6713
G3 X-11.8739 Y10.5696 I0.9034 J-0.9057
G2 Y10.5558 I-5.2 J-0.0072
G3 X-11.4978 Y9.6479 I1.2801 J-0.0016
G2 X-11.4886 Y9.6387 I-3.6723 J-3.6816
G3 X-10.5805 Y9.2625 I0.9066 J0.9043
G2 X-10.5668 I0.0064 J-5.2
G3 X-9.6602 Y9.6381 I0.0018 J1.2778
G2 X-9.6502 Y9.6481 I3.6822 J-3.6717
G3 X-9.2742 Y10.5558 I-0.9038 J0.9061
G2 Y10.5693 I5.2 J0.0066
G3 X-9.6502 Y11.4772 I-1.2799 J0.0017
G2 X-9.6604 Y11.4874 I3.6724 J3.6816
G3 X-10.5665 Y11.8628 I-0.9042 J-0.9014
G2 X-10.5817 I-0.0075 J5.2
G1 F25.0 X-10.5793 Y13.4628
G3 F150.0 X-12.6208 Y12.6171 I-0.0042 J-2.8766
G2 X-12.628 Y12.61 I-2.5495 J2.5417
G3 X-13.4739 Y10.5674 I2.0333 J-2.0386
G2 Y10.5579 I-3.6 J-0.005
G3 X-12.6278 Y8.5151 I2.8801 J-0.0036
G2 X-12.6214 Y8.5087 I-2.5424 J-2.5488
G3 X-10.5785 Y7.6625 I2.0394 J2.0343
G2 X-10.569 I0.0045 J-3.6
G3 X-8.5272 Y8.5083 I0.004 J2.8778
G2 X-8.5203 Y8.5153 I2.5492 J-2.5419
G3 X-7.6742 Y10.5578 I-2.0337 J2.0389
G2 Y10.5672 I3.6 J0.0046
G3 X-8.5202 Y12.61 I-2.8799 J0.0038
G2 X-8.5273 Y12.6171 I2.5424 J2.5488
G3 X-10.5688 Y13.4628 I-2.0373 J-2.031
G2 X-10.5793 I-0.0052 J3.6
G1 F25.0 X-10.577 Y15.0628
G3 F150.0 X-13.7539 Y13.7468 I-0.0066 J-4.4766
G2 X-13.7579 Y13.7428 I-1.4164 J1.4121
G3 X-15.0739 Y10.5652 I3.1632 J-3.1714
G2 Y10.5599 I-2.0 J-0.0028
G3 X-13.7577 Y7.3823 I4.4801 J-0.0057
G2 X-13.7542 Y7.3788 I-1.4124 J-1.416
G3 X-10.5765 Y6.0625 I3.1721 J3.1643
G2 X-10.5712 I0.0025 J-2.0
G3 X-7.3942 Y7.3786 I0.0062 J4.4778
G2 X-7.3904 Y7.3824 I1.4162 J-1.4122
G3 X-6.0742 Y10.5599 I-3.1636 J3.1718
G2 Y10.5651 I2.0 J0.0025
G3 X-7.3903 Y13.7427 I-4.4799 J0.0059
G2 X-7.3942 Y13.7467 I1.4124 J1.416
G3 X-10.5711 Y15.0628 I-3.1704 J-3.1606
G2 X-10.577 I-0.0029 J2.0
G0 Z3.0
G0 X-10.5829 Y11.0628
G0 Z-1.0
G1 F25.0 Z-3.0
G3 F150.0 X-10.9212 Y10.9227 I-0.0007 J-0.4766
G2 X-10.9331 Y10.9107 I-4.2491 J4.2362
G3 X-11.0739 Y10.5707 I0.3384 J-0.3393
G2 Y10.5548 I-6.0 J-0.0083
G3 X-10.9328 Y10.2143 I0.4801 J-0.0006
G2 X-10.9223 Y10.2037 I-4.2373 J-4.248
G3 X-10.5815 Y10.0625 I0.3402 J0.3394
G2 X-10.5657 I0.0074 J-6.0
G3 X-10.2267 Y10.203 I0.0007 J0.4778
G2 X-10.2151 Y10.2145 I4.2487 J-4.2366
G3 X-10.0742 Y10.5548 I-0.3388 J0.3397
G2 Y10.5704 I6.0 J0.0076
G3 X-10.2151 Y10.9108 I-0.4799 J0.0006
G2 X-10.227 Y10.9226 I4.2373 J4.2479
G3 X-10.5653 Y11.0628 I-0.3376 J-0.3366
G2 X-10.5829 I-0.0087 J6.0
G1 F25.0 X-10.5817 Y11.8628
G3 F150.0 X-11.4877 Y11.4875 I-0.0019 J-1.2766
G2 X-11.4981 Y11.4771 I-3.6826 J3.6713
G3 X-11.8739 Y10.5696 I0.9034 J-0.9057
G2 Y10.5558 I-5.2 J-0.0072
G3 X-11.4978 Y9.6479 I1.2801 J-0.0016
G2 X-11.4886 Y9.6387 I-3.6723 J-3.6816
G3 X-10.5805 Y9.2625 I0.9066 J0.9043
G2 X-10.5668 I0.0064 J-5.2
G3 X-9.6602 Y9.6381 I0.0018 J1.2778
G2 X-9.6502 Y9.6481 I3.6822 J-3.6717
G3 X-9.2742 Y10.5558 I-0.9038 J0.9061
G2 Y10.5693 I5.2 J0.0066
G3 X-9.6502 Y11.4772 I-1.2799 J0.0017
G2 X-9.6604 Y11.4874 I3.6724 J3.6816
G3 X-10.5665 Y11.8628 I-0.9042 J-0.9014
G2 X-10.5817 I-0.0075 J5.2
G1 F25.0 X-10.5793 Y13.4628
G3 F150.0 X-12.6208 Y12.6171 I-0.0042 J-2.8766
G2 X-12.628 Y12.61 I-2.5495 J2.5417
G3 X-13.4739 Y10.5674 I2.0333 J-2.0386
G2 Y10.5579 I-3.6 J-0.005
G3 X-12.6278 Y8.5151 I2.8801 J-0.0036
G2 X-12.6214 Y8.5087 I-2.5424 J-2.5488
G3 X-10.5785 Y7.6625 I2.0394 J2.0343
G2 X-10.569 I0.0045 J-3.6
G3 X-8.5272 Y8.5083 I0.004 J2.8778
G2 X-8.5203 Y8.5153 I2.5492 J-2.5419
G3 X-7.6742 Y10.5578 I-2.0337 J2.0389
G2 Y10.5672 I3.6 J0.0046
G3 X-8.5202 Y12.61 I-2.8799 J0.0038
G2 X-8.5273 Y12.6171 I2.5424 J2.5488
G3 X-10.5688 Y13.4628 I-2.0373 J-2.031
G2 X-10.5793 I-0.0052 J3.6
G1 F25.0 X-10.577 Y15.0628
G3 F150.0 X-13.7539 Y13.7468 I-0.0066 J-4.4766
G2 X-13.7579 Y13.7428 I-1.4164 J1.4121
G3 X-15.0739 Y10.5652 I3.1632 J-3.1714
G2 Y10.5599 I-2.0 J-0.0028
G3 X-13.7577 Y7.3823 I4.4801 J-0.0057
G2 X-13.7542 Y7.3788 I-1.4124 J-1.416
G3 X-10.5765 Y6.0625 I3.1721 J3.1643
G2 X-10.5712 I0.0025 J-2.0
G3 X-7.3942 Y7.3786 I0.0062 J4.4778
G2 X-7.3904 Y7.3824 I1.4162 J-1.4122
G3 X-6.0742 Y10.5599 I-3.1636 J3.1718
G2 Y10.5651 I2.0 J0.0025
G3 X-7.3903 Y13.7427 I-4.4799 J0.0059
G2 X-7.3942 Y13.7467 I1.4124 J1.416
G3 X-10.5711 Y15.0628 I-3.1704 J-3.1606
G2 X-10.577 I-0.0029 J2.0
G0 Z3.0
G0 X-10.5829 Y11.0628
G0 Z-2.0
G1 F25.0 Z-3.5
G3 F150.0 X-10.9212 Y10.9227 I-0.0007 J-0.4766
G2 X-10.9331 Y10.9107 I-4.2491 J4.2362
G3 X-11.0739 Y10.5707 I0.3384 J-0.3393
G2 Y10.5548 I-6.0 J-0.0083
G3 X-10.9328 Y10.2143 I0.4801 J-0.0006
G2 X-10.9223 Y10.2037 I-4.2373 J-4.248
G3 X-10.5815 Y10.0625 I0.3402 J0.3394
G2 X-10.5657 I0.0074 J-6.0
G3 X-10.2267 Y10.203 I0.0007 J0.4778
G2 X-10.2151 Y10.2145 I4.2487 J-4.2366
G3 X-10.0742 Y10.5548 I-0.3388 J0.3397
G2 Y10.5704 I6.0 J0.0076
G3 X-10.2151 Y10.9108 I-0.4799 J0.0006
G2 X-10.227 Y10.9226 I4.2373 J4.2479
G3 X-10.5653 Y11.0628 I-0.3376 J-0.3366
G2 X-10.5829 I-0.0087 J6.0
G1 F25.0 X-10.5817 Y11.8628
G3 F150.0 X-11.4877 Y11.4875 I-0.0019 J-1.2766
G2 X-11.4981 Y11.4771 I-3.6826 J3.6713
G3 X-11.8739 Y10.5696 I0.9034 J-0.9057
G2 Y10.5558 I-5.2 J-0.0072
G3 X-11.4978 Y9.6479 I1.2801 J-0.0016
G2 X-11.4886 Y9.6387 I-3.6723 J-3.6816
G3 X-10.5805 Y9.2625 I0.9066 J0.9043
G2 X-10.5668 I0.0064 J-5.2
G3 X-9.6602 Y9.6381 I0.0018 J1.2778
G2 X-9.6502 Y9.6481 I3.6822 J-3.6717
G3 X-9.2742 Y10.5558 I-0.9038 J0.9061
G2 Y10.5693 I5.2 J0.0066
G3 X-9.6502 Y11.4772 I-1.2799 J0.0017
G2 X-9.6604 Y11.4874 I3.6724 J3.6816
G3 X-10.5665 Y11.8628 I-0.9042 J-0.9014
G2 X-10.5817 I-0.0075 J5.2
G1 F25.0 X-10.5793 Y13.4628
G3 F150.0 X-12.6208 Y12.6171 I-0.0042 J-2.8766
G2 X-12.628 Y12.61 I-2.5495 J2.5417
G3 X-13.4739 Y10.5674 I2.0333 J-2.0386
G2 Y10.5579 I-3.6 J-0.005
G3 X-12.6278 Y8.5151 I2.8801 J-0.0036
G2 X-12.6214 Y8.5087 I-2.5424 J-2.5488
G3 X-10.5785 Y7.6625 I2.0394 J2.0343
G2 X-10.569 I0.0045 J-3.6
G3 X-8.5272 Y8.5083 I0.004 J2.8778
G2 X-8.5203 Y8.5153 I2.5492 J-2.5419
G3 X-7.6742 Y10.5578 I-2.0337 J2.0389
G2 Y10.5672 I3.6 J0.0046
G3 X-8.5202 Y12.61 I-2.8799 J0.0038
G2 X-8.5273 Y12.6171 I2.5424 J2.5488
G3 X-10.5688 Y13.4628 I-2.0373 J-2.031
G2 X-10.5793 I-0.0052 J3.6
G1 F25.0 X-10.577 Y15.0628
G3 F150.0 X-13.7539 Y13.7468 I-0.0066 J-4.4766
G2 X-13.7579 Y13.7428 I-1.4164 J1.4121
G3 X-15.0739 Y10.5652 I3.1632 J-3.1714
G2 Y10.5599 I-2.0 J-0.0028
G3 X-13.7577 Y7.3823 I4.4801 J-0.0057
G2 X-13.7542 Y7.3788 I-1.4124 J-1.416
G3 X-10.5765 Y6.0625 I3.1721 J3.1643
G2 X-10.5712 I0.0025 J-2.0
G3 X-7.3942 Y7.3786 I0.0062 J4.4778
G2 X-7.3904 Y7.3824 I1.4162 J-1.4122
G3 X-6.0742 Y10.5599 I-3.1636 J3.1718
G2 Y10.5651 I2.0 J0.0025
G3 X-7.3903 Y13.7427 I-4.4799 J0.0059
G2 X-7.3942 Y13.7467 I1.4124 J1.416
G3 X-10.5711 Y15.0628 I-3.1704 J-3.1606
G2 X-10.577 I-0.0029 J2.0
G0 Z3.0
G0 X10.0846 Y10.671
G0 Z1.0
G1 F25.0 Z-1.0
G3 F150.0 X10.0742 Y10.5707 I0.4688 J-0.0996
G2 Y10.5548 I-6.0 J-0.0083
G3 X10.2152 Y10.2143 I0.4801 J-0.0006
G2 X10.2258 Y10.2037 I-4.2373 J-4.248
G3 X10.5666 Y10.0625 I0.3402 J0.3394
G2 X10.5824 I0.0074 J-6.0
G3 X10.9214 Y10.203 I0.0007 J0.4778
G2 X10.9329 Y10.2145 I4.2487 J-4.2366
G3 X11.0739 Y10.5548 I-0.3388 J0.3397
G2 Y10.5704 I6.0 J0.0076
G3 X10.9329 Y10.9108 I-0.4799 J0.0006
G2 X10.9211 Y10.9226 I4.2373 J4.2479
G3 X10.5827 Y11.0628 I-0.3376 J-0.3366
G2 X10.5652 I-0.0087 J6.0
G3 X10.2269 Y10.9227 I-0.0007 J-0.4766
G2 X10.215 Y10.9107 I-4.2491 J4.2362
G3 X10.0846 Y10.671 I0.3384 J-0.3393
G1 F25.0 X9.3021 Y10.8374
G3 F150.0 X9.2742 Y10.5696 I1.2513 J-0.266
G2 Y10.5558 I-5.2 J-0.0072
G3 X9.6502 Y9.6479 I1.2801 J-0.0016
G2 X9.6594 Y9.6387 I-3.6723 J-3.6816
G3 X10.5676 Y9.2625 I0.9066 J0.9043
G2 X10.5813 I0.0064 J-5.2
G3 X11.4879 Y9.6381 I0.0018 J1.2778
G2 X11.4979 Y9.6481 I3.6822 J-3.6717
G3 X11.8739 Y10.5558 I-0.9038 J0.9061
G2 Y10.5693 I5.2 J0.0066
G3 X11.4979 Y11.4772 I-1.2799 J0.0017
G2 X11.4876 Y11.4874 I3.6724 J3.6816
G3 X10.5816 Y11.8628 I-0.9042 J-0.9014
G2 X10.5664 I-0.0075 J5.2
G3 X9.6604 Y11.4875 I-0.0019 J-1.2766
G2 X9.65 Y11.4771 I-3.6826 J3.6713
G3 X9.3021 Y10.8374 I0.9034 J-0.9057
G1 F25.0 X7.7371 Y11.17
G3 F150.0 X7.6742 Y10.5674 I2.8163 J-0.5986
G2 Y10.5579 I-3.6 J-0.005
G3 X8.5203 Y8.5151 I2.8801 J-0.0036
G2 X8.5266 Y8.5087 I-2.5424 J-2.5488
G3 X10.5696 Y7.6625 I2.0394 J2.0343
G2 X10.5791 I0.0045 J-3.6
G3 X12.6209 Y8.5083 I0.004 J2.8778
G2 X12.6278 Y8.5153 I2.5492 J-2.5419
G3 X13.4739 Y10.5578 I-2.0337 J2.0389
G2 Y10.5672 I3.6 J0.0046
G3 X12.6278 Y12.61 I-2.8799 J0.0038
G2 X12.6207 Y12.6171 I2.5424 J2.5488
G3 X10.5793 Y13.4628 I-2.0373 J-2.031
G2 X10.5687 I-0.0052 J3.6
G3 X8.5273 Y12.6171 I-0.0042 J-2.8766
G2 X8.5201 Y12.61 I-2.5495 J2.5417
G3 X7.7371 Y11.17 I2.0333 J-2.0386
G1 F25.0 X6.172 Y11.5027
G3 F150.0 X6.0742 Y10.5652 I4.3814 J-0.9313
G2 Y10.5599 I-2.0 J-0.0028
G3 X7.3903 Y7.3823 I4.4801 J-0.0057
G2 X7.3939 Y7.3788 I-1.4124 J-1.416
G3 X10.5716 Y6.0625 I3.1721 J3.1643
G2 X10.5768 I0.0025 J-2.0
G3 X13.7538 Y7.3786 I0.0062 J4.4778
G2 X13.7577 Y7.3824 I1.4162 J-1.4122
G3 X15.0739 Y10.5599 I-3.1636 J3.1718
G2 Y10.5651 I2.0 J0.0025
G3 X13.7578 Y13.7427 I-4.4799 J0.0059
G2 X13.7538 Y13.7467 I1.4124 J1.416
G3 X10.5769 Y15.0628 I-3.1704 J-3.1606
G2 X10.5711 I-0.0029 J2.0
G3 X7.3942 Y13.7468 I-0.0066 J-4.4766
G2 X7.3902 Y13.7428 I-1.4164 J1.4121
G3 X6.172 Y11.5027 I3.1632 J-3.1714
G0 Z3.0
G0 X10.0846 Y10.671
G0 Z0.0
G1 F25.0 Z-2.0
G3 F150.0 X10.0742 Y10.5707 I0.4688 J-0.0996
G2 Y10.5548 I-6.0 J-0.0083
G3 X10.2152 Y10.2143 I0.4801 J-0.0006
G2 X10.2258 Y10.2037 I-4.2373 J-4.248
G3 X10.5666 Y10.0625 I0.3402 J0.3394
G2 X10.5824 I0.0074 J-6.0
G3 X10.9214 Y10.203 I0.0007 J0.4778
G2 X10.9329 Y10.2145 I4.2487 J-4.2366
G3 X11.0739 Y10.5548 I-0.3388 J0.3397
G2 Y10.5704 I6.0 J0.0076
G3 X10.9329 Y10.9108 I-0.4799 J0.0006
G2 X10.9211 Y10.9226 I4.2373 J4.2479
G3 X10.5827 Y11.0628 I-0.3376 J-0.3366
G2 X10.5652 I-0.0087 J6.0
G3 X10.2269 Y10.9227 I-0.0007 J-0.4766
G2 X10.215 Y10.9107 I-4.2491 J4.2362
G3 X10.0846 Y10.671 I0.3384 J-0.3393
G1 F25.0 X9.3021 Y10.8374
G3 F150.0 X9.2742 Y10.5696 I1.2513 J-0.266
G2 Y10.5558 I-5.2 J-0.0072
G3 X9.6502 Y9.6479 I1.2801 J-0.0016
G2 X9.6594 Y9.6387 I-3.6723 J-3.6816
G3 X10.5676 Y9.2625 I0.9066 J0.9043
G2 X10.5813 I0.0064 J-5.2
G3 X11.4879 Y9.6381 I0.0018 J1.2778
G2 X11.4979 Y9.6481 I3.6822 J-3.6717
G3 X11.8739 Y10.5558 I-0.9038 J0.9061
G2 Y10.5693 I5.2 J0.0066
G3 X11.4979 Y11.4772 I-1.2799 J0.0017
G2 X11.4876 Y11.4874 I3.6724 J3.6816
G3 X10.5816 Y11.8628 I-0.9042 J-0.9014
G2 X10.5664 I-0.0075 J5.2
G3 X9.6604 Y11.4875 I-0.0019 J-1.2766
G2 X9.65 Y11.4771 I-3.6826 J3.6713
G3 X9.3021 Y10.8374 I0.9034 J-0.9057
G1 F25.0 X7.7371 Y11.17
G3 F150.0 X7.6742 Y10.5674 I2.8163 J-0.5986
G2 Y10.5579 I-3.6 J-0.005
G3 X8.5203 Y8.5151 I2.8801 J-0.0036
G2 X8.5266 Y8.5087 I-2.5424 J-2.5488
G3 X10.5696 Y7.6625 I2.0394 J2.0343
G2 X10.5791 I0.0045 J-3.6
G3 X12.6209 Y8.5083 I0.004 J2.8778
G2 X12.6278 Y8.5153 I2.5492 J-2.5419
G3 X13.4739 Y10.5578 I-2.0337 J2.0389
G2 Y10.5672 I3.6 J0.0046
G3 X12.6278 Y12.61 I-2.8799 J0.0038
G2 X12.6207 Y12.6171 I2.5424 J2.5488
G3 X10.5793 Y13.4628 I-2.0373 J-2.031
G2 X10.5687 I-0.0052 J3.6
G3 X8.5273 Y12.6171 I-0.0042 J-2.8766
G2 X8.5201 Y12.61 I-2.5495 J2.5417
G3 X7.7371 Y11.17 I2.0333 J-2.0386
G1 F25.0 X6.172 Y11.5027
G3 F150.0 X6.0742 Y10.5652 I4.3814 J-0.9313
G2 Y10.5599 I-2.0 J-0.0028
G3 X7.3903 Y7.3823 I4.4801 J-0.0057
G2 X7.3939 Y7.3788 I-1.4124 J-1.416
G3 X10.5716 Y6.0625 I3.1721 J3.1643
G2 X10.5768 I0.0025 J-2.0
G3 X13.7538 Y7.3786 I0.0062 J4.4778
G2 X13.7577 Y7.3824 I1.4162 J-1.4122
G3 X15.0739 Y10.5599 I-3.1636 J3.1718
G2 Y10.5651 I2.0 J0.0025
G3 X13.7578 Y13.7427 I-4.4799 J0.0059
G2 X13.7538 Y13.7467 I1.4124 J1.416
G3 X10.5769 Y15.0628 I-3.1704 J-3.1606
G2 X10.5711 I-0.0029 J2.0
G3 X7.3942 Y13.7468 I-0.0066 J-4.4766
G2 X7.3902 Y13.7428 I-1.4164 J1.4121
G3 X6.172 Y11.5027 I3.1632 J-3.1714
G0 Z3.0
G0 X10.0846 Y10.671
G0 Z-1.0
G1 F25.0 Z-3.0
G3 F150.0 X10.0742 Y10.5707 I0.4688 J-0.0996
G2 Y10.5548 I-6.0 J-0.0083
G3 X10.2152 Y10.2143 I0.4801 J-0.0006
G2 X10.2258 Y10.2037 I-4.2373 J-4.248
G3 X10.5666 Y10.0625 I0.3402 J0.3394
G2 X10.5824 I0.0074 J-6.0
G3 X10.9214 Y10.203 I0.0007 J0.4778
G2 X10.9329 Y10.2145 I4.2487 J-4.2366
G3 X11.0739 Y10.5548 I-0.3388 J0.3397
G2 Y10.5704 I6.0 J0.0076
G3 X10.9329 Y10.9108 I-0.4799 J0.0006
G2 X10.9211 Y10.9226 I4.2373 J4.2479
G3 X10.5827 Y11.0628 I-0.3376 J-0.3366
G2 X10.5652 I-0.0087 J6.0
G3 X10.2269 Y10.9227 I-0.0007 J-0.4766
G2 X10.215 Y10.9107 I-4.2491 J4.2362
G3 X10.0846 Y10.671 I0.3384 J-0.3393
G1 F25.0 X9.3021 Y10.8374
G3 F150.0 X9.2742 Y10.5696 I1.2513 J-0.266
G2 Y10.5558 I-5.2 J-0.0072
G3 X9.6502 Y9.6479 I1.2801 J-0.0016
G2 X9.6594 Y9.6387 I-3.6723 J-3.6816
G3 X10.5676 Y9.2625 I0.9066 J0.9043
G2 X10.5813 I0.0064 J-5.2
G3 X11.4879 Y9.6381 I0.0018 J1.2778
G2 X11.4979 Y9.6481 I3.6822 J-3.6717
G3 X11.8739 Y10.5558 I-0.9038 J0.9061
G2 Y10.5693 I5.2 J0.0066
G3 X11.4979 Y11.4772 I-1.2799 J0.0017
G2 X11.4876 Y11.4874 I3.6724 J3.6816
G3 X10.5816 Y11.8628 I-0.9042 J-0.9014
G2 X10.5664 I-0.0075 J5.2
G3 X9.6604 Y11.4875 I-0.0019 J-1.2766
G2 X9.65 Y11.4771 I-3.6826 J3.6713
G3 X9.3021 Y10.8374 I0.9034 J-0.9057
G1 F25.0 X7.7371 Y11.17
G3 F150.0 X7.6742 Y10.5674 I2.8163 J-0.5986
G2 Y10.5579 I-3.6 J-0.005
G3 X8.5203 Y8.5151 I2.8801 J-0.0036
G2 X8.5266 Y8.5087 I-2.5424 J-2.5488
G3 X10.5696 Y7.6625 I2.0394 J2.0343
G2 X10.5791 I0.0045 J-3.6
G3 X12.6209 Y8.5083 I0.004 J2.8778
G2 X12.6278 Y8.5153 I2.5492 J-2.5419
G3 X13.4739 Y10.5578 I-2.0337 J2.0389
G2 Y10.5672 I3.6 J0.0046
G3 X12.6278 Y12.61 I-2.8799 J0.0038
G2 X12.6207 Y12.6171 I2.5424 J2.5488
G3 X10.5793 Y13.4628 I-2.0373 J-2.031
G2 X10.5687 I-0.0052 J3.6
G3 X8.5273 Y12.6171 I-0.0042 J-2.8766
G2 X8.5201 Y12.61 I-2.5495 J2.5417
G3 X7.7371 Y11.17 I2.0333 J-2.0386
G1 F25.0 X6.172 Y11.5027
G3 F150.0 X6.0742 Y10.5652 I4.3814 J-0.9313
G2 Y10.5599 I-2.0 J-0.0028
G3 X7.3903 Y7.3823 I4.4801 J-0.0057
G2 X7.3939 Y7.3788 I-1.4124 J-1.416
G3 X10.5716 Y6.0625 I3.1721 J3.1643
G2 X10.5768 I0.0025 J-2.0
G3 X13.7538 Y7.3786 I0.0062 J4.4778
G2 X13.7577 Y7.3824 I1.4162 J-1.4122
G3 X15.0739 Y10.5599 I-3.1636 J3.1718
G2 Y10.5651 I2.0 J0.0025
G3 X13.7578 Y13.7427 I-4.4799 J0.0059
G2 X13.7538 Y13.7467 I1.4124 J1.416
G3 X10.5769 Y15.0628 I-3.1704 J-3.1606
G2 X10.5711 I-0.0029 J2.0
G3 X7.3942 Y13.7468 I-0.0066 J-4.4766
G2 X7.3902 Y13.7428 I-1.4164 J1.4121
G3 X6.172 Y11.5027 I3.1632 J-3.1714
G0 Z3.0
G0 X10.0846 Y10.671
G0 Z-2.0
G1 F25.0 Z-3.5
G3 F150.0 X10.0742 Y10.5707 I0.4688 J-0.0996
G2 Y10.5548 I-6.0 J-0.0083
G3 X10.2152 Y10.2143 I0.4801 J-0.0006
G2 X10.2258 Y10.2037 I-4.2373 J-4.248
G3 X10.5666 Y10.0625 I0.3402 J0.3394
G2 X10.5824 I0.0074 J-6.0
G3 X10.9214 Y10.203 I0.0007 J0.4778
G2 X10.9329 Y10.2145 I4.2487 J-4.2366
G3 X11.0739 Y10.5548 I-0.3388 J0.3397
G2 Y10.5704 I6.0 J0.0076
G3 X10.9329 Y10.9108 I-0.4799 J0.0006
G2 X10.9211 Y10.9226 I4.2373 J4.2479
G3 X10.5827 Y11.0628 I-0.3376 J-0.3366
G2 X10.5652 I-0.0087 J6.0
G3 X10.2269 Y10.9227 I-0.0007 J-0.4766
G2 X10.215 Y10.9107 I-4.2491 J4.2362
G3 X10.0846 Y10.671 I0.3384 J-0.3393
G1 F25.0 X9.3021 Y10.8374
G3 F150.0 X9.2742 Y10.5696 I1.2513 J-0.266
G2 Y10.5558 I-5.2 J-0.0072
G3 X9.6502 Y9.6479 I1.2801 J-0.0016
G2 X9.6594 Y9.6387 I-3.6723 J-3.6816
G3 X10.5676 Y9.2625 I0.9066 J0.9043
G2 X10.5813 I0.0064 J-5.2
G3 X11.4879 Y9.6381 I0.0018 J1.2778
G2 X11.4979 Y9.6481 I3.6822 J-3.6717
G3 X11.8739 Y10.5558 I-0.9038 J0.9061
G2 Y10.5693 I5.2 J0.0066
G3 X11.4979 Y11.4772 I-1.2799 J0.0017
G2 X11.4876 Y11.4874 I3.6724 J3.6816
G3 X10.5816 Y11.8628 I-0.9042 J-0.9014
G2 X10.5664 I-0.0075 J5.2
G3 X9.6604 Y11.4875 I-0.0019 J-1.2766
G2 X9.65 Y11.4771 I-3.6826 J3.6713
G3 X9.3021 Y10.8374 I0.9034 J-0.9057
G1 F25.0 X7.7371 Y11.17
G3 F150.0 X7.6742 Y10.5674 I2.8163 J-0.5986
G2 Y10.5579 I-3.6 J-0.005
G3 X8.5203 Y8.5151 I2.8801 J-0.0036
G2 X8.5266 Y8.5087 I-2.5424 J-2.5488
G3 X10.5696 Y7.6625 I2.0394 J2.0343
G2 X10.5791 I0.0045 J-3.6
G3 X12.6209 Y8.5083 I0.004 J2.8778
G2 X12.6278 Y8.5153 I2.5492 J-2.5419
G3 X13.4739 Y10.5578 I-2.0337 J2.0389
G2 Y10.5672 I3.6 J0.0046
G3 X12.6278 Y12.61 I-2.8799 J0.0038
G2 X12.6207 Y12.6171 I2.5424 J2.5488
G3 X10.5793 Y13.4628 I-2.0373 J-2.031
G2 X10.5687 I-0.0052 J3.6
G3 X8.5273 Y12.6171 I-0.0042 J-2.8766
G2 X8.5201 Y12.61 I-2.5495 J2.5417
G3 X7.7371 Y11.17 I2.0333 J-2.0386
G1 F25.0 X6.172 Y11.5027
G3 F150.0 X6.0742 Y10.5652 I4.3814 J-0.9313
G2 Y10.5599 I-2.0 J-0.0028
G3 X7.3903 Y7.3823 I4.4801 J-0.0057
G2 X7.3939 Y7.3788 I-1.4124 J-1.416
G3 X10.5716 Y6.0625 I3.1721 J3.1643
G2 X10.5768 I0.0025 J-2.0
G3 X13.7538 Y7.3786 I0.0062 J4.4778
G2 X13.7577 Y7.3824 I1.4162 J-1.4122
G3 X15.0739 Y10.5599 I-3.1636 J3.1718
G2 Y10.5651 I2.0 J0.0025
G3 X13.7578 Y13.7427 I-4.4799 J0.0059
G2 X13.7538 Y13.7467 I1.4124 J1.416
G3 X10.5769 Y15.0628 I-3.1704 J-3.1606
G2 X10.5711 I-0.0029 J2.0
G3 X7.3942 Y13.7468 I-0.0066 J-4.4766
G2 X7.3902 Y13.7428 I-1.4164 J1.4121
G3 X6.172 Y11.5027 I3.1632 J-3.1714
G0 Z3.0
G0 X10.4868 Y-14.5204
G0 Z1.0
G1 F25.0 Z-1.0
G3 F150.0 X10.2273 Y-14.6541 I0.078 J-0.4702
G2 X10.2153 Y-14.666 I-4.2491 J4.2362
G3 X10.0745 Y-15.006 I0.3384 J-0.3393
G2 Y-15.0219 I-6.0 J-0.0083
G3 X10.2156 Y-15.3624 I0.4801 J-0.0006
G2 X10.2262 Y-15.373 I-4.2373 J-4.248
G3 X10.5669 Y-15.5142 I0.3402 J0.3394
G2 X10.5827 I0.0074 J-6.0
G3 X10.9217 Y-15.3738 I0.0007 J0.4778
G2 X10.9333 Y-15.3622 I4.2487 J-4.2366
G3 X11.0742 Y-15.0219 I-0.3388 J0.3397
G2 Y-15.0064 I6.0 J0.0076
G3 X10.9333 Y-14.666 I-0.4799 J0.0006
G2 X10.9214 Y-14.6541 I4.2373 J4.2479
G3 X10.5831 Y-14.5139 I-0.3376 J-0.3366
G2 X10.5655 I-0.0087 J6.0
G3 X10.4868 Y-14.5204 I-0.0007 J-0.4766
G1 F25.0 X10.356 Y-13.7311
G3 F150.0 X9.6607 Y-14.0892 I0.2088 J-1.2594
G2 X9.6504 Y-14.0996 I-3.6826 J3.6713
G3 X9.2745 Y-15.0071 I0.9034 J-0.9057
G2 Y-15.0209 I-5.2 J-0.0072
G3 X9.6506 Y-15.9288 I1.2801 J-0.0016
G2 X9.6598 Y-15.938 I-3.6723 J-3.6816
G3 X10.5679 Y-16.3142 I0.9066 J0.9043
G2 X10.5816 I0.0064 J-5.2
G3 X11.4882 Y-15.9387 I0.0018 J1.2778
G2 X11.4982 Y-15.9286 I3.6822 J-3.6717
G3 X11.8742 Y-15.0209 I-0.9038 J0.9061
G2 Y-15.0074 I5.2 J0.0066
G3 X11.4982 Y-14.0996 I-1.2799 J0.0017
G2 X11.488 Y-14.0893 I3.6724 J3.6816
G3 X10.5819 Y-13.7139 I-0.9042 J-0.9014
G2 X10.5667 I-0.0075 J5.2
G3 X10.356 Y-13.7311 I-0.0019 J-1.2766
G1 F25.0 X10.0943 Y-12.1527
G3 F150.0 X8.5276 Y-12.9596 I0.4705 J-2.8379
G2 X8.5204 Y-12.9668 I-2.5495 J2.5417
G3 X7.6745 Y-15.0093 I2.0333 J-2.0386
G2 Y-15.0189 I-3.6 J-0.005
G3 X8.5206 Y-17.0616 I2.8801 J-0.0036
G2 X8.527 Y-17.068 I-2.5424 J-2.5488
G3 X10.5699 Y-17.9142 I2.0394 J2.0343
G2 X10.5794 I0.0045 J-3.6
G3 X12.6212 Y-17.0684 I0.004 J2.8778
G2 X12.6281 Y-17.0615 I2.5492 J-2.5419
G3 X13.4742 Y-15.0189 I-2.0337 J2.0389
G2 Y-15.0095 I3.6 J0.0046
G3 X12.6282 Y-12.9668 I-2.8799 J0.0038
G2 X12.6211 Y-12.9597 I2.5424 J2.5488
G3 X10.5796 Y-12.1139 I-2.0373 J-2.031
G2 X10.5691 I-0.0052 J3.6
G3 X10.0943 Y-12.1527 I-0.0042 J-2.8766
G1 F25.0 X9.8325 Y-10.5742
G3 F150.0 X7.3945 Y-11.83 I0.7323 J-4.4163
G2 X7.3905 Y-11.8339 I-1.4164 J1.4121
G3 X6.0745 Y-15.0115 I3.1632 J-3.1714
G2 Y-15.0169 I-2.0 J-0.0028
G3 X7.3907 Y-18.1944 I4.4801 J-0.0057
G2 X7.3942 Y-18.198 I-1.4124 J-1.416
G3 X10.5719 Y-19.5142 I3.1721 J3.1643
G2 X10.5772 I0.0025 J-2.0
G3 X13.7542 Y-18.1982 I0.0062 J4.4778
G2 X13.758 Y-18.1943 I1.4162 J-1.4122
G3 X15.0742 Y-15.0169 I-3.1636 J3.1718
G2 Y-15.0117 I2.0 J0.0025
G3 X13.7581 Y-11.834 I-4.4799 J0.0059
G2 X13.7542 Y-11.83 I1.4124 J1.416
G3 X10.5773 Y-10.5139 I-3.1704 J-3.1606
G2 X10.5714 I-0.0029 J2.0
G3 X9.8325 Y-10.5742 I-0.0066 J-4.4766
G0 Z3.0
G0 X10.4868 Y-14.5204
G0 Z0.0
G1 F25.0 Z-2.0
G3 F150.0 X10.2273 Y-14.6541 I0.078 J-0.4702
G2 X10.2153 Y-14.666 I-4.2491 J4.2362
G3 X10.0745 Y-15.006 I0.3384 J-0.3393
G2 Y-15.0219 I-6.0 J-0.0083
G3 X10.2156 Y-15.3624 I0.4801 J-0.0006
G2 X10.2262 Y-15.373 I-4.2373 J-4.248
G3 X10.5669 Y-15.5142 I0.3402 J0.3394
G2 X10.5827 I0.0074 J-6.0
G3 X10.9217 Y-15.3738 I0.0007 J0.4778
G2 X10.9333 Y-15.3622 I4.2487 J-4.2366
G3 X11.0742 Y-15.0219 I-0.3388 J0.3397
G2 Y-15.0064 I6.0 J0.0076
G3 X10.9333 Y-14.666 I-0.4799 J0.0006
G2 X10.9214 Y-14.6541 I4.2373 J4.2479
G3 X10.5831 Y-14.5139 I-0.3376 J-0.3366
G2 X10.5655 I-0.0087 J6.0
G3 X10.4868 Y-14.5204 I-0.0007 J-0.4766
G1 F25.0 X10.356 Y-13.7311
G3 F150.0 X9.6607 Y-14.0892 I0.2088 J-1.2594
G2 X9.6504 Y-14.0996 I-3.6826 J3.6713
G3 X9.2745 Y-15.0071 I0.9034 J-0.9057
G2 Y-15.0209 I-5.2 J-0.0072
G3 X9.6506 Y-15.9288 I1.2801 J-0.0016
G2 X9.6598 Y-15.938 I-3.6723 J-3.6816
G3 X10.5679 Y-16.3142 I0.9066 J0.9043
G2 X10.5816 I0.0064 J-5.2
G3 X11.4882 Y-15.9387 I0.0018 J1.2778
G2 X11.4982 Y-15.9286 I3.6822 J-3.6717
G3 X11.8742 Y-15.0209 I-0.9038 J0.9061
G2 Y-15.0074 I5.2 J0.0066
G3 X11.4982 Y-14.0996 I-1.2799 J0.0017
G2 X11.488 Y-14.0893 I3.6724 J3.6816
G3 X10.5819 Y-13.7139 I-0.9042 J-0.9014
G2 X10.5667 I-0.0075 J5.2
G3 X10.356 Y-13.7311 I-0.0019 J-1.2766
G1 F25.0 X10.0943 Y-12.1527
G3 F150.0 X8.5276 Y-12.9596 I0.4705 J-2.8379
G2 X8.5204 Y-12.9668 I-2.5495 J2.5417
G3 X7.6745 Y-15.0093 I2.0333 J-2.0386
G2 Y-15.0189 I-3.6 J-0.005
G3 X8.5206 Y-17.0616 I2.8801 J-0.0036
G2 X8.527 Y-17.068 I-2.5424 J-2.5488
G3 X10.5699 Y-17.9142 I2.0394 J2.0343
G2 X10.5794 I0.0045 J-3.6
G3 X12.6212 Y-17.0684 I0.004 J2.8778
G2 X12.6281 Y-17.0615 I2.5492 J-2.5419
G3 X13.4742 Y-15.0189 I-2.0337 J2.0389
G2 Y-15.0095 I3.6 J0.0046
G3 X12.6282 Y-12.9668 I-2.8799 J0.0038
G2 X12.6211 Y-12.9597 I2.5424 J2.5488
G3 X10.5796 Y-12.1139 I-2.0373 J-2.031
G2 X10.5691 I-0.0052 J3.6
G3 X10.0943 Y-12.1527 I-0.0042 J-2.8766
G1 F25.0 X9.8325 Y-10.5742
G3 F150.0 X7.3945 Y-11.83 I0.7323 J-4.4163
G2 X7.3905 Y-11.8339 I-1.4164 J1.4121
G3 X6.0745 Y-15.0115 I3.1632 J-3.1714
G2 Y-15.0169 I-2.0 J-0.0028
G3 X7.3907 Y-18.1944 I4.4801 J-0.0057
G2 X7.3942 Y-18.198 I-1.4124 J-1.416
G3 X10.5719 Y-19.5142 I3.1721 J3.1643
G2 X10.5772 I0.0025 J-2.0
G3 X13.7542 Y-18.1982 I0.0062 J4.4778
G2 X13.758 Y-18.1943 I1.4162 J-1.4122
G3 X15.0742 Y-15.0169 I-3.1636 J3.1718
G2 Y-15.0117 I2.0 J0.0025
G3 X13.7581 Y-11.834 I-4.4799 J0.0059
G2 X13.7542 Y-11.83 I1.4124 J1.416
G3 X10.5773 Y-10.5139 I-3.1704 J-3.1606
G2 X10.5714 I-0.0029 J2.0
G3 X9.8325 Y-10.5742 I-0.0066 J-4.4766
G0 Z3.0
G0 X10.4868 Y-14.5204
G0 Z-1.0
G1 F25.0 Z-3.0
G3 F150.0 X10.2273 Y-14.6541 I0.078 J-0.4702
G2 X10.2153 Y-14.666 I-4.2491 J4.2362
G3 X10.0745 Y-15.006 I0.3384 J-0.3393
G2 Y-15.0219 I-6.0 J-0.0083
G3 X10.2156 Y-15.3624 I0.4801 J-0.0006
G2 X10.2262 Y-15.373 I-4.2373 J-4.248
G3 X10.5669 Y-15.5142 I0.3402 J0.3394
G2 X10.5827 I0.0074 J-6.0
G3 X10.9217 Y-15.3738 I0.0007 J0.4778
G2 X10.9333 Y-15.3622 I4.2487 J-4.2366
G3 X11.0742 Y-15.0219 I-0.3388 J0.3397
G2 Y-15.0064 I6.0 J0.0076
G3 X10.9333 Y-14.666 I-0.4799 J0.0006
G2 X10.9214 Y-14.6541 I4.2373 J4.2479
G3 X10.5831 Y-14.5139 I-0.3376 J-0.3366
G2 X10.5655 I-0.0087 J6.0
G3 X10.4868 Y-14.5204 I-0.0007 J-0.4766
G1 F25.0 X10.356 Y-13.7311
G3 F150.0 X9.6607 Y-14.0892 I0.2088 J-1.2594
G2 X9.6504 Y-14.0996 I-3.6826 J3.6713
G3 X9.2745 Y-15.0071 I0.9034 J-0.9057
G2 Y-15.0209 I-5.2 J-0.0072
G3 X9.6506 Y-15.9288 I1.2801 J-0.0016
G2 X9.6598 Y-15.938 I-3.6723 J-3.6816
G3 X10.5679 Y-16.3142 I0.9066 J0.9043
G2 X10.5816 I0.0064 J-5.2
G3 X11.4882 Y-15.9387 I0.0018 J1.2778
G2 X11.4982 Y-15.9286 I3.6822 J-3.6717
G3 X11.8742 Y-15.0209 I-0.9038 J0.9061
G2 Y-15.0074 I5.2 J0.0066
G3 X11.4982 Y-14.0996 I-1.2799 J0.0017
G2 X11.488 Y-14.0893 I3.6724 J3.6816
G3 X10.5819 Y-13.7139 I-0.9042 J-0.9014
G2 X10.5667 I-0.0075 J5.2
G3 X10.356 Y-13.7311 I-0.0019 J-1.2766
G1 F25.0 X10.0943 Y-12.1527
G3 F150.0 X8.5276 Y-12.9596 I0.4705 J-2.8379
G2 X8.5204 Y-12.9668 I-2.5495 J2.5417
G3 X7.6745 Y-15.0093 I2.0333 J-2.0386
G2 Y-15.0189 I-3.6 J-0.005
G3 X8.5206 Y-17.0616 I2.8801 J-0.0036
G2 X8.527 Y-17.068 I-2.5424 J-2.5488
G3 X10.5699 Y-17.9142 I2.0394 J2.0343
G2 X10.5794 I0.0045 J-3.6
G3 X12.6212 Y-17.0684 I0.004 J2.8778
G2 X12.6281 Y-17.0615 I2.5492 J-2.5419
G3 X13.4742 Y-15.0189 I-2.0337 J2.0389
G2 Y-15.0095 I3.6 J0.0046
G3 X12.6282 Y-12.9668 I-2.8799 J0.0038
G2 X12.6211 Y-12.9597 I2.5424 J2.5488
G3 X10.5796 Y-12.1139 I-2.0373 J-2.031
G2 X10.5691 I-0.0052 J3.6
G3 X10.0943 Y-12.1527 I-0.0042 J-2.8766
G1 F25.0 X9.8325 Y-10.5742
G3 F150.0 X7.3945 Y-11.83 I0.7323 J-4.4163
G2 X7.3905 Y-11.8339 I-1.4164 J1.4121
G3 X6.0745 Y-15.0115 I3.1632 J-3.1714
G2 Y-15.0169 I-2.0 J-0.0028
G3 X7.3907 Y-18.1944 I4.4801 J-0.0057
G2 X7.3942 Y-18.198 I-1.4124 J-1.416
G3 X10.5719 Y-19.5142 I3.1721 J3.1643
G2 X10.5772 I0.0025 J-2.0
G3 X13.7542 Y-18.1982 I0.0062 J4.4778
G2 X13.758 Y-18.1943 I1.4162 J-1.4122
G3 X15.0742 Y-15.0169 I-3.1636 J3.1718
G2 Y-15.0117 I2.0 J0.0025
G3 X13.7581 Y-11.834 I-4.4799 J0.0059
G2 X13.7542 Y-11.83 I1.4124 J1.416
G3 X10.5773 Y-10.5139 I-3.1704 J-3.1606
G2 X10.5714 I-0.0029 J2.0
G3 X9.8325 Y-10.5742 I-0.0066 J-4.4766
G0 Z3.0
G0 X10.4868 Y-14.5204
G0 Z-2.0
G1 F25.0 Z-3.5
G3 F150.0 X10.2273 Y-14.6541 I0.078 J-0.4702
G2 X10.2153 Y-14.666 I-4.2491 J4.2362
G3 X10.0745 Y-15.006 I0.3384 J-0.3393
G2 Y-15.0219 I-6.0 J-0.0083
G3 X10.2156 Y-15.3624 I0.4801 J-0.0006
G2 X10.2262 Y-15.373 I-4.2373 J-4.248
G3 X10.5669 Y-15.5142 I0.3402 J0.3394
G2 X10.5827 I0.0074 J-6.0
G3 X10.9217 Y-15.3738 I0.0007 J0.4778
G2 X10.9333 Y-15.3622 I4.2487 J-4.2366
G3 X11.0742 Y-15.0219 I-0.3388 J0.3397
G2 Y-15.0064 I6.0 J0.0076
G3 X10.9333 Y-14.666 I-0.4799 J0.0006
G2 X10.9214 Y-14.6541 I4.2373 J4.2479
G3 X10.5831 Y-14.5139 I-0.3376 J-0.3366
G2 X10.5655 I-0.0087 J6.0
G3 X10.4868 Y-14.5204 I-0.0007 J-0.4766
G1 F25.0 X10.356 Y-13.7311
G3 F150.0 X9.6607 Y-14.0892 I0.2088 J-1.2594
G2 X9.6504 Y-14.0996 I-3.6826 J3.6713
G3 X9.2745 Y-15.0071 I0.9034 J-0.9057
G2 Y-15.0209 I-5.2 J-0.0072
G3 X9.6506 Y-15.9288 I1.2801 J-0.0016
G2 X9.6598 Y-15.938 I-3.6723 J-3.6816
G3 X10.5679 Y-16.3142 I0.9066 J0.9043
G2 X10.5816 I0.0064 J-5.2
G3 X11.4882 Y-15.9387 I0.0018 J1.2778
G2 X11.4982 Y-15.9286 I3.6822 J-3.6717
G3 X11.8742 Y-15.0209 I-0.9038 J0.9061
G2 Y-15.0074 I5.2 J0.0066
G3 X11.4982 Y-14.0996 I-1.2799 J0.0017
G2 X11.488 Y-14.0893 I3.6724 J3.6816
G3 X10.5819 Y-13.7139 I-0.9042 J-0.9014
G2 X10.5667 I-0.0075 J5.2
G3 X10.356 Y-13.7311 I-0.0019 J-1.2766
G1 F25.0 X10.0943 Y-12.1527
G3 F150.0 X8.5276 Y-12.9596 I0.4705 J-2.8379
G2 X8.5204 Y-12.9668 I-2.5495 J2.5417
G3 X7.6745 Y-15.0093 I2.0333 J-2.0386
G2 Y-15.0189 I-3.6 J-0.005
G3 X8.5206 Y-17.0616 I2.8801 J-0.0036
G2 X8.527 Y-17.068 I-2.5424 J-2.5488
G3 X10.5699 Y-17.9142 I2.0394 J2.0343
G2 X10.5794 I0.0045 J-3.6
G3 X12.6212 Y-17.0684 I0.004 J2.8778
G2 X12.6281 Y-17.0615 I2.5492 J-2.5419
G3 X13.4742 Y-15.0189 I-2.0337 J2.0389
G2 Y-15.0095 I3.6 J0.0046
G3 X12.6282 Y-12.9668 I-2.8799 J0.0038
G2 X12.6211 Y-12.9597 I2.5424 J2.5488
G3 X10.5796 Y-12.1139 I-2.0373 J-2.031
G2 X10.5691 I-0.0052 J3.6
G3 X10.0943 Y-12.1527 I-0.0042 J-2.8766
G1 F25.0 X9.8325 Y-10.5742
G3 F150.0 X7.3945 Y-11.83 I0.7323 J-4.4163
G2 X7.3905 Y-11.8339 I-1.4164 J1.4121
G3 X6.0745 Y-15.0115 I3.1632 J-3.1714
G2 Y-15.0169 I-2.0 J-0.0028
G3 X7.3907 Y-18.1944 I4.4801 J-0.0057
G2 X7.3942 Y-18.198 I-1.4124 J-1.416
G3 X10.5719 Y-19.5142 I3.1721 J3.1643
G2 X10.5772 I0.0025 J-2.0
G3 X13.7542 Y-18.1982 I0.0062 J4.4778
G2 X13.758 Y-18.1943 I1.4162 J-1.4122
G3 X15.0742 Y-15.0169 I-3.1636 J3.1718
G2 Y-15.0117 I2.0 J0.0025
G3 X13.7581 Y-11.834 I-4.4799 J0.0059
G2 X13.7542 Y-11.83 I1.4124 J1.416
G3 X10.5773 Y-10.5139 I-3.1704 J-3.1606
G2 X10.5714 I-0.0029 J2.0
G3 X9.8325 Y-10.5742 I-0.0066 J-4.4766
G0 Z3.0
G0 X-9.9365 Y-14.7815
G0 Z1.0
G1 F25.0 Z-1.0
G3 F150.0 X-10.067 Y-14.5416 I-0.4694 J-0.0999
G2 X-10.0789 Y-14.5297 I4.2373 J4.2479
G3 X-10.4172 Y-14.3896 I-0.3376 J-0.3366
G2 X-10.4348 I-0.0087 J6.0
G3 X-10.773 Y-14.5297 I-0.0007 J-0.4766
G2 X-10.785 Y-14.5416 I-4.2491 J4.2362
G3 X-10.9258 Y-14.8816 I0.3384 J-0.3393
G2 Y-14.8975 I-6.0 J-0.0083
G3 X-10.7847 Y-15.2381 I0.4801 J-0.0006
G2 X-10.7741 Y-15.2487 I-4.2373 J-4.248
G3 X-10.4333 Y-15.3898 I0.3402 J0.3394
G2 X-10.4175 I0.0074 J-6.0
G3 X-10.0785 Y-15.2494 I0.0007 J0.4778
G2 X-10.067 Y-15.2379 I4.2487 J-4.2366
G3 X-9.926 Y-14.8976 I-0.3388 J0.3397
G2 Y-14.882 I6.0 J0.0076
G3 X-9.9365 Y-14.7815 I-0.4799 J0.0006
G1 F25.0 X-9.1541 Y-14.6149
G3 F150.0 X-9.502 Y-13.9752 I-1.2519 J-0.2664
G2 X-9.5123 Y-13.9649 I3.6724 J3.6816
G3 X-10.4183 Y-13.5896 I-0.9042 J-0.9014
G2 X-10.4336 I-0.0075 J5.2
G3 X-11.3396 Y-13.9649 I-0.0019 J-1.2766
G2 X-11.3499 Y-13.9752 I-3.6826 J3.6713
G3 X-11.7258 Y-14.8827 I0.9034 J-0.9057
G2 Y-14.8965 I-5.2 J-0.0072
G3 X-11.3497 Y-15.8045 I1.2801 J-0.0016
G2 X-11.3405 Y-15.8137 I-3.6723 J-3.6816
G3 X-10.4323 Y-16.1898 I0.9066 J0.9043
G2 X-10.4186 I0.0064 J-5.2
G3 X-9.512 Y-15.8143 I0.0018 J1.2778
G2 X-9.502 Y-15.8043 I3.6822 J-3.6717
G3 X-9.126 Y-14.8965 I-0.9038 J0.9061
G2 Y-14.8831 I5.2 J0.0066
G3 X-9.1541 Y-14.6149 I-1.2799 J0.0017
G1 F25.0 X-7.5891 Y-14.2819
G3 F150.0 X-8.3721 Y-12.8424 I-2.8168 J-0.5995
G2 X-8.3792 Y-12.8353 I2.5424 J2.5488
G3 X-10.4207 Y-11.9896 I-2.0373 J-2.031
G2 X-10.4312 I-0.0052 J3.6
G3 X-12.4727 Y-12.8352 I-0.0042 J-2.8766
G2 X-12.4798 Y-12.8424 I-2.5495 J2.5417
G3 X-13.3258 Y-14.885 I2.0333 J-2.0386
G2 Y-14.8945 I-3.6 J-0.005
G3 X-12.4796 Y-16.9373 I2.8801 J-0.0036
G2 X-12.4733 Y-16.9436 I-2.5424 J-2.5488
G3 X-10.4304 Y-17.7898 I2.0394 J2.0343
G2 X-10.4209 I0.0045 J-3.6
G3 X-8.3791 Y-16.944 I0.004 J2.8778
G2 X-8.3721 Y-16.9371 I2.5492 J-2.5419
G3 X-7.526 Y-14.8945 I-2.0337 J2.0389
G2 Y-14.8852 I3.6 J0.0046
G3 X-7.5891 Y-14.2819 I-2.8799 J0.0038
G1 F25.0 X-6.0242 Y-13.9488
G3 F150.0 X-7.2421 Y-11.7096 I-4.3818 J-0.9325
G2 X-7.2461 Y-11.7057 I1.4124 J1.416
G3 X-10.423 Y-10.3896 I-3.1704 J-3.1606
G2 X-10.4288 I-0.0029 J2.0
G3 X-13.6058 Y-11.7056 I-0.0066 J-4.4766
G2 X-13.6097 Y-11.7096 I-1.4164 J1.4121
G3 X-14.9258 Y-14.8872 I3.1632 J-3.1714
G2 Y-14.8925 I-2.0 J-0.0028
G3 X-13.6096 Y-18.0701 I4.4801 J-0.0057
G2 X-13.606 Y-18.0736 I-1.4124 J-1.416
G3 X-10.4284 Y-19.3898 I3.1721 J3.1643
G2 X-10.4231 I0.0025 J-2.0
G3 X-7.2461 Y-18.0738 I0.0062 J4.4778
G2 X-7.2422 Y-18.0699 I1.4162 J-1.4122
G3 X-5.926 Y-14.8925 I-3.1636 J3.1718
G2 Y-14.8873 I2.0 J0.0025
G3 X-6.0242 Y-13.9488 I-4.4799 J0.0059
G0 Z3.0
G0 X-9.9365 Y-14.7815
G0 Z0.0
G1 F25.0 Z-2.0
G3 F150.0 X-10.067 Y-14.5416 I-0.4694 J-0.0999
G2 X-10.0789 Y-14.5297 I4.2373 J4.2479
G3 X-10.4172 Y-14.3896 I-0.3376 J-0.3366
G2 X-10.4348 I-0.0087 J6.0
G3 X-10.773 Y-14.5297 I-0.0007 J-0.4766
G2 X-10.785 Y-14.5416 I-4.2491 J4.2362
G3 X-10.9258 Y-14.8816 I0.3384 J-0.3393
G2 Y-14.8975 I-6.0 J-0.0083
G3 X-10.7847 Y-15.2381 I0.4801 J-0.0006
G2 X-10.7741 Y-15.2487 I-4.2373 J-4.248
G3 X-10.4333 Y-15.3898 I0.3402 J0.3394
G2 X-10.4175 I0.0074 J-6.0
G3 X-10.0785 Y-15.2494 I0.0007 J0.4778
G2 X-10.067 Y-15.2379 I4.2487 J-4.2366
G3 X-9.926 Y-14.8976 I-0.3388 J0.3397
G2 Y-14.882 I6.0 J0.0076
G3 X-9.9365 Y-14.7815 I-0.4799 J0.0006
G1 F25.0 X-9.1541 Y-14.6149
G3 F150.0 X-9.502 Y-13.9752 I-1.2519 J-0.2664
G2 X-9.5123 Y-13.9649 I3.6724 J3.6816
G3 X-10.4183 Y-13.5896 I-0.9042 J-0.9014
G2 X-10.4336 I-0.0075 J5.2
G3 X-11.3396 Y-13.9649 I-0.0019 J-1.2766
G2 X-11.3499 Y-13.9752 I-3.6826 J3.6713
G3 X-11.7258 Y-14.8827 I0.9034 J-0.9057
G2 Y-14.8965 I-5.2 J-0.0072
G3 X-11.3497 Y-15.8045 I1.2801 J-0.0016
G2 X-11.3405 Y-15.8137 I-3.6723 J-3.6816
G3 X-10.4323 Y-16.1898 I0.9066 J0.9043
G2 X-10.4186 I0.0064 J-5.2
G3 X-9.512 Y-15.8143 I0.0018 J1.2778
G2 X-9.502 Y-15.8043 I3.6822 J-3.6717
G3 X-9.126 Y-14.8965 I-0.9038 J0.9061
G2 Y-14.8831 I5.2 J0.0066
G3 X-9.1541 Y-14.6149 I-1.2799 J0.0017
G1 F25.0 X-7.5891 Y-14.2819
G3 F150.0 X-8.3721 Y-12.8424 I-2.8168 J-0.5995
G2 X-8.3792 Y-12.8353 I2.5424 J2.5488
G3 X-10.4207 Y-11.9896 I-2.0373 J-2.031
G2 X-10.4312 I-0.0052 J3.6
G3 X-12.4727 Y-12.8352 I-0.0042 J-2.8766
G2 X-12.4798 Y-12.8424 I-2.5495 J2.5417
G3 X-13.3258 Y-14.885 I2.0333 J-2.0386
G2 Y-14.8945 I-3.6 J-0.005
G3 X-12.4796 Y-16.9373 I2.8801 J-0.0036
G2 X-12.4733 Y-16.9436 I-2.5424 J-2.5488
G3 X-10.4304 Y-17.7898 I2.0394 J2.0343
G2 X-10.4209 I0.0045 J-3.6
G3 X-8.3791 Y-16.944 I0.004 J2.8778
G2 X-8.3721 Y-16.9371 I2.5492 J-2.5419
G3 X-7.526 Y-14.8945 I-2.0337 J2.0389
G2 Y-14.8852 I3.6 J0.0046
G3 X-7.5891 Y-14.2819 I-2.8799 J0.0038
G1 F25.0 X-6.0242 Y-13.9488
G3 F150.0 X-7.2421 Y-11.7096 I-4.3818 J-0.9325
G2 X-7.2461 Y-11.7057 I1.4124 J1.416
G3 X-10.423 Y-10.3896 I-3.1704 J-3.1606
G2 X-10.4288 I-0.0029 J2.0
G3 X-13.6058 Y-11.7056 I-0.0066 J-4.4766
G2 X-13.6097 Y-11.7096 I-1.4164 J1.4121
G3 X-14.9258 Y-14.8872 I3.1632 J-3.1714
G2 Y-14.8925 I-2.0 J-0.0028
G3 X-13.6096 Y-18.0701 I4.4801 J-0.0057
G2 X-13.606 Y-18.0736 I-1.4124 J-1.416
G3 X-10.4284 Y-19.3898 I3.1721 J3.1643
G2 X-10.4231 I0.0025 J-2.0
G3 X-7.2461 Y-18.0738 I0.0062 J4.4778
G2 X-7.2422 Y-18.0699 I1.4162 J-1.4122
G3 X-5.926 Y-14.8925 I-3.1636 J3.1718
G2 Y-14.8873 I2.0 J0.0025
G3 X-6.0242 Y-13.9488 I-4.4799 J0.0059
G0 Z3.0
G0 X-9.9365 Y-14.7815
G0 Z-1.0
G1 F25.0 Z-3.0
G3 F150.0 X-10.067 Y-14.5416 I-0.4694 J-0.0999
G2 X-10.0789 Y-14.5297 I4.2373 J4.2479
G3 X-10.4172 Y-14.3896 I-0.3376 J-0.3366
G2 X-10.4348 I-0.0087 J6.0
G3 X-10.773 Y-14.5297 I-0.0007 J-0.4766
G2 X-10.785 Y-14.5416 I-4.2491 J4.2362
G3 X-10.9258 Y-14.8816 I0.3384 J-0.3393
G2 Y-14.8975 I-6.0 J-0.0083
G3 X-10.7847 Y-15.2381 I0.4801 J-0.0006
G2 X-10.7741 Y-15.2487 I-4.2373 J-4.248
G3 X-10.4333 Y-15.3898 I0.3402 J0.3394
G2 X-10.4175 I0.0074 J-6.0
G3 X-10.0785 Y-15.2494 I0.0007 J0.4778
G2 X-10.067 Y-15.2379 I4.2487 J-4.2366
G3 X-9.926 Y-14.8976 I-0.3388 J0.3397
G2 Y-14.882 I6.0 J0.0076
G3 X-9.9365 Y-14.7815 I-0.4799 J0.0006
G1 F25.0 X-9.1541 Y-14.6149
G3 F150.0 X-9.502 Y-13.9752 I-1.2519 J-0.2664
G2 X-9.5123 Y-13.9649 I3.6724 J3.6816
G3 X-10.4183 Y-13.5896 I-0.9042 J-0.9014
G2 X-10.4336 I-0.0075 J5.2
G3 X-11.3396 Y-13.9649 I-0.0019 J-1.2766
G2 X-11.3499 Y-13.9752 I-3.6826 J3.6713
G3 X-11.7258 Y-14.8827 I0.9034 J-0.9057
G2 Y-14.8965 I-5.2 J-0.0072
G3 X-11.3497 Y-15.8045 I1.2801 J-0.0016
G2 X-11.3405 Y-15.8137 I-3.6723 J-3.6816
G3 X-10.4323 Y-16.1898 I0.9066 J0.9043
G2 X-10.4186 I0.0064 J-5.2
G3 X-9.512 Y-15.8143 I0.0018 J1.2778
G2 X-9.502 Y-15.8043 I3.6822 J-3.6717
G3 X-9.126 Y-14.8965 I-0.9038 J0.9061
G2 Y-14.8831 I5.2 J0.0066
G3 X-9.1541 Y-14.6149 I-1.2799 J0.0017
G1 F25.0 X-7.5891 Y-14.2819
G3 F150.0 X-8.3721 Y-12.8424 I-2.8168 J-0.5995
G2 X-8.3792 Y-12.8353 I2.5424 J2.5488
G3 X-10.4207 Y-11.9896 I-2.0373 J-2.031
G2 X-10.4312 I-0.0052 J3.6
G3 X-12.4727 Y-12.8352 I-0.0042 J-2.8766
G2 X-12.4798 Y-12.8424 I-2.5495 J2.5417
G3 X-13.3258 Y-14.885 I2.0333 J-2.0386
G2 Y-14.8945 I-3.6 J-0.005
G3 X-12.4796 Y-16.9373 I2.8801 J-0.0036
G2 X-12.4733 Y-16.9436 I-2.5424 J-2.5488
G3 X-10.4304 Y-17.7898 I2.0394 J2.0343
G2 X-10.4209 I0.0045 J-3.6
G3 X-8.3791 Y-16.944 I0.004 J2.8778
G2 X-8.3721 Y-16.9371 I2.5492 J-2.5419
G3 X-7.526 Y-14.8945 I-2.0337 J2.0389
G2 Y-14.8852 I3.6 J0.0046
G3 X-7.5891 Y-14.2819 I-2.8799 J0.0038
G1 F25.0 X-6.0242 Y-13.9488
G3 F150.0 X-7.2421 Y-11.7096 I-4.3818 J-0.9325
G2 X-7.2461 Y-11.7057 I1.4124 J1.416
G3 X-10.423 Y-10.3896 I-3.1704 J-3.1606
G2 X-10.4288 I-0.0029 J2.0
G3 X-13.6058 Y-11.7056 I-0.0066 J-4.4766
G2 X-13.6097 Y-11.7096 I-1.4164 J1.4121
G3 X-14.9258 Y-14.8872 I3.1632 J-3.1714
G2 Y-14.8925 I-2.0 J-0.0028
G3 X-13.6096 Y-18.0701 I4.4801 J-0.0057
G2 X-13.606 Y-18.0736 I-1.4124 J-1.416
G3 X-10.4284 Y-19.3898 I3.1721 J3.1643
G2 X-10.4231 I0.0025 J-2.0
G3 X-7.2461 Y-18.0738 I0.0062 J4.4778
G2 X-7.2422 Y-18.0699 I1.4162 J-1.4122
G3 X-5.926 Y-14.8925 I-3.1636 J3.1718
G2 Y-14.8873 I2.0 J0.0025
G3 X-6.0242 Y-13.9488 I-4.4799 J0.0059
G0 Z3.0
G0 X-9.9365 Y-14.7815
G0 Z-2.0
G1 F25.0 Z-3.5
G3 F150.0 X-10.067 Y-14.5416 I-0.4694 J-0.0999
G2 X-10.0789 Y-14.5297 I4.2373 J4.2479
G3 X-10.4172 Y-14.3896 I-0.3376 J-0.3366
G2 X-10.4348 I-0.0087 J6.0
G3 X-10.773 Y-14.5297 I-0.0007 J-0.4766
G2 X-10.785 Y-14.5416 I-4.2491 J4.2362
G3 X-10.9258 Y-14.8816 I0.3384 J-0.3393
G2 Y-14.8975 I-6.0 J-0.0083
G3 X-10.7847 Y-15.2381 I0.4801 J-0.0006
G2 X-10.7741 Y-15.2487 I-4.2373 J-4.248
G3 X-10.4333 Y-15.3898 I0.3402 J0.3394
G2 X-10.4175 I0.0074 J-6.0
G3 X-10.0785 Y-15.2494 I0.0007 J0.4778
G2 X-10.067 Y-15.2379 I4.2487 J-4.2366
G3 X-9.926 Y-14.8976 I-0.3388 J0.3397
G2 Y-14.882 I6.0 J0.0076
G3 X-9.9365 Y-14.7815 I-0.4799 J0.0006
G1 F25.0 X-9.1541 Y-14.6149
G3 F150.0 X-9.502 Y-13.9752 I-1.2519 J-0.2664
G2 X-9.5123 Y-13.9649 I3.6724 J3.6816
G3 X-10.4183 Y-13.5896 I-0.9042 J-0.9014
G2 X-10.4336 I-0.0075 J5.2
G3 X-11.3396 Y-13.9649 I-0.0019 J-1.2766
G2 X-11.3499 Y-13.9752 I-3.6826 J3.6713
G3 X-11.7258 Y-14.8827 I0.9034 J-0.9057
G2 Y-14.8965 I-5.2 J-0.0072
G3 X-11.3497 Y-15.8045 I1.2801 J-0.0016
G2 X-11.3405 Y-15.8137 I-3.6723 J-3.6816
G3 X-10.4323 Y-16.1898 I0.9066 J0.9043
G2 X-10.4186 I0.0064 J-5.2
G3 X-9.512 Y-15.8143 I0.0018 J1.2778
G2 X-9.502 Y-15.8043 I3.6822 J-3.6717
G3 X-9.126 Y-14.8965 I-0.9038 J0.9061
G2 Y-14.8831 I5.2 J0.0066
G3 X-9.1541 Y-14.6149 I-1.2799 J0.0017
G1 F25.0 X-7.5891 Y-14.2819
G3 F150.0 X-8.3721 Y-12.8424 I-2.8168 J-0.5995
G2 X-8.3792 Y-12.8353 I2.5424 J2.5488
G3 X-10.4207 Y-11.9896 I-2.0373 J-2.031
G2 X-10.4312 I-0.0052 J3.6
G3 X-12.4727 Y-12.8352 I-0.0042 J-2.8766
G2 X-12.4798 Y-12.8424 I-2.5495 J2.5417
G3 X-13.3258 Y-14.885 I2.0333 J-2.0386
G2 Y-14.8945 I-3.6 J-0.005
G3 X-12.4796 Y-16.9373 I2.8801 J-0.0036
G2 X-12.4733 Y-16.9436 I-2.5424 J-2.5488
G3 X-10.4304 Y-17.7898 I2.0394 J2.0343
G2 X-10.4209 I0.0045 J-3.6
G3 X-8.3791 Y-16.944 I0.004 J2.8778
G2 X-8.3721 Y-16.9371 I2.5492 J-2.5419
G3 X-7.526 Y-14.8945 I-2.0337 J2.0389
G2 Y-14.8852 I3.6 J0.0046
G3 X-7.5891 Y-14.2819 I-2.8799 J0.0038
G1 F25.0 X-6.0242 Y-13.9488
G3 F150.0 X-7.2421 Y-11.7096 I-4.3818 J-0.9325
G2 X-7.2461 Y-11.7057 I1.4124 J1.416
G3 X-10.423 Y-10.3896 I-3.1704 J-3.1606
G2 X-10.4288 I-0.0029 J2.0
G3 X-13.6058 Y-11.7056 I-0.0066 J-4.4766
G2 X-13.6097 Y-11.7096 I-1.4164 J1.4121
G3 X-14.9258 Y-14.8872 I3.1632 J-3.1714
G2 Y-14.8925 I-2.0 J-0.0028
G3 X-13.6096 Y-18.0701 I4.4801 J-0.0057
G2 X-13.606 Y-18.0736 I-1.4124 J-1.416
G3 X-10.4284 Y-19.3898 I3.1721 J3.1643
G2 X-10.4231 I0.0025 J-2.0
G3 X-7.2461 Y-18.0738 I0.0062 J4.4778
G2 X-7.2422 Y-18.0699 I1.4162 J-1.4122
G3 X-5.926 Y-14.8925 I-3.1636 J3.1718
G2 Y-14.8873 I2.0 J0.0025
G3 X-6.0242 Y-13.9488 I-4.4799 J0.0059
G0 Z3.0
M5
M30
