( Made using CamBam - http://www.cambam.co.uk )
( picker echain mount 10/3/2013 6:13:12 PM )
( T4 : 4.0 )
G21 G90 G64 G40
G0 Z3.0
( T4 : 4.0 )
T4 M6
( Cutout )
G17
M3 S1000
G0 X45.0012 Y47.0
G0 Z1.0
G1 F25.0 Z-1.0
G2 F140.0 X49.9454 Y44.9456 I-0.0034 J-6.985
G2 X52.0 Y40.0003 I-4.9267 J-4.9463
G1 Y40.0
G1 Y32.3953
G1 Y4.9999
G1 Y0.0
G2 X50.0 Y-2.0 I-2.0 J0.0
G1 X45.0002
G1 X4.9999
G1 X0.0
G2 X-2.0 Y0.0 I0.0 J2.0
G1 Y4.9999
G1 Y32.3953
G1 Y40.0
G2 Y40.0013 I2.0 J0.0
G2 X0.0541 Y44.9451 I6.9873 J-0.0045
G2 X4.9992 Y47.0 I4.9473 J-4.9281
G2 X4.9999 I0.0006 J-2.0
G1 X45.0002
G2 X45.0012 I0.0 J-2.0
G1 F25.0 Z-2.0
G2 F140.0 X49.9454 Y44.9456 I-0.0034 J-6.985
G2 X52.0 Y40.0003 I-4.9267 J-4.9463
G1 Y40.0
G1 Y32.3953
G1 Y4.9999
G1 Y0.0
G2 X50.0 Y-2.0 I-2.0 J0.0
G1 X45.0002
G1 X4.9999
G1 X0.0
G2 X-2.0 Y0.0 I0.0 J2.0
G1 Y4.9999
G1 Y32.3953
G1 Y40.0
G2 Y40.0013 I2.0 J0.0
G2 X0.0541 Y44.9451 I6.9873 J-0.0045
G2 X4.9992 Y47.0 I4.9473 J-4.9281
G2 X4.9999 I0.0006 J-2.0
G1 X45.0002
G2 X45.0012 I0.0 J-2.0
G1 F25.0 Z-3.0
G2 F140.0 X49.9454 Y44.9456 I-0.0034 J-6.985
G2 X52.0 Y40.0003 I-4.9267 J-4.9463
G1 Y40.0
G1 Y32.3953
G1 Y4.9999
G1 Y0.0
G2 X50.0 Y-2.0 I-2.0 J0.0
G1 X45.0002
G1 X4.9999
G1 X0.0
G2 X-2.0 Y0.0 I0.0 J2.0
G1 Y4.9999
G1 Y32.3953
G1 Y40.0
G2 Y40.0013 I2.0 J0.0
G2 X0.0541 Y44.9451 I6.9873 J-0.0045
G2 X4.9992 Y47.0 I4.9473 J-4.9281
G2 X4.9999 I0.0006 J-2.0
G1 X45.0002
G2 X45.0012 I0.0 J-2.0
G1 F25.0 Z-4.0
G2 F140.0 X49.9454 Y44.9456 I-0.0034 J-6.985
G2 X52.0 Y40.0003 I-4.9267 J-4.9463
G1 Y40.0
G1 Y32.3953
G1 Y4.9999
G1 Y0.0
G2 X50.0 Y-2.0 I-2.0 J0.0
G1 X45.0002
G1 X4.9999
G1 X0.0
G2 X-2.0 Y0.0 I0.0 J2.0
G1 Y4.9999
G1 Y32.3953
G1 Y40.0
G2 Y40.0013 I2.0 J0.0
G2 X0.0541 Y44.9451 I6.9873 J-0.0045
G2 X4.9992 Y47.0 I4.9473 J-4.9281
G2 X4.9999 I0.0006 J-2.0
G1 X45.0002
G2 X45.0012 I0.0 J-2.0
G1 F25.0 Z-5.0
G2 F140.0 X49.9454 Y44.9456 I-0.0034 J-6.985
G2 X52.0 Y40.0003 I-4.9267 J-4.9463
G1 Y40.0
G1 Y32.3953
G1 Y4.9999
G1 Y0.0
G2 X50.0 Y-2.0 I-2.0 J0.0
G1 X45.0002
G1 X4.9999
G1 X0.0
G2 X-2.0 Y0.0 I0.0 J2.0
G1 Y4.9999
G1 Y32.3953
G1 Y40.0
G2 Y40.0013 I2.0 J0.0
G2 X0.0541 Y44.9451 I6.9873 J-0.0045
G2 X4.9992 Y47.0 I4.9473 J-4.9281
G2 X4.9999 I0.0006 J-2.0
G1 X45.0002
G2 X45.0012 I0.0 J-2.0
G1 F25.0 Z-6.0
G2 F140.0 X49.9454 Y44.9456 I-0.0034 J-6.985
G2 X52.0 Y40.0003 I-4.9267 J-4.9463
G1 Y40.0
G1 Y32.3953
G1 Y4.9999
G1 Y0.0
G2 X50.0 Y-2.0 I-2.0 J0.0
G1 X45.0002
G1 X4.9999
G1 X0.0
G2 X-2.0 Y0.0 I0.0 J2.0
G1 Y4.9999
G1 Y32.3953
G1 Y40.0
G2 Y40.0013 I2.0 J0.0
G2 X0.0541 Y44.9451 I6.9873 J-0.0045
G2 X4.9992 Y47.0 I4.9473 J-4.9281
G2 X4.9999 I0.0006 J-2.0
G1 X45.0002
G2 X45.0012 I0.0 J-2.0
G1 F25.0 Z-7.0
G2 F140.0 X49.9454 Y44.9456 I-0.0034 J-6.985
G2 X52.0 Y40.0003 I-4.9267 J-4.9463
G1 Y40.0
G1 Y32.3953
G1 Y4.9999
G1 Y0.0
G2 X50.0 Y-2.0 I-2.0 J0.0
G1 X45.0002
G1 X4.9999
G1 X0.0
G2 X-2.0 Y0.0 I0.0 J2.0
G1 Y4.9999
G1 Y32.3953
G1 Y40.0
G2 Y40.0013 I2.0 J0.0
G2 X0.0541 Y44.9451 I6.9873 J-0.0045
G2 X4.9992 Y47.0 I4.9473 J-4.9281
G2 X4.9999 I0.0006 J-2.0
G1 X45.0002
G2 X45.0012 I0.0 J-2.0
G0 Z3.0
M5
M30
