( Made using CamBam - http://www.cambam.co.uk )
( picker echain mount 10/3/2013 6:12:42 PM )
( T4 : 4.0 )
G21 G90 G64 G40
G0 Z3.0
( T4 : 4.0 )
T4 M6
( Pocket1 )
G17
M3 S1000
G0 X31.1999 Y26.2001
G0 Z1.0
G1 F25.0 Z-1.0
G1 F140.0 X18.8001
G1 Y24.8821
G1 X31.1999
G1 Y26.2001
G1 F25.0 Y27.8001
G1 F140.0 X17.2001
G1 Y26.4862
G1 Y23.2821
G1 X32.7999
G1 Y26.4862
G1 Y27.8001
G1 X31.1999
G1 F25.0 Y29.4001
G1 F140.0 X15.6001
G1 Y26.4862
G1 Y21.6821
G1 X34.3999
G1 Y26.4862
G1 Y29.4001
G1 X31.1999
G1 F25.0 Y31.0001
G1 F140.0 X14.0001
G1 Y26.4862
G1 Y20.0821
G1 X35.9999
G1 Y26.4862
G1 Y31.0001
G1 X31.1999
G1 F25.0 Y32.6001
G1 F140.0 X12.4001
G1 Y26.4862
G1 Y18.4821
G1 X37.5999
G1 Y26.4862
G1 Y32.6001
G1 X31.1999
G1 F25.0 Y34.2001
G1 F140.0 X10.8001
G1 Y26.4862
G1 Y16.8821
G1 X39.1999
G1 Y26.4862
G1 Y34.2001
G1 X31.1999
G1 F25.0 Y35.8001
G1 F140.0 X9.2001
G1 Y26.4862
G1 Y15.2821
G1 X40.7999
G1 Y26.4862
G1 Y35.8001
G1 X31.1999
G1 F25.0 Y37.4001
G1 F140.0 X7.6001
G1 Y26.4862
G1 Y13.6821
G1 X42.3999
G1 Y26.4862
G1 Y37.4001
G1 X31.1999
G1 F25.0 Y39.0001
G1 F140.0 X7.0007
G3 X6.2991 Y38.7081 I0.0008 J-0.991
G2 X6.2914 Y38.7004 I-1.4177 J1.4107
G3 X6.0001 Y38.0001 I0.6962 J-0.7003
G1 Y26.4862
G1 Y13.0821
G1 Y12.0821
G1 X7.0001
G1 X43.0
G1 X43.9999
G1 Y13.0821
G1 Y26.4862
G1 Y37.9991
G3 X43.7075 Y38.7016 I-0.9934 J-0.0014
G2 X43.7008 Y38.7083 I1.4112 J1.4172
G3 X42.9995 Y39.0001 I-0.7019 J-0.6983
G1 X31.1999
G0 Z3.0
G0 Y26.2001
G0 Z0.0
G1 F25.0 Z-2.0
G1 F140.0 X18.8001
G1 Y24.8821
G1 X31.1999
G1 Y26.2001
G1 F25.0 Y27.8001
G1 F140.0 X17.2001
G1 Y26.4862
G1 Y23.2821
G1 X32.7999
G1 Y26.4862
G1 Y27.8001
G1 X31.1999
G1 F25.0 Y29.4001
G1 F140.0 X15.6001
G1 Y26.4862
G1 Y21.6821
G1 X34.3999
G1 Y26.4862
G1 Y29.4001
G1 X31.1999
G1 F25.0 Y31.0001
G1 F140.0 X14.0001
G1 Y26.4862
G1 Y20.0821
G1 X35.9999
G1 Y26.4862
G1 Y31.0001
G1 X31.1999
G1 F25.0 Y32.6001
G1 F140.0 X12.4001
G1 Y26.4862
G1 Y18.4821
G1 X37.5999
G1 Y26.4862
G1 Y32.6001
G1 X31.1999
G1 F25.0 Y34.2001
G1 F140.0 X10.8001
G1 Y26.4862
G1 Y16.8821
G1 X39.1999
G1 Y26.4862
G1 Y34.2001
G1 X31.1999
G1 F25.0 Y35.8001
G1 F140.0 X9.2001
G1 Y26.4862
G1 Y15.2821
G1 X40.7999
G1 Y26.4862
G1 Y35.8001
G1 X31.1999
G1 F25.0 Y37.4001
G1 F140.0 X7.6001
G1 Y26.4862
G1 Y13.6821
G1 X42.3999
G1 Y26.4862
G1 Y37.4001
G1 X31.1999
G1 F25.0 Y39.0001
G1 F140.0 X7.0007
G3 X6.2991 Y38.7081 I0.0008 J-0.991
G2 X6.2914 Y38.7004 I-1.4177 J1.4107
G3 X6.0001 Y38.0001 I0.6962 J-0.7003
G1 Y26.4862
G1 Y13.0821
G1 Y12.0821
G1 X7.0001
G1 X43.0
G1 X43.9999
G1 Y13.0821
G1 Y26.4862
G1 Y37.9991
G3 X43.7075 Y38.7016 I-0.9934 J-0.0014
G2 X43.7008 Y38.7083 I1.4112 J1.4172
G3 X42.9995 Y39.0001 I-0.7019 J-0.6983
G1 X31.1999
G0 Z3.0
G0 Y26.2001
G0 Z-1.0
G1 F25.0 Z-3.0
G1 F140.0 X18.8001
G1 Y24.8821
G1 X31.1999
G1 Y26.2001
G1 F25.0 Y27.8001
G1 F140.0 X17.2001
G1 Y26.4862
G1 Y23.2821
G1 X32.7999
G1 Y26.4862
G1 Y27.8001
G1 X31.1999
G1 F25.0 Y29.4001
G1 F140.0 X15.6001
G1 Y26.4862
G1 Y21.6821
G1 X34.3999
G1 Y26.4862
G1 Y29.4001
G1 X31.1999
G1 F25.0 Y31.0001
G1 F140.0 X14.0001
G1 Y26.4862
G1 Y20.0821
G1 X35.9999
G1 Y26.4862
G1 Y31.0001
G1 X31.1999
G1 F25.0 Y32.6001
G1 F140.0 X12.4001
G1 Y26.4862
G1 Y18.4821
G1 X37.5999
G1 Y26.4862
G1 Y32.6001
G1 X31.1999
G1 F25.0 Y34.2001
G1 F140.0 X10.8001
G1 Y26.4862
G1 Y16.8821
G1 X39.1999
G1 Y26.4862
G1 Y34.2001
G1 X31.1999
G1 F25.0 Y35.8001
G1 F140.0 X9.2001
G1 Y26.4862
G1 Y15.2821
G1 X40.7999
G1 Y26.4862
G1 Y35.8001
G1 X31.1999
G1 F25.0 Y37.4001
G1 F140.0 X7.6001
G1 Y26.4862
G1 Y13.6821
G1 X42.3999
G1 Y26.4862
G1 Y37.4001
G1 X31.1999
G1 F25.0 Y39.0001
G1 F140.0 X7.0007
G3 X6.2991 Y38.7081 I0.0008 J-0.991
G2 X6.2914 Y38.7004 I-1.4177 J1.4107
G3 X6.0001 Y38.0001 I0.6962 J-0.7003
G1 Y26.4862
G1 Y13.0821
G1 Y12.0821
G1 X7.0001
G1 X43.0
G1 X43.9999
G1 Y13.0821
G1 Y26.4862
G1 Y37.9991
G3 X43.7075 Y38.7016 I-0.9934 J-0.0014
G2 X43.7008 Y38.7083 I1.4112 J1.4172
G3 X42.9995 Y39.0001 I-0.7019 J-0.6983
G1 X31.1999
( Profile1 )
S1000
G0 Z3.0
G0 X31.7774 Y13.7173
G0 Z1.0
G1 F25.0 Z-1.0
G1 F140.0 Y18.5763
G2 Y18.5782 I2.0 J0.0
G3 X31.7037 Y19.1638 I-2.345 J0.0023
G2 X31.7033 Y19.1655 I1.9371 J0.4975
G3 X31.4974 Y19.6699 I-1.9306 J-0.4941
G3 X31.3081 Y19.9301 I-1.3678 J-0.7957
G2 X31.3034 Y19.9354 I1.4895 J1.3346
G3 X31.0449 Y20.1455 I-0.7751 J-0.6896
G2 X31.0402 Y20.1482 I0.9958 J1.7345
G3 X30.7729 Y20.2209 I-0.2712 J-0.4695
G1 X28.7792
G3 X28.5642 Y20.1727 I0.0013 J-0.5094
G3 X28.2733 Y19.9585 I0.4315 J-0.8906
G2 X28.2661 Y19.9508 I-1.46 J1.3669
G3 X28.0785 Y19.7045 I1.0564 J-0.9995
G3 X28.0784 Y19.7044 I1.244 J-0.7532
G1 X28.0785 Y19.7046
G3 Y19.7045 I1.7166 J-1.0388
G3 X27.8795 Y19.2625 I1.7167 J-1.0387
G3 X27.7776 Y18.5763 I2.26 J-0.6863
G1 Y13.7173
G2 Y13.7146 I-2.0 J0.0
G3 X27.8511 Y13.1307 I2.3307 J-0.0031
G2 X27.8519 Y13.1276 I-1.9369 J-0.4984
G3 X28.0576 Y12.6242 I1.9192 J0.4905
G3 X28.2466 Y12.3642 I1.36 J0.7901
G2 X28.2518 Y12.3583 I-1.4891 J-1.3352
G3 X28.5098 Y12.1487 I0.7726 J0.6873
G2 X28.5149 Y12.1458 I-0.9954 J-1.7347
G3 X28.7821 Y12.0731 I0.2711 J0.4692
G1 X30.7758
G3 X30.9907 Y12.1212 I-0.0013 J0.5097
G3 X31.2819 Y12.3357 I-0.4329 J0.8927
G2 X31.2885 Y12.3427 I1.4597 J-1.3672
G3 X31.4765 Y12.5894 I-1.0633 J1.0055
G3 X31.6765 Y13.0343 I-1.7272 J1.0435
G3 X31.7774 Y13.7117 I-2.1788 J0.671
G2 Y13.7173 I2.0 J0.0056
G1 F25.0 Z-2.0
G1 F140.0 Y18.5763
G2 Y18.5782 I2.0 J0.0
G3 X31.7037 Y19.1638 I-2.345 J0.0023
G2 X31.7033 Y19.1655 I1.9371 J0.4975
G3 X31.4974 Y19.6699 I-1.9306 J-0.4941
G3 X31.3081 Y19.9301 I-1.3678 J-0.7957
G2 X31.3034 Y19.9354 I1.4895 J1.3346
G3 X31.0449 Y20.1455 I-0.7751 J-0.6896
G2 X31.0402 Y20.1482 I0.9958 J1.7345
G3 X30.7729 Y20.2209 I-0.2712 J-0.4695
G1 X28.7792
G3 X28.5642 Y20.1727 I0.0013 J-0.5094
G3 X28.2733 Y19.9585 I0.4315 J-0.8906
G2 X28.2661 Y19.9508 I-1.46 J1.3669
G3 X28.0785 Y19.7045 I1.0564 J-0.9995
G3 X28.0784 Y19.7044 I1.244 J-0.7532
G1 X28.0785 Y19.7046
G3 Y19.7045 I1.7166 J-1.0388
G3 X27.8795 Y19.2625 I1.7167 J-1.0387
G3 X27.7776 Y18.5763 I2.26 J-0.6863
G1 Y13.7173
G2 Y13.7146 I-2.0 J0.0
G3 X27.8511 Y13.1307 I2.3307 J-0.0031
G2 X27.8519 Y13.1276 I-1.9369 J-0.4984
G3 X28.0576 Y12.6242 I1.9192 J0.4905
G3 X28.2466 Y12.3642 I1.36 J0.7901
G2 X28.2518 Y12.3583 I-1.4891 J-1.3352
G3 X28.5098 Y12.1487 I0.7726 J0.6873
G2 X28.5149 Y12.1458 I-0.9954 J-1.7347
G3 X28.7821 Y12.0731 I0.2711 J0.4692
G1 X30.7758
G3 X30.9907 Y12.1212 I-0.0013 J0.5097
G3 X31.2819 Y12.3357 I-0.4329 J0.8927
G2 X31.2885 Y12.3427 I1.4597 J-1.3672
G3 X31.4765 Y12.5894 I-1.0633 J1.0055
G3 X31.6765 Y13.0343 I-1.7272 J1.0435
G3 X31.7774 Y13.7117 I-2.1788 J0.671
G2 Y13.7173 I2.0 J0.0056
G1 F25.0 Z-3.0
G1 F140.0 Y18.5763
G2 Y18.5782 I2.0 J0.0
G3 X31.7037 Y19.1638 I-2.345 J0.0023
G2 X31.7033 Y19.1655 I1.9371 J0.4975
G3 X31.4974 Y19.6699 I-1.9306 J-0.4941
G3 X31.3081 Y19.9301 I-1.3678 J-0.7957
G2 X31.3034 Y19.9354 I1.4895 J1.3346
G3 X31.0449 Y20.1455 I-0.7751 J-0.6896
G2 X31.0402 Y20.1482 I0.9958 J1.7345
G3 X30.7729 Y20.2209 I-0.2712 J-0.4695
G1 X28.7792
G3 X28.5642 Y20.1727 I0.0013 J-0.5094
G3 X28.2733 Y19.9585 I0.4315 J-0.8906
G2 X28.2661 Y19.9508 I-1.46 J1.3669
G3 X28.0785 Y19.7045 I1.0564 J-0.9995
G3 X28.0784 Y19.7044 I1.244 J-0.7532
G1 X28.0785 Y19.7046
G3 Y19.7045 I1.7166 J-1.0388
G3 X27.8795 Y19.2625 I1.7167 J-1.0387
G3 X27.7776 Y18.5763 I2.26 J-0.6863
G1 Y13.7173
G2 Y13.7146 I-2.0 J0.0
G3 X27.8511 Y13.1307 I2.3307 J-0.0031
G2 X27.8519 Y13.1276 I-1.9369 J-0.4984
G3 X28.0576 Y12.6242 I1.9192 J0.4905
G3 X28.2466 Y12.3642 I1.36 J0.7901
G2 X28.2518 Y12.3583 I-1.4891 J-1.3352
G3 X28.5098 Y12.1487 I0.7726 J0.6873
G2 X28.5149 Y12.1458 I-0.9954 J-1.7347
G3 X28.7821 Y12.0731 I0.2711 J0.4692
G1 X30.7758
G3 X30.9907 Y12.1212 I-0.0013 J0.5097
G3 X31.2819 Y12.3357 I-0.4329 J0.8927
G2 X31.2885 Y12.3427 I1.4597 J-1.3672
G3 X31.4765 Y12.5894 I-1.0633 J1.0055
G3 X31.6765 Y13.0343 I-1.7272 J1.0435
G3 X31.7774 Y13.7117 I-2.1788 J0.671
G2 Y13.7173 I2.0 J0.0056
G1 F25.0 Z-4.0
G1 F140.0 Y18.5763
G2 Y18.5782 I2.0 J0.0
G3 X31.7037 Y19.1638 I-2.345 J0.0023
G2 X31.7033 Y19.1655 I1.9371 J0.4975
G3 X31.4974 Y19.6699 I-1.9306 J-0.4941
G3 X31.3081 Y19.9301 I-1.3678 J-0.7957
G2 X31.3034 Y19.9354 I1.4895 J1.3346
G3 X31.0449 Y20.1455 I-0.7751 J-0.6896
G2 X31.0402 Y20.1482 I0.9958 J1.7345
G3 X30.7729 Y20.2209 I-0.2712 J-0.4695
G1 X28.7792
G3 X28.5642 Y20.1727 I0.0013 J-0.5094
G3 X28.2733 Y19.9585 I0.4315 J-0.8906
G2 X28.2661 Y19.9508 I-1.46 J1.3669
G3 X28.0785 Y19.7045 I1.0564 J-0.9995
G3 X28.0784 Y19.7044 I1.244 J-0.7532
G1 X28.0785 Y19.7046
G3 Y19.7045 I1.7166 J-1.0388
G3 X27.8795 Y19.2625 I1.7167 J-1.0387
G3 X27.7776 Y18.5763 I2.26 J-0.6863
G1 Y13.7173
G2 Y13.7146 I-2.0 J0.0
G3 X27.8511 Y13.1307 I2.3307 J-0.0031
G2 X27.8519 Y13.1276 I-1.9369 J-0.4984
G3 X28.0576 Y12.6242 I1.9192 J0.4905
G3 X28.2466 Y12.3642 I1.36 J0.7901
G2 X28.2518 Y12.3583 I-1.4891 J-1.3352
G3 X28.5098 Y12.1487 I0.7726 J0.6873
G2 X28.5149 Y12.1458 I-0.9954 J-1.7347
G3 X28.7821 Y12.0731 I0.2711 J0.4692
G1 X30.7758
G3 X30.9907 Y12.1212 I-0.0013 J0.5097
G3 X31.2819 Y12.3357 I-0.4329 J0.8927
G2 X31.2885 Y12.3427 I1.4597 J-1.3672
G3 X31.4765 Y12.5894 I-1.0633 J1.0055
G3 X31.6765 Y13.0343 I-1.7272 J1.0435
G3 X31.7774 Y13.7117 I-2.1788 J0.671
G2 Y13.7173 I2.0 J0.0056
G1 F25.0 Z-5.0
G1 F140.0 Y18.5763
G2 Y18.5782 I2.0 J0.0
G3 X31.7037 Y19.1638 I-2.345 J0.0023
G2 X31.7033 Y19.1655 I1.9371 J0.4975
G3 X31.4974 Y19.6699 I-1.9306 J-0.4941
G3 X31.3081 Y19.9301 I-1.3678 J-0.7957
G2 X31.3034 Y19.9354 I1.4895 J1.3346
G3 X31.0449 Y20.1455 I-0.7751 J-0.6896
G2 X31.0402 Y20.1482 I0.9958 J1.7345
G3 X30.7729 Y20.2209 I-0.2712 J-0.4695
G1 X28.7792
G3 X28.5642 Y20.1727 I0.0013 J-0.5094
G3 X28.2733 Y19.9585 I0.4315 J-0.8906
G2 X28.2661 Y19.9508 I-1.46 J1.3669
G3 X28.0785 Y19.7045 I1.0564 J-0.9995
G3 X28.0784 Y19.7044 I1.244 J-0.7532
G1 X28.0785 Y19.7046
G3 Y19.7045 I1.7166 J-1.0388
G3 X27.8795 Y19.2625 I1.7167 J-1.0387
G3 X27.7776 Y18.5763 I2.26 J-0.6863
G1 Y13.7173
G2 Y13.7146 I-2.0 J0.0
G3 X27.8511 Y13.1307 I2.3307 J-0.0031
G2 X27.8519 Y13.1276 I-1.9369 J-0.4984
G3 X28.0576 Y12.6242 I1.9192 J0.4905
G3 X28.2466 Y12.3642 I1.36 J0.7901
G2 X28.2518 Y12.3583 I-1.4891 J-1.3352
G3 X28.5098 Y12.1487 I0.7726 J0.6873
G2 X28.5149 Y12.1458 I-0.9954 J-1.7347
G3 X28.7821 Y12.0731 I0.2711 J0.4692
G1 X30.7758
G3 X30.9907 Y12.1212 I-0.0013 J0.5097
G3 X31.2819 Y12.3357 I-0.4329 J0.8927
G2 X31.2885 Y12.3427 I1.4597 J-1.3672
G3 X31.4765 Y12.5894 I-1.0633 J1.0055
G3 X31.6765 Y13.0343 I-1.7272 J1.0435
G3 X31.7774 Y13.7117 I-2.1788 J0.671
G2 Y13.7173 I2.0 J0.0056
G1 F25.0 Z-6.0
G1 F140.0 Y18.5763
G2 Y18.5782 I2.0 J0.0
G3 X31.7037 Y19.1638 I-2.345 J0.0023
G2 X31.7033 Y19.1655 I1.9371 J0.4975
G3 X31.4974 Y19.6699 I-1.9306 J-0.4941
G3 X31.3081 Y19.9301 I-1.3678 J-0.7957
G2 X31.3034 Y19.9354 I1.4895 J1.3346
G3 X31.0449 Y20.1455 I-0.7751 J-0.6896
G2 X31.0402 Y20.1482 I0.9958 J1.7345
G3 X30.7729 Y20.2209 I-0.2712 J-0.4695
G1 X28.7792
G3 X28.5642 Y20.1727 I0.0013 J-0.5094
G3 X28.2733 Y19.9585 I0.4315 J-0.8906
G2 X28.2661 Y19.9508 I-1.46 J1.3669
G3 X28.0785 Y19.7045 I1.0564 J-0.9995
G3 X28.0784 Y19.7044 I1.244 J-0.7532
G1 X28.0785 Y19.7046
G3 Y19.7045 I1.7166 J-1.0388
G3 X27.8795 Y19.2625 I1.7167 J-1.0387
G3 X27.7776 Y18.5763 I2.26 J-0.6863
G1 Y13.7173
G2 Y13.7146 I-2.0 J0.0
G3 X27.8511 Y13.1307 I2.3307 J-0.0031
G2 X27.8519 Y13.1276 I-1.9369 J-0.4984
G3 X28.0576 Y12.6242 I1.9192 J0.4905
G3 X28.2466 Y12.3642 I1.36 J0.7901
G2 X28.2518 Y12.3583 I-1.4891 J-1.3352
G3 X28.5098 Y12.1487 I0.7726 J0.6873
G2 X28.5149 Y12.1458 I-0.9954 J-1.7347
G3 X28.7821 Y12.0731 I0.2711 J0.4692
G1 X30.7758
G3 X30.9907 Y12.1212 I-0.0013 J0.5097
G3 X31.2819 Y12.3357 I-0.4329 J0.8927
G2 X31.2885 Y12.3427 I1.4597 J-1.3672
G3 X31.4765 Y12.5894 I-1.0633 J1.0055
G3 X31.6765 Y13.0343 I-1.7272 J1.0435
G3 X31.7774 Y13.7117 I-2.1788 J0.671
G2 Y13.7173 I2.0 J0.0056
G1 F25.0 Z-7.0
G1 F140.0 Y18.5763
G2 Y18.5782 I2.0 J0.0
G3 X31.7037 Y19.1638 I-2.345 J0.0023
G2 X31.7033 Y19.1655 I1.9371 J0.4975
G3 X31.4974 Y19.6699 I-1.9306 J-0.4941
G3 X31.3081 Y19.9301 I-1.3678 J-0.7957
G2 X31.3034 Y19.9354 I1.4895 J1.3346
G3 X31.0449 Y20.1455 I-0.7751 J-0.6896
G2 X31.0402 Y20.1482 I0.9958 J1.7345
G3 X30.7729 Y20.2209 I-0.2712 J-0.4695
G1 X28.7792
G3 X28.5642 Y20.1727 I0.0013 J-0.5094
G3 X28.2733 Y19.9585 I0.4315 J-0.8906
G2 X28.2661 Y19.9508 I-1.46 J1.3669
G3 X28.0785 Y19.7045 I1.0564 J-0.9995
G3 X28.0784 Y19.7044 I1.244 J-0.7532
G1 X28.0785 Y19.7046
G3 Y19.7045 I1.7166 J-1.0388
G3 X27.8795 Y19.2625 I1.7167 J-1.0387
G3 X27.7776 Y18.5763 I2.26 J-0.6863
G1 Y13.7173
G2 Y13.7146 I-2.0 J0.0
G3 X27.8511 Y13.1307 I2.3307 J-0.0031
G2 X27.8519 Y13.1276 I-1.9369 J-0.4984
G3 X28.0576 Y12.6242 I1.9192 J0.4905
G3 X28.2466 Y12.3642 I1.36 J0.7901
G2 X28.2518 Y12.3583 I-1.4891 J-1.3352
G3 X28.5098 Y12.1487 I0.7726 J0.6873
G2 X28.5149 Y12.1458 I-0.9954 J-1.7347
G3 X28.7821 Y12.0731 I0.2711 J0.4692
G1 X30.7758
G3 X30.9907 Y12.1212 I-0.0013 J0.5097
G3 X31.2819 Y12.3357 I-0.4329 J0.8927
G2 X31.2885 Y12.3427 I1.4597 J-1.3672
G3 X31.4765 Y12.5894 I-1.0633 J1.0055
G3 X31.6765 Y13.0343 I-1.7272 J1.0435
G3 X31.7774 Y13.7117 I-2.1788 J0.671
G2 Y13.7173 I2.0 J0.0056
( Profile2 )
S1000
G0 Z3.0
G0 X43.9993
G0 Z1.0
G1 F25.0 Z-1.0
G1 F140.0 Y18.5763
G2 Y18.5782 I2.0 J0.0
G3 X43.9256 Y19.1638 I-2.345 J0.0023
G2 X43.9251 Y19.1655 I1.9371 J0.4975
G3 X43.7192 Y19.6699 I-1.9306 J-0.4941
G3 X43.5299 Y19.9301 I-1.3678 J-0.7957
G2 X43.5252 Y19.9354 I1.4895 J1.3346
G3 X43.2667 Y20.1455 I-0.7751 J-0.6896
G2 X43.262 Y20.1482 I0.9958 J1.7345
G3 X42.9947 Y20.2209 I-0.2712 J-0.4695
G1 X41.001
G3 X40.7861 Y20.1727 I0.0013 J-0.5094
G3 X40.4951 Y19.9585 I0.4315 J-0.8906
G2 X40.4879 Y19.9508 I-1.46 J1.3669
G3 X40.3003 Y19.7045 I1.0564 J-0.9995
G3 X40.3002 Y19.7044 I1.244 J-0.7532
G1 X40.3004 Y19.7046
G3 X40.3003 Y19.7045 I1.7166 J-1.0388
G3 X40.1013 Y19.2625 I1.7167 J-1.0387
G3 X39.9994 Y18.5763 I2.26 J-0.6863
G1 Y13.7173
G2 Y13.7146 I-2.0 J0.0
G3 X40.0729 Y13.1307 I2.3307 J-0.0031
G2 X40.0737 Y13.1276 I-1.9369 J-0.4984
G3 X40.2794 Y12.6242 I1.9192 J0.4905
G3 X40.4684 Y12.3642 I1.36 J0.7901
G2 X40.4737 Y12.3583 I-1.4891 J-1.3352
G3 X40.7317 Y12.1487 I0.7726 J0.6873
G2 X40.7367 Y12.1458 I-0.9954 J-1.7347
G3 X41.0039 Y12.0731 I0.2711 J0.4692
G1 X42.9976
G3 X43.2125 Y12.1212 I-0.0013 J0.5097
G3 X43.5038 Y12.3357 I-0.4329 J0.8927
G2 X43.5103 Y12.3427 I1.4597 J-1.3672
G3 X43.6984 Y12.5894 I-1.0633 J1.0055
G3 X43.8983 Y13.0343 I-1.7272 J1.0435
G3 X43.9993 Y13.7117 I-2.1788 J0.671
G2 Y13.7173 I2.0 J0.0056
G1 F25.0 Z-2.0
G1 F140.0 Y18.5763
G2 Y18.5782 I2.0 J0.0
G3 X43.9256 Y19.1638 I-2.345 J0.0023
G2 X43.9251 Y19.1655 I1.9371 J0.4975
G3 X43.7192 Y19.6699 I-1.9306 J-0.4941
G3 X43.5299 Y19.9301 I-1.3678 J-0.7957
G2 X43.5252 Y19.9354 I1.4895 J1.3346
G3 X43.2667 Y20.1455 I-0.7751 J-0.6896
G2 X43.262 Y20.1482 I0.9958 J1.7345
G3 X42.9947 Y20.2209 I-0.2712 J-0.4695
G1 X41.001
G3 X40.7861 Y20.1727 I0.0013 J-0.5094
G3 X40.4951 Y19.9585 I0.4315 J-0.8906
G2 X40.4879 Y19.9508 I-1.46 J1.3669
G3 X40.3003 Y19.7045 I1.0564 J-0.9995
G3 X40.3002 Y19.7044 I1.244 J-0.7532
G1 X40.3004 Y19.7046
G3 X40.3003 Y19.7045 I1.7166 J-1.0388
G3 X40.1013 Y19.2625 I1.7167 J-1.0387
G3 X39.9994 Y18.5763 I2.26 J-0.6863
G1 Y13.7173
G2 Y13.7146 I-2.0 J0.0
G3 X40.0729 Y13.1307 I2.3307 J-0.0031
G2 X40.0737 Y13.1276 I-1.9369 J-0.4984
G3 X40.2794 Y12.6242 I1.9192 J0.4905
G3 X40.4684 Y12.3642 I1.36 J0.7901
G2 X40.4737 Y12.3583 I-1.4891 J-1.3352
G3 X40.7317 Y12.1487 I0.7726 J0.6873
G2 X40.7367 Y12.1458 I-0.9954 J-1.7347
G3 X41.0039 Y12.0731 I0.2711 J0.4692
G1 X42.9976
G3 X43.2125 Y12.1212 I-0.0013 J0.5097
G3 X43.5038 Y12.3357 I-0.4329 J0.8927
G2 X43.5103 Y12.3427 I1.4597 J-1.3672
G3 X43.6984 Y12.5894 I-1.0633 J1.0055
G3 X43.8983 Y13.0343 I-1.7272 J1.0435
G3 X43.9993 Y13.7117 I-2.1788 J0.671
G2 Y13.7173 I2.0 J0.0056
G1 F25.0 Z-3.0
G1 F140.0 Y18.5763
G2 Y18.5782 I2.0 J0.0
G3 X43.9256 Y19.1638 I-2.345 J0.0023
G2 X43.9251 Y19.1655 I1.9371 J0.4975
G3 X43.7192 Y19.6699 I-1.9306 J-0.4941
G3 X43.5299 Y19.9301 I-1.3678 J-0.7957
G2 X43.5252 Y19.9354 I1.4895 J1.3346
G3 X43.2667 Y20.1455 I-0.7751 J-0.6896
G2 X43.262 Y20.1482 I0.9958 J1.7345
G3 X42.9947 Y20.2209 I-0.2712 J-0.4695
G1 X41.001
G3 X40.7861 Y20.1727 I0.0013 J-0.5094
G3 X40.4951 Y19.9585 I0.4315 J-0.8906
G2 X40.4879 Y19.9508 I-1.46 J1.3669
G3 X40.3003 Y19.7045 I1.0564 J-0.9995
G3 X40.3002 Y19.7044 I1.244 J-0.7532
G1 X40.3004 Y19.7046
G3 X40.3003 Y19.7045 I1.7166 J-1.0388
G3 X40.1013 Y19.2625 I1.7167 J-1.0387
G3 X39.9994 Y18.5763 I2.26 J-0.6863
G1 Y13.7173
G2 Y13.7146 I-2.0 J0.0
G3 X40.0729 Y13.1307 I2.3307 J-0.0031
G2 X40.0737 Y13.1276 I-1.9369 J-0.4984
G3 X40.2794 Y12.6242 I1.9192 J0.4905
G3 X40.4684 Y12.3642 I1.36 J0.7901
G2 X40.4737 Y12.3583 I-1.4891 J-1.3352
G3 X40.7317 Y12.1487 I0.7726 J0.6873
G2 X40.7367 Y12.1458 I-0.9954 J-1.7347
G3 X41.0039 Y12.0731 I0.2711 J0.4692
G1 X42.9976
G3 X43.2125 Y12.1212 I-0.0013 J0.5097
G3 X43.5038 Y12.3357 I-0.4329 J0.8927
G2 X43.5103 Y12.3427 I1.4597 J-1.3672
G3 X43.6984 Y12.5894 I-1.0633 J1.0055
G3 X43.8983 Y13.0343 I-1.7272 J1.0435
G3 X43.9993 Y13.7117 I-2.1788 J0.671
G2 Y13.7173 I2.0 J0.0056
G1 F25.0 Z-4.0
G1 F140.0 Y18.5763
G2 Y18.5782 I2.0 J0.0
G3 X43.9256 Y19.1638 I-2.345 J0.0023
G2 X43.9251 Y19.1655 I1.9371 J0.4975
G3 X43.7192 Y19.6699 I-1.9306 J-0.4941
G3 X43.5299 Y19.9301 I-1.3678 J-0.7957
G2 X43.5252 Y19.9354 I1.4895 J1.3346
G3 X43.2667 Y20.1455 I-0.7751 J-0.6896
G2 X43.262 Y20.1482 I0.9958 J1.7345
G3 X42.9947 Y20.2209 I-0.2712 J-0.4695
G1 X41.001
G3 X40.7861 Y20.1727 I0.0013 J-0.5094
G3 X40.4951 Y19.9585 I0.4315 J-0.8906
G2 X40.4879 Y19.9508 I-1.46 J1.3669
G3 X40.3003 Y19.7045 I1.0564 J-0.9995
G3 X40.3002 Y19.7044 I1.244 J-0.7532
G1 X40.3004 Y19.7046
G3 X40.3003 Y19.7045 I1.7166 J-1.0388
G3 X40.1013 Y19.2625 I1.7167 J-1.0387
G3 X39.9994 Y18.5763 I2.26 J-0.6863
G1 Y13.7173
G2 Y13.7146 I-2.0 J0.0
G3 X40.0729 Y13.1307 I2.3307 J-0.0031
G2 X40.0737 Y13.1276 I-1.9369 J-0.4984
G3 X40.2794 Y12.6242 I1.9192 J0.4905
G3 X40.4684 Y12.3642 I1.36 J0.7901
G2 X40.4737 Y12.3583 I-1.4891 J-1.3352
G3 X40.7317 Y12.1487 I0.7726 J0.6873
G2 X40.7367 Y12.1458 I-0.9954 J-1.7347
G3 X41.0039 Y12.0731 I0.2711 J0.4692
G1 X42.9976
G3 X43.2125 Y12.1212 I-0.0013 J0.5097
G3 X43.5038 Y12.3357 I-0.4329 J0.8927
G2 X43.5103 Y12.3427 I1.4597 J-1.3672
G3 X43.6984 Y12.5894 I-1.0633 J1.0055
G3 X43.8983 Y13.0343 I-1.7272 J1.0435
G3 X43.9993 Y13.7117 I-2.1788 J0.671
G2 Y13.7173 I2.0 J0.0056
G1 F25.0 Z-5.0
G1 F140.0 Y18.5763
G2 Y18.5782 I2.0 J0.0
G3 X43.9256 Y19.1638 I-2.345 J0.0023
G2 X43.9251 Y19.1655 I1.9371 J0.4975
G3 X43.7192 Y19.6699 I-1.9306 J-0.4941
G3 X43.5299 Y19.9301 I-1.3678 J-0.7957
G2 X43.5252 Y19.9354 I1.4895 J1.3346
G3 X43.2667 Y20.1455 I-0.7751 J-0.6896
G2 X43.262 Y20.1482 I0.9958 J1.7345
G3 X42.9947 Y20.2209 I-0.2712 J-0.4695
G1 X41.001
G3 X40.7861 Y20.1727 I0.0013 J-0.5094
G3 X40.4951 Y19.9585 I0.4315 J-0.8906
G2 X40.4879 Y19.9508 I-1.46 J1.3669
G3 X40.3003 Y19.7045 I1.0564 J-0.9995
G3 X40.3002 Y19.7044 I1.244 J-0.7532
G1 X40.3004 Y19.7046
G3 X40.3003 Y19.7045 I1.7166 J-1.0388
G3 X40.1013 Y19.2625 I1.7167 J-1.0387
G3 X39.9994 Y18.5763 I2.26 J-0.6863
G1 Y13.7173
G2 Y13.7146 I-2.0 J0.0
G3 X40.0729 Y13.1307 I2.3307 J-0.0031
G2 X40.0737 Y13.1276 I-1.9369 J-0.4984
G3 X40.2794 Y12.6242 I1.9192 J0.4905
G3 X40.4684 Y12.3642 I1.36 J0.7901
G2 X40.4737 Y12.3583 I-1.4891 J-1.3352
G3 X40.7317 Y12.1487 I0.7726 J0.6873
G2 X40.7367 Y12.1458 I-0.9954 J-1.7347
G3 X41.0039 Y12.0731 I0.2711 J0.4692
G1 X42.9976
G3 X43.2125 Y12.1212 I-0.0013 J0.5097
G3 X43.5038 Y12.3357 I-0.4329 J0.8927
G2 X43.5103 Y12.3427 I1.4597 J-1.3672
G3 X43.6984 Y12.5894 I-1.0633 J1.0055
G3 X43.8983 Y13.0343 I-1.7272 J1.0435
G3 X43.9993 Y13.7117 I-2.1788 J0.671
G2 Y13.7173 I2.0 J0.0056
G1 F25.0 Z-6.0
G1 F140.0 Y18.5763
G2 Y18.5782 I2.0 J0.0
G3 X43.9256 Y19.1638 I-2.345 J0.0023
G2 X43.9251 Y19.1655 I1.9371 J0.4975
G3 X43.7192 Y19.6699 I-1.9306 J-0.4941
G3 X43.5299 Y19.9301 I-1.3678 J-0.7957
G2 X43.5252 Y19.9354 I1.4895 J1.3346
G3 X43.2667 Y20.1455 I-0.7751 J-0.6896
G2 X43.262 Y20.1482 I0.9958 J1.7345
G3 X42.9947 Y20.2209 I-0.2712 J-0.4695
G1 X41.001
G3 X40.7861 Y20.1727 I0.0013 J-0.5094
G3 X40.4951 Y19.9585 I0.4315 J-0.8906
G2 X40.4879 Y19.9508 I-1.46 J1.3669
G3 X40.3003 Y19.7045 I1.0564 J-0.9995
G3 X40.3002 Y19.7044 I1.244 J-0.7532
G1 X40.3004 Y19.7046
G3 X40.3003 Y19.7045 I1.7166 J-1.0388
G3 X40.1013 Y19.2625 I1.7167 J-1.0387
G3 X39.9994 Y18.5763 I2.26 J-0.6863
G1 Y13.7173
G2 Y13.7146 I-2.0 J0.0
G3 X40.0729 Y13.1307 I2.3307 J-0.0031
G2 X40.0737 Y13.1276 I-1.9369 J-0.4984
G3 X40.2794 Y12.6242 I1.9192 J0.4905
G3 X40.4684 Y12.3642 I1.36 J0.7901
G2 X40.4737 Y12.3583 I-1.4891 J-1.3352
G3 X40.7317 Y12.1487 I0.7726 J0.6873
G2 X40.7367 Y12.1458 I-0.9954 J-1.7347
G3 X41.0039 Y12.0731 I0.2711 J0.4692
G1 X42.9976
G3 X43.2125 Y12.1212 I-0.0013 J0.5097
G3 X43.5038 Y12.3357 I-0.4329 J0.8927
G2 X43.5103 Y12.3427 I1.4597 J-1.3672
G3 X43.6984 Y12.5894 I-1.0633 J1.0055
G3 X43.8983 Y13.0343 I-1.7272 J1.0435
G3 X43.9993 Y13.7117 I-2.1788 J0.671
G2 Y13.7173 I2.0 J0.0056
G1 F25.0 Z-7.0
G1 F140.0 Y18.5763
G2 Y18.5782 I2.0 J0.0
G3 X43.9256 Y19.1638 I-2.345 J0.0023
G2 X43.9251 Y19.1655 I1.9371 J0.4975
G3 X43.7192 Y19.6699 I-1.9306 J-0.4941
G3 X43.5299 Y19.9301 I-1.3678 J-0.7957
G2 X43.5252 Y19.9354 I1.4895 J1.3346
G3 X43.2667 Y20.1455 I-0.7751 J-0.6896
G2 X43.262 Y20.1482 I0.9958 J1.7345
G3 X42.9947 Y20.2209 I-0.2712 J-0.4695
G1 X41.001
G3 X40.7861 Y20.1727 I0.0013 J-0.5094
G3 X40.4951 Y19.9585 I0.4315 J-0.8906
G2 X40.4879 Y19.9508 I-1.46 J1.3669
G3 X40.3003 Y19.7045 I1.0564 J-0.9995
G3 X40.3002 Y19.7044 I1.244 J-0.7532
G1 X40.3004 Y19.7046
G3 X40.3003 Y19.7045 I1.7166 J-1.0388
G3 X40.1013 Y19.2625 I1.7167 J-1.0387
G3 X39.9994 Y18.5763 I2.26 J-0.6863
G1 Y13.7173
G2 Y13.7146 I-2.0 J0.0
G3 X40.0729 Y13.1307 I2.3307 J-0.0031
G2 X40.0737 Y13.1276 I-1.9369 J-0.4984
G3 X40.2794 Y12.6242 I1.9192 J0.4905
G3 X40.4684 Y12.3642 I1.36 J0.7901
G2 X40.4737 Y12.3583 I-1.4891 J-1.3352
G3 X40.7317 Y12.1487 I0.7726 J0.6873
G2 X40.7367 Y12.1458 I-0.9954 J-1.7347
G3 X41.0039 Y12.0731 I0.2711 J0.4692
G1 X42.9976
G3 X43.2125 Y12.1212 I-0.0013 J0.5097
G3 X43.5038 Y12.3357 I-0.4329 J0.8927
G2 X43.5103 Y12.3427 I1.4597 J-1.3672
G3 X43.6984 Y12.5894 I-1.0633 J1.0055
G3 X43.8983 Y13.0343 I-1.7272 J1.0435
G3 X43.9993 Y13.7117 I-2.1788 J0.671
G2 Y13.7173 I2.0 J0.0056
( Profile3 )
S1000
G0 Z3.0
G0 Y32.4968
G0 Z1.0
G1 F25.0 Z-1.0
G1 F140.0 Y37.3557
G2 Y37.358 I2.0 J0.0
G3 X43.9257 Y37.9427 I-2.3376 J0.0027
G2 X43.925 Y37.9451 I1.937 J0.4979
G3 X43.7192 Y38.4491 I-1.9255 J-0.4925
G3 X43.5301 Y38.7092 I-1.364 J-0.793
G2 X43.5251 Y38.7148 I1.4893 J1.3349
G3 X43.2669 Y38.9246 I-0.7737 J-0.6883
G2 X43.262 Y38.9274 I0.9955 J1.7346
G3 X42.9947 Y39.0001 I-0.2711 J-0.4693
G1 X41.001
G3 X40.7861 Y38.9519 I0.0013 J-0.5096
G3 X40.495 Y38.7376 I0.4321 J-0.8915
G2 X40.4881 Y38.7302 I-1.4599 J1.367
G3 X40.3003 Y38.4838 I1.0597 J-1.0023
G3 X40.1013 Y38.0418 I1.7223 J-1.0413
G3 X39.9994 Y37.3554 I2.2659 J-0.6872
G1 Y32.4966
G2 Y32.4942 I-2.0 J0.0
G3 X40.073 Y31.9095 I2.3376 J-0.0027
G2 X40.0736 Y31.9071 I-1.937 J-0.4979
G3 X40.2795 Y31.4032 I1.9255 J0.4925
G3 X40.4686 Y31.1431 I1.364 J0.793
G2 X40.4736 Y31.1375 I-1.4893 J-1.3349
G3 X40.7318 Y30.9276 I0.7737 J0.6883
G2 X40.7367 Y30.9248 I-0.9955 J-1.7346
G3 X41.0039 Y30.8522 I0.2711 J0.4693
G1 X42.9977
G3 X43.2126 Y30.9003 I-0.0013 J0.5096
G3 X43.5036 Y31.1147 I-0.4321 J0.8915
G2 X43.5105 Y31.122 I1.4599 J-1.367
G3 X43.6984 Y31.3685 I-1.0597 J1.0023
G3 X43.8974 Y31.8104 I-1.7223 J1.0413
G3 X43.9993 Y32.4968 I-2.2659 J0.6872
G1 F25.0 Z-2.0
G1 F140.0 Y37.3557
G2 Y37.358 I2.0 J0.0
G3 X43.9257 Y37.9427 I-2.3376 J0.0027
G2 X43.925 Y37.9451 I1.937 J0.4979
G3 X43.7192 Y38.4491 I-1.9255 J-0.4925
G3 X43.5301 Y38.7092 I-1.364 J-0.793
G2 X43.5251 Y38.7148 I1.4893 J1.3349
G3 X43.2669 Y38.9246 I-0.7737 J-0.6883
G2 X43.262 Y38.9274 I0.9955 J1.7346
G3 X42.9947 Y39.0001 I-0.2711 J-0.4693
G1 X41.001
G3 X40.7861 Y38.9519 I0.0013 J-0.5096
G3 X40.495 Y38.7376 I0.4321 J-0.8915
G2 X40.4881 Y38.7302 I-1.4599 J1.367
G3 X40.3003 Y38.4838 I1.0597 J-1.0023
G3 X40.1013 Y38.0418 I1.7223 J-1.0413
G3 X39.9994 Y37.3554 I2.2659 J-0.6872
G1 Y32.4966
G2 Y32.4942 I-2.0 J0.0
G3 X40.073 Y31.9095 I2.3376 J-0.0027
G2 X40.0736 Y31.9071 I-1.937 J-0.4979
G3 X40.2795 Y31.4032 I1.9255 J0.4925
G3 X40.4686 Y31.1431 I1.364 J0.793
G2 X40.4736 Y31.1375 I-1.4893 J-1.3349
G3 X40.7318 Y30.9276 I0.7737 J0.6883
G2 X40.7367 Y30.9248 I-0.9955 J-1.7346
G3 X41.0039 Y30.8522 I0.2711 J0.4693
G1 X42.9977
G3 X43.2126 Y30.9003 I-0.0013 J0.5096
G3 X43.5036 Y31.1147 I-0.4321 J0.8915
G2 X43.5105 Y31.122 I1.4599 J-1.367
G3 X43.6984 Y31.3685 I-1.0597 J1.0023
G3 X43.8974 Y31.8104 I-1.7223 J1.0413
G3 X43.9993 Y32.4968 I-2.2659 J0.6872
G1 F25.0 Z-3.0
G1 F140.0 Y37.3557
G2 Y37.358 I2.0 J0.0
G3 X43.9257 Y37.9427 I-2.3376 J0.0027
G2 X43.925 Y37.9451 I1.937 J0.4979
G3 X43.7192 Y38.4491 I-1.9255 J-0.4925
G3 X43.5301 Y38.7092 I-1.364 J-0.793
G2 X43.5251 Y38.7148 I1.4893 J1.3349
G3 X43.2669 Y38.9246 I-0.7737 J-0.6883
G2 X43.262 Y38.9274 I0.9955 J1.7346
G3 X42.9947 Y39.0001 I-0.2711 J-0.4693
G1 X41.001
G3 X40.7861 Y38.9519 I0.0013 J-0.5096
G3 X40.495 Y38.7376 I0.4321 J-0.8915
G2 X40.4881 Y38.7302 I-1.4599 J1.367
G3 X40.3003 Y38.4838 I1.0597 J-1.0023
G3 X40.1013 Y38.0418 I1.7223 J-1.0413
G3 X39.9994 Y37.3554 I2.2659 J-0.6872
G1 Y32.4966
G2 Y32.4942 I-2.0 J0.0
G3 X40.073 Y31.9095 I2.3376 J-0.0027
G2 X40.0736 Y31.9071 I-1.937 J-0.4979
G3 X40.2795 Y31.4032 I1.9255 J0.4925
G3 X40.4686 Y31.1431 I1.364 J0.793
G2 X40.4736 Y31.1375 I-1.4893 J-1.3349
G3 X40.7318 Y30.9276 I0.7737 J0.6883
G2 X40.7367 Y30.9248 I-0.9955 J-1.7346
G3 X41.0039 Y30.8522 I0.2711 J0.4693
G1 X42.9977
G3 X43.2126 Y30.9003 I-0.0013 J0.5096
G3 X43.5036 Y31.1147 I-0.4321 J0.8915
G2 X43.5105 Y31.122 I1.4599 J-1.367
G3 X43.6984 Y31.3685 I-1.0597 J1.0023
G3 X43.8974 Y31.8104 I-1.7223 J1.0413
G3 X43.9993 Y32.4968 I-2.2659 J0.6872
G1 F25.0 Z-4.0
G1 F140.0 Y37.3557
G2 Y37.358 I2.0 J0.0
G3 X43.9257 Y37.9427 I-2.3376 J0.0027
G2 X43.925 Y37.9451 I1.937 J0.4979
G3 X43.7192 Y38.4491 I-1.9255 J-0.4925
G3 X43.5301 Y38.7092 I-1.364 J-0.793
G2 X43.5251 Y38.7148 I1.4893 J1.3349
G3 X43.2669 Y38.9246 I-0.7737 J-0.6883
G2 X43.262 Y38.9274 I0.9955 J1.7346
G3 X42.9947 Y39.0001 I-0.2711 J-0.4693
G1 X41.001
G3 X40.7861 Y38.9519 I0.0013 J-0.5096
G3 X40.495 Y38.7376 I0.4321 J-0.8915
G2 X40.4881 Y38.7302 I-1.4599 J1.367
G3 X40.3003 Y38.4838 I1.0597 J-1.0023
G3 X40.1013 Y38.0418 I1.7223 J-1.0413
G3 X39.9994 Y37.3554 I2.2659 J-0.6872
G1 Y32.4966
G2 Y32.4942 I-2.0 J0.0
G3 X40.073 Y31.9095 I2.3376 J-0.0027
G2 X40.0736 Y31.9071 I-1.937 J-0.4979
G3 X40.2795 Y31.4032 I1.9255 J0.4925
G3 X40.4686 Y31.1431 I1.364 J0.793
G2 X40.4736 Y31.1375 I-1.4893 J-1.3349
G3 X40.7318 Y30.9276 I0.7737 J0.6883
G2 X40.7367 Y30.9248 I-0.9955 J-1.7346
G3 X41.0039 Y30.8522 I0.2711 J0.4693
G1 X42.9977
G3 X43.2126 Y30.9003 I-0.0013 J0.5096
G3 X43.5036 Y31.1147 I-0.4321 J0.8915
G2 X43.5105 Y31.122 I1.4599 J-1.367
G3 X43.6984 Y31.3685 I-1.0597 J1.0023
G3 X43.8974 Y31.8104 I-1.7223 J1.0413
G3 X43.9993 Y32.4968 I-2.2659 J0.6872
G1 F25.0 Z-5.0
G1 F140.0 Y37.3557
G2 Y37.358 I2.0 J0.0
G3 X43.9257 Y37.9427 I-2.3376 J0.0027
G2 X43.925 Y37.9451 I1.937 J0.4979
G3 X43.7192 Y38.4491 I-1.9255 J-0.4925
G3 X43.5301 Y38.7092 I-1.364 J-0.793
G2 X43.5251 Y38.7148 I1.4893 J1.3349
G3 X43.2669 Y38.9246 I-0.7737 J-0.6883
G2 X43.262 Y38.9274 I0.9955 J1.7346
G3 X42.9947 Y39.0001 I-0.2711 J-0.4693
G1 X41.001
G3 X40.7861 Y38.9519 I0.0013 J-0.5096
G3 X40.495 Y38.7376 I0.4321 J-0.8915
G2 X40.4881 Y38.7302 I-1.4599 J1.367
G3 X40.3003 Y38.4838 I1.0597 J-1.0023
G3 X40.1013 Y38.0418 I1.7223 J-1.0413
G3 X39.9994 Y37.3554 I2.2659 J-0.6872
G1 Y32.4966
G2 Y32.4942 I-2.0 J0.0
G3 X40.073 Y31.9095 I2.3376 J-0.0027
G2 X40.0736 Y31.9071 I-1.937 J-0.4979
G3 X40.2795 Y31.4032 I1.9255 J0.4925
G3 X40.4686 Y31.1431 I1.364 J0.793
G2 X40.4736 Y31.1375 I-1.4893 J-1.3349
G3 X40.7318 Y30.9276 I0.7737 J0.6883
G2 X40.7367 Y30.9248 I-0.9955 J-1.7346
G3 X41.0039 Y30.8522 I0.2711 J0.4693
G1 X42.9977
G3 X43.2126 Y30.9003 I-0.0013 J0.5096
G3 X43.5036 Y31.1147 I-0.4321 J0.8915
G2 X43.5105 Y31.122 I1.4599 J-1.367
G3 X43.6984 Y31.3685 I-1.0597 J1.0023
G3 X43.8974 Y31.8104 I-1.7223 J1.0413
G3 X43.9993 Y32.4968 I-2.2659 J0.6872
G1 F25.0 Z-6.0
G1 F140.0 Y37.3557
G2 Y37.358 I2.0 J0.0
G3 X43.9257 Y37.9427 I-2.3376 J0.0027
G2 X43.925 Y37.9451 I1.937 J0.4979
G3 X43.7192 Y38.4491 I-1.9255 J-0.4925
G3 X43.5301 Y38.7092 I-1.364 J-0.793
G2 X43.5251 Y38.7148 I1.4893 J1.3349
G3 X43.2669 Y38.9246 I-0.7737 J-0.6883
G2 X43.262 Y38.9274 I0.9955 J1.7346
G3 X42.9947 Y39.0001 I-0.2711 J-0.4693
G1 X41.001
G3 X40.7861 Y38.9519 I0.0013 J-0.5096
G3 X40.495 Y38.7376 I0.4321 J-0.8915
G2 X40.4881 Y38.7302 I-1.4599 J1.367
G3 X40.3003 Y38.4838 I1.0597 J-1.0023
G3 X40.1013 Y38.0418 I1.7223 J-1.0413
G3 X39.9994 Y37.3554 I2.2659 J-0.6872
G1 Y32.4966
G2 Y32.4942 I-2.0 J0.0
G3 X40.073 Y31.9095 I2.3376 J-0.0027
G2 X40.0736 Y31.9071 I-1.937 J-0.4979
G3 X40.2795 Y31.4032 I1.9255 J0.4925
G3 X40.4686 Y31.1431 I1.364 J0.793
G2 X40.4736 Y31.1375 I-1.4893 J-1.3349
G3 X40.7318 Y30.9276 I0.7737 J0.6883
G2 X40.7367 Y30.9248 I-0.9955 J-1.7346
G3 X41.0039 Y30.8522 I0.2711 J0.4693
G1 X42.9977
G3 X43.2126 Y30.9003 I-0.0013 J0.5096
G3 X43.5036 Y31.1147 I-0.4321 J0.8915
G2 X43.5105 Y31.122 I1.4599 J-1.367
G3 X43.6984 Y31.3685 I-1.0597 J1.0023
G3 X43.8974 Y31.8104 I-1.7223 J1.0413
G3 X43.9993 Y32.4968 I-2.2659 J0.6872
G1 F25.0 Z-7.0
G1 F140.0 Y37.3557
G2 Y37.358 I2.0 J0.0
G3 X43.9257 Y37.9427 I-2.3376 J0.0027
G2 X43.925 Y37.9451 I1.937 J0.4979
G3 X43.7192 Y38.4491 I-1.9255 J-0.4925
G3 X43.5301 Y38.7092 I-1.364 J-0.793
G2 X43.5251 Y38.7148 I1.4893 J1.3349
G3 X43.2669 Y38.9246 I-0.7737 J-0.6883
G2 X43.262 Y38.9274 I0.9955 J1.7346
G3 X42.9947 Y39.0001 I-0.2711 J-0.4693
G1 X41.001
G3 X40.7861 Y38.9519 I0.0013 J-0.5096
G3 X40.495 Y38.7376 I0.4321 J-0.8915
G2 X40.4881 Y38.7302 I-1.4599 J1.367
G3 X40.3003 Y38.4838 I1.0597 J-1.0023
G3 X40.1013 Y38.0418 I1.7223 J-1.0413
G3 X39.9994 Y37.3554 I2.2659 J-0.6872
G1 Y32.4966
G2 Y32.4942 I-2.0 J0.0
G3 X40.073 Y31.9095 I2.3376 J-0.0027
G2 X40.0736 Y31.9071 I-1.937 J-0.4979
G3 X40.2795 Y31.4032 I1.9255 J0.4925
G3 X40.4686 Y31.1431 I1.364 J0.793
G2 X40.4736 Y31.1375 I-1.4893 J-1.3349
G3 X40.7318 Y30.9276 I0.7737 J0.6883
G2 X40.7367 Y30.9248 I-0.9955 J-1.7346
G3 X41.0039 Y30.8522 I0.2711 J0.4693
G1 X42.9977
G3 X43.2126 Y30.9003 I-0.0013 J0.5096
G3 X43.5036 Y31.1147 I-0.4321 J0.8915
G2 X43.5105 Y31.122 I1.4599 J-1.367
G3 X43.6984 Y31.3685 I-1.0597 J1.0023
G3 X43.8974 Y31.8104 I-1.7223 J1.0413
G3 X43.9993 Y32.4968 I-2.2659 J0.6872
( Profile4 )
S1000
G0 Z3.0
G0 X31.7774
G0 Z1.0
G1 F25.0 Z-1.0
G1 F140.0 Y37.3557
G2 Y37.358 I2.0 J0.0
G3 X31.7038 Y37.9427 I-2.3376 J0.0027
G2 X31.7032 Y37.9451 I1.937 J0.4979
G3 X31.4974 Y38.4491 I-1.9255 J-0.4925
G3 X31.3082 Y38.7092 I-1.364 J-0.793
G2 X31.3033 Y38.7148 I1.4893 J1.3349
G3 X31.045 Y38.9246 I-0.7737 J-0.6883
G2 X31.0402 Y38.9274 I0.9955 J1.7346
G3 X30.7729 Y39.0001 I-0.2711 J-0.4693
G1 X28.7792
G3 X28.5643 Y38.9519 I0.0013 J-0.5096
G3 X28.2732 Y38.7376 I0.4321 J-0.8915
G2 X28.2663 Y38.7302 I-1.4599 J1.367
G3 X28.0785 Y38.4838 I1.0597 J-1.0023
G3 X27.8795 Y38.0418 I1.7223 J-1.0413
G3 X27.7776 Y37.3554 I2.2659 J-0.6872
G1 Y32.4966
G2 Y32.4942 I-2.0 J0.0
G3 X27.8512 Y31.9095 I2.3376 J-0.0027
G2 X27.8518 Y31.9071 I-1.937 J-0.4979
G3 X28.0576 Y31.4032 I1.9255 J0.4925
G3 X28.2468 Y31.1431 I1.364 J0.793
G2 X28.2517 Y31.1375 I-1.4893 J-1.3349
G3 X28.51 Y30.9276 I0.7737 J0.6883
G2 X28.5149 Y30.9248 I-0.9955 J-1.7346
G3 X28.7821 Y30.8522 I0.2711 J0.4693
G1 X30.7758
G3 X30.9907 Y30.9003 I-0.0013 J0.5096
G3 X31.2818 Y31.1147 I-0.4321 J0.8915
G2 X31.2887 Y31.122 I1.4599 J-1.367
G3 X31.4765 Y31.3685 I-1.0597 J1.0023
G3 X31.6755 Y31.8104 I-1.7223 J1.0413
G3 X31.7774 Y32.4968 I-2.2659 J0.6872
G1 F25.0 Z-2.0
G1 F140.0 Y37.3557
G2 Y37.358 I2.0 J0.0
G3 X31.7038 Y37.9427 I-2.3376 J0.0027
G2 X31.7032 Y37.9451 I1.937 J0.4979
G3 X31.4974 Y38.4491 I-1.9255 J-0.4925
G3 X31.3082 Y38.7092 I-1.364 J-0.793
G2 X31.3033 Y38.7148 I1.4893 J1.3349
G3 X31.045 Y38.9246 I-0.7737 J-0.6883
G2 X31.0402 Y38.9274 I0.9955 J1.7346
G3 X30.7729 Y39.0001 I-0.2711 J-0.4693
G1 X28.7792
G3 X28.5643 Y38.9519 I0.0013 J-0.5096
G3 X28.2732 Y38.7376 I0.4321 J-0.8915
G2 X28.2663 Y38.7302 I-1.4599 J1.367
G3 X28.0785 Y38.4838 I1.0597 J-1.0023
G3 X27.8795 Y38.0418 I1.7223 J-1.0413
G3 X27.7776 Y37.3554 I2.2659 J-0.6872
G1 Y32.4966
G2 Y32.4942 I-2.0 J0.0
G3 X27.8512 Y31.9095 I2.3376 J-0.0027
G2 X27.8518 Y31.9071 I-1.937 J-0.4979
G3 X28.0576 Y31.4032 I1.9255 J0.4925
G3 X28.2468 Y31.1431 I1.364 J0.793
G2 X28.2517 Y31.1375 I-1.4893 J-1.3349
G3 X28.51 Y30.9276 I0.7737 J0.6883
G2 X28.5149 Y30.9248 I-0.9955 J-1.7346
G3 X28.7821 Y30.8522 I0.2711 J0.4693
G1 X30.7758
G3 X30.9907 Y30.9003 I-0.0013 J0.5096
G3 X31.2818 Y31.1147 I-0.4321 J0.8915
G2 X31.2887 Y31.122 I1.4599 J-1.367
G3 X31.4765 Y31.3685 I-1.0597 J1.0023
G3 X31.6755 Y31.8104 I-1.7223 J1.0413
G3 X31.7774 Y32.4968 I-2.2659 J0.6872
G1 F25.0 Z-3.0
G1 F140.0 Y37.3557
G2 Y37.358 I2.0 J0.0
G3 X31.7038 Y37.9427 I-2.3376 J0.0027
G2 X31.7032 Y37.9451 I1.937 J0.4979
G3 X31.4974 Y38.4491 I-1.9255 J-0.4925
G3 X31.3082 Y38.7092 I-1.364 J-0.793
G2 X31.3033 Y38.7148 I1.4893 J1.3349
G3 X31.045 Y38.9246 I-0.7737 J-0.6883
G2 X31.0402 Y38.9274 I0.9955 J1.7346
G3 X30.7729 Y39.0001 I-0.2711 J-0.4693
G1 X28.7792
G3 X28.5643 Y38.9519 I0.0013 J-0.5096
G3 X28.2732 Y38.7376 I0.4321 J-0.8915
G2 X28.2663 Y38.7302 I-1.4599 J1.367
G3 X28.0785 Y38.4838 I1.0597 J-1.0023
G3 X27.8795 Y38.0418 I1.7223 J-1.0413
G3 X27.7776 Y37.3554 I2.2659 J-0.6872
G1 Y32.4966
G2 Y32.4942 I-2.0 J0.0
G3 X27.8512 Y31.9095 I2.3376 J-0.0027
G2 X27.8518 Y31.9071 I-1.937 J-0.4979
G3 X28.0576 Y31.4032 I1.9255 J0.4925
G3 X28.2468 Y31.1431 I1.364 J0.793
G2 X28.2517 Y31.1375 I-1.4893 J-1.3349
G3 X28.51 Y30.9276 I0.7737 J0.6883
G2 X28.5149 Y30.9248 I-0.9955 J-1.7346
G3 X28.7821 Y30.8522 I0.2711 J0.4693
G1 X30.7758
G3 X30.9907 Y30.9003 I-0.0013 J0.5096
G3 X31.2818 Y31.1147 I-0.4321 J0.8915
G2 X31.2887 Y31.122 I1.4599 J-1.367
G3 X31.4765 Y31.3685 I-1.0597 J1.0023
G3 X31.6755 Y31.8104 I-1.7223 J1.0413
G3 X31.7774 Y32.4968 I-2.2659 J0.6872
G1 F25.0 Z-4.0
G1 F140.0 Y37.3557
G2 Y37.358 I2.0 J0.0
G3 X31.7038 Y37.9427 I-2.3376 J0.0027
G2 X31.7032 Y37.9451 I1.937 J0.4979
G3 X31.4974 Y38.4491 I-1.9255 J-0.4925
G3 X31.3082 Y38.7092 I-1.364 J-0.793
G2 X31.3033 Y38.7148 I1.4893 J1.3349
G3 X31.045 Y38.9246 I-0.7737 J-0.6883
G2 X31.0402 Y38.9274 I0.9955 J1.7346
G3 X30.7729 Y39.0001 I-0.2711 J-0.4693
G1 X28.7792
G3 X28.5643 Y38.9519 I0.0013 J-0.5096
G3 X28.2732 Y38.7376 I0.4321 J-0.8915
G2 X28.2663 Y38.7302 I-1.4599 J1.367
G3 X28.0785 Y38.4838 I1.0597 J-1.0023
G3 X27.8795 Y38.0418 I1.7223 J-1.0413
G3 X27.7776 Y37.3554 I2.2659 J-0.6872
G1 Y32.4966
G2 Y32.4942 I-2.0 J0.0
G3 X27.8512 Y31.9095 I2.3376 J-0.0027
G2 X27.8518 Y31.9071 I-1.937 J-0.4979
G3 X28.0576 Y31.4032 I1.9255 J0.4925
G3 X28.2468 Y31.1431 I1.364 J0.793
G2 X28.2517 Y31.1375 I-1.4893 J-1.3349
G3 X28.51 Y30.9276 I0.7737 J0.6883
G2 X28.5149 Y30.9248 I-0.9955 J-1.7346
G3 X28.7821 Y30.8522 I0.2711 J0.4693
G1 X30.7758
G3 X30.9907 Y30.9003 I-0.0013 J0.5096
G3 X31.2818 Y31.1147 I-0.4321 J0.8915
G2 X31.2887 Y31.122 I1.4599 J-1.367
G3 X31.4765 Y31.3685 I-1.0597 J1.0023
G3 X31.6755 Y31.8104 I-1.7223 J1.0413
G3 X31.7774 Y32.4968 I-2.2659 J0.6872
G1 F25.0 Z-5.0
G1 F140.0 Y37.3557
G2 Y37.358 I2.0 J0.0
G3 X31.7038 Y37.9427 I-2.3376 J0.0027
G2 X31.7032 Y37.9451 I1.937 J0.4979
G3 X31.4974 Y38.4491 I-1.9255 J-0.4925
G3 X31.3082 Y38.7092 I-1.364 J-0.793
G2 X31.3033 Y38.7148 I1.4893 J1.3349
G3 X31.045 Y38.9246 I-0.7737 J-0.6883
G2 X31.0402 Y38.9274 I0.9955 J1.7346
G3 X30.7729 Y39.0001 I-0.2711 J-0.4693
G1 X28.7792
G3 X28.5643 Y38.9519 I0.0013 J-0.5096
G3 X28.2732 Y38.7376 I0.4321 J-0.8915
G2 X28.2663 Y38.7302 I-1.4599 J1.367
G3 X28.0785 Y38.4838 I1.0597 J-1.0023
G3 X27.8795 Y38.0418 I1.7223 J-1.0413
G3 X27.7776 Y37.3554 I2.2659 J-0.6872
G1 Y32.4966
G2 Y32.4942 I-2.0 J0.0
G3 X27.8512 Y31.9095 I2.3376 J-0.0027
G2 X27.8518 Y31.9071 I-1.937 J-0.4979
G3 X28.0576 Y31.4032 I1.9255 J0.4925
G3 X28.2468 Y31.1431 I1.364 J0.793
G2 X28.2517 Y31.1375 I-1.4893 J-1.3349
G3 X28.51 Y30.9276 I0.7737 J0.6883
G2 X28.5149 Y30.9248 I-0.9955 J-1.7346
G3 X28.7821 Y30.8522 I0.2711 J0.4693
G1 X30.7758
G3 X30.9907 Y30.9003 I-0.0013 J0.5096
G3 X31.2818 Y31.1147 I-0.4321 J0.8915
G2 X31.2887 Y31.122 I1.4599 J-1.367
G3 X31.4765 Y31.3685 I-1.0597 J1.0023
G3 X31.6755 Y31.8104 I-1.7223 J1.0413
G3 X31.7774 Y32.4968 I-2.2659 J0.6872
G1 F25.0 Z-6.0
G1 F140.0 Y37.3557
G2 Y37.358 I2.0 J0.0
G3 X31.7038 Y37.9427 I-2.3376 J0.0027
G2 X31.7032 Y37.9451 I1.937 J0.4979
G3 X31.4974 Y38.4491 I-1.9255 J-0.4925
G3 X31.3082 Y38.7092 I-1.364 J-0.793
G2 X31.3033 Y38.7148 I1.4893 J1.3349
G3 X31.045 Y38.9246 I-0.7737 J-0.6883
G2 X31.0402 Y38.9274 I0.9955 J1.7346
G3 X30.7729 Y39.0001 I-0.2711 J-0.4693
G1 X28.7792
G3 X28.5643 Y38.9519 I0.0013 J-0.5096
G3 X28.2732 Y38.7376 I0.4321 J-0.8915
G2 X28.2663 Y38.7302 I-1.4599 J1.367
G3 X28.0785 Y38.4838 I1.0597 J-1.0023
G3 X27.8795 Y38.0418 I1.7223 J-1.0413
G3 X27.7776 Y37.3554 I2.2659 J-0.6872
G1 Y32.4966
G2 Y32.4942 I-2.0 J0.0
G3 X27.8512 Y31.9095 I2.3376 J-0.0027
G2 X27.8518 Y31.9071 I-1.937 J-0.4979
G3 X28.0576 Y31.4032 I1.9255 J0.4925
G3 X28.2468 Y31.1431 I1.364 J0.793
G2 X28.2517 Y31.1375 I-1.4893 J-1.3349
G3 X28.51 Y30.9276 I0.7737 J0.6883
G2 X28.5149 Y30.9248 I-0.9955 J-1.7346
G3 X28.7821 Y30.8522 I0.2711 J0.4693
G1 X30.7758
G3 X30.9907 Y30.9003 I-0.0013 J0.5096
G3 X31.2818 Y31.1147 I-0.4321 J0.8915
G2 X31.2887 Y31.122 I1.4599 J-1.367
G3 X31.4765 Y31.3685 I-1.0597 J1.0023
G3 X31.6755 Y31.8104 I-1.7223 J1.0413
G3 X31.7774 Y32.4968 I-2.2659 J0.6872
G1 F25.0 Z-7.0
G1 F140.0 Y37.3557
G2 Y37.358 I2.0 J0.0
G3 X31.7038 Y37.9427 I-2.3376 J0.0027
G2 X31.7032 Y37.9451 I1.937 J0.4979
G3 X31.4974 Y38.4491 I-1.9255 J-0.4925
G3 X31.3082 Y38.7092 I-1.364 J-0.793
G2 X31.3033 Y38.7148 I1.4893 J1.3349
G3 X31.045 Y38.9246 I-0.7737 J-0.6883
G2 X31.0402 Y38.9274 I0.9955 J1.7346
G3 X30.7729 Y39.0001 I-0.2711 J-0.4693
G1 X28.7792
G3 X28.5643 Y38.9519 I0.0013 J-0.5096
G3 X28.2732 Y38.7376 I0.4321 J-0.8915
G2 X28.2663 Y38.7302 I-1.4599 J1.367
G3 X28.0785 Y38.4838 I1.0597 J-1.0023
G3 X27.8795 Y38.0418 I1.7223 J-1.0413
G3 X27.7776 Y37.3554 I2.2659 J-0.6872
G1 Y32.4966
G2 Y32.4942 I-2.0 J0.0
G3 X27.8512 Y31.9095 I2.3376 J-0.0027
G2 X27.8518 Y31.9071 I-1.937 J-0.4979
G3 X28.0576 Y31.4032 I1.9255 J0.4925
G3 X28.2468 Y31.1431 I1.364 J0.793
G2 X28.2517 Y31.1375 I-1.4893 J-1.3349
G3 X28.51 Y30.9276 I0.7737 J0.6883
G2 X28.5149 Y30.9248 I-0.9955 J-1.7346
G3 X28.7821 Y30.8522 I0.2711 J0.4693
G1 X30.7758
G3 X30.9907 Y30.9003 I-0.0013 J0.5096
G3 X31.2818 Y31.1147 I-0.4321 J0.8915
G2 X31.2887 Y31.122 I1.4599 J-1.367
G3 X31.4765 Y31.3685 I-1.0597 J1.0023
G3 X31.6755 Y31.8104 I-1.7223 J1.0413
G3 X31.7774 Y32.4968 I-2.2659 J0.6872
G0 Z3.0
M5
M30
