( Made using CamBam - http://www.cambam.co.uk )
( mounting plates - single 11/4/2013 12:43:33 PM )
( T4 : 4.0 )
G21 G90 G91.1 G64 G40
G0 Z3.0
( T4 : 4.0 )
T4 M6
( Profile4 )
G17
M3 S1000
G0 X7.0 Y11.7259
G0 Z1.0
G1 F25.0 Z-1.0
G1 F150.0 X7.5001
G2 X9.5001 Y9.7259 I0.0 J-2.0
G1 Y-2.2738
G2 X9.496 Y-2.4022 I-2.0 J0.0
G2 X6.6956 Y-8.9639 I-9.4775 J0.1664
G2 X0.0 Y-11.7259 I-6.6844 J6.7072
G2 X-6.6954 Y-8.9639 I-0.0099 J9.4722
G2 X-9.496 Y-2.4024 I6.6789 J6.7292
G2 X-9.5001 Y-2.2738 I1.9959 J0.1286
G1 Y9.7259
G2 X-7.5001 Y11.7259 I2.0 J0.0
G1 X7.0
G1 F25.0 Z-2.0
G1 F150.0 X7.5001
G2 X9.5001 Y9.7259 I0.0 J-2.0
G1 Y-2.2738
G2 X9.496 Y-2.4022 I-2.0 J0.0
G2 X6.6956 Y-8.9639 I-9.4775 J0.1664
G2 X0.0 Y-11.7259 I-6.6844 J6.7072
G2 X-6.6954 Y-8.9639 I-0.0099 J9.4722
G2 X-9.496 Y-2.4024 I6.6789 J6.7292
G2 X-9.5001 Y-2.2738 I1.9959 J0.1286
G1 Y9.7259
G2 X-7.5001 Y11.7259 I2.0 J0.0
G1 X7.0
G1 F25.0 Z-3.0
G1 F150.0 X7.5001
G2 X9.5001 Y9.7259 I0.0 J-2.0
G1 Y-2.2738
G2 X9.496 Y-2.4022 I-2.0 J0.0
G2 X6.6956 Y-8.9639 I-9.4775 J0.1664
G2 X0.0 Y-11.7259 I-6.6844 J6.7072
G2 X-6.6954 Y-8.9639 I-0.0099 J9.4722
G2 X-9.496 Y-2.4024 I6.6789 J6.7292
G2 X-9.5001 Y-2.2738 I1.9959 J0.1286
G1 Y9.7259
G2 X-7.5001 Y11.7259 I2.0 J0.0
G1 X7.0
G1 F25.0 Z-4.0
G1 F150.0 X7.5001
G2 X9.5001 Y9.7259 I0.0 J-2.0
G1 Y-2.2738
G2 X9.496 Y-2.4022 I-2.0 J0.0
G2 X6.6956 Y-8.9639 I-9.4775 J0.1664
G2 X0.0 Y-11.7259 I-6.6844 J6.7072
G2 X-6.6954 Y-8.9639 I-0.0099 J9.4722
G2 X-9.496 Y-2.4024 I6.6789 J6.7292
G2 X-9.5001 Y-2.2738 I1.9959 J0.1286
G1 Y9.7259
G2 X-7.5001 Y11.7259 I2.0 J0.0
G1 X7.0
G1 F25.0 Z-5.0
G1 F150.0 X7.5001
G2 X9.5001 Y9.7259 I0.0 J-2.0
G1 Y-2.2738
G2 X9.496 Y-2.4022 I-2.0 J0.0
G2 X6.6956 Y-8.9639 I-9.4775 J0.1664
G2 X0.0 Y-11.7259 I-6.6844 J6.7072
G2 X-6.6954 Y-8.9639 I-0.0099 J9.4722
G2 X-9.496 Y-2.4024 I6.6789 J6.7292
G2 X-9.5001 Y-2.2738 I1.9959 J0.1286
G1 Y9.7259
G2 X-7.5001 Y11.7259 I2.0 J0.0
G1 X7.0
G1 F25.0 Z-6.0
G1 F150.0 X7.5001
G2 X9.5001 Y9.7259 I0.0 J-2.0
G1 Y-2.2738
G2 X9.496 Y-2.4022 I-2.0 J0.0
G2 X6.6956 Y-8.9639 I-9.4775 J0.1664
G2 X0.0 Y-11.7259 I-6.6844 J6.7072
G2 X-6.6954 Y-8.9639 I-0.0099 J9.4722
G2 X-9.496 Y-2.4024 I6.6789 J6.7292
G2 X-9.5001 Y-2.2738 I1.9959 J0.1286
G1 Y9.7259
G2 X-7.5001 Y11.7259 I2.0 J0.0
G1 X7.0
G1 F25.0 Z-6.5
G1 F150.0 X7.5001
G2 X9.5001 Y9.7259 I0.0 J-2.0
G1 Y-2.2738
G2 X9.496 Y-2.4022 I-2.0 J0.0
G2 X6.6956 Y-8.9639 I-9.4775 J0.1664
G2 X0.0 Y-11.7259 I-6.6844 J6.7072
G2 X-6.6954 Y-8.9639 I-0.0099 J9.4722
G2 X-9.496 Y-2.4024 I6.6789 J6.7292
G2 X-9.5001 Y-2.2738 I1.9959 J0.1286
G1 Y9.7259
G2 X-7.5001 Y11.7259 I2.0 J0.0
G1 X7.0
G0 Z3.0
M5
M30
