( Made using CamBam - http://www.cambam.co.uk )
( mounting plates - single 11/4/2013 12:43:24 PM )
( T4 : 4.0 )
G21 G90 G91.1 G64 G40
G0 Z3.0
( T4 : 4.0 )
T4 M6
( Pocket1 )
G17
M3 S1000
G0 X-0.0005 Y-1.4257
G0 Z1.0
G1 F25.0 Z-1.0
G3 F150.0 X-0.8003 Y-2.2255 I0.0 J-0.7998
G2 Y-2.2287 I-2.8 J-0.0001
G3 X-0.5681 Y-2.7893 I0.7907 J-0.0009
G2 X-0.5629 Y-2.7945 I-1.9779 J-1.9819
G3 X-0.0047 Y-3.0257 I0.5571 J0.5553
G2 X-0.0006 I0.0042 J-2.8
G3 X0.7996 Y-2.2256 I0.0 J0.8003
G3 Y-2.2255 I-0.8003 J0.0002
G1 Y-2.2258
G3 Y-2.2256 I-0.8002 J0.0
G3 X-0.0005 Y-1.4257 I-0.8002 J-0.0002
G1 F25.0 X-0.0004 Y-0.6257
G1 F150.0 X-0.0005
G3 X-1.6003 Y-2.2255 I0.0 J-1.5998
G2 Y-2.2278 I-2.0 J-0.0001
G3 X-1.1332 Y-3.3556 I1.5907 J-0.0018
G2 X-1.1295 Y-3.3593 I-1.4128 J-1.4157
G3 X-0.0035 Y-3.8257 I1.1237 J1.1201
G2 X-0.0006 I0.003 J-2.0
G3 X1.5996 Y-2.2256 I-0.0001 J1.6003
G3 Y-2.2255 I-1.6003 J0.0002
G1 Y-2.2257
G3 Y-2.2256 I-1.6002 J-0.0001
G3 X-0.0004 Y-0.6257 I-1.6002 J-0.0002
G1 F25.0 X-0.0005 Y-1.4257
G1 Z-2.0
G3 F150.0 X-0.8003 Y-2.2255 I0.0 J-0.7998
G2 Y-2.2287 I-2.8 J-0.0001
G3 X-0.5681 Y-2.7893 I0.7907 J-0.0009
G2 X-0.5629 Y-2.7945 I-1.9779 J-1.9819
G3 X-0.0047 Y-3.0257 I0.5571 J0.5553
G2 X-0.0006 I0.0042 J-2.8
G3 X0.7996 Y-2.2256 I0.0 J0.8003
G3 Y-2.2255 I-0.8003 J0.0002
G1 Y-2.2258
G3 Y-2.2256 I-0.8002 J0.0
G3 X-0.0005 Y-1.4257 I-0.8002 J-0.0002
G1 F25.0 X-0.0004 Y-0.6257
G1 F150.0 X-0.0005
G3 X-1.6003 Y-2.2255 I0.0 J-1.5998
G2 Y-2.2278 I-2.0 J-0.0001
G3 X-1.1332 Y-3.3556 I1.5907 J-0.0018
G2 X-1.1295 Y-3.3593 I-1.4128 J-1.4157
G3 X-0.0035 Y-3.8257 I1.1237 J1.1201
G2 X-0.0006 I0.003 J-2.0
G3 X1.5996 Y-2.2256 I-0.0001 J1.6003
G3 Y-2.2255 I-1.6003 J0.0002
G1 Y-2.2257
G3 Y-2.2256 I-1.6002 J-0.0001
G3 X-0.0004 Y-0.6257 I-1.6002 J-0.0002
G1 F25.0 X-0.0005 Y-1.4257
G1 Z-3.0
G3 F150.0 X-0.8003 Y-2.2255 I0.0 J-0.7998
G2 Y-2.2287 I-2.8 J-0.0001
G3 X-0.5681 Y-2.7893 I0.7907 J-0.0009
G2 X-0.5629 Y-2.7945 I-1.9779 J-1.9819
G3 X-0.0047 Y-3.0257 I0.5571 J0.5553
G2 X-0.0006 I0.0042 J-2.8
G3 X0.7996 Y-2.2256 I0.0 J0.8003
G3 Y-2.2255 I-0.8003 J0.0002
G1 Y-2.2258
G3 Y-2.2256 I-0.8002 J0.0
G3 X-0.0005 Y-1.4257 I-0.8002 J-0.0002
G1 F25.0 X-0.0004 Y-0.6257
G1 F150.0 X-0.0005
G3 X-1.6003 Y-2.2255 I0.0 J-1.5998
G2 Y-2.2278 I-2.0 J-0.0001
G3 X-1.1332 Y-3.3556 I1.5907 J-0.0018
G2 X-1.1295 Y-3.3593 I-1.4128 J-1.4157
G3 X-0.0035 Y-3.8257 I1.1237 J1.1201
G2 X-0.0006 I0.003 J-2.0
G3 X1.5996 Y-2.2256 I-0.0001 J1.6003
G3 Y-2.2255 I-1.6003 J0.0002
G1 Y-2.2257
G3 Y-2.2256 I-1.6002 J-0.0001
G3 X-0.0004 Y-0.6257 I-1.6002 J-0.0002
G1 F25.0 X-0.0005 Y-1.4257
G1 Z-4.0
G3 F150.0 X-0.8003 Y-2.2255 I0.0 J-0.7998
G2 Y-2.2287 I-2.8 J-0.0001
G3 X-0.5681 Y-2.7893 I0.7907 J-0.0009
G2 X-0.5629 Y-2.7945 I-1.9779 J-1.9819
G3 X-0.0047 Y-3.0257 I0.5571 J0.5553
G2 X-0.0006 I0.0042 J-2.8
G3 X0.7996 Y-2.2256 I0.0 J0.8003
G3 Y-2.2255 I-0.8003 J0.0002
G1 Y-2.2258
G3 Y-2.2256 I-0.8002 J0.0
G3 X-0.0005 Y-1.4257 I-0.8002 J-0.0002
G1 F25.0 X-0.0004 Y-0.6257
G1 F150.0 X-0.0005
G3 X-1.6003 Y-2.2255 I0.0 J-1.5998
G2 Y-2.2278 I-2.0 J-0.0001
G3 X-1.1332 Y-3.3556 I1.5907 J-0.0018
G2 X-1.1295 Y-3.3593 I-1.4128 J-1.4157
G3 X-0.0035 Y-3.8257 I1.1237 J1.1201
G2 X-0.0006 I0.003 J-2.0
G3 X1.5996 Y-2.2256 I-0.0001 J1.6003
G3 Y-2.2255 I-1.6003 J0.0002
G1 Y-2.2257
G3 Y-2.2256 I-1.6002 J-0.0001
G3 X-0.0004 Y-0.6257 I-1.6002 J-0.0002
G1 F25.0 X-0.0005 Y-1.4257
G1 Z-5.0
G3 F150.0 X-0.8003 Y-2.2255 I0.0 J-0.7998
G2 Y-2.2287 I-2.8 J-0.0001
G3 X-0.5681 Y-2.7893 I0.7907 J-0.0009
G2 X-0.5629 Y-2.7945 I-1.9779 J-1.9819
G3 X-0.0047 Y-3.0257 I0.5571 J0.5553
G2 X-0.0006 I0.0042 J-2.8
G3 X0.7996 Y-2.2256 I0.0 J0.8003
G3 Y-2.2255 I-0.8003 J0.0002
G1 Y-2.2258
G3 Y-2.2256 I-0.8002 J0.0
G3 X-0.0005 Y-1.4257 I-0.8002 J-0.0002
G1 F25.0 X-0.0004 Y-0.6257
G1 F150.0 X-0.0005
G3 X-1.6003 Y-2.2255 I0.0 J-1.5998
G2 Y-2.2278 I-2.0 J-0.0001
G3 X-1.1332 Y-3.3556 I1.5907 J-0.0018
G2 X-1.1295 Y-3.3593 I-1.4128 J-1.4157
G3 X-0.0035 Y-3.8257 I1.1237 J1.1201
G2 X-0.0006 I0.003 J-2.0
G3 X1.5996 Y-2.2256 I-0.0001 J1.6003
G3 Y-2.2255 I-1.6003 J0.0002
G1 Y-2.2257
G3 Y-2.2256 I-1.6002 J-0.0001
G3 X-0.0004 Y-0.6257 I-1.6002 J-0.0002
G1 F25.0 X-0.0005 Y-1.4257
G1 Z-6.0
G3 F150.0 X-0.8003 Y-2.2255 I0.0 J-0.7998
G2 Y-2.2287 I-2.8 J-0.0001
G3 X-0.5681 Y-2.7893 I0.7907 J-0.0009
G2 X-0.5629 Y-2.7945 I-1.9779 J-1.9819
G3 X-0.0047 Y-3.0257 I0.5571 J0.5553
G2 X-0.0006 I0.0042 J-2.8
G3 X0.7996 Y-2.2256 I0.0 J0.8003
G3 Y-2.2255 I-0.8003 J0.0002
G1 Y-2.2258
G3 Y-2.2256 I-0.8002 J0.0
G3 X-0.0005 Y-1.4257 I-0.8002 J-0.0002
G1 F25.0 X-0.0004 Y-0.6257
G1 F150.0 X-0.0005
G3 X-1.6003 Y-2.2255 I0.0 J-1.5998
G2 Y-2.2278 I-2.0 J-0.0001
G3 X-1.1332 Y-3.3556 I1.5907 J-0.0018
G2 X-1.1295 Y-3.3593 I-1.4128 J-1.4157
G3 X-0.0035 Y-3.8257 I1.1237 J1.1201
G2 X-0.0006 I0.003 J-2.0
G3 X1.5996 Y-2.2256 I-0.0001 J1.6003
G3 Y-2.2255 I-1.6003 J0.0002
G1 Y-2.2257
G3 Y-2.2256 I-1.6002 J-0.0001
G3 X-0.0004 Y-0.6257 I-1.6002 J-0.0002
G1 F25.0 X-0.0005 Y-1.4257
G1 Z-6.5
G3 F150.0 X-0.8003 Y-2.2255 I0.0 J-0.7998
G2 Y-2.2287 I-2.8 J-0.0001
G3 X-0.5681 Y-2.7893 I0.7907 J-0.0009
G2 X-0.5629 Y-2.7945 I-1.9779 J-1.9819
G3 X-0.0047 Y-3.0257 I0.5571 J0.5553
G2 X-0.0006 I0.0042 J-2.8
G3 X0.7996 Y-2.2256 I0.0 J0.8003
G3 Y-2.2255 I-0.8003 J0.0002
G1 Y-2.2258
G3 Y-2.2256 I-0.8002 J0.0
G3 X-0.0005 Y-1.4257 I-0.8002 J-0.0002
G1 F25.0 X-0.0004 Y-0.6257
G1 F150.0 X-0.0005
G3 X-1.6003 Y-2.2255 I0.0 J-1.5998
G2 Y-2.2278 I-2.0 J-0.0001
G3 X-1.1332 Y-3.3556 I1.5907 J-0.0018
G2 X-1.1295 Y-3.3593 I-1.4128 J-1.4157
G3 X-0.0035 Y-3.8257 I1.1237 J1.1201
G2 X-0.0006 I0.003 J-2.0
G3 X1.5996 Y-2.2256 I-0.0001 J1.6003
G3 Y-2.2255 I-1.6003 J0.0002
G1 Y-2.2257
G3 Y-2.2256 I-1.6002 J-0.0001
G3 X-0.0004 Y-0.6257 I-1.6002 J-0.0002
( Pocket2 )
S1000
G0 Z-1.0
G1 F25.0 X-0.0087 Y-1.7256
G3 F150.0 X-0.3469 Y-1.8657 I-0.0007 J-0.4766
G2 X-0.3589 Y-1.8776 I-4.2491 J4.2362
G3 X-0.4997 Y-2.2176 I0.3384 J-0.3393
G2 Y-2.2335 I-6.0 J-0.0083
G3 X-0.3586 Y-2.5741 I0.4801 J-0.0006
G2 X-0.3481 Y-2.5847 I-4.2373 J-4.248
G3 X-0.0073 Y-2.7258 I0.3402 J0.3394
G2 X0.0085 I0.0074 J-6.0
G3 X0.3475 Y-2.5854 I0.0007 J0.4778
G2 X0.3591 Y-2.5739 I4.2487 J-4.2366
G3 X0.5 Y-2.2336 I-0.3388 J0.3397
G2 Y-2.218 I6.0 J0.0076
G3 X0.3591 Y-1.8776 I-0.4799 J0.0006
G2 X0.3472 Y-1.8657 I4.2373 J4.2479
G3 X0.0089 Y-1.7256 I-0.3376 J-0.3366
G2 X-0.0087 I-0.0087 J6.0
G1 F25.0 X-0.0075 Y-0.9256
G3 F150.0 X-0.9135 Y-1.3009 I-0.0019 J-1.2766
G2 X-0.9238 Y-1.3112 I-3.6826 J3.6713
G3 X-1.2997 Y-2.2187 I0.9034 J-0.9057
G2 Y-2.2325 I-5.2 J-0.0072
G3 X-0.9236 Y-3.1405 I1.2801 J-0.0016
G2 X-0.9144 Y-3.1497 I-3.6723 J-3.6816
G3 X-0.0063 Y-3.5258 I0.9066 J0.9043
G2 X0.0074 I0.0064 J-5.2
G3 X0.914 Y-3.1503 I0.0018 J1.2778
G2 X0.924 Y-3.1403 I3.6822 J-3.6717
G3 X1.3 Y-2.2325 I-0.9038 J0.9061
G2 Y-2.2191 I5.2 J0.0066
G3 X0.924 Y-1.3112 I-1.2799 J0.0017
G2 X0.9138 Y-1.3009 I3.6724 J3.6816
G3 X0.0077 Y-0.9256 I-0.9042 J-0.9014
G2 X-0.0075 I-0.0075 J5.2
G1 F25.0 X-0.0051 Y0.6744
G3 F150.0 X-2.0466 Y-0.1712 I-0.0042 J-2.8766
G2 X-2.0538 Y-0.1784 I-2.5495 J2.5417
G3 X-2.8997 Y-2.221 I2.0333 J-2.0386
G2 Y-2.2305 I-3.6 J-0.005
G3 X-2.0536 Y-4.2733 I2.8801 J-0.0036
G2 X-2.0472 Y-4.2796 I-2.5424 J-2.5488
G3 X-0.0043 Y-5.1258 I2.0394 J2.0343
G2 X0.0052 I0.0045 J-3.6
G3 X2.047 Y-4.28 I0.004 J2.8778
G2 X2.0539 Y-4.2731 I2.5492 J-2.5419
G3 X2.9 Y-2.2305 I-2.0337 J2.0389
G2 Y-2.2212 I3.6 J0.0046
G3 X2.054 Y-0.1784 I-2.8799 J0.0038
G2 X2.0469 Y-0.1713 I2.5424 J2.5488
G3 X0.0054 Y0.6744 I-2.0373 J-2.031
G2 X-0.0051 I-0.0052 J3.6
G1 F25.0 X-0.0028 Y2.2744
G3 F150.0 X-3.1797 Y0.9584 I-0.0066 J-4.4766
G2 X-3.1837 Y0.9544 I-1.4164 J1.4121
G3 X-4.4997 Y-2.2232 I3.1632 J-3.1714
G2 Y-2.2285 I-2.0 J-0.0028
G3 X-3.1835 Y-5.4061 I4.4801 J-0.0057
G2 X-3.18 Y-5.4096 I-1.4124 J-1.416
G3 X-0.0023 Y-6.7258 I3.1721 J3.1643
G2 X0.003 I0.0025 J-2.0
G3 X3.18 Y-5.4098 I0.0062 J4.4778
G2 X3.1838 Y-5.4059 I1.4162 J-1.4122
G3 X4.5 Y-2.2285 I-3.1636 J3.1718
G2 Y-2.2233 I2.0 J0.0025
G3 X3.1839 Y0.9544 I-4.4799 J0.0059
G2 X3.18 Y0.9583 I1.4124 J1.416
G3 X0.0031 Y2.2744 I-3.1704 J-3.1606
G2 X-0.0028 I-0.0029 J2.0
G0 Z3.0
G0 X-0.0087 Y-1.7256
G0 Z0.0
G1 F25.0 Z-2.0
G3 F150.0 X-0.3469 Y-1.8657 I-0.0007 J-0.4766
G2 X-0.3589 Y-1.8776 I-4.2491 J4.2362
G3 X-0.4997 Y-2.2176 I0.3384 J-0.3393
G2 Y-2.2335 I-6.0 J-0.0083
G3 X-0.3586 Y-2.5741 I0.4801 J-0.0006
G2 X-0.3481 Y-2.5847 I-4.2373 J-4.248
G3 X-0.0073 Y-2.7258 I0.3402 J0.3394
G2 X0.0085 I0.0074 J-6.0
G3 X0.3475 Y-2.5854 I0.0007 J0.4778
G2 X0.3591 Y-2.5739 I4.2487 J-4.2366
G3 X0.5 Y-2.2336 I-0.3388 J0.3397
G2 Y-2.218 I6.0 J0.0076
G3 X0.3591 Y-1.8776 I-0.4799 J0.0006
G2 X0.3472 Y-1.8657 I4.2373 J4.2479
G3 X0.0089 Y-1.7256 I-0.3376 J-0.3366
G2 X-0.0087 I-0.0087 J6.0
G1 F25.0 X-0.0075 Y-0.9256
G3 F150.0 X-0.9135 Y-1.3009 I-0.0019 J-1.2766
G2 X-0.9238 Y-1.3112 I-3.6826 J3.6713
G3 X-1.2997 Y-2.2187 I0.9034 J-0.9057
G2 Y-2.2325 I-5.2 J-0.0072
G3 X-0.9236 Y-3.1405 I1.2801 J-0.0016
G2 X-0.9144 Y-3.1497 I-3.6723 J-3.6816
G3 X-0.0063 Y-3.5258 I0.9066 J0.9043
G2 X0.0074 I0.0064 J-5.2
G3 X0.914 Y-3.1503 I0.0018 J1.2778
G2 X0.924 Y-3.1403 I3.6822 J-3.6717
G3 X1.3 Y-2.2325 I-0.9038 J0.9061
G2 Y-2.2191 I5.2 J0.0066
G3 X0.924 Y-1.3112 I-1.2799 J0.0017
G2 X0.9138 Y-1.3009 I3.6724 J3.6816
G3 X0.0077 Y-0.9256 I-0.9042 J-0.9014
G2 X-0.0075 I-0.0075 J5.2
G1 F25.0 X-0.0051 Y0.6744
G3 F150.0 X-2.0466 Y-0.1712 I-0.0042 J-2.8766
G2 X-2.0538 Y-0.1784 I-2.5495 J2.5417
G3 X-2.8997 Y-2.221 I2.0333 J-2.0386
G2 Y-2.2305 I-3.6 J-0.005
G3 X-2.0536 Y-4.2733 I2.8801 J-0.0036
G2 X-2.0472 Y-4.2796 I-2.5424 J-2.5488
G3 X-0.0043 Y-5.1258 I2.0394 J2.0343
G2 X0.0052 I0.0045 J-3.6
G3 X2.047 Y-4.28 I0.004 J2.8778
G2 X2.0539 Y-4.2731 I2.5492 J-2.5419
G3 X2.9 Y-2.2305 I-2.0337 J2.0389
G2 Y-2.2212 I3.6 J0.0046
G3 X2.054 Y-0.1784 I-2.8799 J0.0038
G2 X2.0469 Y-0.1713 I2.5424 J2.5488
G3 X0.0054 Y0.6744 I-2.0373 J-2.031
G2 X-0.0051 I-0.0052 J3.6
G1 F25.0 X-0.0028 Y2.2744
G3 F150.0 X-3.1797 Y0.9584 I-0.0066 J-4.4766
G2 X-3.1837 Y0.9544 I-1.4164 J1.4121
G3 X-4.4997 Y-2.2232 I3.1632 J-3.1714
G2 Y-2.2285 I-2.0 J-0.0028
G3 X-3.1835 Y-5.4061 I4.4801 J-0.0057
G2 X-3.18 Y-5.4096 I-1.4124 J-1.416
G3 X-0.0023 Y-6.7258 I3.1721 J3.1643
G2 X0.003 I0.0025 J-2.0
G3 X3.18 Y-5.4098 I0.0062 J4.4778
G2 X3.1838 Y-5.4059 I1.4162 J-1.4122
G3 X4.5 Y-2.2285 I-3.1636 J3.1718
G2 Y-2.2233 I2.0 J0.0025
G3 X3.1839 Y0.9544 I-4.4799 J0.0059
G2 X3.18 Y0.9583 I1.4124 J1.416
G3 X0.0031 Y2.2744 I-3.1704 J-3.1606
G2 X-0.0028 I-0.0029 J2.0
G0 Z3.0
G0 X-0.0087 Y-1.7256
G0 Z-1.0
G1 F25.0 Z-3.0
G3 F150.0 X-0.3469 Y-1.8657 I-0.0007 J-0.4766
G2 X-0.3589 Y-1.8776 I-4.2491 J4.2362
G3 X-0.4997 Y-2.2176 I0.3384 J-0.3393
G2 Y-2.2335 I-6.0 J-0.0083
G3 X-0.3586 Y-2.5741 I0.4801 J-0.0006
G2 X-0.3481 Y-2.5847 I-4.2373 J-4.248
G3 X-0.0073 Y-2.7258 I0.3402 J0.3394
G2 X0.0085 I0.0074 J-6.0
G3 X0.3475 Y-2.5854 I0.0007 J0.4778
G2 X0.3591 Y-2.5739 I4.2487 J-4.2366
G3 X0.5 Y-2.2336 I-0.3388 J0.3397
G2 Y-2.218 I6.0 J0.0076
G3 X0.3591 Y-1.8776 I-0.4799 J0.0006
G2 X0.3472 Y-1.8657 I4.2373 J4.2479
G3 X0.0089 Y-1.7256 I-0.3376 J-0.3366
G2 X-0.0087 I-0.0087 J6.0
G1 F25.0 X-0.0075 Y-0.9256
G3 F150.0 X-0.9135 Y-1.3009 I-0.0019 J-1.2766
G2 X-0.9238 Y-1.3112 I-3.6826 J3.6713
G3 X-1.2997 Y-2.2187 I0.9034 J-0.9057
G2 Y-2.2325 I-5.2 J-0.0072
G3 X-0.9236 Y-3.1405 I1.2801 J-0.0016
G2 X-0.9144 Y-3.1497 I-3.6723 J-3.6816
G3 X-0.0063 Y-3.5258 I0.9066 J0.9043
G2 X0.0074 I0.0064 J-5.2
G3 X0.914 Y-3.1503 I0.0018 J1.2778
G2 X0.924 Y-3.1403 I3.6822 J-3.6717
G3 X1.3 Y-2.2325 I-0.9038 J0.9061
G2 Y-2.2191 I5.2 J0.0066
G3 X0.924 Y-1.3112 I-1.2799 J0.0017
G2 X0.9138 Y-1.3009 I3.6724 J3.6816
G3 X0.0077 Y-0.9256 I-0.9042 J-0.9014
G2 X-0.0075 I-0.0075 J5.2
G1 F25.0 X-0.0051 Y0.6744
G3 F150.0 X-2.0466 Y-0.1712 I-0.0042 J-2.8766
G2 X-2.0538 Y-0.1784 I-2.5495 J2.5417
G3 X-2.8997 Y-2.221 I2.0333 J-2.0386
G2 Y-2.2305 I-3.6 J-0.005
G3 X-2.0536 Y-4.2733 I2.8801 J-0.0036
G2 X-2.0472 Y-4.2796 I-2.5424 J-2.5488
G3 X-0.0043 Y-5.1258 I2.0394 J2.0343
G2 X0.0052 I0.0045 J-3.6
G3 X2.047 Y-4.28 I0.004 J2.8778
G2 X2.0539 Y-4.2731 I2.5492 J-2.5419
G3 X2.9 Y-2.2305 I-2.0337 J2.0389
G2 Y-2.2212 I3.6 J0.0046
G3 X2.054 Y-0.1784 I-2.8799 J0.0038
G2 X2.0469 Y-0.1713 I2.5424 J2.5488
G3 X0.0054 Y0.6744 I-2.0373 J-2.031
G2 X-0.0051 I-0.0052 J3.6
G1 F25.0 X-0.0028 Y2.2744
G3 F150.0 X-3.1797 Y0.9584 I-0.0066 J-4.4766
G2 X-3.1837 Y0.9544 I-1.4164 J1.4121
G3 X-4.4997 Y-2.2232 I3.1632 J-3.1714
G2 Y-2.2285 I-2.0 J-0.0028
G3 X-3.1835 Y-5.4061 I4.4801 J-0.0057
G2 X-3.18 Y-5.4096 I-1.4124 J-1.416
G3 X-0.0023 Y-6.7258 I3.1721 J3.1643
G2 X0.003 I0.0025 J-2.0
G3 X3.18 Y-5.4098 I0.0062 J4.4778
G2 X3.1838 Y-5.4059 I1.4162 J-1.4122
G3 X4.5 Y-2.2285 I-3.1636 J3.1718
G2 Y-2.2233 I2.0 J0.0025
G3 X3.1839 Y0.9544 I-4.4799 J0.0059
G2 X3.18 Y0.9583 I1.4124 J1.416
G3 X0.0031 Y2.2744 I-3.1704 J-3.1606
G2 X-0.0028 I-0.0029 J2.0
G0 Z3.0
G0 X-0.0087 Y-1.7256
G0 Z-2.0
G1 F25.0 Z-3.5
G3 F150.0 X-0.3469 Y-1.8657 I-0.0007 J-0.4766
G2 X-0.3589 Y-1.8776 I-4.2491 J4.2362
G3 X-0.4997 Y-2.2176 I0.3384 J-0.3393
G2 Y-2.2335 I-6.0 J-0.0083
G3 X-0.3586 Y-2.5741 I0.4801 J-0.0006
G2 X-0.3481 Y-2.5847 I-4.2373 J-4.248
G3 X-0.0073 Y-2.7258 I0.3402 J0.3394
G2 X0.0085 I0.0074 J-6.0
G3 X0.3475 Y-2.5854 I0.0007 J0.4778
G2 X0.3591 Y-2.5739 I4.2487 J-4.2366
G3 X0.5 Y-2.2336 I-0.3388 J0.3397
G2 Y-2.218 I6.0 J0.0076
G3 X0.3591 Y-1.8776 I-0.4799 J0.0006
G2 X0.3472 Y-1.8657 I4.2373 J4.2479
G3 X0.0089 Y-1.7256 I-0.3376 J-0.3366
G2 X-0.0087 I-0.0087 J6.0
G1 F25.0 X-0.0075 Y-0.9256
G3 F150.0 X-0.9135 Y-1.3009 I-0.0019 J-1.2766
G2 X-0.9238 Y-1.3112 I-3.6826 J3.6713
G3 X-1.2997 Y-2.2187 I0.9034 J-0.9057
G2 Y-2.2325 I-5.2 J-0.0072
G3 X-0.9236 Y-3.1405 I1.2801 J-0.0016
G2 X-0.9144 Y-3.1497 I-3.6723 J-3.6816
G3 X-0.0063 Y-3.5258 I0.9066 J0.9043
G2 X0.0074 I0.0064 J-5.2
G3 X0.914 Y-3.1503 I0.0018 J1.2778
G2 X0.924 Y-3.1403 I3.6822 J-3.6717
G3 X1.3 Y-2.2325 I-0.9038 J0.9061
G2 Y-2.2191 I5.2 J0.0066
G3 X0.924 Y-1.3112 I-1.2799 J0.0017
G2 X0.9138 Y-1.3009 I3.6724 J3.6816
G3 X0.0077 Y-0.9256 I-0.9042 J-0.9014
G2 X-0.0075 I-0.0075 J5.2
G1 F25.0 X-0.0051 Y0.6744
G3 F150.0 X-2.0466 Y-0.1712 I-0.0042 J-2.8766
G2 X-2.0538 Y-0.1784 I-2.5495 J2.5417
G3 X-2.8997 Y-2.221 I2.0333 J-2.0386
G2 Y-2.2305 I-3.6 J-0.005
G3 X-2.0536 Y-4.2733 I2.8801 J-0.0036
G2 X-2.0472 Y-4.2796 I-2.5424 J-2.5488
G3 X-0.0043 Y-5.1258 I2.0394 J2.0343
G2 X0.0052 I0.0045 J-3.6
G3 X2.047 Y-4.28 I0.004 J2.8778
G2 X2.0539 Y-4.2731 I2.5492 J-2.5419
G3 X2.9 Y-2.2305 I-2.0337 J2.0389
G2 Y-2.2212 I3.6 J0.0046
G3 X2.054 Y-0.1784 I-2.8799 J0.0038
G2 X2.0469 Y-0.1713 I2.5424 J2.5488
G3 X0.0054 Y0.6744 I-2.0373 J-2.031
G2 X-0.0051 I-0.0052 J3.6
G1 F25.0 X-0.0028 Y2.2744
G3 F150.0 X-3.1797 Y0.9584 I-0.0066 J-4.4766
G2 X-3.1837 Y0.9544 I-1.4164 J1.4121
G3 X-4.4997 Y-2.2232 I3.1632 J-3.1714
G2 Y-2.2285 I-2.0 J-0.0028
G3 X-3.1835 Y-5.4061 I4.4801 J-0.0057
G2 X-3.18 Y-5.4096 I-1.4124 J-1.416
G3 X-0.0023 Y-6.7258 I3.1721 J3.1643
G2 X0.003 I0.0025 J-2.0
G3 X3.18 Y-5.4098 I0.0062 J4.4778
G2 X3.1838 Y-5.4059 I1.4162 J-1.4122
G3 X4.5 Y-2.2285 I-3.1636 J3.1718
G2 Y-2.2233 I2.0 J0.0025
G3 X3.1839 Y0.9544 I-4.4799 J0.0059
G2 X3.18 Y0.9583 I1.4124 J1.416
G3 X0.0031 Y2.2744 I-3.1704 J-3.1606
G2 X-0.0028 I-0.0029 J2.0
G0 Z3.0
M5
M30
