( Made using CamBam - http://www.cambam.co.uk )
( picker slide - top plate 9/4/2013 12:13:58 PM )
( T16 : 1.0 )
G21 G90 G64 G40
G0 Z3.0
( T16 : 1.0 )
T16 M6
( Spot Drill )
G17
M3 S1000
G0 X5.657 Y27.2304
G98
G81 X5.657 Y27.2304 Z-0.5 R3.0 F50.0
G81 X5.2768 Y19.0317 Z-0.5
G81 Y3.1302 Z-0.5
G81 X21.2767 Z-0.5
G81 X31.7371 Z-0.5
G81 Y19.0317 Z-0.5
G81 X32.1172 Y27.2304 Z-0.5
G81 X20.8971 Y27.23 Z-0.5
G81 X21.2767 Y19.1306 Z-0.5
G81 X47.7375 Z-0.5
G81 X47.3578 Y27.23 Z-0.5
G81 X47.7375 Y3.1302 Z-0.5
G80
G0 Z3.0
M5
M30
