( Made using CamBam - http://www.cambam.co.uk )
( picker slide - top plate 9/4/2013 12:14:21 PM )
( T9 : 3.0 )
G21 G90 G64 G40
G0 Z3.0
( T9 : 3.0 )
T9 M6
( 2mm drill )
G17
M3 S1000
G0 X5.2768 Y19.0317
G98
G83 X5.2768 Y19.0317 Z-11.0 Q1.0 R2.0 F50.0
G83 Y3.1302 Z-11.0
G83 X21.2767 Z-11.0
G83 X31.7371 Z-11.0
G83 Y19.0317 Z-11.0
G83 X21.2767 Y19.1306 Z-11.0
G83 X47.7375 Z-11.0
G83 Y3.1302 Z-11.0
G80
G0 Z3.0
M5
M30
