( Made using CamBam - http://www.cambam.co.uk )
( picker slide - top plate 9/4/2013 12:14:49 PM )
( T4 : 4.0 )
G21 G90 G64 G40
G0 Z3.0
( T4 : 4.0 )
T4 M6
( 4mm pocket 1 )
G17
M3 S1000
G0 X13.977 Y27.2365
G0 Z1.0
G1 F50.0 Z-1.0
G3 F80.0 X13.7761 Y27.7214 I-0.6836 J0.0009
G2 X13.7679 Y27.7296 I3.1069 J3.1157
G3 X13.2827 Y27.9305 I-0.4842 J-0.483
G2 X13.2708 I-0.0062 J4.4
G3 X12.7857 Y27.7296 I-0.0009 J-0.6839
G2 X12.778 Y27.7219 I-3.1152 J3.1073
G3 X12.5768 Y27.236 I0.4839 J-0.4851
G2 Y27.2244 I-4.4 J-0.0053
G3 X12.7774 Y26.7399 I0.6828 J-0.001
G2 X12.7861 Y26.7312 I-3.107 J-3.1155
G3 X13.2712 Y26.5303 I0.4842 J0.4829
G2 X13.2823 I0.0054 J-4.4
G3 X13.7675 Y26.7312 I0.0009 J0.684
G2 X13.7758 Y26.7396 I3.1155 J-3.107
G3 X13.977 Y27.2252 I-0.4835 J0.4847
G2 Y27.2365 I4.4 J0.0056
G1 F50.0 X14.777 Y27.2354
G3 F80.0 X14.341 Y28.2879 I-1.4836 J0.0019
G2 X14.3343 Y28.2946 I2.542 J2.5492
G3 X13.2816 Y28.7305 I-1.0506 J-1.048
G2 X13.2718 I-0.0051 J3.6
G3 X12.2193 Y28.2945 I-0.0019 J-1.4839
G2 X12.213 Y28.2883 I-2.5488 J2.5423
G3 X11.7768 Y27.2351 I1.0489 J-1.0514
G2 Y27.2255 I-3.6 J-0.0043
G3 X12.2125 Y26.1735 I1.4828 J-0.0021
G2 X12.2196 Y26.1664 I-2.5421 J-2.5491
G3 X13.2722 Y25.7303 I1.0507 J1.0478
G2 X13.2813 I0.0044 J-3.6
G3 X14.334 Y26.1663 I0.002 J1.484
G2 X14.3408 Y26.1731 I2.5491 J-2.5421
G3 X14.777 Y27.2262 I-1.0484 J1.0512
G2 Y27.2354 I3.6 J0.0045
G1 F50.0 X16.377 Y27.2333
G3 F80.0 X15.4708 Y29.4208 I-3.0836 J0.004
G2 X15.467 Y29.4246 I1.4122 J1.4162
G3 X13.2794 Y30.3305 I-2.1833 J-2.178
G2 X13.2739 I-0.0028 J2.0
G3 X11.0865 Y29.4245 I-0.004 J-3.0839
G2 X11.083 Y29.421 I-1.416 J1.4124
G3 X10.1768 Y27.2331 I2.179 J-2.1841
G2 Y27.2278 I-2.0 J-0.0024
G3 X11.0827 Y25.0405 I3.0828 J-0.0044
G2 X11.0866 Y25.0366 I-1.4123 J-1.4162
G3 X13.2741 Y24.1303 I2.1837 J2.1775
G2 X13.2792 I0.0024 J-2.0
G3 X15.4669 Y25.0365 I0.0041 J3.084
G2 X15.4707 Y25.0403 I1.4161 J-1.4123
G3 X16.377 Y27.2282 I-2.1783 J2.184
G2 Y27.2333 I2.0 J0.0025
G1 F50.0 X13.977 Y27.2365
G1 Z-2.0
G3 F80.0 X13.7761 Y27.7214 I-0.6836 J0.0009
G2 X13.7679 Y27.7296 I3.1069 J3.1157
G3 X13.2827 Y27.9305 I-0.4842 J-0.483
G2 X13.2708 I-0.0062 J4.4
G3 X12.7857 Y27.7296 I-0.0009 J-0.6839
G2 X12.778 Y27.7219 I-3.1152 J3.1073
G3 X12.5768 Y27.236 I0.4839 J-0.4851
G2 Y27.2244 I-4.4 J-0.0053
G3 X12.7774 Y26.7399 I0.6828 J-0.001
G2 X12.7861 Y26.7312 I-3.107 J-3.1155
G3 X13.2712 Y26.5303 I0.4842 J0.4829
G2 X13.2823 I0.0054 J-4.4
G3 X13.7675 Y26.7312 I0.0009 J0.684
G2 X13.7758 Y26.7396 I3.1155 J-3.107
G3 X13.977 Y27.2252 I-0.4835 J0.4847
G2 Y27.2365 I4.4 J0.0056
G1 F50.0 X14.777 Y27.2354
G3 F80.0 X14.341 Y28.2879 I-1.4836 J0.0019
G2 X14.3343 Y28.2946 I2.542 J2.5492
G3 X13.2816 Y28.7305 I-1.0506 J-1.048
G2 X13.2718 I-0.0051 J3.6
G3 X12.2193 Y28.2945 I-0.0019 J-1.4839
G2 X12.213 Y28.2883 I-2.5488 J2.5423
G3 X11.7768 Y27.2351 I1.0489 J-1.0514
G2 Y27.2255 I-3.6 J-0.0043
G3 X12.2125 Y26.1735 I1.4828 J-0.0021
G2 X12.2196 Y26.1664 I-2.5421 J-2.5491
G3 X13.2722 Y25.7303 I1.0507 J1.0478
G2 X13.2813 I0.0044 J-3.6
G3 X14.334 Y26.1663 I0.002 J1.484
G2 X14.3408 Y26.1731 I2.5491 J-2.5421
G3 X14.777 Y27.2262 I-1.0484 J1.0512
G2 Y27.2354 I3.6 J0.0045
G1 F50.0 X16.377 Y27.2333
G3 F80.0 X15.4708 Y29.4208 I-3.0836 J0.004
G2 X15.467 Y29.4246 I1.4122 J1.4162
G3 X13.2794 Y30.3305 I-2.1833 J-2.178
G2 X13.2739 I-0.0028 J2.0
G3 X11.0865 Y29.4245 I-0.004 J-3.0839
G2 X11.083 Y29.421 I-1.416 J1.4124
G3 X10.1768 Y27.2331 I2.179 J-2.1841
G2 Y27.2278 I-2.0 J-0.0024
G3 X11.0827 Y25.0405 I3.0828 J-0.0044
G2 X11.0866 Y25.0366 I-1.4123 J-1.4162
G3 X13.2741 Y24.1303 I2.1837 J2.1775
G2 X13.2792 I0.0024 J-2.0
G3 X15.4669 Y25.0365 I0.0041 J3.084
G2 X15.4707 Y25.0403 I1.4161 J-1.4123
G3 X16.377 Y27.2282 I-2.1783 J2.184
G2 Y27.2333 I2.0 J0.0025
G1 F50.0 X13.977 Y27.2365
G1 Z-3.0
G3 F80.0 X13.7761 Y27.7214 I-0.6836 J0.0009
G2 X13.7679 Y27.7296 I3.1069 J3.1157
G3 X13.2827 Y27.9305 I-0.4842 J-0.483
G2 X13.2708 I-0.0062 J4.4
G3 X12.7857 Y27.7296 I-0.0009 J-0.6839
G2 X12.778 Y27.7219 I-3.1152 J3.1073
G3 X12.5768 Y27.236 I0.4839 J-0.4851
G2 Y27.2244 I-4.4 J-0.0053
G3 X12.7774 Y26.7399 I0.6828 J-0.001
G2 X12.7861 Y26.7312 I-3.107 J-3.1155
G3 X13.2712 Y26.5303 I0.4842 J0.4829
G2 X13.2823 I0.0054 J-4.4
G3 X13.7675 Y26.7312 I0.0009 J0.684
G2 X13.7758 Y26.7396 I3.1155 J-3.107
G3 X13.977 Y27.2252 I-0.4835 J0.4847
G2 Y27.2365 I4.4 J0.0056
G1 F50.0 X14.777 Y27.2354
G3 F80.0 X14.341 Y28.2879 I-1.4836 J0.0019
G2 X14.3343 Y28.2946 I2.542 J2.5492
G3 X13.2816 Y28.7305 I-1.0506 J-1.048
G2 X13.2718 I-0.0051 J3.6
G3 X12.2193 Y28.2945 I-0.0019 J-1.4839
G2 X12.213 Y28.2883 I-2.5488 J2.5423
G3 X11.7768 Y27.2351 I1.0489 J-1.0514
G2 Y27.2255 I-3.6 J-0.0043
G3 X12.2125 Y26.1735 I1.4828 J-0.0021
G2 X12.2196 Y26.1664 I-2.5421 J-2.5491
G3 X13.2722 Y25.7303 I1.0507 J1.0478
G2 X13.2813 I0.0044 J-3.6
G3 X14.334 Y26.1663 I0.002 J1.484
G2 X14.3408 Y26.1731 I2.5491 J-2.5421
G3 X14.777 Y27.2262 I-1.0484 J1.0512
G2 Y27.2354 I3.6 J0.0045
G1 F50.0 X16.377 Y27.2333
G3 F80.0 X15.4708 Y29.4208 I-3.0836 J0.004
G2 X15.467 Y29.4246 I1.4122 J1.4162
G3 X13.2794 Y30.3305 I-2.1833 J-2.178
G2 X13.2739 I-0.0028 J2.0
G3 X11.0865 Y29.4245 I-0.004 J-3.0839
G2 X11.083 Y29.421 I-1.416 J1.4124
G3 X10.1768 Y27.2331 I2.179 J-2.1841
G2 Y27.2278 I-2.0 J-0.0024
G3 X11.0827 Y25.0405 I3.0828 J-0.0044
G2 X11.0866 Y25.0366 I-1.4123 J-1.4162
G3 X13.2741 Y24.1303 I2.1837 J2.1775
G2 X13.2792 I0.0024 J-2.0
G3 X15.4669 Y25.0365 I0.0041 J3.084
G2 X15.4707 Y25.0403 I1.4161 J-1.4123
G3 X16.377 Y27.2282 I-2.1783 J2.184
G2 Y27.2333 I2.0 J0.0025
G1 F50.0 X13.977 Y27.2365
G1 Z-4.0
G3 F80.0 X13.7761 Y27.7214 I-0.6836 J0.0009
G2 X13.7679 Y27.7296 I3.1069 J3.1157
G3 X13.2827 Y27.9305 I-0.4842 J-0.483
G2 X13.2708 I-0.0062 J4.4
G3 X12.7857 Y27.7296 I-0.0009 J-0.6839
G2 X12.778 Y27.7219 I-3.1152 J3.1073
G3 X12.5768 Y27.236 I0.4839 J-0.4851
G2 Y27.2244 I-4.4 J-0.0053
G3 X12.7774 Y26.7399 I0.6828 J-0.001
G2 X12.7861 Y26.7312 I-3.107 J-3.1155
G3 X13.2712 Y26.5303 I0.4842 J0.4829
G2 X13.2823 I0.0054 J-4.4
G3 X13.7675 Y26.7312 I0.0009 J0.684
G2 X13.7758 Y26.7396 I3.1155 J-3.107
G3 X13.977 Y27.2252 I-0.4835 J0.4847
G2 Y27.2365 I4.4 J0.0056
G1 F50.0 X14.777 Y27.2354
G3 F80.0 X14.341 Y28.2879 I-1.4836 J0.0019
G2 X14.3343 Y28.2946 I2.542 J2.5492
G3 X13.2816 Y28.7305 I-1.0506 J-1.048
G2 X13.2718 I-0.0051 J3.6
G3 X12.2193 Y28.2945 I-0.0019 J-1.4839
G2 X12.213 Y28.2883 I-2.5488 J2.5423
G3 X11.7768 Y27.2351 I1.0489 J-1.0514
G2 Y27.2255 I-3.6 J-0.0043
G3 X12.2125 Y26.1735 I1.4828 J-0.0021
G2 X12.2196 Y26.1664 I-2.5421 J-2.5491
G3 X13.2722 Y25.7303 I1.0507 J1.0478
G2 X13.2813 I0.0044 J-3.6
G3 X14.334 Y26.1663 I0.002 J1.484
G2 X14.3408 Y26.1731 I2.5491 J-2.5421
G3 X14.777 Y27.2262 I-1.0484 J1.0512
G2 Y27.2354 I3.6 J0.0045
G1 F50.0 X16.377 Y27.2333
G3 F80.0 X15.4708 Y29.4208 I-3.0836 J0.004
G2 X15.467 Y29.4246 I1.4122 J1.4162
G3 X13.2794 Y30.3305 I-2.1833 J-2.178
G2 X13.2739 I-0.0028 J2.0
G3 X11.0865 Y29.4245 I-0.004 J-3.0839
G2 X11.083 Y29.421 I-1.416 J1.4124
G3 X10.1768 Y27.2331 I2.179 J-2.1841
G2 Y27.2278 I-2.0 J-0.0024
G3 X11.0827 Y25.0405 I3.0828 J-0.0044
G2 X11.0866 Y25.0366 I-1.4123 J-1.4162
G3 X13.2741 Y24.1303 I2.1837 J2.1775
G2 X13.2792 I0.0024 J-2.0
G3 X15.4669 Y25.0365 I0.0041 J3.084
G2 X15.4707 Y25.0403 I1.4161 J-1.4123
G3 X16.377 Y27.2282 I-2.1783 J2.184
G2 Y27.2333 I2.0 J0.0025
G1 F50.0 X13.977 Y27.2365
G1 Z-5.0
G3 F80.0 X13.7761 Y27.7214 I-0.6836 J0.0009
G2 X13.7679 Y27.7296 I3.1069 J3.1157
G3 X13.2827 Y27.9305 I-0.4842 J-0.483
G2 X13.2708 I-0.0062 J4.4
G3 X12.7857 Y27.7296 I-0.0009 J-0.6839
G2 X12.778 Y27.7219 I-3.1152 J3.1073
G3 X12.5768 Y27.236 I0.4839 J-0.4851
G2 Y27.2244 I-4.4 J-0.0053
G3 X12.7774 Y26.7399 I0.6828 J-0.001
G2 X12.7861 Y26.7312 I-3.107 J-3.1155
G3 X13.2712 Y26.5303 I0.4842 J0.4829
G2 X13.2823 I0.0054 J-4.4
G3 X13.7675 Y26.7312 I0.0009 J0.684
G2 X13.7758 Y26.7396 I3.1155 J-3.107
G3 X13.977 Y27.2252 I-0.4835 J0.4847
G2 Y27.2365 I4.4 J0.0056
G1 F50.0 X14.777 Y27.2354
G3 F80.0 X14.341 Y28.2879 I-1.4836 J0.0019
G2 X14.3343 Y28.2946 I2.542 J2.5492
G3 X13.2816 Y28.7305 I-1.0506 J-1.048
G2 X13.2718 I-0.0051 J3.6
G3 X12.2193 Y28.2945 I-0.0019 J-1.4839
G2 X12.213 Y28.2883 I-2.5488 J2.5423
G3 X11.7768 Y27.2351 I1.0489 J-1.0514
G2 Y27.2255 I-3.6 J-0.0043
G3 X12.2125 Y26.1735 I1.4828 J-0.0021
G2 X12.2196 Y26.1664 I-2.5421 J-2.5491
G3 X13.2722 Y25.7303 I1.0507 J1.0478
G2 X13.2813 I0.0044 J-3.6
G3 X14.334 Y26.1663 I0.002 J1.484
G2 X14.3408 Y26.1731 I2.5491 J-2.5421
G3 X14.777 Y27.2262 I-1.0484 J1.0512
G2 Y27.2354 I3.6 J0.0045
G1 F50.0 X16.377 Y27.2333
G3 F80.0 X15.4708 Y29.4208 I-3.0836 J0.004
G2 X15.467 Y29.4246 I1.4122 J1.4162
G3 X13.2794 Y30.3305 I-2.1833 J-2.178
G2 X13.2739 I-0.0028 J2.0
G3 X11.0865 Y29.4245 I-0.004 J-3.0839
G2 X11.083 Y29.421 I-1.416 J1.4124
G3 X10.1768 Y27.2331 I2.179 J-2.1841
G2 Y27.2278 I-2.0 J-0.0024
G3 X11.0827 Y25.0405 I3.0828 J-0.0044
G2 X11.0866 Y25.0366 I-1.4123 J-1.4162
G3 X13.2741 Y24.1303 I2.1837 J2.1775
G2 X13.2792 I0.0024 J-2.0
G3 X15.4669 Y25.0365 I0.0041 J3.084
G2 X15.4707 Y25.0403 I1.4161 J-1.4123
G3 X16.377 Y27.2282 I-2.1783 J2.184
G2 Y27.2333 I2.0 J0.0025
G1 F50.0 X13.977 Y27.2365
G1 Z-6.0
G3 F80.0 X13.7761 Y27.7214 I-0.6836 J0.0009
G2 X13.7679 Y27.7296 I3.1069 J3.1157
G3 X13.2827 Y27.9305 I-0.4842 J-0.483
G2 X13.2708 I-0.0062 J4.4
G3 X12.7857 Y27.7296 I-0.0009 J-0.6839
G2 X12.778 Y27.7219 I-3.1152 J3.1073
G3 X12.5768 Y27.236 I0.4839 J-0.4851
G2 Y27.2244 I-4.4 J-0.0053
G3 X12.7774 Y26.7399 I0.6828 J-0.001
G2 X12.7861 Y26.7312 I-3.107 J-3.1155
G3 X13.2712 Y26.5303 I0.4842 J0.4829
G2 X13.2823 I0.0054 J-4.4
G3 X13.7675 Y26.7312 I0.0009 J0.684
G2 X13.7758 Y26.7396 I3.1155 J-3.107
G3 X13.977 Y27.2252 I-0.4835 J0.4847
G2 Y27.2365 I4.4 J0.0056
G1 F50.0 X14.777 Y27.2354
G3 F80.0 X14.341 Y28.2879 I-1.4836 J0.0019
G2 X14.3343 Y28.2946 I2.542 J2.5492
G3 X13.2816 Y28.7305 I-1.0506 J-1.048
G2 X13.2718 I-0.0051 J3.6
G3 X12.2193 Y28.2945 I-0.0019 J-1.4839
G2 X12.213 Y28.2883 I-2.5488 J2.5423
G3 X11.7768 Y27.2351 I1.0489 J-1.0514
G2 Y27.2255 I-3.6 J-0.0043
G3 X12.2125 Y26.1735 I1.4828 J-0.0021
G2 X12.2196 Y26.1664 I-2.5421 J-2.5491
G3 X13.2722 Y25.7303 I1.0507 J1.0478
G2 X13.2813 I0.0044 J-3.6
G3 X14.334 Y26.1663 I0.002 J1.484
G2 X14.3408 Y26.1731 I2.5491 J-2.5421
G3 X14.777 Y27.2262 I-1.0484 J1.0512
G2 Y27.2354 I3.6 J0.0045
G1 F50.0 X16.377 Y27.2333
G3 F80.0 X15.4708 Y29.4208 I-3.0836 J0.004
G2 X15.467 Y29.4246 I1.4122 J1.4162
G3 X13.2794 Y30.3305 I-2.1833 J-2.178
G2 X13.2739 I-0.0028 J2.0
G3 X11.0865 Y29.4245 I-0.004 J-3.0839
G2 X11.083 Y29.421 I-1.416 J1.4124
G3 X10.1768 Y27.2331 I2.179 J-2.1841
G2 Y27.2278 I-2.0 J-0.0024
G3 X11.0827 Y25.0405 I3.0828 J-0.0044
G2 X11.0866 Y25.0366 I-1.4123 J-1.4162
G3 X13.2741 Y24.1303 I2.1837 J2.1775
G2 X13.2792 I0.0024 J-2.0
G3 X15.4669 Y25.0365 I0.0041 J3.084
G2 X15.4707 Y25.0403 I1.4161 J-1.4123
G3 X16.377 Y27.2282 I-2.1783 J2.184
G2 Y27.2333 I2.0 J0.0025
G1 F50.0 X13.977 Y27.2365
G1 Z-7.0
G3 F80.0 X13.7761 Y27.7214 I-0.6836 J0.0009
G2 X13.7679 Y27.7296 I3.1069 J3.1157
G3 X13.2827 Y27.9305 I-0.4842 J-0.483
G2 X13.2708 I-0.0062 J4.4
G3 X12.7857 Y27.7296 I-0.0009 J-0.6839
G2 X12.778 Y27.7219 I-3.1152 J3.1073
G3 X12.5768 Y27.236 I0.4839 J-0.4851
G2 Y27.2244 I-4.4 J-0.0053
G3 X12.7774 Y26.7399 I0.6828 J-0.001
G2 X12.7861 Y26.7312 I-3.107 J-3.1155
G3 X13.2712 Y26.5303 I0.4842 J0.4829
G2 X13.2823 I0.0054 J-4.4
G3 X13.7675 Y26.7312 I0.0009 J0.684
G2 X13.7758 Y26.7396 I3.1155 J-3.107
G3 X13.977 Y27.2252 I-0.4835 J0.4847
G2 Y27.2365 I4.4 J0.0056
G1 F50.0 X14.777 Y27.2354
G3 F80.0 X14.341 Y28.2879 I-1.4836 J0.0019
G2 X14.3343 Y28.2946 I2.542 J2.5492
G3 X13.2816 Y28.7305 I-1.0506 J-1.048
G2 X13.2718 I-0.0051 J3.6
G3 X12.2193 Y28.2945 I-0.0019 J-1.4839
G2 X12.213 Y28.2883 I-2.5488 J2.5423
G3 X11.7768 Y27.2351 I1.0489 J-1.0514
G2 Y27.2255 I-3.6 J-0.0043
G3 X12.2125 Y26.1735 I1.4828 J-0.0021
G2 X12.2196 Y26.1664 I-2.5421 J-2.5491
G3 X13.2722 Y25.7303 I1.0507 J1.0478
G2 X13.2813 I0.0044 J-3.6
G3 X14.334 Y26.1663 I0.002 J1.484
G2 X14.3408 Y26.1731 I2.5491 J-2.5421
G3 X14.777 Y27.2262 I-1.0484 J1.0512
G2 Y27.2354 I3.6 J0.0045
G1 F50.0 X16.377 Y27.2333
G3 F80.0 X15.4708 Y29.4208 I-3.0836 J0.004
G2 X15.467 Y29.4246 I1.4122 J1.4162
G3 X13.2794 Y30.3305 I-2.1833 J-2.178
G2 X13.2739 I-0.0028 J2.0
G3 X11.0865 Y29.4245 I-0.004 J-3.0839
G2 X11.083 Y29.421 I-1.416 J1.4124
G3 X10.1768 Y27.2331 I2.179 J-2.1841
G2 Y27.2278 I-2.0 J-0.0024
G3 X11.0827 Y25.0405 I3.0828 J-0.0044
G2 X11.0866 Y25.0366 I-1.4123 J-1.4162
G3 X13.2741 Y24.1303 I2.1837 J2.1775
G2 X13.2792 I0.0024 J-2.0
G3 X15.4669 Y25.0365 I0.0041 J3.084
G2 X15.4707 Y25.0403 I1.4161 J-1.4123
G3 X16.377 Y27.2282 I-2.1783 J2.184
G2 Y27.2333 I2.0 J0.0025
G1 F50.0 X13.977 Y27.2365
G1 Z-8.0
G3 F80.0 X13.7761 Y27.7214 I-0.6836 J0.0009
G2 X13.7679 Y27.7296 I3.1069 J3.1157
G3 X13.2827 Y27.9305 I-0.4842 J-0.483
G2 X13.2708 I-0.0062 J4.4
G3 X12.7857 Y27.7296 I-0.0009 J-0.6839
G2 X12.778 Y27.7219 I-3.1152 J3.1073
G3 X12.5768 Y27.236 I0.4839 J-0.4851
G2 Y27.2244 I-4.4 J-0.0053
G3 X12.7774 Y26.7399 I0.6828 J-0.001
G2 X12.7861 Y26.7312 I-3.107 J-3.1155
G3 X13.2712 Y26.5303 I0.4842 J0.4829
G2 X13.2823 I0.0054 J-4.4
G3 X13.7675 Y26.7312 I0.0009 J0.684
G2 X13.7758 Y26.7396 I3.1155 J-3.107
G3 X13.977 Y27.2252 I-0.4835 J0.4847
G2 Y27.2365 I4.4 J0.0056
G1 F50.0 X14.777 Y27.2354
G3 F80.0 X14.341 Y28.2879 I-1.4836 J0.0019
G2 X14.3343 Y28.2946 I2.542 J2.5492
G3 X13.2816 Y28.7305 I-1.0506 J-1.048
G2 X13.2718 I-0.0051 J3.6
G3 X12.2193 Y28.2945 I-0.0019 J-1.4839
G2 X12.213 Y28.2883 I-2.5488 J2.5423
G3 X11.7768 Y27.2351 I1.0489 J-1.0514
G2 Y27.2255 I-3.6 J-0.0043
G3 X12.2125 Y26.1735 I1.4828 J-0.0021
G2 X12.2196 Y26.1664 I-2.5421 J-2.5491
G3 X13.2722 Y25.7303 I1.0507 J1.0478
G2 X13.2813 I0.0044 J-3.6
G3 X14.334 Y26.1663 I0.002 J1.484
G2 X14.3408 Y26.1731 I2.5491 J-2.5421
G3 X14.777 Y27.2262 I-1.0484 J1.0512
G2 Y27.2354 I3.6 J0.0045
G1 F50.0 X16.377 Y27.2333
G3 F80.0 X15.4708 Y29.4208 I-3.0836 J0.004
G2 X15.467 Y29.4246 I1.4122 J1.4162
G3 X13.2794 Y30.3305 I-2.1833 J-2.178
G2 X13.2739 I-0.0028 J2.0
G3 X11.0865 Y29.4245 I-0.004 J-3.0839
G2 X11.083 Y29.421 I-1.416 J1.4124
G3 X10.1768 Y27.2331 I2.179 J-2.1841
G2 Y27.2278 I-2.0 J-0.0024
G3 X11.0827 Y25.0405 I3.0828 J-0.0044
G2 X11.0866 Y25.0366 I-1.4123 J-1.4162
G3 X13.2741 Y24.1303 I2.1837 J2.1775
G2 X13.2792 I0.0024 J-2.0
G3 X15.4669 Y25.0365 I0.0041 J3.084
G2 X15.4707 Y25.0403 I1.4161 J-1.4123
G3 X16.377 Y27.2282 I-2.1783 J2.184
G2 Y27.2333 I2.0 J0.0025
G1 F50.0 X13.977 Y27.2365
G1 Z-9.0
G3 F80.0 X13.7761 Y27.7214 I-0.6836 J0.0009
G2 X13.7679 Y27.7296 I3.1069 J3.1157
G3 X13.2827 Y27.9305 I-0.4842 J-0.483
G2 X13.2708 I-0.0062 J4.4
G3 X12.7857 Y27.7296 I-0.0009 J-0.6839
G2 X12.778 Y27.7219 I-3.1152 J3.1073
G3 X12.5768 Y27.236 I0.4839 J-0.4851
G2 Y27.2244 I-4.4 J-0.0053
G3 X12.7774 Y26.7399 I0.6828 J-0.001
G2 X12.7861 Y26.7312 I-3.107 J-3.1155
G3 X13.2712 Y26.5303 I0.4842 J0.4829
G2 X13.2823 I0.0054 J-4.4
G3 X13.7675 Y26.7312 I0.0009 J0.684
G2 X13.7758 Y26.7396 I3.1155 J-3.107
G3 X13.977 Y27.2252 I-0.4835 J0.4847
G2 Y27.2365 I4.4 J0.0056
G1 F50.0 X14.777 Y27.2354
G3 F80.0 X14.341 Y28.2879 I-1.4836 J0.0019
G2 X14.3343 Y28.2946 I2.542 J2.5492
G3 X13.2816 Y28.7305 I-1.0506 J-1.048
G2 X13.2718 I-0.0051 J3.6
G3 X12.2193 Y28.2945 I-0.0019 J-1.4839
G2 X12.213 Y28.2883 I-2.5488 J2.5423
G3 X11.7768 Y27.2351 I1.0489 J-1.0514
G2 Y27.2255 I-3.6 J-0.0043
G3 X12.2125 Y26.1735 I1.4828 J-0.0021
G2 X12.2196 Y26.1664 I-2.5421 J-2.5491
G3 X13.2722 Y25.7303 I1.0507 J1.0478
G2 X13.2813 I0.0044 J-3.6
G3 X14.334 Y26.1663 I0.002 J1.484
G2 X14.3408 Y26.1731 I2.5491 J-2.5421
G3 X14.777 Y27.2262 I-1.0484 J1.0512
G2 Y27.2354 I3.6 J0.0045
G1 F50.0 X16.377 Y27.2333
G3 F80.0 X15.4708 Y29.4208 I-3.0836 J0.004
G2 X15.467 Y29.4246 I1.4122 J1.4162
G3 X13.2794 Y30.3305 I-2.1833 J-2.178
G2 X13.2739 I-0.0028 J2.0
G3 X11.0865 Y29.4245 I-0.004 J-3.0839
G2 X11.083 Y29.421 I-1.416 J1.4124
G3 X10.1768 Y27.2331 I2.179 J-2.1841
G2 Y27.2278 I-2.0 J-0.0024
G3 X11.0827 Y25.0405 I3.0828 J-0.0044
G2 X11.0866 Y25.0366 I-1.4123 J-1.4162
G3 X13.2741 Y24.1303 I2.1837 J2.1775
G2 X13.2792 I0.0024 J-2.0
G3 X15.4669 Y25.0365 I0.0041 J3.084
G2 X15.4707 Y25.0403 I1.4161 J-1.4123
G3 X16.377 Y27.2282 I-2.1783 J2.184
G2 Y27.2333 I2.0 J0.0025
G1 F50.0 X13.977 Y27.2365
G1 Z-10.0
G3 F80.0 X13.7761 Y27.7214 I-0.6836 J0.0009
G2 X13.7679 Y27.7296 I3.1069 J3.1157
G3 X13.2827 Y27.9305 I-0.4842 J-0.483
G2 X13.2708 I-0.0062 J4.4
G3 X12.7857 Y27.7296 I-0.0009 J-0.6839
G2 X12.778 Y27.7219 I-3.1152 J3.1073
G3 X12.5768 Y27.236 I0.4839 J-0.4851
G2 Y27.2244 I-4.4 J-0.0053
G3 X12.7774 Y26.7399 I0.6828 J-0.001
G2 X12.7861 Y26.7312 I-3.107 J-3.1155
G3 X13.2712 Y26.5303 I0.4842 J0.4829
G2 X13.2823 I0.0054 J-4.4
G3 X13.7675 Y26.7312 I0.0009 J0.684
G2 X13.7758 Y26.7396 I3.1155 J-3.107
G3 X13.977 Y27.2252 I-0.4835 J0.4847
G2 Y27.2365 I4.4 J0.0056
G1 F50.0 X14.777 Y27.2354
G3 F80.0 X14.341 Y28.2879 I-1.4836 J0.0019
G2 X14.3343 Y28.2946 I2.542 J2.5492
G3 X13.2816 Y28.7305 I-1.0506 J-1.048
G2 X13.2718 I-0.0051 J3.6
G3 X12.2193 Y28.2945 I-0.0019 J-1.4839
G2 X12.213 Y28.2883 I-2.5488 J2.5423
G3 X11.7768 Y27.2351 I1.0489 J-1.0514
G2 Y27.2255 I-3.6 J-0.0043
G3 X12.2125 Y26.1735 I1.4828 J-0.0021
G2 X12.2196 Y26.1664 I-2.5421 J-2.5491
G3 X13.2722 Y25.7303 I1.0507 J1.0478
G2 X13.2813 I0.0044 J-3.6
G3 X14.334 Y26.1663 I0.002 J1.484
G2 X14.3408 Y26.1731 I2.5491 J-2.5421
G3 X14.777 Y27.2262 I-1.0484 J1.0512
G2 Y27.2354 I3.6 J0.0045
G1 F50.0 X16.377 Y27.2333
G3 F80.0 X15.4708 Y29.4208 I-3.0836 J0.004
G2 X15.467 Y29.4246 I1.4122 J1.4162
G3 X13.2794 Y30.3305 I-2.1833 J-2.178
G2 X13.2739 I-0.0028 J2.0
G3 X11.0865 Y29.4245 I-0.004 J-3.0839
G2 X11.083 Y29.421 I-1.416 J1.4124
G3 X10.1768 Y27.2331 I2.179 J-2.1841
G2 Y27.2278 I-2.0 J-0.0024
G3 X11.0827 Y25.0405 I3.0828 J-0.0044
G2 X11.0866 Y25.0366 I-1.4123 J-1.4162
G3 X13.2741 Y24.1303 I2.1837 J2.1775
G2 X13.2792 I0.0024 J-2.0
G3 X15.4669 Y25.0365 I0.0041 J3.084
G2 X15.4707 Y25.0403 I1.4161 J-1.4123
G3 X16.377 Y27.2282 I-2.1783 J2.184
G2 Y27.2333 I2.0 J0.0025
G1 F50.0 X13.977 Y27.2365
G1 Z-11.0
G3 F80.0 X13.7761 Y27.7214 I-0.6836 J0.0009
G2 X13.7679 Y27.7296 I3.1069 J3.1157
G3 X13.2827 Y27.9305 I-0.4842 J-0.483
G2 X13.2708 I-0.0062 J4.4
G3 X12.7857 Y27.7296 I-0.0009 J-0.6839
G2 X12.778 Y27.7219 I-3.1152 J3.1073
G3 X12.5768 Y27.236 I0.4839 J-0.4851
G2 Y27.2244 I-4.4 J-0.0053
G3 X12.7774 Y26.7399 I0.6828 J-0.001
G2 X12.7861 Y26.7312 I-3.107 J-3.1155
G3 X13.2712 Y26.5303 I0.4842 J0.4829
G2 X13.2823 I0.0054 J-4.4
G3 X13.7675 Y26.7312 I0.0009 J0.684
G2 X13.7758 Y26.7396 I3.1155 J-3.107
G3 X13.977 Y27.2252 I-0.4835 J0.4847
G2 Y27.2365 I4.4 J0.0056
G1 F50.0 X14.777 Y27.2354
G3 F80.0 X14.341 Y28.2879 I-1.4836 J0.0019
G2 X14.3343 Y28.2946 I2.542 J2.5492
G3 X13.2816 Y28.7305 I-1.0506 J-1.048
G2 X13.2718 I-0.0051 J3.6
G3 X12.2193 Y28.2945 I-0.0019 J-1.4839
G2 X12.213 Y28.2883 I-2.5488 J2.5423
G3 X11.7768 Y27.2351 I1.0489 J-1.0514
G2 Y27.2255 I-3.6 J-0.0043
G3 X12.2125 Y26.1735 I1.4828 J-0.0021
G2 X12.2196 Y26.1664 I-2.5421 J-2.5491
G3 X13.2722 Y25.7303 I1.0507 J1.0478
G2 X13.2813 I0.0044 J-3.6
G3 X14.334 Y26.1663 I0.002 J1.484
G2 X14.3408 Y26.1731 I2.5491 J-2.5421
G3 X14.777 Y27.2262 I-1.0484 J1.0512
G2 Y27.2354 I3.6 J0.0045
G1 F50.0 X16.377 Y27.2333
G3 F80.0 X15.4708 Y29.4208 I-3.0836 J0.004
G2 X15.467 Y29.4246 I1.4122 J1.4162
G3 X13.2794 Y30.3305 I-2.1833 J-2.178
G2 X13.2739 I-0.0028 J2.0
G3 X11.0865 Y29.4245 I-0.004 J-3.0839
G2 X11.083 Y29.421 I-1.416 J1.4124
G3 X10.1768 Y27.2331 I2.179 J-2.1841
G2 Y27.2278 I-2.0 J-0.0024
G3 X11.0827 Y25.0405 I3.0828 J-0.0044
G2 X11.0866 Y25.0366 I-1.4123 J-1.4162
G3 X13.2741 Y24.1303 I2.1837 J2.1775
G2 X13.2792 I0.0024 J-2.0
G3 X15.4669 Y25.0365 I0.0041 J3.084
G2 X15.4707 Y25.0403 I1.4161 J-1.4123
G3 X16.377 Y27.2282 I-2.1783 J2.184
G2 Y27.2333 I2.0 J0.0025
G0 Z3.0
G0 X13.4319 Y11.9163
G0 Z1.0
G1 F50.0 Z-1.0
G3 F80.0 X13.2832 Y11.9304 I-0.1477 J-0.7684
G2 X13.2696 I-0.0063 J5.2
G3 X12.7161 Y11.7011 I-0.0011 J-0.7802
G2 X12.7064 Y11.6915 I-3.682 J3.6719
G3 X12.4767 Y11.1369 I0.5522 J-0.5536
G2 Y11.1226 I-5.2 J-0.0065
G3 X12.5989 Y10.7084 I0.7589 J-0.0011
G2 X12.5997 Y10.7072 I-4.3626 J-2.8298
G3 X12.9528 Y10.4034 I0.695 J0.4505
G2 X13.277 Y10.2426 I-2.1467 J-4.7362
G2 X13.6007 Y10.4031 I2.4703 J-4.5757
G3 X13.9538 Y10.707 I-0.3419 J0.7545
G2 X13.9544 Y10.7079 I4.3634 J-2.8285
G3 X14.0769 Y11.1229 I-0.6382 J0.4139
G2 Y11.1375 I5.2 J0.0076
G3 X13.8476 Y11.691 I-0.7802 J0.0011
G2 X13.8381 Y11.7005 I3.6719 J3.682
G3 X13.4319 Y11.9163 I-0.554 J-0.5526
G1 F50.0 X13.734 Y13.4875
G3 F80.0 X13.2812 Y13.5304 I-0.4499 J-2.3396
G2 X13.2718 I-0.0043 J3.6
G3 X11.5832 Y12.831 I-0.0033 J-2.3802
G2 X11.5765 Y12.8243 I-2.549 J2.5421
G3 X10.8767 Y11.1349 I1.6821 J-1.6864
G2 Y11.125 I-3.6 J-0.0045
G3 X11.2566 Y9.8377 I2.3589 J-0.0036
G2 X11.2571 Y9.8369 I-3.0203 J-1.9591
G3 X12.2922 Y8.9461 I2.0375 J1.3208
G2 X13.2769 Y8.2854 I-1.4862 J-3.2789
G2 X14.2612 Y8.9458 I2.4705 J-2.6185
G3 X15.2964 Y9.8366 I-1.0025 J2.2118
G2 X15.2968 Y9.8373 I3.0208 J-1.9582
G3 X15.6769 Y11.1252 I-1.9806 J1.2845
G2 Y11.1353 I3.6 J0.0052
G3 X14.9774 Y12.8239 I-2.3802 J0.0033
G2 X14.9708 Y12.8305 I2.5421 J2.5491
G3 X13.734 Y13.4875 I-1.6867 J-1.6826
G1 F50.0 X14.0361 Y15.0588
G3 F80.0 X13.2793 Y15.1304 I-0.752 J-3.9108
G2 X13.2741 I-0.0024 J2.0
G3 X10.4503 Y13.9608 I-0.0056 J-3.9802
G2 X10.4465 Y13.9571 I-1.4161 J1.4123
G3 X9.2767 Y11.1329 I2.8121 J-2.8192
G2 Y11.1274 I-2.0 J-0.0025
G3 X9.9142 Y8.967 I3.9589 J-0.006
G2 X9.9145 Y8.9666 I-1.6779 J-1.0884
G3 X11.6317 Y7.4888 I3.3801 J2.1912
G2 X12.785 Y5.9567 I-0.8257 J-1.8216
G3 X13.2768 Y5.5305 I0.493 J0.0721
G3 X13.7685 Y5.9566 I-0.0012 J0.4982
G2 X14.9217 Y7.4885 I1.9789 J-0.2897
G3 X16.639 Y8.9663 I-1.663 J3.6691
G2 X16.6392 Y8.9667 I1.6782 J-1.0879
G3 X17.2769 Y11.1275 I-3.323 J2.1551
G2 Y11.1332 I2.0 J0.0029
G3 X16.1073 Y13.9568 I-3.9802 J0.0054
G2 X16.1036 Y13.9605 I1.4123 J1.4161
G3 X14.0361 Y15.0588 I-2.8195 J-2.8126
G0 Z3.0
G0 X13.4319 Y11.9163
G0 Z0.0
G1 F50.0 Z-2.0
G3 F80.0 X13.2832 Y11.9304 I-0.1477 J-0.7684
G2 X13.2696 I-0.0063 J5.2
G3 X12.7161 Y11.7011 I-0.0011 J-0.7802
G2 X12.7064 Y11.6915 I-3.682 J3.6719
G3 X12.4767 Y11.1369 I0.5522 J-0.5536
G2 Y11.1226 I-5.2 J-0.0065
G3 X12.5989 Y10.7084 I0.7589 J-0.0011
G2 X12.5997 Y10.7072 I-4.3626 J-2.8298
G3 X12.9528 Y10.4034 I0.695 J0.4505
G2 X13.277 Y10.2426 I-2.1467 J-4.7362
G2 X13.6007 Y10.4031 I2.4703 J-4.5757
G3 X13.9538 Y10.707 I-0.3419 J0.7545
G2 X13.9544 Y10.7079 I4.3634 J-2.8285
G3 X14.0769 Y11.1229 I-0.6382 J0.4139
G2 Y11.1375 I5.2 J0.0076
G3 X13.8476 Y11.691 I-0.7802 J0.0011
G2 X13.8381 Y11.7005 I3.6719 J3.682
G3 X13.4319 Y11.9163 I-0.554 J-0.5526
G1 F50.0 X13.734 Y13.4875
G3 F80.0 X13.2812 Y13.5304 I-0.4499 J-2.3396
G2 X13.2718 I-0.0043 J3.6
G3 X11.5832 Y12.831 I-0.0033 J-2.3802
G2 X11.5765 Y12.8243 I-2.549 J2.5421
G3 X10.8767 Y11.1349 I1.6821 J-1.6864
G2 Y11.125 I-3.6 J-0.0045
G3 X11.2566 Y9.8377 I2.3589 J-0.0036
G2 X11.2571 Y9.8369 I-3.0203 J-1.9591
G3 X12.2922 Y8.9461 I2.0375 J1.3208
G2 X13.2769 Y8.2854 I-1.4862 J-3.2789
G2 X14.2612 Y8.9458 I2.4705 J-2.6185
G3 X15.2964 Y9.8366 I-1.0025 J2.2118
G2 X15.2968 Y9.8373 I3.0208 J-1.9582
G3 X15.6769 Y11.1252 I-1.9806 J1.2845
G2 Y11.1353 I3.6 J0.0052
G3 X14.9774 Y12.8239 I-2.3802 J0.0033
G2 X14.9708 Y12.8305 I2.5421 J2.5491
G3 X13.734 Y13.4875 I-1.6867 J-1.6826
G1 F50.0 X14.0361 Y15.0588
G3 F80.0 X13.2793 Y15.1304 I-0.752 J-3.9108
G2 X13.2741 I-0.0024 J2.0
G3 X10.4503 Y13.9608 I-0.0056 J-3.9802
G2 X10.4465 Y13.9571 I-1.4161 J1.4123
G3 X9.2767 Y11.1329 I2.8121 J-2.8192
G2 Y11.1274 I-2.0 J-0.0025
G3 X9.9142 Y8.967 I3.9589 J-0.006
G2 X9.9145 Y8.9666 I-1.6779 J-1.0884
G3 X11.6317 Y7.4888 I3.3801 J2.1912
G2 X12.785 Y5.9567 I-0.8257 J-1.8216
G3 X13.2768 Y5.5305 I0.493 J0.0721
G3 X13.7685 Y5.9566 I-0.0012 J0.4982
G2 X14.9217 Y7.4885 I1.9789 J-0.2897
G3 X16.639 Y8.9663 I-1.663 J3.6691
G2 X16.6392 Y8.9667 I1.6782 J-1.0879
G3 X17.2769 Y11.1275 I-3.323 J2.1551
G2 Y11.1332 I2.0 J0.0029
G3 X16.1073 Y13.9568 I-3.9802 J0.0054
G2 X16.1036 Y13.9605 I1.4123 J1.4161
G3 X14.0361 Y15.0588 I-2.8195 J-2.8126
G0 Z3.0
G0 X13.4319 Y11.9163
G0 Z-1.0
G1 F50.0 Z-3.0
G3 F80.0 X13.2832 Y11.9304 I-0.1477 J-0.7684
G2 X13.2696 I-0.0063 J5.2
G3 X12.7161 Y11.7011 I-0.0011 J-0.7802
G2 X12.7064 Y11.6915 I-3.682 J3.6719
G3 X12.4767 Y11.1369 I0.5522 J-0.5536
G2 Y11.1226 I-5.2 J-0.0065
G3 X12.5989 Y10.7084 I0.7589 J-0.0011
G2 X12.5997 Y10.7072 I-4.3626 J-2.8298
G3 X12.9528 Y10.4034 I0.695 J0.4505
G2 X13.277 Y10.2426 I-2.1467 J-4.7362
G2 X13.6007 Y10.4031 I2.4703 J-4.5757
G3 X13.9538 Y10.707 I-0.3419 J0.7545
G2 X13.9544 Y10.7079 I4.3634 J-2.8285
G3 X14.0769 Y11.1229 I-0.6382 J0.4139
G2 Y11.1375 I5.2 J0.0076
G3 X13.8476 Y11.691 I-0.7802 J0.0011
G2 X13.8381 Y11.7005 I3.6719 J3.682
G3 X13.4319 Y11.9163 I-0.554 J-0.5526
G1 F50.0 X13.734 Y13.4875
G3 F80.0 X13.2812 Y13.5304 I-0.4499 J-2.3396
G2 X13.2718 I-0.0043 J3.6
G3 X11.5832 Y12.831 I-0.0033 J-2.3802
G2 X11.5765 Y12.8243 I-2.549 J2.5421
G3 X10.8767 Y11.1349 I1.6821 J-1.6864
G2 Y11.125 I-3.6 J-0.0045
G3 X11.2566 Y9.8377 I2.3589 J-0.0036
G2 X11.2571 Y9.8369 I-3.0203 J-1.9591
G3 X12.2922 Y8.9461 I2.0375 J1.3208
G2 X13.2769 Y8.2854 I-1.4862 J-3.2789
G2 X14.2612 Y8.9458 I2.4705 J-2.6185
G3 X15.2964 Y9.8366 I-1.0025 J2.2118
G2 X15.2968 Y9.8373 I3.0208 J-1.9582
G3 X15.6769 Y11.1252 I-1.9806 J1.2845
G2 Y11.1353 I3.6 J0.0052
G3 X14.9774 Y12.8239 I-2.3802 J0.0033
G2 X14.9708 Y12.8305 I2.5421 J2.5491
G3 X13.734 Y13.4875 I-1.6867 J-1.6826
G1 F50.0 X14.0361 Y15.0588
G3 F80.0 X13.2793 Y15.1304 I-0.752 J-3.9108
G2 X13.2741 I-0.0024 J2.0
G3 X10.4503 Y13.9608 I-0.0056 J-3.9802
G2 X10.4465 Y13.9571 I-1.4161 J1.4123
G3 X9.2767 Y11.1329 I2.8121 J-2.8192
G2 Y11.1274 I-2.0 J-0.0025
G3 X9.9142 Y8.967 I3.9589 J-0.006
G2 X9.9145 Y8.9666 I-1.6779 J-1.0884
G3 X11.6317 Y7.4888 I3.3801 J2.1912
G2 X12.785 Y5.9567 I-0.8257 J-1.8216
G3 X13.2768 Y5.5305 I0.493 J0.0721
G3 X13.7685 Y5.9566 I-0.0012 J0.4982
G2 X14.9217 Y7.4885 I1.9789 J-0.2897
G3 X16.639 Y8.9663 I-1.663 J3.6691
G2 X16.6392 Y8.9667 I1.6782 J-1.0879
G3 X17.2769 Y11.1275 I-3.323 J2.1551
G2 Y11.1332 I2.0 J0.0029
G3 X16.1073 Y13.9568 I-3.9802 J0.0054
G2 X16.1036 Y13.9605 I1.4123 J1.4161
G3 X14.0361 Y15.0588 I-2.8195 J-2.8126
G0 Z3.0
G0 X13.4319 Y11.9163
G0 Z-2.0
G1 F50.0 Z-4.0
G3 F80.0 X13.2832 Y11.9304 I-0.1477 J-0.7684
G2 X13.2696 I-0.0063 J5.2
G3 X12.7161 Y11.7011 I-0.0011 J-0.7802
G2 X12.7064 Y11.6915 I-3.682 J3.6719
G3 X12.4767 Y11.1369 I0.5522 J-0.5536
G2 Y11.1226 I-5.2 J-0.0065
G3 X12.5989 Y10.7084 I0.7589 J-0.0011
G2 X12.5997 Y10.7072 I-4.3626 J-2.8298
G3 X12.9528 Y10.4034 I0.695 J0.4505
G2 X13.277 Y10.2426 I-2.1467 J-4.7362
G2 X13.6007 Y10.4031 I2.4703 J-4.5757
G3 X13.9538 Y10.707 I-0.3419 J0.7545
G2 X13.9544 Y10.7079 I4.3634 J-2.8285
G3 X14.0769 Y11.1229 I-0.6382 J0.4139
G2 Y11.1375 I5.2 J0.0076
G3 X13.8476 Y11.691 I-0.7802 J0.0011
G2 X13.8381 Y11.7005 I3.6719 J3.682
G3 X13.4319 Y11.9163 I-0.554 J-0.5526
G1 F50.0 X13.734 Y13.4875
G3 F80.0 X13.2812 Y13.5304 I-0.4499 J-2.3396
G2 X13.2718 I-0.0043 J3.6
G3 X11.5832 Y12.831 I-0.0033 J-2.3802
G2 X11.5765 Y12.8243 I-2.549 J2.5421
G3 X10.8767 Y11.1349 I1.6821 J-1.6864
G2 Y11.125 I-3.6 J-0.0045
G3 X11.2566 Y9.8377 I2.3589 J-0.0036
G2 X11.2571 Y9.8369 I-3.0203 J-1.9591
G3 X12.2922 Y8.9461 I2.0375 J1.3208
G2 X13.2769 Y8.2854 I-1.4862 J-3.2789
G2 X14.2612 Y8.9458 I2.4705 J-2.6185
G3 X15.2964 Y9.8366 I-1.0025 J2.2118
G2 X15.2968 Y9.8373 I3.0208 J-1.9582
G3 X15.6769 Y11.1252 I-1.9806 J1.2845
G2 Y11.1353 I3.6 J0.0052
G3 X14.9774 Y12.8239 I-2.3802 J0.0033
G2 X14.9708 Y12.8305 I2.5421 J2.5491
G3 X13.734 Y13.4875 I-1.6867 J-1.6826
G1 F50.0 X14.0361 Y15.0588
G3 F80.0 X13.2793 Y15.1304 I-0.752 J-3.9108
G2 X13.2741 I-0.0024 J2.0
G3 X10.4503 Y13.9608 I-0.0056 J-3.9802
G2 X10.4465 Y13.9571 I-1.4161 J1.4123
G3 X9.2767 Y11.1329 I2.8121 J-2.8192
G2 Y11.1274 I-2.0 J-0.0025
G3 X9.9142 Y8.967 I3.9589 J-0.006
G2 X9.9145 Y8.9666 I-1.6779 J-1.0884
G3 X11.6317 Y7.4888 I3.3801 J2.1912
G2 X12.785 Y5.9567 I-0.8257 J-1.8216
G3 X13.2768 Y5.5305 I0.493 J0.0721
G3 X13.7685 Y5.9566 I-0.0012 J0.4982
G2 X14.9217 Y7.4885 I1.9789 J-0.2897
G3 X16.639 Y8.9663 I-1.663 J3.6691
G2 X16.6392 Y8.9667 I1.6782 J-1.0879
G3 X17.2769 Y11.1275 I-3.323 J2.1551
G2 Y11.1332 I2.0 J0.0029
G3 X16.1073 Y13.9568 I-3.9802 J0.0054
G2 X16.1036 Y13.9605 I1.4123 J1.4161
G3 X14.0361 Y15.0588 I-2.8195 J-2.8126
G0 Z3.0
G0 X13.4319 Y11.9163
G0 Z-3.0
G1 F50.0 Z-5.0
G3 F80.0 X13.2832 Y11.9304 I-0.1477 J-0.7684
G2 X13.2696 I-0.0063 J5.2
G3 X12.7161 Y11.7011 I-0.0011 J-0.7802
G2 X12.7064 Y11.6915 I-3.682 J3.6719
G3 X12.4767 Y11.1369 I0.5522 J-0.5536
G2 Y11.1226 I-5.2 J-0.0065
G3 X12.5989 Y10.7084 I0.7589 J-0.0011
G2 X12.5997 Y10.7072 I-4.3626 J-2.8298
G3 X12.9528 Y10.4034 I0.695 J0.4505
G2 X13.277 Y10.2426 I-2.1467 J-4.7362
G2 X13.6007 Y10.4031 I2.4703 J-4.5757
G3 X13.9538 Y10.707 I-0.3419 J0.7545
G2 X13.9544 Y10.7079 I4.3634 J-2.8285
G3 X14.0769 Y11.1229 I-0.6382 J0.4139
G2 Y11.1375 I5.2 J0.0076
G3 X13.8476 Y11.691 I-0.7802 J0.0011
G2 X13.8381 Y11.7005 I3.6719 J3.682
G3 X13.4319 Y11.9163 I-0.554 J-0.5526
G1 F50.0 X13.734 Y13.4875
G3 F80.0 X13.2812 Y13.5304 I-0.4499 J-2.3396
G2 X13.2718 I-0.0043 J3.6
G3 X11.5832 Y12.831 I-0.0033 J-2.3802
G2 X11.5765 Y12.8243 I-2.549 J2.5421
G3 X10.8767 Y11.1349 I1.6821 J-1.6864
G2 Y11.125 I-3.6 J-0.0045
G3 X11.2566 Y9.8377 I2.3589 J-0.0036
G2 X11.2571 Y9.8369 I-3.0203 J-1.9591
G3 X12.2922 Y8.9461 I2.0375 J1.3208
G2 X13.2769 Y8.2854 I-1.4862 J-3.2789
G2 X14.2612 Y8.9458 I2.4705 J-2.6185
G3 X15.2964 Y9.8366 I-1.0025 J2.2118
G2 X15.2968 Y9.8373 I3.0208 J-1.9582
G3 X15.6769 Y11.1252 I-1.9806 J1.2845
G2 Y11.1353 I3.6 J0.0052
G3 X14.9774 Y12.8239 I-2.3802 J0.0033
G2 X14.9708 Y12.8305 I2.5421 J2.5491
G3 X13.734 Y13.4875 I-1.6867 J-1.6826
G1 F50.0 X14.0361 Y15.0588
G3 F80.0 X13.2793 Y15.1304 I-0.752 J-3.9108
G2 X13.2741 I-0.0024 J2.0
G3 X10.4503 Y13.9608 I-0.0056 J-3.9802
G2 X10.4465 Y13.9571 I-1.4161 J1.4123
G3 X9.2767 Y11.1329 I2.8121 J-2.8192
G2 Y11.1274 I-2.0 J-0.0025
G3 X9.9142 Y8.967 I3.9589 J-0.006
G2 X9.9145 Y8.9666 I-1.6779 J-1.0884
G3 X11.6317 Y7.4888 I3.3801 J2.1912
G2 X12.785 Y5.9567 I-0.8257 J-1.8216
G3 X13.2768 Y5.5305 I0.493 J0.0721
G3 X13.7685 Y5.9566 I-0.0012 J0.4982
G2 X14.9217 Y7.4885 I1.9789 J-0.2897
G3 X16.639 Y8.9663 I-1.663 J3.6691
G2 X16.6392 Y8.9667 I1.6782 J-1.0879
G3 X17.2769 Y11.1275 I-3.323 J2.1551
G2 Y11.1332 I2.0 J0.0029
G3 X16.1073 Y13.9568 I-3.9802 J0.0054
G2 X16.1036 Y13.9605 I1.4123 J1.4161
G3 X14.0361 Y15.0588 I-2.8195 J-2.8126
G0 Z3.0
G0 X13.4319 Y11.9163
G0 Z-4.0
G1 F50.0 Z-6.0
G3 F80.0 X13.2832 Y11.9304 I-0.1477 J-0.7684
G2 X13.2696 I-0.0063 J5.2
G3 X12.7161 Y11.7011 I-0.0011 J-0.7802
G2 X12.7064 Y11.6915 I-3.682 J3.6719
G3 X12.4767 Y11.1369 I0.5522 J-0.5536
G2 Y11.1226 I-5.2 J-0.0065
G3 X12.5989 Y10.7084 I0.7589 J-0.0011
G2 X12.5997 Y10.7072 I-4.3626 J-2.8298
G3 X12.9528 Y10.4034 I0.695 J0.4505
G2 X13.277 Y10.2426 I-2.1467 J-4.7362
G2 X13.6007 Y10.4031 I2.4703 J-4.5757
G3 X13.9538 Y10.707 I-0.3419 J0.7545
G2 X13.9544 Y10.7079 I4.3634 J-2.8285
G3 X14.0769 Y11.1229 I-0.6382 J0.4139
G2 Y11.1375 I5.2 J0.0076
G3 X13.8476 Y11.691 I-0.7802 J0.0011
G2 X13.8381 Y11.7005 I3.6719 J3.682
G3 X13.4319 Y11.9163 I-0.554 J-0.5526
G1 F50.0 X13.734 Y13.4875
G3 F80.0 X13.2812 Y13.5304 I-0.4499 J-2.3396
G2 X13.2718 I-0.0043 J3.6
G3 X11.5832 Y12.831 I-0.0033 J-2.3802
G2 X11.5765 Y12.8243 I-2.549 J2.5421
G3 X10.8767 Y11.1349 I1.6821 J-1.6864
G2 Y11.125 I-3.6 J-0.0045
G3 X11.2566 Y9.8377 I2.3589 J-0.0036
G2 X11.2571 Y9.8369 I-3.0203 J-1.9591
G3 X12.2922 Y8.9461 I2.0375 J1.3208
G2 X13.2769 Y8.2854 I-1.4862 J-3.2789
G2 X14.2612 Y8.9458 I2.4705 J-2.6185
G3 X15.2964 Y9.8366 I-1.0025 J2.2118
G2 X15.2968 Y9.8373 I3.0208 J-1.9582
G3 X15.6769 Y11.1252 I-1.9806 J1.2845
G2 Y11.1353 I3.6 J0.0052
G3 X14.9774 Y12.8239 I-2.3802 J0.0033
G2 X14.9708 Y12.8305 I2.5421 J2.5491
G3 X13.734 Y13.4875 I-1.6867 J-1.6826
G1 F50.0 X14.0361 Y15.0588
G3 F80.0 X13.2793 Y15.1304 I-0.752 J-3.9108
G2 X13.2741 I-0.0024 J2.0
G3 X10.4503 Y13.9608 I-0.0056 J-3.9802
G2 X10.4465 Y13.9571 I-1.4161 J1.4123
G3 X9.2767 Y11.1329 I2.8121 J-2.8192
G2 Y11.1274 I-2.0 J-0.0025
G3 X9.9142 Y8.967 I3.9589 J-0.006
G2 X9.9145 Y8.9666 I-1.6779 J-1.0884
G3 X11.6317 Y7.4888 I3.3801 J2.1912
G2 X12.785 Y5.9567 I-0.8257 J-1.8216
G3 X13.2768 Y5.5305 I0.493 J0.0721
G3 X13.7685 Y5.9566 I-0.0012 J0.4982
G2 X14.9217 Y7.4885 I1.9789 J-0.2897
G3 X16.639 Y8.9663 I-1.663 J3.6691
G2 X16.6392 Y8.9667 I1.6782 J-1.0879
G3 X17.2769 Y11.1275 I-3.323 J2.1551
G2 Y11.1332 I2.0 J0.0029
G3 X16.1073 Y13.9568 I-3.9802 J0.0054
G2 X16.1036 Y13.9605 I1.4123 J1.4161
G3 X14.0361 Y15.0588 I-2.8195 J-2.8126
G0 Z3.0
G0 X13.4319 Y11.9163
G0 Z-5.0
G1 F50.0 Z-7.0
G3 F80.0 X13.2832 Y11.9304 I-0.1477 J-0.7684
G2 X13.2696 I-0.0063 J5.2
G3 X12.7161 Y11.7011 I-0.0011 J-0.7802
G2 X12.7064 Y11.6915 I-3.682 J3.6719
G3 X12.4767 Y11.1369 I0.5522 J-0.5536
G2 Y11.1226 I-5.2 J-0.0065
G3 X12.5989 Y10.7084 I0.7589 J-0.0011
G2 X12.5997 Y10.7072 I-4.3626 J-2.8298
G3 X12.9528 Y10.4034 I0.695 J0.4505
G2 X13.277 Y10.2426 I-2.1467 J-4.7362
G2 X13.6007 Y10.4031 I2.4703 J-4.5757
G3 X13.9538 Y10.707 I-0.3419 J0.7545
G2 X13.9544 Y10.7079 I4.3634 J-2.8285
G3 X14.0769 Y11.1229 I-0.6382 J0.4139
G2 Y11.1375 I5.2 J0.0076
G3 X13.8476 Y11.691 I-0.7802 J0.0011
G2 X13.8381 Y11.7005 I3.6719 J3.682
G3 X13.4319 Y11.9163 I-0.554 J-0.5526
G1 F50.0 X13.734 Y13.4875
G3 F80.0 X13.2812 Y13.5304 I-0.4499 J-2.3396
G2 X13.2718 I-0.0043 J3.6
G3 X11.5832 Y12.831 I-0.0033 J-2.3802
G2 X11.5765 Y12.8243 I-2.549 J2.5421
G3 X10.8767 Y11.1349 I1.6821 J-1.6864
G2 Y11.125 I-3.6 J-0.0045
G3 X11.2566 Y9.8377 I2.3589 J-0.0036
G2 X11.2571 Y9.8369 I-3.0203 J-1.9591
G3 X12.2922 Y8.9461 I2.0375 J1.3208
G2 X13.2769 Y8.2854 I-1.4862 J-3.2789
G2 X14.2612 Y8.9458 I2.4705 J-2.6185
G3 X15.2964 Y9.8366 I-1.0025 J2.2118
G2 X15.2968 Y9.8373 I3.0208 J-1.9582
G3 X15.6769 Y11.1252 I-1.9806 J1.2845
G2 Y11.1353 I3.6 J0.0052
G3 X14.9774 Y12.8239 I-2.3802 J0.0033
G2 X14.9708 Y12.8305 I2.5421 J2.5491
G3 X13.734 Y13.4875 I-1.6867 J-1.6826
G1 F50.0 X14.0361 Y15.0588
G3 F80.0 X13.2793 Y15.1304 I-0.752 J-3.9108
G2 X13.2741 I-0.0024 J2.0
G3 X10.4503 Y13.9608 I-0.0056 J-3.9802
G2 X10.4465 Y13.9571 I-1.4161 J1.4123
G3 X9.2767 Y11.1329 I2.8121 J-2.8192
G2 Y11.1274 I-2.0 J-0.0025
G3 X9.9142 Y8.967 I3.9589 J-0.006
G2 X9.9145 Y8.9666 I-1.6779 J-1.0884
G3 X11.6317 Y7.4888 I3.3801 J2.1912
G2 X12.785 Y5.9567 I-0.8257 J-1.8216
G3 X13.2768 Y5.5305 I0.493 J0.0721
G3 X13.7685 Y5.9566 I-0.0012 J0.4982
G2 X14.9217 Y7.4885 I1.9789 J-0.2897
G3 X16.639 Y8.9663 I-1.663 J3.6691
G2 X16.6392 Y8.9667 I1.6782 J-1.0879
G3 X17.2769 Y11.1275 I-3.323 J2.1551
G2 Y11.1332 I2.0 J0.0029
G3 X16.1073 Y13.9568 I-3.9802 J0.0054
G2 X16.1036 Y13.9605 I1.4123 J1.4161
G3 X14.0361 Y15.0588 I-2.8195 J-2.8126
G0 Z3.0
G0 X13.4319 Y11.9163
G0 Z-6.0
G1 F50.0 Z-8.0
G3 F80.0 X13.2832 Y11.9304 I-0.1477 J-0.7684
G2 X13.2696 I-0.0063 J5.2
G3 X12.7161 Y11.7011 I-0.0011 J-0.7802
G2 X12.7064 Y11.6915 I-3.682 J3.6719
G3 X12.4767 Y11.1369 I0.5522 J-0.5536
G2 Y11.1226 I-5.2 J-0.0065
G3 X12.5989 Y10.7084 I0.7589 J-0.0011
G2 X12.5997 Y10.7072 I-4.3626 J-2.8298
G3 X12.9528 Y10.4034 I0.695 J0.4505
G2 X13.277 Y10.2426 I-2.1467 J-4.7362
G2 X13.6007 Y10.4031 I2.4703 J-4.5757
G3 X13.9538 Y10.707 I-0.3419 J0.7545
G2 X13.9544 Y10.7079 I4.3634 J-2.8285
G3 X14.0769 Y11.1229 I-0.6382 J0.4139
G2 Y11.1375 I5.2 J0.0076
G3 X13.8476 Y11.691 I-0.7802 J0.0011
G2 X13.8381 Y11.7005 I3.6719 J3.682
G3 X13.4319 Y11.9163 I-0.554 J-0.5526
G1 F50.0 X13.734 Y13.4875
G3 F80.0 X13.2812 Y13.5304 I-0.4499 J-2.3396
G2 X13.2718 I-0.0043 J3.6
G3 X11.5832 Y12.831 I-0.0033 J-2.3802
G2 X11.5765 Y12.8243 I-2.549 J2.5421
G3 X10.8767 Y11.1349 I1.6821 J-1.6864
G2 Y11.125 I-3.6 J-0.0045
G3 X11.2566 Y9.8377 I2.3589 J-0.0036
G2 X11.2571 Y9.8369 I-3.0203 J-1.9591
G3 X12.2922 Y8.9461 I2.0375 J1.3208
G2 X13.2769 Y8.2854 I-1.4862 J-3.2789
G2 X14.2612 Y8.9458 I2.4705 J-2.6185
G3 X15.2964 Y9.8366 I-1.0025 J2.2118
G2 X15.2968 Y9.8373 I3.0208 J-1.9582
G3 X15.6769 Y11.1252 I-1.9806 J1.2845
G2 Y11.1353 I3.6 J0.0052
G3 X14.9774 Y12.8239 I-2.3802 J0.0033
G2 X14.9708 Y12.8305 I2.5421 J2.5491
G3 X13.734 Y13.4875 I-1.6867 J-1.6826
G1 F50.0 X14.0361 Y15.0588
G3 F80.0 X13.2793 Y15.1304 I-0.752 J-3.9108
G2 X13.2741 I-0.0024 J2.0
G3 X10.4503 Y13.9608 I-0.0056 J-3.9802
G2 X10.4465 Y13.9571 I-1.4161 J1.4123
G3 X9.2767 Y11.1329 I2.8121 J-2.8192
G2 Y11.1274 I-2.0 J-0.0025
G3 X9.9142 Y8.967 I3.9589 J-0.006
G2 X9.9145 Y8.9666 I-1.6779 J-1.0884
G3 X11.6317 Y7.4888 I3.3801 J2.1912
G2 X12.785 Y5.9567 I-0.8257 J-1.8216
G3 X13.2768 Y5.5305 I0.493 J0.0721
G3 X13.7685 Y5.9566 I-0.0012 J0.4982
G2 X14.9217 Y7.4885 I1.9789 J-0.2897
G3 X16.639 Y8.9663 I-1.663 J3.6691
G2 X16.6392 Y8.9667 I1.6782 J-1.0879
G3 X17.2769 Y11.1275 I-3.323 J2.1551
G2 Y11.1332 I2.0 J0.0029
G3 X16.1073 Y13.9568 I-3.9802 J0.0054
G2 X16.1036 Y13.9605 I1.4123 J1.4161
G3 X14.0361 Y15.0588 I-2.8195 J-2.8126
G0 Z3.0
G0 X13.4319 Y11.9163
G0 Z-7.0
G1 F50.0 Z-9.0
G3 F80.0 X13.2832 Y11.9304 I-0.1477 J-0.7684
G2 X13.2696 I-0.0063 J5.2
G3 X12.7161 Y11.7011 I-0.0011 J-0.7802
G2 X12.7064 Y11.6915 I-3.682 J3.6719
G3 X12.4767 Y11.1369 I0.5522 J-0.5536
G2 Y11.1226 I-5.2 J-0.0065
G3 X12.5989 Y10.7084 I0.7589 J-0.0011
G2 X12.5997 Y10.7072 I-4.3626 J-2.8298
G3 X12.9528 Y10.4034 I0.695 J0.4505
G2 X13.277 Y10.2426 I-2.1467 J-4.7362
G2 X13.6007 Y10.4031 I2.4703 J-4.5757
G3 X13.9538 Y10.707 I-0.3419 J0.7545
G2 X13.9544 Y10.7079 I4.3634 J-2.8285
G3 X14.0769 Y11.1229 I-0.6382 J0.4139
G2 Y11.1375 I5.2 J0.0076
G3 X13.8476 Y11.691 I-0.7802 J0.0011
G2 X13.8381 Y11.7005 I3.6719 J3.682
G3 X13.4319 Y11.9163 I-0.554 J-0.5526
G1 F50.0 X13.734 Y13.4875
G3 F80.0 X13.2812 Y13.5304 I-0.4499 J-2.3396
G2 X13.2718 I-0.0043 J3.6
G3 X11.5832 Y12.831 I-0.0033 J-2.3802
G2 X11.5765 Y12.8243 I-2.549 J2.5421
G3 X10.8767 Y11.1349 I1.6821 J-1.6864
G2 Y11.125 I-3.6 J-0.0045
G3 X11.2566 Y9.8377 I2.3589 J-0.0036
G2 X11.2571 Y9.8369 I-3.0203 J-1.9591
G3 X12.2922 Y8.9461 I2.0375 J1.3208
G2 X13.2769 Y8.2854 I-1.4862 J-3.2789
G2 X14.2612 Y8.9458 I2.4705 J-2.6185
G3 X15.2964 Y9.8366 I-1.0025 J2.2118
G2 X15.2968 Y9.8373 I3.0208 J-1.9582
G3 X15.6769 Y11.1252 I-1.9806 J1.2845
G2 Y11.1353 I3.6 J0.0052
G3 X14.9774 Y12.8239 I-2.3802 J0.0033
G2 X14.9708 Y12.8305 I2.5421 J2.5491
G3 X13.734 Y13.4875 I-1.6867 J-1.6826
G1 F50.0 X14.0361 Y15.0588
G3 F80.0 X13.2793 Y15.1304 I-0.752 J-3.9108
G2 X13.2741 I-0.0024 J2.0
G3 X10.4503 Y13.9608 I-0.0056 J-3.9802
G2 X10.4465 Y13.9571 I-1.4161 J1.4123
G3 X9.2767 Y11.1329 I2.8121 J-2.8192
G2 Y11.1274 I-2.0 J-0.0025
G3 X9.9142 Y8.967 I3.9589 J-0.006
G2 X9.9145 Y8.9666 I-1.6779 J-1.0884
G3 X11.6317 Y7.4888 I3.3801 J2.1912
G2 X12.785 Y5.9567 I-0.8257 J-1.8216
G3 X13.2768 Y5.5305 I0.493 J0.0721
G3 X13.7685 Y5.9566 I-0.0012 J0.4982
G2 X14.9217 Y7.4885 I1.9789 J-0.2897
G3 X16.639 Y8.9663 I-1.663 J3.6691
G2 X16.6392 Y8.9667 I1.6782 J-1.0879
G3 X17.2769 Y11.1275 I-3.323 J2.1551
G2 Y11.1332 I2.0 J0.0029
G3 X16.1073 Y13.9568 I-3.9802 J0.0054
G2 X16.1036 Y13.9605 I1.4123 J1.4161
G3 X14.0361 Y15.0588 I-2.8195 J-2.8126
G0 Z3.0
G0 X13.4319 Y11.9163
G0 Z-8.0
G1 F50.0 Z-10.0
G3 F80.0 X13.2832 Y11.9304 I-0.1477 J-0.7684
G2 X13.2696 I-0.0063 J5.2
G3 X12.7161 Y11.7011 I-0.0011 J-0.7802
G2 X12.7064 Y11.6915 I-3.682 J3.6719
G3 X12.4767 Y11.1369 I0.5522 J-0.5536
G2 Y11.1226 I-5.2 J-0.0065
G3 X12.5989 Y10.7084 I0.7589 J-0.0011
G2 X12.5997 Y10.7072 I-4.3626 J-2.8298
G3 X12.9528 Y10.4034 I0.695 J0.4505
G2 X13.277 Y10.2426 I-2.1467 J-4.7362
G2 X13.6007 Y10.4031 I2.4703 J-4.5757
G3 X13.9538 Y10.707 I-0.3419 J0.7545
G2 X13.9544 Y10.7079 I4.3634 J-2.8285
G3 X14.0769 Y11.1229 I-0.6382 J0.4139
G2 Y11.1375 I5.2 J0.0076
G3 X13.8476 Y11.691 I-0.7802 J0.0011
G2 X13.8381 Y11.7005 I3.6719 J3.682
G3 X13.4319 Y11.9163 I-0.554 J-0.5526
G1 F50.0 X13.734 Y13.4875
G3 F80.0 X13.2812 Y13.5304 I-0.4499 J-2.3396
G2 X13.2718 I-0.0043 J3.6
G3 X11.5832 Y12.831 I-0.0033 J-2.3802
G2 X11.5765 Y12.8243 I-2.549 J2.5421
G3 X10.8767 Y11.1349 I1.6821 J-1.6864
G2 Y11.125 I-3.6 J-0.0045
G3 X11.2566 Y9.8377 I2.3589 J-0.0036
G2 X11.2571 Y9.8369 I-3.0203 J-1.9591
G3 X12.2922 Y8.9461 I2.0375 J1.3208
G2 X13.2769 Y8.2854 I-1.4862 J-3.2789
G2 X14.2612 Y8.9458 I2.4705 J-2.6185
G3 X15.2964 Y9.8366 I-1.0025 J2.2118
G2 X15.2968 Y9.8373 I3.0208 J-1.9582
G3 X15.6769 Y11.1252 I-1.9806 J1.2845
G2 Y11.1353 I3.6 J0.0052
G3 X14.9774 Y12.8239 I-2.3802 J0.0033
G2 X14.9708 Y12.8305 I2.5421 J2.5491
G3 X13.734 Y13.4875 I-1.6867 J-1.6826
G1 F50.0 X14.0361 Y15.0588
G3 F80.0 X13.2793 Y15.1304 I-0.752 J-3.9108
G2 X13.2741 I-0.0024 J2.0
G3 X10.4503 Y13.9608 I-0.0056 J-3.9802
G2 X10.4465 Y13.9571 I-1.4161 J1.4123
G3 X9.2767 Y11.1329 I2.8121 J-2.8192
G2 Y11.1274 I-2.0 J-0.0025
G3 X9.9142 Y8.967 I3.9589 J-0.006
G2 X9.9145 Y8.9666 I-1.6779 J-1.0884
G3 X11.6317 Y7.4888 I3.3801 J2.1912
G2 X12.785 Y5.9567 I-0.8257 J-1.8216
G3 X13.2768 Y5.5305 I0.493 J0.0721
G3 X13.7685 Y5.9566 I-0.0012 J0.4982
G2 X14.9217 Y7.4885 I1.9789 J-0.2897
G3 X16.639 Y8.9663 I-1.663 J3.6691
G2 X16.6392 Y8.9667 I1.6782 J-1.0879
G3 X17.2769 Y11.1275 I-3.323 J2.1551
G2 Y11.1332 I2.0 J0.0029
G3 X16.1073 Y13.9568 I-3.9802 J0.0054
G2 X16.1036 Y13.9605 I1.4123 J1.4161
G3 X14.0361 Y15.0588 I-2.8195 J-2.8126
G0 Z3.0
G0 X13.4319 Y11.9163
G0 Z-9.0
G1 F50.0 Z-11.0
G3 F80.0 X13.2832 Y11.9304 I-0.1477 J-0.7684
G2 X13.2696 I-0.0063 J5.2
G3 X12.7161 Y11.7011 I-0.0011 J-0.7802
G2 X12.7064 Y11.6915 I-3.682 J3.6719
G3 X12.4767 Y11.1369 I0.5522 J-0.5536
G2 Y11.1226 I-5.2 J-0.0065
G3 X12.5989 Y10.7084 I0.7589 J-0.0011
G2 X12.5997 Y10.7072 I-4.3626 J-2.8298
G3 X12.9528 Y10.4034 I0.695 J0.4505
G2 X13.277 Y10.2426 I-2.1467 J-4.7362
G2 X13.6007 Y10.4031 I2.4703 J-4.5757
G3 X13.9538 Y10.707 I-0.3419 J0.7545
G2 X13.9544 Y10.7079 I4.3634 J-2.8285
G3 X14.0769 Y11.1229 I-0.6382 J0.4139
G2 Y11.1375 I5.2 J0.0076
G3 X13.8476 Y11.691 I-0.7802 J0.0011
G2 X13.8381 Y11.7005 I3.6719 J3.682
G3 X13.4319 Y11.9163 I-0.554 J-0.5526
G1 F50.0 X13.734 Y13.4875
G3 F80.0 X13.2812 Y13.5304 I-0.4499 J-2.3396
G2 X13.2718 I-0.0043 J3.6
G3 X11.5832 Y12.831 I-0.0033 J-2.3802
G2 X11.5765 Y12.8243 I-2.549 J2.5421
G3 X10.8767 Y11.1349 I1.6821 J-1.6864
G2 Y11.125 I-3.6 J-0.0045
G3 X11.2566 Y9.8377 I2.3589 J-0.0036
G2 X11.2571 Y9.8369 I-3.0203 J-1.9591
G3 X12.2922 Y8.9461 I2.0375 J1.3208
G2 X13.2769 Y8.2854 I-1.4862 J-3.2789
G2 X14.2612 Y8.9458 I2.4705 J-2.6185
G3 X15.2964 Y9.8366 I-1.0025 J2.2118
G2 X15.2968 Y9.8373 I3.0208 J-1.9582
G3 X15.6769 Y11.1252 I-1.9806 J1.2845
G2 Y11.1353 I3.6 J0.0052
G3 X14.9774 Y12.8239 I-2.3802 J0.0033
G2 X14.9708 Y12.8305 I2.5421 J2.5491
G3 X13.734 Y13.4875 I-1.6867 J-1.6826
G1 F50.0 X14.0361 Y15.0588
G3 F80.0 X13.2793 Y15.1304 I-0.752 J-3.9108
G2 X13.2741 I-0.0024 J2.0
G3 X10.4503 Y13.9608 I-0.0056 J-3.9802
G2 X10.4465 Y13.9571 I-1.4161 J1.4123
G3 X9.2767 Y11.1329 I2.8121 J-2.8192
G2 Y11.1274 I-2.0 J-0.0025
G3 X9.9142 Y8.967 I3.9589 J-0.006
G2 X9.9145 Y8.9666 I-1.6779 J-1.0884
G3 X11.6317 Y7.4888 I3.3801 J2.1912
G2 X12.785 Y5.9567 I-0.8257 J-1.8216
G3 X13.2768 Y5.5305 I0.493 J0.0721
G3 X13.7685 Y5.9566 I-0.0012 J0.4982
G2 X14.9217 Y7.4885 I1.9789 J-0.2897
G3 X16.639 Y8.9663 I-1.663 J3.6691
G2 X16.6392 Y8.9667 I1.6782 J-1.0879
G3 X17.2769 Y11.1275 I-3.323 J2.1551
G2 Y11.1332 I2.0 J0.0029
G3 X16.1073 Y13.9568 I-3.9802 J0.0054
G2 X16.1036 Y13.9605 I1.4123 J1.4161
G3 X14.0361 Y15.0588 I-2.8195 J-2.8126
G0 Z3.0
G0 X38.9462 Y11.257
G0 Z1.0
G1 F50.0 Z-1.0
G3 F80.0 X38.9373 Y11.1385 I0.7689 J-0.1173
G2 Y11.1224 I-5.2 J-0.0081
G3 X39.0591 Y10.7089 I0.7584 J-0.0012
G3 X39.4154 Y10.4025 I0.7024 J0.4565
G2 X39.7378 Y10.2426 I-2.1486 J-4.7353
G2 X40.0614 Y10.4031 I2.4703 J-4.5757
G3 X40.4146 Y10.707 I-0.3419 J0.7545
G2 X40.4152 Y10.7079 I4.3634 J-2.8285
G3 X40.5376 Y11.1229 I-0.6382 J0.4139
G2 Y11.1375 I5.2 J0.0076
G3 X40.3083 Y11.691 I-0.7802 J0.0011
G2 X40.2988 Y11.7005 I3.6719 J3.682
G3 X39.7439 Y11.9304 I-0.554 J-0.5526
G2 X39.7303 I-0.0063 J5.2
G3 X39.1765 Y11.701 I-0.0011 J-0.7807
G2 X39.166 Y11.6905 I-3.6817 J3.6722
G3 X38.9462 Y11.257 I0.5491 J-0.5508
G1 F50.0 X37.3645 Y11.4984
G3 F80.0 X37.3373 Y11.136 I2.3506 J-0.3587
G2 Y11.1248 I-3.6 J-0.0056
G3 X37.7169 Y9.8381 I2.3584 J-0.0037
G3 X38.7543 Y8.9455 I2.0447 J1.3273
G2 X39.7376 Y8.2854 I-1.4875 J-3.2783
G2 X40.722 Y8.9458 I2.4705 J-2.6185
G3 X41.7572 Y9.8366 I-1.0025 J2.2118
G2 X41.7576 Y9.8373 I3.0208 J-1.9582
G3 X42.1376 Y11.1252 I-1.9806 J1.2845
G2 Y11.1353 I3.6 J0.0052
G3 X41.4382 Y12.8239 I-2.3802 J0.0033
G2 X41.4316 Y12.8305 I2.5421 J2.5491
G3 X39.742 Y13.5304 I-1.6867 J-1.6826
G2 X39.7326 I-0.0043 J3.6
G3 X38.0436 Y12.8309 I-0.0033 J-2.3807
G2 X38.0364 Y12.8236 I-2.5489 J2.5423
G3 X37.3645 Y11.4984 I1.6787 J-1.684
G1 F50.0 X35.7828 Y11.7398
G3 F80.0 X35.7373 Y11.1335 I3.9322 J-0.6001
G2 Y11.1273 I-2.0 J-0.0031
G3 X36.3747 Y8.9672 I3.9584 J-0.0061
G3 X38.0932 Y7.4885 I3.3869 J2.1982
G2 X39.2457 Y5.9569 I-0.8264 J-1.8213
G3 X39.7374 Y5.5305 I0.4933 J0.0722
G3 X40.2292 Y5.9568 I-0.0015 J0.4986
G2 X41.3825 Y7.4885 I1.9789 J-0.29
G3 X43.0998 Y8.9663 I-1.663 J3.6691
G2 X43.1 Y8.9667 I1.6782 J-1.0879
G3 X43.7376 Y11.1275 I-3.323 J2.1551
G2 Y11.1332 I2.0 J0.0029
G3 X42.568 Y13.9568 I-3.9802 J0.0054
G2 X42.5643 Y13.9605 I1.4123 J1.4161
G3 X39.74 Y15.1304 I-2.8195 J-2.8126
G2 X39.7348 I-0.0024 J2.0
G3 X36.9108 Y13.9608 I-0.0056 J-3.9807
G2 X36.9068 Y13.9568 I-1.4161 J1.4124
G3 X35.7828 Y11.7398 I2.8083 J-2.8171
G0 Z3.0
G0 X38.9462 Y11.257
G0 Z0.0
G1 F50.0 Z-2.0
G3 F80.0 X38.9373 Y11.1385 I0.7689 J-0.1173
G2 Y11.1224 I-5.2 J-0.0081
G3 X39.0591 Y10.7089 I0.7584 J-0.0012
G3 X39.4154 Y10.4025 I0.7024 J0.4565
G2 X39.7378 Y10.2426 I-2.1486 J-4.7353
G2 X40.0614 Y10.4031 I2.4703 J-4.5757
G3 X40.4146 Y10.707 I-0.3419 J0.7545
G2 X40.4152 Y10.7079 I4.3634 J-2.8285
G3 X40.5376 Y11.1229 I-0.6382 J0.4139
G2 Y11.1375 I5.2 J0.0076
G3 X40.3083 Y11.691 I-0.7802 J0.0011
G2 X40.2988 Y11.7005 I3.6719 J3.682
G3 X39.7439 Y11.9304 I-0.554 J-0.5526
G2 X39.7303 I-0.0063 J5.2
G3 X39.1765 Y11.701 I-0.0011 J-0.7807
G2 X39.166 Y11.6905 I-3.6817 J3.6722
G3 X38.9462 Y11.257 I0.5491 J-0.5508
G1 F50.0 X37.3645 Y11.4984
G3 F80.0 X37.3373 Y11.136 I2.3506 J-0.3587
G2 Y11.1248 I-3.6 J-0.0056
G3 X37.7169 Y9.8381 I2.3584 J-0.0037
G3 X38.7543 Y8.9455 I2.0447 J1.3273
G2 X39.7376 Y8.2854 I-1.4875 J-3.2783
G2 X40.722 Y8.9458 I2.4705 J-2.6185
G3 X41.7572 Y9.8366 I-1.0025 J2.2118
G2 X41.7576 Y9.8373 I3.0208 J-1.9582
G3 X42.1376 Y11.1252 I-1.9806 J1.2845
G2 Y11.1353 I3.6 J0.0052
G3 X41.4382 Y12.8239 I-2.3802 J0.0033
G2 X41.4316 Y12.8305 I2.5421 J2.5491
G3 X39.742 Y13.5304 I-1.6867 J-1.6826
G2 X39.7326 I-0.0043 J3.6
G3 X38.0436 Y12.8309 I-0.0033 J-2.3807
G2 X38.0364 Y12.8236 I-2.5489 J2.5423
G3 X37.3645 Y11.4984 I1.6787 J-1.684
G1 F50.0 X35.7828 Y11.7398
G3 F80.0 X35.7373 Y11.1335 I3.9322 J-0.6001
G2 Y11.1273 I-2.0 J-0.0031
G3 X36.3747 Y8.9672 I3.9584 J-0.0061
G3 X38.0932 Y7.4885 I3.3869 J2.1982
G2 X39.2457 Y5.9569 I-0.8264 J-1.8213
G3 X39.7374 Y5.5305 I0.4933 J0.0722
G3 X40.2292 Y5.9568 I-0.0015 J0.4986
G2 X41.3825 Y7.4885 I1.9789 J-0.29
G3 X43.0998 Y8.9663 I-1.663 J3.6691
G2 X43.1 Y8.9667 I1.6782 J-1.0879
G3 X43.7376 Y11.1275 I-3.323 J2.1551
G2 Y11.1332 I2.0 J0.0029
G3 X42.568 Y13.9568 I-3.9802 J0.0054
G2 X42.5643 Y13.9605 I1.4123 J1.4161
G3 X39.74 Y15.1304 I-2.8195 J-2.8126
G2 X39.7348 I-0.0024 J2.0
G3 X36.9108 Y13.9608 I-0.0056 J-3.9807
G2 X36.9068 Y13.9568 I-1.4161 J1.4124
G3 X35.7828 Y11.7398 I2.8083 J-2.8171
G0 Z3.0
G0 X38.9462 Y11.257
G0 Z-1.0
G1 F50.0 Z-3.0
G3 F80.0 X38.9373 Y11.1385 I0.7689 J-0.1173
G2 Y11.1224 I-5.2 J-0.0081
G3 X39.0591 Y10.7089 I0.7584 J-0.0012
G3 X39.4154 Y10.4025 I0.7024 J0.4565
G2 X39.7378 Y10.2426 I-2.1486 J-4.7353
G2 X40.0614 Y10.4031 I2.4703 J-4.5757
G3 X40.4146 Y10.707 I-0.3419 J0.7545
G2 X40.4152 Y10.7079 I4.3634 J-2.8285
G3 X40.5376 Y11.1229 I-0.6382 J0.4139
G2 Y11.1375 I5.2 J0.0076
G3 X40.3083 Y11.691 I-0.7802 J0.0011
G2 X40.2988 Y11.7005 I3.6719 J3.682
G3 X39.7439 Y11.9304 I-0.554 J-0.5526
G2 X39.7303 I-0.0063 J5.2
G3 X39.1765 Y11.701 I-0.0011 J-0.7807
G2 X39.166 Y11.6905 I-3.6817 J3.6722
G3 X38.9462 Y11.257 I0.5491 J-0.5508
G1 F50.0 X37.3645 Y11.4984
G3 F80.0 X37.3373 Y11.136 I2.3506 J-0.3587
G2 Y11.1248 I-3.6 J-0.0056
G3 X37.7169 Y9.8381 I2.3584 J-0.0037
G3 X38.7543 Y8.9455 I2.0447 J1.3273
G2 X39.7376 Y8.2854 I-1.4875 J-3.2783
G2 X40.722 Y8.9458 I2.4705 J-2.6185
G3 X41.7572 Y9.8366 I-1.0025 J2.2118
G2 X41.7576 Y9.8373 I3.0208 J-1.9582
G3 X42.1376 Y11.1252 I-1.9806 J1.2845
G2 Y11.1353 I3.6 J0.0052
G3 X41.4382 Y12.8239 I-2.3802 J0.0033
G2 X41.4316 Y12.8305 I2.5421 J2.5491
G3 X39.742 Y13.5304 I-1.6867 J-1.6826
G2 X39.7326 I-0.0043 J3.6
G3 X38.0436 Y12.8309 I-0.0033 J-2.3807
G2 X38.0364 Y12.8236 I-2.5489 J2.5423
G3 X37.3645 Y11.4984 I1.6787 J-1.684
G1 F50.0 X35.7828 Y11.7398
G3 F80.0 X35.7373 Y11.1335 I3.9322 J-0.6001
G2 Y11.1273 I-2.0 J-0.0031
G3 X36.3747 Y8.9672 I3.9584 J-0.0061
G3 X38.0932 Y7.4885 I3.3869 J2.1982
G2 X39.2457 Y5.9569 I-0.8264 J-1.8213
G3 X39.7374 Y5.5305 I0.4933 J0.0722
G3 X40.2292 Y5.9568 I-0.0015 J0.4986
G2 X41.3825 Y7.4885 I1.9789 J-0.29
G3 X43.0998 Y8.9663 I-1.663 J3.6691
G2 X43.1 Y8.9667 I1.6782 J-1.0879
G3 X43.7376 Y11.1275 I-3.323 J2.1551
G2 Y11.1332 I2.0 J0.0029
G3 X42.568 Y13.9568 I-3.9802 J0.0054
G2 X42.5643 Y13.9605 I1.4123 J1.4161
G3 X39.74 Y15.1304 I-2.8195 J-2.8126
G2 X39.7348 I-0.0024 J2.0
G3 X36.9108 Y13.9608 I-0.0056 J-3.9807
G2 X36.9068 Y13.9568 I-1.4161 J1.4124
G3 X35.7828 Y11.7398 I2.8083 J-2.8171
G0 Z3.0
G0 X38.9462 Y11.257
G0 Z-2.0
G1 F50.0 Z-4.0
G3 F80.0 X38.9373 Y11.1385 I0.7689 J-0.1173
G2 Y11.1224 I-5.2 J-0.0081
G3 X39.0591 Y10.7089 I0.7584 J-0.0012
G3 X39.4154 Y10.4025 I0.7024 J0.4565
G2 X39.7378 Y10.2426 I-2.1486 J-4.7353
G2 X40.0614 Y10.4031 I2.4703 J-4.5757
G3 X40.4146 Y10.707 I-0.3419 J0.7545
G2 X40.4152 Y10.7079 I4.3634 J-2.8285
G3 X40.5376 Y11.1229 I-0.6382 J0.4139
G2 Y11.1375 I5.2 J0.0076
G3 X40.3083 Y11.691 I-0.7802 J0.0011
G2 X40.2988 Y11.7005 I3.6719 J3.682
G3 X39.7439 Y11.9304 I-0.554 J-0.5526
G2 X39.7303 I-0.0063 J5.2
G3 X39.1765 Y11.701 I-0.0011 J-0.7807
G2 X39.166 Y11.6905 I-3.6817 J3.6722
G3 X38.9462 Y11.257 I0.5491 J-0.5508
G1 F50.0 X37.3645 Y11.4984
G3 F80.0 X37.3373 Y11.136 I2.3506 J-0.3587
G2 Y11.1248 I-3.6 J-0.0056
G3 X37.7169 Y9.8381 I2.3584 J-0.0037
G3 X38.7543 Y8.9455 I2.0447 J1.3273
G2 X39.7376 Y8.2854 I-1.4875 J-3.2783
G2 X40.722 Y8.9458 I2.4705 J-2.6185
G3 X41.7572 Y9.8366 I-1.0025 J2.2118
G2 X41.7576 Y9.8373 I3.0208 J-1.9582
G3 X42.1376 Y11.1252 I-1.9806 J1.2845
G2 Y11.1353 I3.6 J0.0052
G3 X41.4382 Y12.8239 I-2.3802 J0.0033
G2 X41.4316 Y12.8305 I2.5421 J2.5491
G3 X39.742 Y13.5304 I-1.6867 J-1.6826
G2 X39.7326 I-0.0043 J3.6
G3 X38.0436 Y12.8309 I-0.0033 J-2.3807
G2 X38.0364 Y12.8236 I-2.5489 J2.5423
G3 X37.3645 Y11.4984 I1.6787 J-1.684
G1 F50.0 X35.7828 Y11.7398
G3 F80.0 X35.7373 Y11.1335 I3.9322 J-0.6001
G2 Y11.1273 I-2.0 J-0.0031
G3 X36.3747 Y8.9672 I3.9584 J-0.0061
G3 X38.0932 Y7.4885 I3.3869 J2.1982
G2 X39.2457 Y5.9569 I-0.8264 J-1.8213
G3 X39.7374 Y5.5305 I0.4933 J0.0722
G3 X40.2292 Y5.9568 I-0.0015 J0.4986
G2 X41.3825 Y7.4885 I1.9789 J-0.29
G3 X43.0998 Y8.9663 I-1.663 J3.6691
G2 X43.1 Y8.9667 I1.6782 J-1.0879
G3 X43.7376 Y11.1275 I-3.323 J2.1551
G2 Y11.1332 I2.0 J0.0029
G3 X42.568 Y13.9568 I-3.9802 J0.0054
G2 X42.5643 Y13.9605 I1.4123 J1.4161
G3 X39.74 Y15.1304 I-2.8195 J-2.8126
G2 X39.7348 I-0.0024 J2.0
G3 X36.9108 Y13.9608 I-0.0056 J-3.9807
G2 X36.9068 Y13.9568 I-1.4161 J1.4124
G3 X35.7828 Y11.7398 I2.8083 J-2.8171
G0 Z3.0
G0 X38.9462 Y11.257
G0 Z-3.0
G1 F50.0 Z-5.0
G3 F80.0 X38.9373 Y11.1385 I0.7689 J-0.1173
G2 Y11.1224 I-5.2 J-0.0081
G3 X39.0591 Y10.7089 I0.7584 J-0.0012
G3 X39.4154 Y10.4025 I0.7024 J0.4565
G2 X39.7378 Y10.2426 I-2.1486 J-4.7353
G2 X40.0614 Y10.4031 I2.4703 J-4.5757
G3 X40.4146 Y10.707 I-0.3419 J0.7545
G2 X40.4152 Y10.7079 I4.3634 J-2.8285
G3 X40.5376 Y11.1229 I-0.6382 J0.4139
G2 Y11.1375 I5.2 J0.0076
G3 X40.3083 Y11.691 I-0.7802 J0.0011
G2 X40.2988 Y11.7005 I3.6719 J3.682
G3 X39.7439 Y11.9304 I-0.554 J-0.5526
G2 X39.7303 I-0.0063 J5.2
G3 X39.1765 Y11.701 I-0.0011 J-0.7807
G2 X39.166 Y11.6905 I-3.6817 J3.6722
G3 X38.9462 Y11.257 I0.5491 J-0.5508
G1 F50.0 X37.3645 Y11.4984
G3 F80.0 X37.3373 Y11.136 I2.3506 J-0.3587
G2 Y11.1248 I-3.6 J-0.0056
G3 X37.7169 Y9.8381 I2.3584 J-0.0037
G3 X38.7543 Y8.9455 I2.0447 J1.3273
G2 X39.7376 Y8.2854 I-1.4875 J-3.2783
G2 X40.722 Y8.9458 I2.4705 J-2.6185
G3 X41.7572 Y9.8366 I-1.0025 J2.2118
G2 X41.7576 Y9.8373 I3.0208 J-1.9582
G3 X42.1376 Y11.1252 I-1.9806 J1.2845
G2 Y11.1353 I3.6 J0.0052
G3 X41.4382 Y12.8239 I-2.3802 J0.0033
G2 X41.4316 Y12.8305 I2.5421 J2.5491
G3 X39.742 Y13.5304 I-1.6867 J-1.6826
G2 X39.7326 I-0.0043 J3.6
G3 X38.0436 Y12.8309 I-0.0033 J-2.3807
G2 X38.0364 Y12.8236 I-2.5489 J2.5423
G3 X37.3645 Y11.4984 I1.6787 J-1.684
G1 F50.0 X35.7828 Y11.7398
G3 F80.0 X35.7373 Y11.1335 I3.9322 J-0.6001
G2 Y11.1273 I-2.0 J-0.0031
G3 X36.3747 Y8.9672 I3.9584 J-0.0061
G3 X38.0932 Y7.4885 I3.3869 J2.1982
G2 X39.2457 Y5.9569 I-0.8264 J-1.8213
G3 X39.7374 Y5.5305 I0.4933 J0.0722
G3 X40.2292 Y5.9568 I-0.0015 J0.4986
G2 X41.3825 Y7.4885 I1.9789 J-0.29
G3 X43.0998 Y8.9663 I-1.663 J3.6691
G2 X43.1 Y8.9667 I1.6782 J-1.0879
G3 X43.7376 Y11.1275 I-3.323 J2.1551
G2 Y11.1332 I2.0 J0.0029
G3 X42.568 Y13.9568 I-3.9802 J0.0054
G2 X42.5643 Y13.9605 I1.4123 J1.4161
G3 X39.74 Y15.1304 I-2.8195 J-2.8126
G2 X39.7348 I-0.0024 J2.0
G3 X36.9108 Y13.9608 I-0.0056 J-3.9807
G2 X36.9068 Y13.9568 I-1.4161 J1.4124
G3 X35.7828 Y11.7398 I2.8083 J-2.8171
G0 Z3.0
G0 X38.9462 Y11.257
G0 Z-4.0
G1 F50.0 Z-6.0
G3 F80.0 X38.9373 Y11.1385 I0.7689 J-0.1173
G2 Y11.1224 I-5.2 J-0.0081
G3 X39.0591 Y10.7089 I0.7584 J-0.0012
G3 X39.4154 Y10.4025 I0.7024 J0.4565
G2 X39.7378 Y10.2426 I-2.1486 J-4.7353
G2 X40.0614 Y10.4031 I2.4703 J-4.5757
G3 X40.4146 Y10.707 I-0.3419 J0.7545
G2 X40.4152 Y10.7079 I4.3634 J-2.8285
G3 X40.5376 Y11.1229 I-0.6382 J0.4139
G2 Y11.1375 I5.2 J0.0076
G3 X40.3083 Y11.691 I-0.7802 J0.0011
G2 X40.2988 Y11.7005 I3.6719 J3.682
G3 X39.7439 Y11.9304 I-0.554 J-0.5526
G2 X39.7303 I-0.0063 J5.2
G3 X39.1765 Y11.701 I-0.0011 J-0.7807
G2 X39.166 Y11.6905 I-3.6817 J3.6722
G3 X38.9462 Y11.257 I0.5491 J-0.5508
G1 F50.0 X37.3645 Y11.4984
G3 F80.0 X37.3373 Y11.136 I2.3506 J-0.3587
G2 Y11.1248 I-3.6 J-0.0056
G3 X37.7169 Y9.8381 I2.3584 J-0.0037
G3 X38.7543 Y8.9455 I2.0447 J1.3273
G2 X39.7376 Y8.2854 I-1.4875 J-3.2783
G2 X40.722 Y8.9458 I2.4705 J-2.6185
G3 X41.7572 Y9.8366 I-1.0025 J2.2118
G2 X41.7576 Y9.8373 I3.0208 J-1.9582
G3 X42.1376 Y11.1252 I-1.9806 J1.2845
G2 Y11.1353 I3.6 J0.0052
G3 X41.4382 Y12.8239 I-2.3802 J0.0033
G2 X41.4316 Y12.8305 I2.5421 J2.5491
G3 X39.742 Y13.5304 I-1.6867 J-1.6826
G2 X39.7326 I-0.0043 J3.6
G3 X38.0436 Y12.8309 I-0.0033 J-2.3807
G2 X38.0364 Y12.8236 I-2.5489 J2.5423
G3 X37.3645 Y11.4984 I1.6787 J-1.684
G1 F50.0 X35.7828 Y11.7398
G3 F80.0 X35.7373 Y11.1335 I3.9322 J-0.6001
G2 Y11.1273 I-2.0 J-0.0031
G3 X36.3747 Y8.9672 I3.9584 J-0.0061
G3 X38.0932 Y7.4885 I3.3869 J2.1982
G2 X39.2457 Y5.9569 I-0.8264 J-1.8213
G3 X39.7374 Y5.5305 I0.4933 J0.0722
G3 X40.2292 Y5.9568 I-0.0015 J0.4986
G2 X41.3825 Y7.4885 I1.9789 J-0.29
G3 X43.0998 Y8.9663 I-1.663 J3.6691
G2 X43.1 Y8.9667 I1.6782 J-1.0879
G3 X43.7376 Y11.1275 I-3.323 J2.1551
G2 Y11.1332 I2.0 J0.0029
G3 X42.568 Y13.9568 I-3.9802 J0.0054
G2 X42.5643 Y13.9605 I1.4123 J1.4161
G3 X39.74 Y15.1304 I-2.8195 J-2.8126
G2 X39.7348 I-0.0024 J2.0
G3 X36.9108 Y13.9608 I-0.0056 J-3.9807
G2 X36.9068 Y13.9568 I-1.4161 J1.4124
G3 X35.7828 Y11.7398 I2.8083 J-2.8171
G0 Z3.0
G0 X38.9462 Y11.257
G0 Z-5.0
G1 F50.0 Z-7.0
G3 F80.0 X38.9373 Y11.1385 I0.7689 J-0.1173
G2 Y11.1224 I-5.2 J-0.0081
G3 X39.0591 Y10.7089 I0.7584 J-0.0012
G3 X39.4154 Y10.4025 I0.7024 J0.4565
G2 X39.7378 Y10.2426 I-2.1486 J-4.7353
G2 X40.0614 Y10.4031 I2.4703 J-4.5757
G3 X40.4146 Y10.707 I-0.3419 J0.7545
G2 X40.4152 Y10.7079 I4.3634 J-2.8285
G3 X40.5376 Y11.1229 I-0.6382 J0.4139
G2 Y11.1375 I5.2 J0.0076
G3 X40.3083 Y11.691 I-0.7802 J0.0011
G2 X40.2988 Y11.7005 I3.6719 J3.682
G3 X39.7439 Y11.9304 I-0.554 J-0.5526
G2 X39.7303 I-0.0063 J5.2
G3 X39.1765 Y11.701 I-0.0011 J-0.7807
G2 X39.166 Y11.6905 I-3.6817 J3.6722
G3 X38.9462 Y11.257 I0.5491 J-0.5508
G1 F50.0 X37.3645 Y11.4984
G3 F80.0 X37.3373 Y11.136 I2.3506 J-0.3587
G2 Y11.1248 I-3.6 J-0.0056
G3 X37.7169 Y9.8381 I2.3584 J-0.0037
G3 X38.7543 Y8.9455 I2.0447 J1.3273
G2 X39.7376 Y8.2854 I-1.4875 J-3.2783
G2 X40.722 Y8.9458 I2.4705 J-2.6185
G3 X41.7572 Y9.8366 I-1.0025 J2.2118
G2 X41.7576 Y9.8373 I3.0208 J-1.9582
G3 X42.1376 Y11.1252 I-1.9806 J1.2845
G2 Y11.1353 I3.6 J0.0052
G3 X41.4382 Y12.8239 I-2.3802 J0.0033
G2 X41.4316 Y12.8305 I2.5421 J2.5491
G3 X39.742 Y13.5304 I-1.6867 J-1.6826
G2 X39.7326 I-0.0043 J3.6
G3 X38.0436 Y12.8309 I-0.0033 J-2.3807
G2 X38.0364 Y12.8236 I-2.5489 J2.5423
G3 X37.3645 Y11.4984 I1.6787 J-1.684
G1 F50.0 X35.7828 Y11.7398
G3 F80.0 X35.7373 Y11.1335 I3.9322 J-0.6001
G2 Y11.1273 I-2.0 J-0.0031
G3 X36.3747 Y8.9672 I3.9584 J-0.0061
G3 X38.0932 Y7.4885 I3.3869 J2.1982
G2 X39.2457 Y5.9569 I-0.8264 J-1.8213
G3 X39.7374 Y5.5305 I0.4933 J0.0722
G3 X40.2292 Y5.9568 I-0.0015 J0.4986
G2 X41.3825 Y7.4885 I1.9789 J-0.29
G3 X43.0998 Y8.9663 I-1.663 J3.6691
G2 X43.1 Y8.9667 I1.6782 J-1.0879
G3 X43.7376 Y11.1275 I-3.323 J2.1551
G2 Y11.1332 I2.0 J0.0029
G3 X42.568 Y13.9568 I-3.9802 J0.0054
G2 X42.5643 Y13.9605 I1.4123 J1.4161
G3 X39.74 Y15.1304 I-2.8195 J-2.8126
G2 X39.7348 I-0.0024 J2.0
G3 X36.9108 Y13.9608 I-0.0056 J-3.9807
G2 X36.9068 Y13.9568 I-1.4161 J1.4124
G3 X35.7828 Y11.7398 I2.8083 J-2.8171
G0 Z3.0
G0 X38.9462 Y11.257
G0 Z-6.0
G1 F50.0 Z-8.0
G3 F80.0 X38.9373 Y11.1385 I0.7689 J-0.1173
G2 Y11.1224 I-5.2 J-0.0081
G3 X39.0591 Y10.7089 I0.7584 J-0.0012
G3 X39.4154 Y10.4025 I0.7024 J0.4565
G2 X39.7378 Y10.2426 I-2.1486 J-4.7353
G2 X40.0614 Y10.4031 I2.4703 J-4.5757
G3 X40.4146 Y10.707 I-0.3419 J0.7545
G2 X40.4152 Y10.7079 I4.3634 J-2.8285
G3 X40.5376 Y11.1229 I-0.6382 J0.4139
G2 Y11.1375 I5.2 J0.0076
G3 X40.3083 Y11.691 I-0.7802 J0.0011
G2 X40.2988 Y11.7005 I3.6719 J3.682
G3 X39.7439 Y11.9304 I-0.554 J-0.5526
G2 X39.7303 I-0.0063 J5.2
G3 X39.1765 Y11.701 I-0.0011 J-0.7807
G2 X39.166 Y11.6905 I-3.6817 J3.6722
G3 X38.9462 Y11.257 I0.5491 J-0.5508
G1 F50.0 X37.3645 Y11.4984
G3 F80.0 X37.3373 Y11.136 I2.3506 J-0.3587
G2 Y11.1248 I-3.6 J-0.0056
G3 X37.7169 Y9.8381 I2.3584 J-0.0037
G3 X38.7543 Y8.9455 I2.0447 J1.3273
G2 X39.7376 Y8.2854 I-1.4875 J-3.2783
G2 X40.722 Y8.9458 I2.4705 J-2.6185
G3 X41.7572 Y9.8366 I-1.0025 J2.2118
G2 X41.7576 Y9.8373 I3.0208 J-1.9582
G3 X42.1376 Y11.1252 I-1.9806 J1.2845
G2 Y11.1353 I3.6 J0.0052
G3 X41.4382 Y12.8239 I-2.3802 J0.0033
G2 X41.4316 Y12.8305 I2.5421 J2.5491
G3 X39.742 Y13.5304 I-1.6867 J-1.6826
G2 X39.7326 I-0.0043 J3.6
G3 X38.0436 Y12.8309 I-0.0033 J-2.3807
G2 X38.0364 Y12.8236 I-2.5489 J2.5423
G3 X37.3645 Y11.4984 I1.6787 J-1.684
G1 F50.0 X35.7828 Y11.7398
G3 F80.0 X35.7373 Y11.1335 I3.9322 J-0.6001
G2 Y11.1273 I-2.0 J-0.0031
G3 X36.3747 Y8.9672 I3.9584 J-0.0061
G3 X38.0932 Y7.4885 I3.3869 J2.1982
G2 X39.2457 Y5.9569 I-0.8264 J-1.8213
G3 X39.7374 Y5.5305 I0.4933 J0.0722
G3 X40.2292 Y5.9568 I-0.0015 J0.4986
G2 X41.3825 Y7.4885 I1.9789 J-0.29
G3 X43.0998 Y8.9663 I-1.663 J3.6691
G2 X43.1 Y8.9667 I1.6782 J-1.0879
G3 X43.7376 Y11.1275 I-3.323 J2.1551
G2 Y11.1332 I2.0 J0.0029
G3 X42.568 Y13.9568 I-3.9802 J0.0054
G2 X42.5643 Y13.9605 I1.4123 J1.4161
G3 X39.74 Y15.1304 I-2.8195 J-2.8126
G2 X39.7348 I-0.0024 J2.0
G3 X36.9108 Y13.9608 I-0.0056 J-3.9807
G2 X36.9068 Y13.9568 I-1.4161 J1.4124
G3 X35.7828 Y11.7398 I2.8083 J-2.8171
G0 Z3.0
G0 X38.9462 Y11.257
G0 Z-7.0
G1 F50.0 Z-9.0
G3 F80.0 X38.9373 Y11.1385 I0.7689 J-0.1173
G2 Y11.1224 I-5.2 J-0.0081
G3 X39.0591 Y10.7089 I0.7584 J-0.0012
G3 X39.4154 Y10.4025 I0.7024 J0.4565
G2 X39.7378 Y10.2426 I-2.1486 J-4.7353
G2 X40.0614 Y10.4031 I2.4703 J-4.5757
G3 X40.4146 Y10.707 I-0.3419 J0.7545
G2 X40.4152 Y10.7079 I4.3634 J-2.8285
G3 X40.5376 Y11.1229 I-0.6382 J0.4139
G2 Y11.1375 I5.2 J0.0076
G3 X40.3083 Y11.691 I-0.7802 J0.0011
G2 X40.2988 Y11.7005 I3.6719 J3.682
G3 X39.7439 Y11.9304 I-0.554 J-0.5526
G2 X39.7303 I-0.0063 J5.2
G3 X39.1765 Y11.701 I-0.0011 J-0.7807
G2 X39.166 Y11.6905 I-3.6817 J3.6722
G3 X38.9462 Y11.257 I0.5491 J-0.5508
G1 F50.0 X37.3645 Y11.4984
G3 F80.0 X37.3373 Y11.136 I2.3506 J-0.3587
G2 Y11.1248 I-3.6 J-0.0056
G3 X37.7169 Y9.8381 I2.3584 J-0.0037
G3 X38.7543 Y8.9455 I2.0447 J1.3273
G2 X39.7376 Y8.2854 I-1.4875 J-3.2783
G2 X40.722 Y8.9458 I2.4705 J-2.6185
G3 X41.7572 Y9.8366 I-1.0025 J2.2118
G2 X41.7576 Y9.8373 I3.0208 J-1.9582
G3 X42.1376 Y11.1252 I-1.9806 J1.2845
G2 Y11.1353 I3.6 J0.0052
G3 X41.4382 Y12.8239 I-2.3802 J0.0033
G2 X41.4316 Y12.8305 I2.5421 J2.5491
G3 X39.742 Y13.5304 I-1.6867 J-1.6826
G2 X39.7326 I-0.0043 J3.6
G3 X38.0436 Y12.8309 I-0.0033 J-2.3807
G2 X38.0364 Y12.8236 I-2.5489 J2.5423
G3 X37.3645 Y11.4984 I1.6787 J-1.684
G1 F50.0 X35.7828 Y11.7398
G3 F80.0 X35.7373 Y11.1335 I3.9322 J-0.6001
G2 Y11.1273 I-2.0 J-0.0031
G3 X36.3747 Y8.9672 I3.9584 J-0.0061
G3 X38.0932 Y7.4885 I3.3869 J2.1982
G2 X39.2457 Y5.9569 I-0.8264 J-1.8213
G3 X39.7374 Y5.5305 I0.4933 J0.0722
G3 X40.2292 Y5.9568 I-0.0015 J0.4986
G2 X41.3825 Y7.4885 I1.9789 J-0.29
G3 X43.0998 Y8.9663 I-1.663 J3.6691
G2 X43.1 Y8.9667 I1.6782 J-1.0879
G3 X43.7376 Y11.1275 I-3.323 J2.1551
G2 Y11.1332 I2.0 J0.0029
G3 X42.568 Y13.9568 I-3.9802 J0.0054
G2 X42.5643 Y13.9605 I1.4123 J1.4161
G3 X39.74 Y15.1304 I-2.8195 J-2.8126
G2 X39.7348 I-0.0024 J2.0
G3 X36.9108 Y13.9608 I-0.0056 J-3.9807
G2 X36.9068 Y13.9568 I-1.4161 J1.4124
G3 X35.7828 Y11.7398 I2.8083 J-2.8171
G0 Z3.0
G0 X38.9462 Y11.257
G0 Z-8.0
G1 F50.0 Z-10.0
G3 F80.0 X38.9373 Y11.1385 I0.7689 J-0.1173
G2 Y11.1224 I-5.2 J-0.0081
G3 X39.0591 Y10.7089 I0.7584 J-0.0012
G3 X39.4154 Y10.4025 I0.7024 J0.4565
G2 X39.7378 Y10.2426 I-2.1486 J-4.7353
G2 X40.0614 Y10.4031 I2.4703 J-4.5757
G3 X40.4146 Y10.707 I-0.3419 J0.7545
G2 X40.4152 Y10.7079 I4.3634 J-2.8285
G3 X40.5376 Y11.1229 I-0.6382 J0.4139
G2 Y11.1375 I5.2 J0.0076
G3 X40.3083 Y11.691 I-0.7802 J0.0011
G2 X40.2988 Y11.7005 I3.6719 J3.682
G3 X39.7439 Y11.9304 I-0.554 J-0.5526
G2 X39.7303 I-0.0063 J5.2
G3 X39.1765 Y11.701 I-0.0011 J-0.7807
G2 X39.166 Y11.6905 I-3.6817 J3.6722
G3 X38.9462 Y11.257 I0.5491 J-0.5508
G1 F50.0 X37.3645 Y11.4984
G3 F80.0 X37.3373 Y11.136 I2.3506 J-0.3587
G2 Y11.1248 I-3.6 J-0.0056
G3 X37.7169 Y9.8381 I2.3584 J-0.0037
G3 X38.7543 Y8.9455 I2.0447 J1.3273
G2 X39.7376 Y8.2854 I-1.4875 J-3.2783
G2 X40.722 Y8.9458 I2.4705 J-2.6185
G3 X41.7572 Y9.8366 I-1.0025 J2.2118
G2 X41.7576 Y9.8373 I3.0208 J-1.9582
G3 X42.1376 Y11.1252 I-1.9806 J1.2845
G2 Y11.1353 I3.6 J0.0052
G3 X41.4382 Y12.8239 I-2.3802 J0.0033
G2 X41.4316 Y12.8305 I2.5421 J2.5491
G3 X39.742 Y13.5304 I-1.6867 J-1.6826
G2 X39.7326 I-0.0043 J3.6
G3 X38.0436 Y12.8309 I-0.0033 J-2.3807
G2 X38.0364 Y12.8236 I-2.5489 J2.5423
G3 X37.3645 Y11.4984 I1.6787 J-1.684
G1 F50.0 X35.7828 Y11.7398
G3 F80.0 X35.7373 Y11.1335 I3.9322 J-0.6001
G2 Y11.1273 I-2.0 J-0.0031
G3 X36.3747 Y8.9672 I3.9584 J-0.0061
G3 X38.0932 Y7.4885 I3.3869 J2.1982
G2 X39.2457 Y5.9569 I-0.8264 J-1.8213
G3 X39.7374 Y5.5305 I0.4933 J0.0722
G3 X40.2292 Y5.9568 I-0.0015 J0.4986
G2 X41.3825 Y7.4885 I1.9789 J-0.29
G3 X43.0998 Y8.9663 I-1.663 J3.6691
G2 X43.1 Y8.9667 I1.6782 J-1.0879
G3 X43.7376 Y11.1275 I-3.323 J2.1551
G2 Y11.1332 I2.0 J0.0029
G3 X42.568 Y13.9568 I-3.9802 J0.0054
G2 X42.5643 Y13.9605 I1.4123 J1.4161
G3 X39.74 Y15.1304 I-2.8195 J-2.8126
G2 X39.7348 I-0.0024 J2.0
G3 X36.9108 Y13.9608 I-0.0056 J-3.9807
G2 X36.9068 Y13.9568 I-1.4161 J1.4124
G3 X35.7828 Y11.7398 I2.8083 J-2.8171
G0 Z3.0
G0 X38.9462 Y11.257
G0 Z-9.0
G1 F50.0 Z-11.0
G3 F80.0 X38.9373 Y11.1385 I0.7689 J-0.1173
G2 Y11.1224 I-5.2 J-0.0081
G3 X39.0591 Y10.7089 I0.7584 J-0.0012
G3 X39.4154 Y10.4025 I0.7024 J0.4565
G2 X39.7378 Y10.2426 I-2.1486 J-4.7353
G2 X40.0614 Y10.4031 I2.4703 J-4.5757
G3 X40.4146 Y10.707 I-0.3419 J0.7545
G2 X40.4152 Y10.7079 I4.3634 J-2.8285
G3 X40.5376 Y11.1229 I-0.6382 J0.4139
G2 Y11.1375 I5.2 J0.0076
G3 X40.3083 Y11.691 I-0.7802 J0.0011
G2 X40.2988 Y11.7005 I3.6719 J3.682
G3 X39.7439 Y11.9304 I-0.554 J-0.5526
G2 X39.7303 I-0.0063 J5.2
G3 X39.1765 Y11.701 I-0.0011 J-0.7807
G2 X39.166 Y11.6905 I-3.6817 J3.6722
G3 X38.9462 Y11.257 I0.5491 J-0.5508
G1 F50.0 X37.3645 Y11.4984
G3 F80.0 X37.3373 Y11.136 I2.3506 J-0.3587
G2 Y11.1248 I-3.6 J-0.0056
G3 X37.7169 Y9.8381 I2.3584 J-0.0037
G3 X38.7543 Y8.9455 I2.0447 J1.3273
G2 X39.7376 Y8.2854 I-1.4875 J-3.2783
G2 X40.722 Y8.9458 I2.4705 J-2.6185
G3 X41.7572 Y9.8366 I-1.0025 J2.2118
G2 X41.7576 Y9.8373 I3.0208 J-1.9582
G3 X42.1376 Y11.1252 I-1.9806 J1.2845
G2 Y11.1353 I3.6 J0.0052
G3 X41.4382 Y12.8239 I-2.3802 J0.0033
G2 X41.4316 Y12.8305 I2.5421 J2.5491
G3 X39.742 Y13.5304 I-1.6867 J-1.6826
G2 X39.7326 I-0.0043 J3.6
G3 X38.0436 Y12.8309 I-0.0033 J-2.3807
G2 X38.0364 Y12.8236 I-2.5489 J2.5423
G3 X37.3645 Y11.4984 I1.6787 J-1.684
G1 F50.0 X35.7828 Y11.7398
G3 F80.0 X35.7373 Y11.1335 I3.9322 J-0.6001
G2 Y11.1273 I-2.0 J-0.0031
G3 X36.3747 Y8.9672 I3.9584 J-0.0061
G3 X38.0932 Y7.4885 I3.3869 J2.1982
G2 X39.2457 Y5.9569 I-0.8264 J-1.8213
G3 X39.7374 Y5.5305 I0.4933 J0.0722
G3 X40.2292 Y5.9568 I-0.0015 J0.4986
G2 X41.3825 Y7.4885 I1.9789 J-0.29
G3 X43.0998 Y8.9663 I-1.663 J3.6691
G2 X43.1 Y8.9667 I1.6782 J-1.0879
G3 X43.7376 Y11.1275 I-3.323 J2.1551
G2 Y11.1332 I2.0 J0.0029
G3 X42.568 Y13.9568 I-3.9802 J0.0054
G2 X42.5643 Y13.9605 I1.4123 J1.4161
G3 X39.74 Y15.1304 I-2.8195 J-2.8126
G2 X39.7348 I-0.0024 J2.0
G3 X36.9108 Y13.9608 I-0.0056 J-3.9807
G2 X36.9068 Y13.9568 I-1.4161 J1.4124
G3 X35.7828 Y11.7398 I2.8083 J-2.8171
G0 Z3.0
G0 X39.5617 Y26.5515
G0 Z1.0
G1 F50.0 Z-1.0
G3 F80.0 X39.7316 Y26.5303 I0.169 J0.6623
G2 X39.7431 I0.0057 J-4.4
G3 X40.2283 Y26.7312 I0.0009 J0.684
G2 X40.2366 Y26.7396 I3.1155 J-3.107
G3 X40.4377 Y27.2252 I-0.4835 J0.4847
G2 Y27.2365 I4.4 J0.0056
G3 X40.2369 Y27.7214 I-0.6836 J0.0009
G2 X40.2287 Y27.7296 I3.1069 J3.1157
G3 X39.7435 Y27.9305 I-0.4842 J-0.483
G2 X39.7305 I-0.0062 J4.4
G3 X39.2468 Y27.7301 I-0.001 J-0.6817
G2 X39.2387 Y27.7221 I-3.1158 J3.1067
G3 X39.0372 Y27.2356 I0.4847 J-0.4858
G2 Y27.2253 I-4.4 J-0.0048
G3 X39.2384 Y26.7394 I0.6851 J-0.0008
G2 X39.2467 Y26.7311 I-3.1075 J-3.1151
G3 X39.5617 Y26.5515 I0.484 J0.4826
G1 F50.0 X39.364 Y25.7763
G3 F80.0 X39.7326 Y25.7303 I0.3667 J1.4375
G2 X39.742 I0.0047 J-3.6
G3 X40.7947 Y26.1663 I0.002 J1.484
G2 X40.8015 Y26.1731 I2.5491 J-2.5421
G3 X41.2377 Y27.2262 I-1.0484 J1.0512
G2 Y27.2354 I3.6 J0.0045
G3 X40.8017 Y28.2879 I-1.4836 J0.0019
G2 X40.795 Y28.2946 I2.542 J2.5492
G3 X39.7424 Y28.7305 I-1.0506 J-1.048
G2 X39.7318 I-0.0051 J3.6
G3 X38.6802 Y28.295 I-0.0023 J-1.4817
G2 X38.6736 Y28.2884 I-2.5493 J2.5419
G3 X38.2372 Y27.2347 I1.0497 J-1.0521
G2 Y27.2263 I-3.6 J-0.004
G3 X38.6734 Y26.1731 I1.4851 J-0.0018
G2 X38.6802 Y26.1663 I-2.5425 J-2.5487
G3 X39.364 Y25.7763 I1.0505 J1.0475
G1 F50.0 X38.9684 Y24.226
G3 F80.0 X39.7347 Y24.1303 I0.7623 J2.9878
G2 X39.7399 I0.0026 J-2.0
G3 X41.9276 Y25.0365 I0.0041 J3.084
G2 X41.9314 Y25.0403 I1.4161 J-1.4123
G3 X42.8377 Y27.2282 I-2.1783 J2.184
G2 Y27.2333 I2.0 J0.0025
G3 X41.9315 Y29.4208 I-3.0836 J0.004
G2 X41.9278 Y29.4246 I1.4122 J1.4162
G3 X39.7401 Y30.3305 I-2.1833 J-2.178
G2 X39.7342 I-0.0028 J2.0
G3 X37.5472 Y29.4247 I-0.0047 J-3.0817
G2 X37.5436 Y29.4211 I-1.4163 J1.4122
G3 X36.6372 Y27.2329 I2.1798 J-2.1847
G2 Y27.2283 I-2.0 J-0.0022
G3 X37.5434 Y25.0403 I3.0851 J-0.0038
G2 X37.5472 Y25.0365 I-1.4125 J-1.4159
G3 X38.9684 Y24.226 I2.1835 J2.1772
G1 F50.0 X39.5617 Y26.5515
G1 Z-2.0
G3 F80.0 X39.7316 Y26.5303 I0.169 J0.6623
G2 X39.7431 I0.0057 J-4.4
G3 X40.2283 Y26.7312 I0.0009 J0.684
G2 X40.2366 Y26.7396 I3.1155 J-3.107
G3 X40.4377 Y27.2252 I-0.4835 J0.4847
G2 Y27.2365 I4.4 J0.0056
G3 X40.2369 Y27.7214 I-0.6836 J0.0009
G2 X40.2287 Y27.7296 I3.1069 J3.1157
G3 X39.7435 Y27.9305 I-0.4842 J-0.483
G2 X39.7305 I-0.0062 J4.4
G3 X39.2468 Y27.7301 I-0.001 J-0.6817
G2 X39.2387 Y27.7221 I-3.1158 J3.1067
G3 X39.0372 Y27.2356 I0.4847 J-0.4858
G2 Y27.2253 I-4.4 J-0.0048
G3 X39.2384 Y26.7394 I0.6851 J-0.0008
G2 X39.2467 Y26.7311 I-3.1075 J-3.1151
G3 X39.5617 Y26.5515 I0.484 J0.4826
G1 F50.0 X39.364 Y25.7763
G3 F80.0 X39.7326 Y25.7303 I0.3667 J1.4375
G2 X39.742 I0.0047 J-3.6
G3 X40.7947 Y26.1663 I0.002 J1.484
G2 X40.8015 Y26.1731 I2.5491 J-2.5421
G3 X41.2377 Y27.2262 I-1.0484 J1.0512
G2 Y27.2354 I3.6 J0.0045
G3 X40.8017 Y28.2879 I-1.4836 J0.0019
G2 X40.795 Y28.2946 I2.542 J2.5492
G3 X39.7424 Y28.7305 I-1.0506 J-1.048
G2 X39.7318 I-0.0051 J3.6
G3 X38.6802 Y28.295 I-0.0023 J-1.4817
G2 X38.6736 Y28.2884 I-2.5493 J2.5419
G3 X38.2372 Y27.2347 I1.0497 J-1.0521
G2 Y27.2263 I-3.6 J-0.004
G3 X38.6734 Y26.1731 I1.4851 J-0.0018
G2 X38.6802 Y26.1663 I-2.5425 J-2.5487
G3 X39.364 Y25.7763 I1.0505 J1.0475
G1 F50.0 X38.9684 Y24.226
G3 F80.0 X39.7347 Y24.1303 I0.7623 J2.9878
G2 X39.7399 I0.0026 J-2.0
G3 X41.9276 Y25.0365 I0.0041 J3.084
G2 X41.9314 Y25.0403 I1.4161 J-1.4123
G3 X42.8377 Y27.2282 I-2.1783 J2.184
G2 Y27.2333 I2.0 J0.0025
G3 X41.9315 Y29.4208 I-3.0836 J0.004
G2 X41.9278 Y29.4246 I1.4122 J1.4162
G3 X39.7401 Y30.3305 I-2.1833 J-2.178
G2 X39.7342 I-0.0028 J2.0
G3 X37.5472 Y29.4247 I-0.0047 J-3.0817
G2 X37.5436 Y29.4211 I-1.4163 J1.4122
G3 X36.6372 Y27.2329 I2.1798 J-2.1847
G2 Y27.2283 I-2.0 J-0.0022
G3 X37.5434 Y25.0403 I3.0851 J-0.0038
G2 X37.5472 Y25.0365 I-1.4125 J-1.4159
G3 X38.9684 Y24.226 I2.1835 J2.1772
G1 F50.0 X39.5617 Y26.5515
G1 Z-3.0
G3 F80.0 X39.7316 Y26.5303 I0.169 J0.6623
G2 X39.7431 I0.0057 J-4.4
G3 X40.2283 Y26.7312 I0.0009 J0.684
G2 X40.2366 Y26.7396 I3.1155 J-3.107
G3 X40.4377 Y27.2252 I-0.4835 J0.4847
G2 Y27.2365 I4.4 J0.0056
G3 X40.2369 Y27.7214 I-0.6836 J0.0009
G2 X40.2287 Y27.7296 I3.1069 J3.1157
G3 X39.7435 Y27.9305 I-0.4842 J-0.483
G2 X39.7305 I-0.0062 J4.4
G3 X39.2468 Y27.7301 I-0.001 J-0.6817
G2 X39.2387 Y27.7221 I-3.1158 J3.1067
G3 X39.0372 Y27.2356 I0.4847 J-0.4858
G2 Y27.2253 I-4.4 J-0.0048
G3 X39.2384 Y26.7394 I0.6851 J-0.0008
G2 X39.2467 Y26.7311 I-3.1075 J-3.1151
G3 X39.5617 Y26.5515 I0.484 J0.4826
G1 F50.0 X39.364 Y25.7763
G3 F80.0 X39.7326 Y25.7303 I0.3667 J1.4375
G2 X39.742 I0.0047 J-3.6
G3 X40.7947 Y26.1663 I0.002 J1.484
G2 X40.8015 Y26.1731 I2.5491 J-2.5421
G3 X41.2377 Y27.2262 I-1.0484 J1.0512
G2 Y27.2354 I3.6 J0.0045
G3 X40.8017 Y28.2879 I-1.4836 J0.0019
G2 X40.795 Y28.2946 I2.542 J2.5492
G3 X39.7424 Y28.7305 I-1.0506 J-1.048
G2 X39.7318 I-0.0051 J3.6
G3 X38.6802 Y28.295 I-0.0023 J-1.4817
G2 X38.6736 Y28.2884 I-2.5493 J2.5419
G3 X38.2372 Y27.2347 I1.0497 J-1.0521
G2 Y27.2263 I-3.6 J-0.004
G3 X38.6734 Y26.1731 I1.4851 J-0.0018
G2 X38.6802 Y26.1663 I-2.5425 J-2.5487
G3 X39.364 Y25.7763 I1.0505 J1.0475
G1 F50.0 X38.9684 Y24.226
G3 F80.0 X39.7347 Y24.1303 I0.7623 J2.9878
G2 X39.7399 I0.0026 J-2.0
G3 X41.9276 Y25.0365 I0.0041 J3.084
G2 X41.9314 Y25.0403 I1.4161 J-1.4123
G3 X42.8377 Y27.2282 I-2.1783 J2.184
G2 Y27.2333 I2.0 J0.0025
G3 X41.9315 Y29.4208 I-3.0836 J0.004
G2 X41.9278 Y29.4246 I1.4122 J1.4162
G3 X39.7401 Y30.3305 I-2.1833 J-2.178
G2 X39.7342 I-0.0028 J2.0
G3 X37.5472 Y29.4247 I-0.0047 J-3.0817
G2 X37.5436 Y29.4211 I-1.4163 J1.4122
G3 X36.6372 Y27.2329 I2.1798 J-2.1847
G2 Y27.2283 I-2.0 J-0.0022
G3 X37.5434 Y25.0403 I3.0851 J-0.0038
G2 X37.5472 Y25.0365 I-1.4125 J-1.4159
G3 X38.9684 Y24.226 I2.1835 J2.1772
G1 F50.0 X39.5617 Y26.5515
G1 Z-4.0
G3 F80.0 X39.7316 Y26.5303 I0.169 J0.6623
G2 X39.7431 I0.0057 J-4.4
G3 X40.2283 Y26.7312 I0.0009 J0.684
G2 X40.2366 Y26.7396 I3.1155 J-3.107
G3 X40.4377 Y27.2252 I-0.4835 J0.4847
G2 Y27.2365 I4.4 J0.0056
G3 X40.2369 Y27.7214 I-0.6836 J0.0009
G2 X40.2287 Y27.7296 I3.1069 J3.1157
G3 X39.7435 Y27.9305 I-0.4842 J-0.483
G2 X39.7305 I-0.0062 J4.4
G3 X39.2468 Y27.7301 I-0.001 J-0.6817
G2 X39.2387 Y27.7221 I-3.1158 J3.1067
G3 X39.0372 Y27.2356 I0.4847 J-0.4858
G2 Y27.2253 I-4.4 J-0.0048
G3 X39.2384 Y26.7394 I0.6851 J-0.0008
G2 X39.2467 Y26.7311 I-3.1075 J-3.1151
G3 X39.5617 Y26.5515 I0.484 J0.4826
G1 F50.0 X39.364 Y25.7763
G3 F80.0 X39.7326 Y25.7303 I0.3667 J1.4375
G2 X39.742 I0.0047 J-3.6
G3 X40.7947 Y26.1663 I0.002 J1.484
G2 X40.8015 Y26.1731 I2.5491 J-2.5421
G3 X41.2377 Y27.2262 I-1.0484 J1.0512
G2 Y27.2354 I3.6 J0.0045
G3 X40.8017 Y28.2879 I-1.4836 J0.0019
G2 X40.795 Y28.2946 I2.542 J2.5492
G3 X39.7424 Y28.7305 I-1.0506 J-1.048
G2 X39.7318 I-0.0051 J3.6
G3 X38.6802 Y28.295 I-0.0023 J-1.4817
G2 X38.6736 Y28.2884 I-2.5493 J2.5419
G3 X38.2372 Y27.2347 I1.0497 J-1.0521
G2 Y27.2263 I-3.6 J-0.004
G3 X38.6734 Y26.1731 I1.4851 J-0.0018
G2 X38.6802 Y26.1663 I-2.5425 J-2.5487
G3 X39.364 Y25.7763 I1.0505 J1.0475
G1 F50.0 X38.9684 Y24.226
G3 F80.0 X39.7347 Y24.1303 I0.7623 J2.9878
G2 X39.7399 I0.0026 J-2.0
G3 X41.9276 Y25.0365 I0.0041 J3.084
G2 X41.9314 Y25.0403 I1.4161 J-1.4123
G3 X42.8377 Y27.2282 I-2.1783 J2.184
G2 Y27.2333 I2.0 J0.0025
G3 X41.9315 Y29.4208 I-3.0836 J0.004
G2 X41.9278 Y29.4246 I1.4122 J1.4162
G3 X39.7401 Y30.3305 I-2.1833 J-2.178
G2 X39.7342 I-0.0028 J2.0
G3 X37.5472 Y29.4247 I-0.0047 J-3.0817
G2 X37.5436 Y29.4211 I-1.4163 J1.4122
G3 X36.6372 Y27.2329 I2.1798 J-2.1847
G2 Y27.2283 I-2.0 J-0.0022
G3 X37.5434 Y25.0403 I3.0851 J-0.0038
G2 X37.5472 Y25.0365 I-1.4125 J-1.4159
G3 X38.9684 Y24.226 I2.1835 J2.1772
G1 F50.0 X39.5617 Y26.5515
G1 Z-5.0
G3 F80.0 X39.7316 Y26.5303 I0.169 J0.6623
G2 X39.7431 I0.0057 J-4.4
G3 X40.2283 Y26.7312 I0.0009 J0.684
G2 X40.2366 Y26.7396 I3.1155 J-3.107
G3 X40.4377 Y27.2252 I-0.4835 J0.4847
G2 Y27.2365 I4.4 J0.0056
G3 X40.2369 Y27.7214 I-0.6836 J0.0009
G2 X40.2287 Y27.7296 I3.1069 J3.1157
G3 X39.7435 Y27.9305 I-0.4842 J-0.483
G2 X39.7305 I-0.0062 J4.4
G3 X39.2468 Y27.7301 I-0.001 J-0.6817
G2 X39.2387 Y27.7221 I-3.1158 J3.1067
G3 X39.0372 Y27.2356 I0.4847 J-0.4858
G2 Y27.2253 I-4.4 J-0.0048
G3 X39.2384 Y26.7394 I0.6851 J-0.0008
G2 X39.2467 Y26.7311 I-3.1075 J-3.1151
G3 X39.5617 Y26.5515 I0.484 J0.4826
G1 F50.0 X39.364 Y25.7763
G3 F80.0 X39.7326 Y25.7303 I0.3667 J1.4375
G2 X39.742 I0.0047 J-3.6
G3 X40.7947 Y26.1663 I0.002 J1.484
G2 X40.8015 Y26.1731 I2.5491 J-2.5421
G3 X41.2377 Y27.2262 I-1.0484 J1.0512
G2 Y27.2354 I3.6 J0.0045
G3 X40.8017 Y28.2879 I-1.4836 J0.0019
G2 X40.795 Y28.2946 I2.542 J2.5492
G3 X39.7424 Y28.7305 I-1.0506 J-1.048
G2 X39.7318 I-0.0051 J3.6
G3 X38.6802 Y28.295 I-0.0023 J-1.4817
G2 X38.6736 Y28.2884 I-2.5493 J2.5419
G3 X38.2372 Y27.2347 I1.0497 J-1.0521
G2 Y27.2263 I-3.6 J-0.004
G3 X38.6734 Y26.1731 I1.4851 J-0.0018
G2 X38.6802 Y26.1663 I-2.5425 J-2.5487
G3 X39.364 Y25.7763 I1.0505 J1.0475
G1 F50.0 X38.9684 Y24.226
G3 F80.0 X39.7347 Y24.1303 I0.7623 J2.9878
G2 X39.7399 I0.0026 J-2.0
G3 X41.9276 Y25.0365 I0.0041 J3.084
G2 X41.9314 Y25.0403 I1.4161 J-1.4123
G3 X42.8377 Y27.2282 I-2.1783 J2.184
G2 Y27.2333 I2.0 J0.0025
G3 X41.9315 Y29.4208 I-3.0836 J0.004
G2 X41.9278 Y29.4246 I1.4122 J1.4162
G3 X39.7401 Y30.3305 I-2.1833 J-2.178
G2 X39.7342 I-0.0028 J2.0
G3 X37.5472 Y29.4247 I-0.0047 J-3.0817
G2 X37.5436 Y29.4211 I-1.4163 J1.4122
G3 X36.6372 Y27.2329 I2.1798 J-2.1847
G2 Y27.2283 I-2.0 J-0.0022
G3 X37.5434 Y25.0403 I3.0851 J-0.0038
G2 X37.5472 Y25.0365 I-1.4125 J-1.4159
G3 X38.9684 Y24.226 I2.1835 J2.1772
G1 F50.0 X39.5617 Y26.5515
G1 Z-6.0
G3 F80.0 X39.7316 Y26.5303 I0.169 J0.6623
G2 X39.7431 I0.0057 J-4.4
G3 X40.2283 Y26.7312 I0.0009 J0.684
G2 X40.2366 Y26.7396 I3.1155 J-3.107
G3 X40.4377 Y27.2252 I-0.4835 J0.4847
G2 Y27.2365 I4.4 J0.0056
G3 X40.2369 Y27.7214 I-0.6836 J0.0009
G2 X40.2287 Y27.7296 I3.1069 J3.1157
G3 X39.7435 Y27.9305 I-0.4842 J-0.483
G2 X39.7305 I-0.0062 J4.4
G3 X39.2468 Y27.7301 I-0.001 J-0.6817
G2 X39.2387 Y27.7221 I-3.1158 J3.1067
G3 X39.0372 Y27.2356 I0.4847 J-0.4858
G2 Y27.2253 I-4.4 J-0.0048
G3 X39.2384 Y26.7394 I0.6851 J-0.0008
G2 X39.2467 Y26.7311 I-3.1075 J-3.1151
G3 X39.5617 Y26.5515 I0.484 J0.4826
G1 F50.0 X39.364 Y25.7763
G3 F80.0 X39.7326 Y25.7303 I0.3667 J1.4375
G2 X39.742 I0.0047 J-3.6
G3 X40.7947 Y26.1663 I0.002 J1.484
G2 X40.8015 Y26.1731 I2.5491 J-2.5421
G3 X41.2377 Y27.2262 I-1.0484 J1.0512
G2 Y27.2354 I3.6 J0.0045
G3 X40.8017 Y28.2879 I-1.4836 J0.0019
G2 X40.795 Y28.2946 I2.542 J2.5492
G3 X39.7424 Y28.7305 I-1.0506 J-1.048
G2 X39.7318 I-0.0051 J3.6
G3 X38.6802 Y28.295 I-0.0023 J-1.4817
G2 X38.6736 Y28.2884 I-2.5493 J2.5419
G3 X38.2372 Y27.2347 I1.0497 J-1.0521
G2 Y27.2263 I-3.6 J-0.004
G3 X38.6734 Y26.1731 I1.4851 J-0.0018
G2 X38.6802 Y26.1663 I-2.5425 J-2.5487
G3 X39.364 Y25.7763 I1.0505 J1.0475
G1 F50.0 X38.9684 Y24.226
G3 F80.0 X39.7347 Y24.1303 I0.7623 J2.9878
G2 X39.7399 I0.0026 J-2.0
G3 X41.9276 Y25.0365 I0.0041 J3.084
G2 X41.9314 Y25.0403 I1.4161 J-1.4123
G3 X42.8377 Y27.2282 I-2.1783 J2.184
G2 Y27.2333 I2.0 J0.0025
G3 X41.9315 Y29.4208 I-3.0836 J0.004
G2 X41.9278 Y29.4246 I1.4122 J1.4162
G3 X39.7401 Y30.3305 I-2.1833 J-2.178
G2 X39.7342 I-0.0028 J2.0
G3 X37.5472 Y29.4247 I-0.0047 J-3.0817
G2 X37.5436 Y29.4211 I-1.4163 J1.4122
G3 X36.6372 Y27.2329 I2.1798 J-2.1847
G2 Y27.2283 I-2.0 J-0.0022
G3 X37.5434 Y25.0403 I3.0851 J-0.0038
G2 X37.5472 Y25.0365 I-1.4125 J-1.4159
G3 X38.9684 Y24.226 I2.1835 J2.1772
G1 F50.0 X39.5617 Y26.5515
G1 Z-7.0
G3 F80.0 X39.7316 Y26.5303 I0.169 J0.6623
G2 X39.7431 I0.0057 J-4.4
G3 X40.2283 Y26.7312 I0.0009 J0.684
G2 X40.2366 Y26.7396 I3.1155 J-3.107
G3 X40.4377 Y27.2252 I-0.4835 J0.4847
G2 Y27.2365 I4.4 J0.0056
G3 X40.2369 Y27.7214 I-0.6836 J0.0009
G2 X40.2287 Y27.7296 I3.1069 J3.1157
G3 X39.7435 Y27.9305 I-0.4842 J-0.483
G2 X39.7305 I-0.0062 J4.4
G3 X39.2468 Y27.7301 I-0.001 J-0.6817
G2 X39.2387 Y27.7221 I-3.1158 J3.1067
G3 X39.0372 Y27.2356 I0.4847 J-0.4858
G2 Y27.2253 I-4.4 J-0.0048
G3 X39.2384 Y26.7394 I0.6851 J-0.0008
G2 X39.2467 Y26.7311 I-3.1075 J-3.1151
G3 X39.5617 Y26.5515 I0.484 J0.4826
G1 F50.0 X39.364 Y25.7763
G3 F80.0 X39.7326 Y25.7303 I0.3667 J1.4375
G2 X39.742 I0.0047 J-3.6
G3 X40.7947 Y26.1663 I0.002 J1.484
G2 X40.8015 Y26.1731 I2.5491 J-2.5421
G3 X41.2377 Y27.2262 I-1.0484 J1.0512
G2 Y27.2354 I3.6 J0.0045
G3 X40.8017 Y28.2879 I-1.4836 J0.0019
G2 X40.795 Y28.2946 I2.542 J2.5492
G3 X39.7424 Y28.7305 I-1.0506 J-1.048
G2 X39.7318 I-0.0051 J3.6
G3 X38.6802 Y28.295 I-0.0023 J-1.4817
G2 X38.6736 Y28.2884 I-2.5493 J2.5419
G3 X38.2372 Y27.2347 I1.0497 J-1.0521
G2 Y27.2263 I-3.6 J-0.004
G3 X38.6734 Y26.1731 I1.4851 J-0.0018
G2 X38.6802 Y26.1663 I-2.5425 J-2.5487
G3 X39.364 Y25.7763 I1.0505 J1.0475
G1 F50.0 X38.9684 Y24.226
G3 F80.0 X39.7347 Y24.1303 I0.7623 J2.9878
G2 X39.7399 I0.0026 J-2.0
G3 X41.9276 Y25.0365 I0.0041 J3.084
G2 X41.9314 Y25.0403 I1.4161 J-1.4123
G3 X42.8377 Y27.2282 I-2.1783 J2.184
G2 Y27.2333 I2.0 J0.0025
G3 X41.9315 Y29.4208 I-3.0836 J0.004
G2 X41.9278 Y29.4246 I1.4122 J1.4162
G3 X39.7401 Y30.3305 I-2.1833 J-2.178
G2 X39.7342 I-0.0028 J2.0
G3 X37.5472 Y29.4247 I-0.0047 J-3.0817
G2 X37.5436 Y29.4211 I-1.4163 J1.4122
G3 X36.6372 Y27.2329 I2.1798 J-2.1847
G2 Y27.2283 I-2.0 J-0.0022
G3 X37.5434 Y25.0403 I3.0851 J-0.0038
G2 X37.5472 Y25.0365 I-1.4125 J-1.4159
G3 X38.9684 Y24.226 I2.1835 J2.1772
G1 F50.0 X39.5617 Y26.5515
G1 Z-8.0
G3 F80.0 X39.7316 Y26.5303 I0.169 J0.6623
G2 X39.7431 I0.0057 J-4.4
G3 X40.2283 Y26.7312 I0.0009 J0.684
G2 X40.2366 Y26.7396 I3.1155 J-3.107
G3 X40.4377 Y27.2252 I-0.4835 J0.4847
G2 Y27.2365 I4.4 J0.0056
G3 X40.2369 Y27.7214 I-0.6836 J0.0009
G2 X40.2287 Y27.7296 I3.1069 J3.1157
G3 X39.7435 Y27.9305 I-0.4842 J-0.483
G2 X39.7305 I-0.0062 J4.4
G3 X39.2468 Y27.7301 I-0.001 J-0.6817
G2 X39.2387 Y27.7221 I-3.1158 J3.1067
G3 X39.0372 Y27.2356 I0.4847 J-0.4858
G2 Y27.2253 I-4.4 J-0.0048
G3 X39.2384 Y26.7394 I0.6851 J-0.0008
G2 X39.2467 Y26.7311 I-3.1075 J-3.1151
G3 X39.5617 Y26.5515 I0.484 J0.4826
G1 F50.0 X39.364 Y25.7763
G3 F80.0 X39.7326 Y25.7303 I0.3667 J1.4375
G2 X39.742 I0.0047 J-3.6
G3 X40.7947 Y26.1663 I0.002 J1.484
G2 X40.8015 Y26.1731 I2.5491 J-2.5421
G3 X41.2377 Y27.2262 I-1.0484 J1.0512
G2 Y27.2354 I3.6 J0.0045
G3 X40.8017 Y28.2879 I-1.4836 J0.0019
G2 X40.795 Y28.2946 I2.542 J2.5492
G3 X39.7424 Y28.7305 I-1.0506 J-1.048
G2 X39.7318 I-0.0051 J3.6
G3 X38.6802 Y28.295 I-0.0023 J-1.4817
G2 X38.6736 Y28.2884 I-2.5493 J2.5419
G3 X38.2372 Y27.2347 I1.0497 J-1.0521
G2 Y27.2263 I-3.6 J-0.004
G3 X38.6734 Y26.1731 I1.4851 J-0.0018
G2 X38.6802 Y26.1663 I-2.5425 J-2.5487
G3 X39.364 Y25.7763 I1.0505 J1.0475
G1 F50.0 X38.9684 Y24.226
G3 F80.0 X39.7347 Y24.1303 I0.7623 J2.9878
G2 X39.7399 I0.0026 J-2.0
G3 X41.9276 Y25.0365 I0.0041 J3.084
G2 X41.9314 Y25.0403 I1.4161 J-1.4123
G3 X42.8377 Y27.2282 I-2.1783 J2.184
G2 Y27.2333 I2.0 J0.0025
G3 X41.9315 Y29.4208 I-3.0836 J0.004
G2 X41.9278 Y29.4246 I1.4122 J1.4162
G3 X39.7401 Y30.3305 I-2.1833 J-2.178
G2 X39.7342 I-0.0028 J2.0
G3 X37.5472 Y29.4247 I-0.0047 J-3.0817
G2 X37.5436 Y29.4211 I-1.4163 J1.4122
G3 X36.6372 Y27.2329 I2.1798 J-2.1847
G2 Y27.2283 I-2.0 J-0.0022
G3 X37.5434 Y25.0403 I3.0851 J-0.0038
G2 X37.5472 Y25.0365 I-1.4125 J-1.4159
G3 X38.9684 Y24.226 I2.1835 J2.1772
G1 F50.0 X39.5617 Y26.5515
G1 Z-9.0
G3 F80.0 X39.7316 Y26.5303 I0.169 J0.6623
G2 X39.7431 I0.0057 J-4.4
G3 X40.2283 Y26.7312 I0.0009 J0.684
G2 X40.2366 Y26.7396 I3.1155 J-3.107
G3 X40.4377 Y27.2252 I-0.4835 J0.4847
G2 Y27.2365 I4.4 J0.0056
G3 X40.2369 Y27.7214 I-0.6836 J0.0009
G2 X40.2287 Y27.7296 I3.1069 J3.1157
G3 X39.7435 Y27.9305 I-0.4842 J-0.483
G2 X39.7305 I-0.0062 J4.4
G3 X39.2468 Y27.7301 I-0.001 J-0.6817
G2 X39.2387 Y27.7221 I-3.1158 J3.1067
G3 X39.0372 Y27.2356 I0.4847 J-0.4858
G2 Y27.2253 I-4.4 J-0.0048
G3 X39.2384 Y26.7394 I0.6851 J-0.0008
G2 X39.2467 Y26.7311 I-3.1075 J-3.1151
G3 X39.5617 Y26.5515 I0.484 J0.4826
G1 F50.0 X39.364 Y25.7763
G3 F80.0 X39.7326 Y25.7303 I0.3667 J1.4375
G2 X39.742 I0.0047 J-3.6
G3 X40.7947 Y26.1663 I0.002 J1.484
G2 X40.8015 Y26.1731 I2.5491 J-2.5421
G3 X41.2377 Y27.2262 I-1.0484 J1.0512
G2 Y27.2354 I3.6 J0.0045
G3 X40.8017 Y28.2879 I-1.4836 J0.0019
G2 X40.795 Y28.2946 I2.542 J2.5492
G3 X39.7424 Y28.7305 I-1.0506 J-1.048
G2 X39.7318 I-0.0051 J3.6
G3 X38.6802 Y28.295 I-0.0023 J-1.4817
G2 X38.6736 Y28.2884 I-2.5493 J2.5419
G3 X38.2372 Y27.2347 I1.0497 J-1.0521
G2 Y27.2263 I-3.6 J-0.004
G3 X38.6734 Y26.1731 I1.4851 J-0.0018
G2 X38.6802 Y26.1663 I-2.5425 J-2.5487
G3 X39.364 Y25.7763 I1.0505 J1.0475
G1 F50.0 X38.9684 Y24.226
G3 F80.0 X39.7347 Y24.1303 I0.7623 J2.9878
G2 X39.7399 I0.0026 J-2.0
G3 X41.9276 Y25.0365 I0.0041 J3.084
G2 X41.9314 Y25.0403 I1.4161 J-1.4123
G3 X42.8377 Y27.2282 I-2.1783 J2.184
G2 Y27.2333 I2.0 J0.0025
G3 X41.9315 Y29.4208 I-3.0836 J0.004
G2 X41.9278 Y29.4246 I1.4122 J1.4162
G3 X39.7401 Y30.3305 I-2.1833 J-2.178
G2 X39.7342 I-0.0028 J2.0
G3 X37.5472 Y29.4247 I-0.0047 J-3.0817
G2 X37.5436 Y29.4211 I-1.4163 J1.4122
G3 X36.6372 Y27.2329 I2.1798 J-2.1847
G2 Y27.2283 I-2.0 J-0.0022
G3 X37.5434 Y25.0403 I3.0851 J-0.0038
G2 X37.5472 Y25.0365 I-1.4125 J-1.4159
G3 X38.9684 Y24.226 I2.1835 J2.1772
G1 F50.0 X39.5617 Y26.5515
G1 Z-10.0
G3 F80.0 X39.7316 Y26.5303 I0.169 J0.6623
G2 X39.7431 I0.0057 J-4.4
G3 X40.2283 Y26.7312 I0.0009 J0.684
G2 X40.2366 Y26.7396 I3.1155 J-3.107
G3 X40.4377 Y27.2252 I-0.4835 J0.4847
G2 Y27.2365 I4.4 J0.0056
G3 X40.2369 Y27.7214 I-0.6836 J0.0009
G2 X40.2287 Y27.7296 I3.1069 J3.1157
G3 X39.7435 Y27.9305 I-0.4842 J-0.483
G2 X39.7305 I-0.0062 J4.4
G3 X39.2468 Y27.7301 I-0.001 J-0.6817
G2 X39.2387 Y27.7221 I-3.1158 J3.1067
G3 X39.0372 Y27.2356 I0.4847 J-0.4858
G2 Y27.2253 I-4.4 J-0.0048
G3 X39.2384 Y26.7394 I0.6851 J-0.0008
G2 X39.2467 Y26.7311 I-3.1075 J-3.1151
G3 X39.5617 Y26.5515 I0.484 J0.4826
G1 F50.0 X39.364 Y25.7763
G3 F80.0 X39.7326 Y25.7303 I0.3667 J1.4375
G2 X39.742 I0.0047 J-3.6
G3 X40.7947 Y26.1663 I0.002 J1.484
G2 X40.8015 Y26.1731 I2.5491 J-2.5421
G3 X41.2377 Y27.2262 I-1.0484 J1.0512
G2 Y27.2354 I3.6 J0.0045
G3 X40.8017 Y28.2879 I-1.4836 J0.0019
G2 X40.795 Y28.2946 I2.542 J2.5492
G3 X39.7424 Y28.7305 I-1.0506 J-1.048
G2 X39.7318 I-0.0051 J3.6
G3 X38.6802 Y28.295 I-0.0023 J-1.4817
G2 X38.6736 Y28.2884 I-2.5493 J2.5419
G3 X38.2372 Y27.2347 I1.0497 J-1.0521
G2 Y27.2263 I-3.6 J-0.004
G3 X38.6734 Y26.1731 I1.4851 J-0.0018
G2 X38.6802 Y26.1663 I-2.5425 J-2.5487
G3 X39.364 Y25.7763 I1.0505 J1.0475
G1 F50.0 X38.9684 Y24.226
G3 F80.0 X39.7347 Y24.1303 I0.7623 J2.9878
G2 X39.7399 I0.0026 J-2.0
G3 X41.9276 Y25.0365 I0.0041 J3.084
G2 X41.9314 Y25.0403 I1.4161 J-1.4123
G3 X42.8377 Y27.2282 I-2.1783 J2.184
G2 Y27.2333 I2.0 J0.0025
G3 X41.9315 Y29.4208 I-3.0836 J0.004
G2 X41.9278 Y29.4246 I1.4122 J1.4162
G3 X39.7401 Y30.3305 I-2.1833 J-2.178
G2 X39.7342 I-0.0028 J2.0
G3 X37.5472 Y29.4247 I-0.0047 J-3.0817
G2 X37.5436 Y29.4211 I-1.4163 J1.4122
G3 X36.6372 Y27.2329 I2.1798 J-2.1847
G2 Y27.2283 I-2.0 J-0.0022
G3 X37.5434 Y25.0403 I3.0851 J-0.0038
G2 X37.5472 Y25.0365 I-1.4125 J-1.4159
G3 X38.9684 Y24.226 I2.1835 J2.1772
G1 F50.0 X39.5617 Y26.5515
G1 Z-11.0
G3 F80.0 X39.7316 Y26.5303 I0.169 J0.6623
G2 X39.7431 I0.0057 J-4.4
G3 X40.2283 Y26.7312 I0.0009 J0.684
G2 X40.2366 Y26.7396 I3.1155 J-3.107
G3 X40.4377 Y27.2252 I-0.4835 J0.4847
G2 Y27.2365 I4.4 J0.0056
G3 X40.2369 Y27.7214 I-0.6836 J0.0009
G2 X40.2287 Y27.7296 I3.1069 J3.1157
G3 X39.7435 Y27.9305 I-0.4842 J-0.483
G2 X39.7305 I-0.0062 J4.4
G3 X39.2468 Y27.7301 I-0.001 J-0.6817
G2 X39.2387 Y27.7221 I-3.1158 J3.1067
G3 X39.0372 Y27.2356 I0.4847 J-0.4858
G2 Y27.2253 I-4.4 J-0.0048
G3 X39.2384 Y26.7394 I0.6851 J-0.0008
G2 X39.2467 Y26.7311 I-3.1075 J-3.1151
G3 X39.5617 Y26.5515 I0.484 J0.4826
G1 F50.0 X39.364 Y25.7763
G3 F80.0 X39.7326 Y25.7303 I0.3667 J1.4375
G2 X39.742 I0.0047 J-3.6
G3 X40.7947 Y26.1663 I0.002 J1.484
G2 X40.8015 Y26.1731 I2.5491 J-2.5421
G3 X41.2377 Y27.2262 I-1.0484 J1.0512
G2 Y27.2354 I3.6 J0.0045
G3 X40.8017 Y28.2879 I-1.4836 J0.0019
G2 X40.795 Y28.2946 I2.542 J2.5492
G3 X39.7424 Y28.7305 I-1.0506 J-1.048
G2 X39.7318 I-0.0051 J3.6
G3 X38.6802 Y28.295 I-0.0023 J-1.4817
G2 X38.6736 Y28.2884 I-2.5493 J2.5419
G3 X38.2372 Y27.2347 I1.0497 J-1.0521
G2 Y27.2263 I-3.6 J-0.004
G3 X38.6734 Y26.1731 I1.4851 J-0.0018
G2 X38.6802 Y26.1663 I-2.5425 J-2.5487
G3 X39.364 Y25.7763 I1.0505 J1.0475
G1 F50.0 X38.9684 Y24.226
G3 F80.0 X39.7347 Y24.1303 I0.7623 J2.9878
G2 X39.7399 I0.0026 J-2.0
G3 X41.9276 Y25.0365 I0.0041 J3.084
G2 X41.9314 Y25.0403 I1.4161 J-1.4123
G3 X42.8377 Y27.2282 I-2.1783 J2.184
G2 Y27.2333 I2.0 J0.0025
G3 X41.9315 Y29.4208 I-3.0836 J0.004
G2 X41.9278 Y29.4246 I1.4122 J1.4162
G3 X39.7401 Y30.3305 I-2.1833 J-2.178
G2 X39.7342 I-0.0028 J2.0
G3 X37.5472 Y29.4247 I-0.0047 J-3.0817
G2 X37.5436 Y29.4211 I-1.4163 J1.4122
G3 X36.6372 Y27.2329 I2.1798 J-2.1847
G2 Y27.2283 I-2.0 J-0.0022
G3 X37.5434 Y25.0403 I3.0851 J-0.0038
G2 X37.5472 Y25.0365 I-1.4125 J-1.4159
G3 X38.9684 Y24.226 I2.1835 J2.1772
G0 Z3.0
M5
M30
