( Made using CamBam - http://www.cambam.co.uk )
( picker slide - top plate 9/4/2013 12:14:59 PM )
( T4 : 4.0 )
G21 G90 G64 G40
G0 Z3.0
( T4 : 4.0 )
T4 M6
( 4mm pocket 2 )
G17
M3 S1000
G0 X16.9884 Y10.0
G0 Z1.0
G1 F50.0 Z-1.0
G1 F80.0 Y11.1305
G1 X10.0007
G1 Y10.0
G1 X16.9884
G1 F50.0 X18.5884
G1 F80.0 Y12.7305
G1 X8.4007
G1 Y8.4
G1 X18.5884
G1 Y10.0
G1 F50.0 X20.1884
G1 F80.0 Y14.3305
G1 X6.8007
G1 Y6.8
G1 X20.1884
G1 Y10.0
G1 F50.0 X21.7884
G1 F80.0 Y15.9305
G1 X5.2007
G1 Y5.2
G1 X21.7884
G1 Y10.0
G1 F50.0 X23.3884
G1 F80.0 Y17.5305
G1 X3.6007
G1 Y3.6
G1 X23.3884
G1 Y10.0
G1 F50.0 X24.9884
G1 F80.0 Y19.1305
G1 X2.0007
G1 Y2.0
G1 X24.9884
G1 Y10.0
G0 Z3.0
G0 X16.9884
G0 Z0.0
G1 F50.0 Z-2.0
G1 F80.0 Y11.1305
G1 X10.0007
G1 Y10.0
G1 X16.9884
G1 F50.0 X18.5884
G1 F80.0 Y12.7305
G1 X8.4007
G1 Y8.4
G1 X18.5884
G1 Y10.0
G1 F50.0 X20.1884
G1 F80.0 Y14.3305
G1 X6.8007
G1 Y6.8
G1 X20.1884
G1 Y10.0
G1 F50.0 X21.7884
G1 F80.0 Y15.9305
G1 X5.2007
G1 Y5.2
G1 X21.7884
G1 Y10.0
G1 F50.0 X23.3884
G1 F80.0 Y17.5305
G1 X3.6007
G1 Y3.6
G1 X23.3884
G1 Y10.0
G1 F50.0 X24.9884
G1 F80.0 Y19.1305
G1 X2.0007
G1 Y2.0
G1 X24.9884
G1 Y10.0
G0 Z3.0
G0 X16.9884
G0 Z-1.0
G1 F50.0 Z-3.0
G1 F80.0 Y11.1305
G1 X10.0007
G1 Y10.0
G1 X16.9884
G1 F50.0 X18.5884
G1 F80.0 Y12.7305
G1 X8.4007
G1 Y8.4
G1 X18.5884
G1 Y10.0
G1 F50.0 X20.1884
G1 F80.0 Y14.3305
G1 X6.8007
G1 Y6.8
G1 X20.1884
G1 Y10.0
G1 F50.0 X21.7884
G1 F80.0 Y15.9305
G1 X5.2007
G1 Y5.2
G1 X21.7884
G1 Y10.0
G1 F50.0 X23.3884
G1 F80.0 Y17.5305
G1 X3.6007
G1 Y3.6
G1 X23.3884
G1 Y10.0
G1 F50.0 X24.9884
G1 F80.0 Y19.1305
G1 X2.0007
G1 Y2.0
G1 X24.9884
G1 Y10.0
G0 Z3.0
G0 X16.9884
G0 Z-2.0
G1 F50.0 Z-4.0
G1 F80.0 Y11.1305
G1 X10.0007
G1 Y10.0
G1 X16.9884
G1 F50.0 X18.5884
G1 F80.0 Y12.7305
G1 X8.4007
G1 Y8.4
G1 X18.5884
G1 Y10.0
G1 F50.0 X20.1884
G1 F80.0 Y14.3305
G1 X6.8007
G1 Y6.8
G1 X20.1884
G1 Y10.0
G1 F50.0 X21.7884
G1 F80.0 Y15.9305
G1 X5.2007
G1 Y5.2
G1 X21.7884
G1 Y10.0
G1 F50.0 X23.3884
G1 F80.0 Y17.5305
G1 X3.6007
G1 Y3.6
G1 X23.3884
G1 Y10.0
G1 F50.0 X24.9884
G1 F80.0 Y19.1305
G1 X2.0007
G1 Y2.0
G1 X24.9884
G1 Y10.0
G0 Z3.0
M5
M30
