( Made using CamBam - http://www.cambam.co.uk )
( picker slide - top plate 9/4/2013 6:15:26 PM )
( T4 : 4.0 )
G21 G90 G64 G40
G0 Z3.0
( T4 : 4.0 )
T4 M6
( 4mm pocket 3 )
G17
M3 S1000
G0 X43.4491 Y10.0
G0 Z1.0
G1 F50.0 Z-1.0
G1 F80.0 Y11.1305
G1 X36.4609
G1 Y10.0
G1 X43.4491
G1 F50.0 X45.0491
G1 F80.0 Y12.7305
G1 X34.8609
G1 Y8.4
G1 X45.0491
G1 Y10.0
G1 F50.0 X46.6491
G1 F80.0 Y14.3305
G1 X33.2609
G1 Y6.8
G1 X46.6491
G1 Y10.0
G1 F50.0 X48.2491
G1 F80.0 Y15.9305
G1 X31.6609
G1 Y5.2
G1 X48.2491
G1 Y10.0
G1 F50.0 X49.8491
G1 F80.0 Y17.5305
G1 X30.0609
G1 Y3.6
G1 X49.8491
G1 Y10.0
G1 F50.0 X51.4491
G1 F80.0 Y19.1305
G1 X28.4609
G1 Y2.0
G1 X51.4491
G1 Y10.0
G0 Z3.0
G0 X43.4491
G0 Z0.0
G1 F50.0 Z-2.0
G1 F80.0 Y11.1305
G1 X36.4609
G1 Y10.0
G1 X43.4491
G1 F50.0 X45.0491
G1 F80.0 Y12.7305
G1 X34.8609
G1 Y8.4
G1 X45.0491
G1 Y10.0
G1 F50.0 X46.6491
G1 F80.0 Y14.3305
G1 X33.2609
G1 Y6.8
G1 X46.6491
G1 Y10.0
G1 F50.0 X48.2491
G1 F80.0 Y15.9305
G1 X31.6609
G1 Y5.2
G1 X48.2491
G1 Y10.0
G1 F50.0 X49.8491
G1 F80.0 Y17.5305
G1 X30.0609
G1 Y3.6
G1 X49.8491
G1 Y10.0
G1 F50.0 X51.4491
G1 F80.0 Y19.1305
G1 X28.4609
G1 Y2.0
G1 X51.4491
G1 Y10.0
G0 Z3.0
G0 X43.4491
G0 Z-1.0
G1 F50.0 Z-3.0
G1 F80.0 Y11.1305
G1 X36.4609
G1 Y10.0
G1 X43.4491
G1 F50.0 X45.0491
G1 F80.0 Y12.7305
G1 X34.8609
G1 Y8.4
G1 X45.0491
G1 Y10.0
G1 F50.0 X46.6491
G1 F80.0 Y14.3305
G1 X33.2609
G1 Y6.8
G1 X46.6491
G1 Y10.0
G1 F50.0 X48.2491
G1 F80.0 Y15.9305
G1 X31.6609
G1 Y5.2
G1 X48.2491
G1 Y10.0
G1 F50.0 X49.8491
G1 F80.0 Y17.5305
G1 X30.0609
G1 Y3.6
G1 X49.8491
G1 Y10.0
G1 F50.0 X51.4491
G1 F80.0 Y19.1305
G1 X28.4609
G1 Y2.0
G1 X51.4491
G1 Y10.0
G0 Z3.0
G0 X43.4491
G0 Z-2.0
G1 F50.0 Z-4.0
G1 F80.0 Y11.1305
G1 X36.4609
G1 Y10.0
G1 X43.4491
G1 F50.0 X45.0491
G1 F80.0 Y12.7305
G1 X34.8609
G1 Y8.4
G1 X45.0491
G1 Y10.0
G1 F50.0 X46.6491
G1 F80.0 Y14.3305
G1 X33.2609
G1 Y6.8
G1 X46.6491
G1 Y10.0
G1 F50.0 X48.2491
G1 F80.0 Y15.9305
G1 X31.6609
G1 Y5.2
G1 X48.2491
G1 Y10.0
G1 F50.0 X49.8491
G1 F80.0 Y17.5305
G1 X30.0609
G1 Y3.6
G1 X49.8491
G1 Y10.0
G1 F50.0 X51.4491
G1 F80.0 Y19.1305
G1 X28.4609
G1 Y2.0
G1 X51.4491
G1 Y10.0
G0 Z3.0
M5
M30
