( Made using CamBam - http://www.cambam.co.uk )
( picker slide - top plate 9/4/2013 6:45:57 PM )
( T4 : 4.0 )
G21 G90 G64 G40
G0 Z3.0
( T4 : 4.0 )
T4 M6
( 4mm inside profile )
G17
M3 S1000
G0 X18.8768 Y11.1333
G0 Z-3.0
G1 F50.0 Z-5.0
G3 F80.0 X17.2386 Y15.0881 I-5.574 J0.0079
G2 X17.2346 Y15.0921 I1.4122 J1.4162
G3 X13.2797 Y16.7303 I-3.947 J-3.9359
G2 X13.2744 I-0.0028 J2.0
G3 X9.3188 Y15.0919 I-0.0071 J-5.577
G2 X9.315 Y15.0881 I-1.416 J1.4124
G3 X7.6768 Y11.1333 I3.935 J-3.9466
G2 Y11.1281 I-2.0 J-0.0029
G3 X9.3154 Y7.1724 I5.5785 J-0.0065
G2 X9.319 Y7.1688 I-1.4125 J-1.4159
G3 X13.2741 Y5.5305 I3.9475 J3.9368
G2 X13.2793 I0.0027 J-2.0
G3 X17.2349 Y7.169 I0.0068 J5.5775
G2 X17.2383 Y7.1724 I1.4159 J-1.4125
G3 X18.8768 Y11.128 I-3.9394 J3.9489
G2 Y11.1333 I2.0 J0.0024
G1 F50.0 Z-6.0
G3 F80.0 X17.2386 Y15.0881 I-5.574 J0.0079
G2 X17.2346 Y15.0921 I1.4122 J1.4162
G3 X13.2797 Y16.7303 I-3.947 J-3.9359
G2 X13.2744 I-0.0028 J2.0
G3 X9.3188 Y15.0919 I-0.0071 J-5.577
G2 X9.315 Y15.0881 I-1.416 J1.4124
G3 X7.6768 Y11.1333 I3.935 J-3.9466
G2 Y11.1281 I-2.0 J-0.0029
G3 X9.3154 Y7.1724 I5.5785 J-0.0065
G2 X9.319 Y7.1688 I-1.4125 J-1.4159
G3 X13.2741 Y5.5305 I3.9475 J3.9368
G2 X13.2793 I0.0027 J-2.0
G3 X17.2349 Y7.169 I0.0068 J5.5775
G2 X17.2383 Y7.1724 I1.4159 J-1.4125
G3 X18.8768 Y11.128 I-3.9394 J3.9489
G2 Y11.1333 I2.0 J0.0024
G0 Z3.0
G0 X34.137 Y11.1388
G0 Z-3.0
G1 F50.0 Z-5.0
G3 F80.0 X34.1371 Y11.1332 I5.5744 J0.002
G2 Y11.1279 I-2.0 J-0.0027
G3 X35.7757 Y7.1724 I5.5767 J-0.0069
G2 X35.7791 Y7.169 I-1.4123 J-1.4161
G3 X39.7352 Y5.5305 I3.9492 J3.9403
G2 X39.7401 I0.0024 J-2.0
G3 X43.6956 Y7.169 I0.0068 J5.5775
G2 X43.6991 Y7.1724 I1.4159 J-1.4125
G3 X45.3375 Y11.128 I-3.9394 J3.9489
G2 Y11.1333 I2.0 J0.0024
G3 X43.6994 Y15.0881 I-5.574 J0.0079
G2 X43.6954 Y15.0921 I1.4122 J1.4162
G3 X39.7405 Y16.7303 I-3.947 J-3.9359
G2 X39.7348 I-0.0028 J2.0
G3 X35.7795 Y15.0922 I-0.008 J-5.5748
G2 X35.7755 Y15.0882 I-1.4161 J1.4123
G3 X34.137 Y11.1388 I3.936 J-3.9474
G1 F50.0 Z-6.0
G3 F80.0 X34.1371 Y11.1332 I5.5744 J0.002
G2 Y11.1279 I-2.0 J-0.0027
G3 X35.7757 Y7.1724 I5.5767 J-0.0069
G2 X35.7791 Y7.169 I-1.4123 J-1.4161
G3 X39.7352 Y5.5305 I3.9492 J3.9403
G2 X39.7401 I0.0024 J-2.0
G3 X43.6956 Y7.169 I0.0068 J5.5775
G2 X43.6991 Y7.1724 I1.4159 J-1.4125
G3 X45.3375 Y11.128 I-3.9394 J3.9489
G2 Y11.1333 I2.0 J0.0024
G3 X43.6994 Y15.0881 I-5.574 J0.0079
G2 X43.6954 Y15.0921 I1.4122 J1.4162
G3 X39.7405 Y16.7303 I-3.947 J-3.9359
G2 X39.7348 I-0.0028 J2.0
G3 X35.7795 Y15.0922 I-0.008 J-5.5748
G2 X35.7755 Y15.0882 I-1.4161 J1.4123
G3 X34.137 Y11.1388 I3.936 J-3.9474
G0 Z3.0
M5
M30
