( Made using CamBam - http://www.cambam.co.uk )
( picker slide - top plate 9/4/2013 12:15:22 PM )
( T4 : 4.0 )
G21 G90 G64 G40
G0 Z3.0
( T4 : 4.0 )
T4 M6
( 4mm cutout )
G17
M3 S1000
G0 X23.2766 Y-0.8697
G0 Z1.0
G1 F50.0 Z-1.0
G1 F80.0 X3.2768
G2 X1.2768 Y1.1303 I0.0 J2.0
G1 Y33.331
G2 X3.2768 Y35.331 I2.0 J0.0
G1 X23.2766
G2 X25.2766 Y33.331 I0.0 J-2.0
G1 Y1.1303
G2 X23.2766 Y-0.8697 I-2.0 J0.0
G0 Z3.0
G0 X27.8263 Y0.5389
G0 Z1.0
G1 F50.0 Z-1.0
G2 F80.0 X27.7369 Y1.1303 I1.9105 J0.5915
G1 Y33.331
G2 X29.7369 Y35.331 I2.0 J0.0
G1 X49.7374
G2 X51.7374 Y33.331 I0.0 J-2.0
G1 Y1.1303
G2 X49.7374 Y-0.8697 I-2.0 J0.0
G1 X29.7369
G2 X27.8263 Y0.5389 I0.0 J2.0
G1 F50.0 Z-2.0
G2 F80.0 X27.7369 Y1.1303 I1.9105 J0.5915
G1 Y33.331
G2 X29.7369 Y35.331 I2.0 J0.0
G1 X49.7374
G2 X51.7374 Y33.331 I0.0 J-2.0
G1 Y1.1303
G2 X49.7374 Y-0.8697 I-2.0 J0.0
G1 X29.7369
G2 X27.8263 Y0.5389 I0.0 J2.0
G1 F50.0 X25.2599 Y0.8725
G2 F80.0 X23.2766 Y-0.8697 I-1.9833 J0.2578
G1 X3.2768
G2 X1.2768 Y1.1303 I0.0 J2.0
G1 Y33.331
G2 X3.2768 Y35.331 I2.0 J0.0
G1 X23.2766
G2 X25.2766 Y33.331 I0.0 J-2.0
G1 Y1.1303
G2 X25.2599 Y0.8725 I-2.0 J0.0
G1 F50.0 Z-3.0
G2 F80.0 X23.2766 Y-0.8697 I-1.9833 J0.2578
G1 X3.2768
G2 X1.2768 Y1.1303 I0.0 J2.0
G1 Y33.331
G2 X3.2768 Y35.331 I2.0 J0.0
G1 X23.2766
G2 X25.2766 Y33.331 I0.0 J-2.0
G1 Y1.1303
G2 X25.2599 Y0.8725 I-2.0 J0.0
G1 F50.0 X27.7402 Y1.0153
G2 F80.0 X27.7369 Y1.1303 I1.9967 J0.115
G1 Y33.331
G2 X29.7369 Y35.331 I2.0 J0.0
G1 X49.7374
G2 X51.7374 Y33.331 I0.0 J-2.0
G1 Y1.1303
G2 X49.7374 Y-0.8697 I-2.0 J0.0
G1 X29.7369
G2 X27.7402 Y1.0153 I0.0 J2.0
G1 F50.0 Z-4.0
G2 F80.0 X27.7369 Y1.1303 I1.9967 J0.115
G1 Y33.331
G2 X29.7369 Y35.331 I2.0 J0.0
G1 X49.7374
G2 X51.7374 Y33.331 I0.0 J-2.0
G1 Y1.1303
G2 X49.7374 Y-0.8697 I-2.0 J0.0
G1 X29.7369
G2 X27.7402 Y1.0153 I0.0 J2.0
G1 F50.0 X25.276 Y1.0788
G2 F80.0 X23.2766 Y-0.8697 I-1.9993 J0.0515
G1 X3.2768
G2 X1.2768 Y1.1303 I0.0 J2.0
G1 Y33.331
G2 X3.2768 Y35.331 I2.0 J0.0
G1 X23.2766
G2 X25.2766 Y33.331 I0.0 J-2.0
G1 Y1.1303
G2 X25.276 Y1.0788 I-2.0 J0.0
G1 F50.0 Z-5.0
G2 F80.0 X23.2766 Y-0.8697 I-1.9993 J0.0515
G1 X3.2768
G2 X1.2768 Y1.1303 I0.0 J2.0
G1 Y33.331
G2 X3.2768 Y35.331 I2.0 J0.0
G1 X23.2766
G2 X25.2766 Y33.331 I0.0 J-2.0
G1 Y1.1303
G2 X25.276 Y1.0788 I-2.0 J0.0
G1 F50.0 X27.737 Y1.1072
G2 F80.0 X27.7369 Y1.1303 I1.9999 J0.0231
G1 Y33.331
G2 X29.7369 Y35.331 I2.0 J0.0
G1 X49.7374
G2 X51.7374 Y33.331 I0.0 J-2.0
G1 Y1.1303
G2 X49.7374 Y-0.8697 I-2.0 J0.0
G1 X29.7369
G2 X27.737 Y1.1072 I0.0 J2.0
G1 F50.0 Z-6.0
G2 F80.0 X27.7369 Y1.1303 I1.9999 J0.0231
G1 Y33.331
G2 X29.7369 Y35.331 I2.0 J0.0
G1 X49.7374
G2 X51.7374 Y33.331 I0.0 J-2.0
G1 Y1.1303
G2 X49.7374 Y-0.8697 I-2.0 J0.0
G1 X29.7369
G2 X27.737 Y1.1072 I0.0 J2.0
G1 F50.0 X25.2766 Y1.12
G2 F80.0 X23.2766 Y-0.8697 I-2.0 J0.0104
G1 X3.2768
G2 X1.2768 Y1.1303 I0.0 J2.0
G1 Y33.331
G2 X3.2768 Y35.331 I2.0 J0.0
G1 X23.2766
G2 X25.2766 Y33.331 I0.0 J-2.0
G1 Y1.1303
G2 Y1.12 I-2.0 J0.0
G1 F50.0 Z-7.0
G2 F80.0 X23.2766 Y-0.8697 I-2.0 J0.0104
G1 X3.2768
G2 X1.2768 Y1.1303 I0.0 J2.0
G1 Y33.331
G2 X3.2768 Y35.331 I2.0 J0.0
G1 X23.2766
G2 X25.2766 Y33.331 I0.0 J-2.0
G1 Y1.1303
G2 Y1.12 I-2.0 J0.0
G1 F50.0 X27.7369 Y1.1257
G2 F80.0 Y1.1303 I2.0 J0.0046
G1 Y33.331
G2 X29.7369 Y35.331 I2.0 J0.0
G1 X49.7374
G2 X51.7374 Y33.331 I0.0 J-2.0
G1 Y1.1303
G2 X49.7374 Y-0.8697 I-2.0 J0.0
G1 X29.7369
G2 X27.7369 Y1.1257 I0.0 J2.0
G1 F50.0 Z-8.0
G2 F80.0 Y1.1303 I2.0 J0.0046
G1 Y33.331
G2 X29.7369 Y35.331 I2.0 J0.0
G1 X49.7374
G2 X51.7374 Y33.331 I0.0 J-2.0
G1 Y1.1303
G2 X49.7374 Y-0.8697 I-2.0 J0.0
G1 X29.7369
G2 X27.7369 Y1.1257 I0.0 J2.0
G1 F50.0 X25.2766 Y1.1283
G2 F80.0 X23.2766 Y-0.8697 I-2.0 J0.0021
G1 X3.2768
G2 X1.2768 Y1.1303 I0.0 J2.0
G1 Y33.331
G2 X3.2768 Y35.331 I2.0 J0.0
G1 X23.2766
G2 X25.2766 Y33.331 I0.0 J-2.0
G1 Y1.1303
G2 Y1.1283 I-2.0 J0.0
G1 F50.0 Z-9.0
G2 F80.0 X23.2766 Y-0.8697 I-2.0 J0.0021
G1 X3.2768
G2 X1.2768 Y1.1303 I0.0 J2.0
G1 Y33.331
G2 X3.2768 Y35.331 I2.0 J0.0
G1 X23.2766
G2 X25.2766 Y33.331 I0.0 J-2.0
G1 Y1.1303
G2 Y1.1283 I-2.0 J0.0
G1 F50.0 X27.7369 Y1.1294
G2 F80.0 Y1.1303 I2.0 J0.0009
G1 Y33.331
G2 X29.7369 Y35.331 I2.0 J0.0
G1 X49.7374
G2 X51.7374 Y33.331 I0.0 J-2.0
G1 Y1.1303
G2 X49.7374 Y-0.8697 I-2.0 J0.0
G1 X29.7369
G2 X27.7369 Y1.1294 I0.0 J2.0
G1 F50.0 Z-10.0
G2 F80.0 Y1.1303 I2.0 J0.0009
G1 Y33.331
G2 X29.7369 Y35.331 I2.0 J0.0
G1 X49.7374
G2 X51.7374 Y33.331 I0.0 J-2.0
G1 Y1.1303
G2 X49.7374 Y-0.8697 I-2.0 J0.0
G1 X29.7369
G2 X27.7369 Y1.1294 I0.0 J2.0
G1 F50.0 X25.2766 Y1.1299
G2 F80.0 X23.2766 Y-0.8697 I-2.0 J0.0004
G1 X3.2768
G2 X1.2768 Y1.1303 I0.0 J2.0
G1 Y33.331
G2 X3.2768 Y35.331 I2.0 J0.0
G1 X23.2766
G2 X25.2766 Y33.331 I0.0 J-2.0
G1 Y1.1303
G2 Y1.1299 I-2.0 J0.0
G1 F50.0 Z-11.0
G2 F80.0 X23.2766 Y-0.8697 I-2.0 J0.0004
G1 X3.2768
G2 X1.2768 Y1.1303 I0.0 J2.0
G1 Y33.331
G2 X3.2768 Y35.331 I2.0 J0.0
G1 X23.2766
G2 X25.2766 Y33.331 I0.0 J-2.0
G1 Y1.1303
G2 Y1.1299 I-2.0 J0.0
G1 F50.0 X27.7369 Y1.1301
G2 F80.0 Y1.1303 I2.0 J0.0002
G1 Y33.331
G2 X29.7369 Y35.331 I2.0 J0.0
G1 X49.7374
G2 X51.7374 Y33.331 I0.0 J-2.0
G1 Y1.1303
G2 X49.7374 Y-0.8697 I-2.0 J0.0
G1 X29.7369
G2 X27.7369 Y1.1301 I0.0 J2.0
G0 Z3.0
M5
M30
