( Made using CamBam - http://www.cambam.co.uk )
( Feeder Power Supply 3/30/2013 5:54:42 PM )
( T11 : 1.0 )
G21 G90 G64 G40
G0 Z3.0
( T11 : 1.0 )
T11 M6
( Drill1 )
G17
M3 S1000
G0 X99.314 Y18.6056
G98
G81 X99.314 Y18.6056 Z-2.0 R3.0 F100.0
G81 Y16.0653 Z-2.0
G81 X100.9015 Y9.7155 Z-2.0
G81 X95.0383 Y7.6624 Z-2.0
G81 X105.9816 Y3.8523 Z-2.0
G81 X100.9015 Y24.9554 Z-2.0
G81 X95.0383 Y26.7124 Z-2.0
G81 X105.9816 Y34.3113 Z-2.0
G81 X82.3383 Y7.6624 Z-2.0
G81 X79.1633 Z-2.0
G81 X75.9883 Z-2.0
G81 X60.1133 Z-2.0
G81 X52.3665 Y14.478 Z-2.0
G81 Y19.4734 Z-2.0
G81 X56.0071 Y23.5374 Z-2.0
G81 X60.1133 Y26.7124 Z-2.0
G81 X48.0696 Y23.6855 Z-2.0
G81 X44.0691 Y27.178 Z-2.0
G81 X40.9152 Z-2.0
G81 X37.7613 Z-2.0
G81 X34.5863 Z-2.0
G81 X31.4113 Z-2.0
G81 X29.6758 Y31.1361 Z-2.0
G81 X25.6964 Y23.3679 Z-2.0
G81 X20.7011 Z-2.0
G81 Y12.8905 Z-2.0
G81 X25.6964 Z-2.0
G81 X31.4113 Y11.303 Z-2.0
G81 Y8.128 Z-2.0
G81 X40.9152 Z-2.0
G81 X44.0691 Z-2.0
G81 Y11.303 Z-2.0
G81 X31.4113 Y20.828 Z-2.0
G81 X39.8357 Y31.1361 Z-2.0
G81 X10.3082 Y25.8868 Z-2.0
G81 Y18.2879 Z-2.0
G81 Y10.6891 Z-2.0
G81 X4.4451 Y3.8523 Z-2.0
G81 Y34.3113 Z-2.0
G80
M5
M30
