( Made using CamBam - http://www.cambam.co.uk )
( Feeder Power Supply 3/30/2013 5:54:45 PM )
( T2 : 2.0 )
G21 G90 G64 G40
G0 Z3.0
( T2 : 2.0 )
T2 M6
( Profile1 )
G17
M3 S1000
G0 X110.8128 Y0.0
G1 F100.0 Z-0.8
G1 Y38.2695
G3 X109.8128 Y39.2695 I-1.0 J0.0
G1 X0.0
G3 X-1.0 Y38.2695 I0.0 J-1.0
G1 Y0.0
G3 X0.0 Y-1.0 I1.0 J0.0
G1 X109.8128
G3 X110.8128 Y0.0 I0.0 J1.0
G1 Z-1.6
G1 Y38.2695
G3 X109.8128 Y39.2695 I-1.0 J0.0
G1 X0.0
G3 X-1.0 Y38.2695 I0.0 J-1.0
G1 Y0.0
G3 X0.0 Y-1.0 I1.0 J0.0
G1 X109.8128
G3 X110.8128 Y0.0 I0.0 J1.0
G0 Z3.0
M5
M30
