( Made using CamBam - http://www.cambam.co.uk )
( stepper spacer 1 12/2/2012 11:34:01 AM )
( T6 : 6.0 )
G21 G90 G64 G40
G0 Z3.0
( T6 : 6.0 )
T6 M6
( Pocket1 )
G17
M3 S1000
G0 X21.7499 Y21.1441
G1 F40.0 Z-1.0
G3 F100.0 X21.5795 Y21.5557 I-0.5801 J0.0008
G2 X21.5696 Y21.5656 I3.8131 J3.8237
G3 X21.1565 Y21.7367 I-0.4124 J-0.4115
G2 X21.1434 I-0.0067 J5.4
G3 X20.7304 Y21.5656 I-0.0007 J-0.5824
G2 X20.7209 Y21.5561 I-3.8231 J3.8137
G3 X20.55 Y21.1435 I0.4109 J-0.4119
G2 Y21.1296 I-5.4 J-0.0068
G3 X20.7206 Y20.7176 I0.5808 J-0.0008
G2 X20.7313 Y20.7069 I-3.8133 J-3.8234
G3 X21.1418 Y20.5369 I0.4096 J0.4084
G2 X21.1572 I0.008 J-5.4
G3 X21.5692 Y20.7075 I0.0008 J0.5808
G2 X21.5793 Y20.7176 I3.8233 J-3.8135
G3 X21.7499 Y21.1296 I-0.4101 J0.4112
G2 Y21.1441 I5.4 J0.0071
G1 F40.0 X24.1499 Y21.1408
G3 F100.0 X23.2741 Y23.2551 I-2.9801 J0.0041
G2 X23.2687 Y23.2606 I2.1184 J2.1243
G3 X21.1535 Y24.1367 I-2.1115 J-2.1065
G2 X21.1462 I-0.0037 J3.0
G3 X19.0312 Y23.2606 I-0.0036 J-2.9824
G2 X19.026 Y23.2553 I-2.1239 J2.1187
G3 X18.15 Y21.1405 I2.1058 J-2.1111
G2 Y21.1327 I-3.0 J-0.0038
G3 X19.0258 Y19.0183 I2.9808 J-0.0039
G2 X19.0318 Y19.0123 I-2.1185 J-2.1241
G3 X21.1453 Y18.1369 I2.1091 J2.1029
G2 X21.1539 I0.0044 J-3.0
G3 X23.2685 Y19.0127 I0.0041 J2.9808
G2 X23.2741 Y19.0182 I2.124 J-2.1186
G3 X24.1499 Y21.1327 I-2.1049 J2.1106
G2 Y21.1408 I3.0 J0.004
G1 F40.0 X21.7499 Y21.1441
G1 Z-2.0
G3 F100.0 X21.5795 Y21.5557 I-0.5801 J0.0008
G2 X21.5696 Y21.5656 I3.8131 J3.8237
G3 X21.1565 Y21.7367 I-0.4124 J-0.4115
G2 X21.1434 I-0.0067 J5.4
G3 X20.7304 Y21.5656 I-0.0007 J-0.5824
G2 X20.7209 Y21.5561 I-3.8231 J3.8137
G3 X20.55 Y21.1435 I0.4109 J-0.4119
G2 Y21.1296 I-5.4 J-0.0068
G3 X20.7206 Y20.7176 I0.5808 J-0.0008
G2 X20.7313 Y20.7069 I-3.8133 J-3.8234
G3 X21.1418 Y20.5369 I0.4096 J0.4084
G2 X21.1572 I0.008 J-5.4
G3 X21.5692 Y20.7075 I0.0008 J0.5808
G2 X21.5793 Y20.7176 I3.8233 J-3.8135
G3 X21.7499 Y21.1296 I-0.4101 J0.4112
G2 Y21.1441 I5.4 J0.0071
G1 F40.0 X24.1499 Y21.1408
G3 F100.0 X23.2741 Y23.2551 I-2.9801 J0.0041
G2 X23.2687 Y23.2606 I2.1184 J2.1243
G3 X21.1535 Y24.1367 I-2.1115 J-2.1065
G2 X21.1462 I-0.0037 J3.0
G3 X19.0312 Y23.2606 I-0.0036 J-2.9824
G2 X19.026 Y23.2553 I-2.1239 J2.1187
G3 X18.15 Y21.1405 I2.1058 J-2.1111
G2 Y21.1327 I-3.0 J-0.0038
G3 X19.0258 Y19.0183 I2.9808 J-0.0039
G2 X19.0318 Y19.0123 I-2.1185 J-2.1241
G3 X21.1453 Y18.1369 I2.1091 J2.1029
G2 X21.1539 I0.0044 J-3.0
G3 X23.2685 Y19.0127 I0.0041 J2.9808
G2 X23.2741 Y19.0182 I2.124 J-2.1186
G3 X24.1499 Y21.1327 I-2.1049 J2.1106
G2 Y21.1408 I3.0 J0.004
G1 F40.0 X21.7499 Y21.1441
G1 Z-3.0
G3 F100.0 X21.5795 Y21.5557 I-0.5801 J0.0008
G2 X21.5696 Y21.5656 I3.8131 J3.8237
G3 X21.1565 Y21.7367 I-0.4124 J-0.4115
G2 X21.1434 I-0.0067 J5.4
G3 X20.7304 Y21.5656 I-0.0007 J-0.5824
G2 X20.7209 Y21.5561 I-3.8231 J3.8137
G3 X20.55 Y21.1435 I0.4109 J-0.4119
G2 Y21.1296 I-5.4 J-0.0068
G3 X20.7206 Y20.7176 I0.5808 J-0.0008
G2 X20.7313 Y20.7069 I-3.8133 J-3.8234
G3 X21.1418 Y20.5369 I0.4096 J0.4084
G2 X21.1572 I0.008 J-5.4
G3 X21.5692 Y20.7075 I0.0008 J0.5808
G2 X21.5793 Y20.7176 I3.8233 J-3.8135
G3 X21.7499 Y21.1296 I-0.4101 J0.4112
G2 Y21.1441 I5.4 J0.0071
G1 F40.0 X24.1499 Y21.1408
G3 F100.0 X23.2741 Y23.2551 I-2.9801 J0.0041
G2 X23.2687 Y23.2606 I2.1184 J2.1243
G3 X21.1535 Y24.1367 I-2.1115 J-2.1065
G2 X21.1462 I-0.0037 J3.0
G3 X19.0312 Y23.2606 I-0.0036 J-2.9824
G2 X19.026 Y23.2553 I-2.1239 J2.1187
G3 X18.15 Y21.1405 I2.1058 J-2.1111
G2 Y21.1327 I-3.0 J-0.0038
G3 X19.0258 Y19.0183 I2.9808 J-0.0039
G2 X19.0318 Y19.0123 I-2.1185 J-2.1241
G3 X21.1453 Y18.1369 I2.1091 J2.1029
G2 X21.1539 I0.0044 J-3.0
G3 X23.2685 Y19.0127 I0.0041 J2.9808
G2 X23.2741 Y19.0182 I2.124 J-2.1186
G3 X24.1499 Y21.1327 I-2.1049 J2.1106
G2 Y21.1408 I3.0 J0.004
G1 F40.0 X21.7499 Y21.1441
G1 Z-4.0
G3 F100.0 X21.5795 Y21.5557 I-0.5801 J0.0008
G2 X21.5696 Y21.5656 I3.8131 J3.8237
G3 X21.1565 Y21.7367 I-0.4124 J-0.4115
G2 X21.1434 I-0.0067 J5.4
G3 X20.7304 Y21.5656 I-0.0007 J-0.5824
G2 X20.7209 Y21.5561 I-3.8231 J3.8137
G3 X20.55 Y21.1435 I0.4109 J-0.4119
G2 Y21.1296 I-5.4 J-0.0068
G3 X20.7206 Y20.7176 I0.5808 J-0.0008
G2 X20.7313 Y20.7069 I-3.8133 J-3.8234
G3 X21.1418 Y20.5369 I0.4096 J0.4084
G2 X21.1572 I0.008 J-5.4
G3 X21.5692 Y20.7075 I0.0008 J0.5808
G2 X21.5793 Y20.7176 I3.8233 J-3.8135
G3 X21.7499 Y21.1296 I-0.4101 J0.4112
G2 Y21.1441 I5.4 J0.0071
G1 F40.0 X24.1499 Y21.1408
G3 F100.0 X23.2741 Y23.2551 I-2.9801 J0.0041
G2 X23.2687 Y23.2606 I2.1184 J2.1243
G3 X21.1535 Y24.1367 I-2.1115 J-2.1065
G2 X21.1462 I-0.0037 J3.0
G3 X19.0312 Y23.2606 I-0.0036 J-2.9824
G2 X19.026 Y23.2553 I-2.1239 J2.1187
G3 X18.15 Y21.1405 I2.1058 J-2.1111
G2 Y21.1327 I-3.0 J-0.0038
G3 X19.0258 Y19.0183 I2.9808 J-0.0039
G2 X19.0318 Y19.0123 I-2.1185 J-2.1241
G3 X21.1453 Y18.1369 I2.1091 J2.1029
G2 X21.1539 I0.0044 J-3.0
G3 X23.2685 Y19.0127 I0.0041 J2.9808
G2 X23.2741 Y19.0182 I2.124 J-2.1186
G3 X24.1499 Y21.1327 I-2.1049 J2.1106
G2 Y21.1408 I3.0 J0.004
G1 F40.0 X21.7499 Y21.1441
G1 Z-5.0
G3 F100.0 X21.5795 Y21.5557 I-0.5801 J0.0008
G2 X21.5696 Y21.5656 I3.8131 J3.8237
G3 X21.1565 Y21.7367 I-0.4124 J-0.4115
G2 X21.1434 I-0.0067 J5.4
G3 X20.7304 Y21.5656 I-0.0007 J-0.5824
G2 X20.7209 Y21.5561 I-3.8231 J3.8137
G3 X20.55 Y21.1435 I0.4109 J-0.4119
G2 Y21.1296 I-5.4 J-0.0068
G3 X20.7206 Y20.7176 I0.5808 J-0.0008
G2 X20.7313 Y20.7069 I-3.8133 J-3.8234
G3 X21.1418 Y20.5369 I0.4096 J0.4084
G2 X21.1572 I0.008 J-5.4
G3 X21.5692 Y20.7075 I0.0008 J0.5808
G2 X21.5793 Y20.7176 I3.8233 J-3.8135
G3 X21.7499 Y21.1296 I-0.4101 J0.4112
G2 Y21.1441 I5.4 J0.0071
G1 F40.0 X24.1499 Y21.1408
G3 F100.0 X23.2741 Y23.2551 I-2.9801 J0.0041
G2 X23.2687 Y23.2606 I2.1184 J2.1243
G3 X21.1535 Y24.1367 I-2.1115 J-2.1065
G2 X21.1462 I-0.0037 J3.0
G3 X19.0312 Y23.2606 I-0.0036 J-2.9824
G2 X19.026 Y23.2553 I-2.1239 J2.1187
G3 X18.15 Y21.1405 I2.1058 J-2.1111
G2 Y21.1327 I-3.0 J-0.0038
G3 X19.0258 Y19.0183 I2.9808 J-0.0039
G2 X19.0318 Y19.0123 I-2.1185 J-2.1241
G3 X21.1453 Y18.1369 I2.1091 J2.1029
G2 X21.1539 I0.0044 J-3.0
G3 X23.2685 Y19.0127 I0.0041 J2.9808
G2 X23.2741 Y19.0182 I2.124 J-2.1186
G3 X24.1499 Y21.1327 I-2.1049 J2.1106
G2 Y21.1408 I3.0 J0.004
G1 F40.0 X21.7499 Y21.1441
G1 Z-6.0
G3 F100.0 X21.5795 Y21.5557 I-0.5801 J0.0008
G2 X21.5696 Y21.5656 I3.8131 J3.8237
G3 X21.1565 Y21.7367 I-0.4124 J-0.4115
G2 X21.1434 I-0.0067 J5.4
G3 X20.7304 Y21.5656 I-0.0007 J-0.5824
G2 X20.7209 Y21.5561 I-3.8231 J3.8137
G3 X20.55 Y21.1435 I0.4109 J-0.4119
G2 Y21.1296 I-5.4 J-0.0068
G3 X20.7206 Y20.7176 I0.5808 J-0.0008
G2 X20.7313 Y20.7069 I-3.8133 J-3.8234
G3 X21.1418 Y20.5369 I0.4096 J0.4084
G2 X21.1572 I0.008 J-5.4
G3 X21.5692 Y20.7075 I0.0008 J0.5808
G2 X21.5793 Y20.7176 I3.8233 J-3.8135
G3 X21.7499 Y21.1296 I-0.4101 J0.4112
G2 Y21.1441 I5.4 J0.0071
G1 F40.0 X24.1499 Y21.1408
G3 F100.0 X23.2741 Y23.2551 I-2.9801 J0.0041
G2 X23.2687 Y23.2606 I2.1184 J2.1243
G3 X21.1535 Y24.1367 I-2.1115 J-2.1065
G2 X21.1462 I-0.0037 J3.0
G3 X19.0312 Y23.2606 I-0.0036 J-2.9824
G2 X19.026 Y23.2553 I-2.1239 J2.1187
G3 X18.15 Y21.1405 I2.1058 J-2.1111
G2 Y21.1327 I-3.0 J-0.0038
G3 X19.0258 Y19.0183 I2.9808 J-0.0039
G2 X19.0318 Y19.0123 I-2.1185 J-2.1241
G3 X21.1453 Y18.1369 I2.1091 J2.1029
G2 X21.1539 I0.0044 J-3.0
G3 X23.2685 Y19.0127 I0.0041 J2.9808
G2 X23.2741 Y19.0182 I2.124 J-2.1186
G3 X24.1499 Y21.1327 I-2.1049 J2.1106
G2 Y21.1408 I3.0 J0.004
G1 F40.0 X21.7499 Y21.1441
G1 Z-7.0
G3 F100.0 X21.5795 Y21.5557 I-0.5801 J0.0008
G2 X21.5696 Y21.5656 I3.8131 J3.8237
G3 X21.1565 Y21.7367 I-0.4124 J-0.4115
G2 X21.1434 I-0.0067 J5.4
G3 X20.7304 Y21.5656 I-0.0007 J-0.5824
G2 X20.7209 Y21.5561 I-3.8231 J3.8137
G3 X20.55 Y21.1435 I0.4109 J-0.4119
G2 Y21.1296 I-5.4 J-0.0068
G3 X20.7206 Y20.7176 I0.5808 J-0.0008
G2 X20.7313 Y20.7069 I-3.8133 J-3.8234
G3 X21.1418 Y20.5369 I0.4096 J0.4084
G2 X21.1572 I0.008 J-5.4
G3 X21.5692 Y20.7075 I0.0008 J0.5808
G2 X21.5793 Y20.7176 I3.8233 J-3.8135
G3 X21.7499 Y21.1296 I-0.4101 J0.4112
G2 Y21.1441 I5.4 J0.0071
G1 F40.0 X24.1499 Y21.1408
G3 F100.0 X23.2741 Y23.2551 I-2.9801 J0.0041
G2 X23.2687 Y23.2606 I2.1184 J2.1243
G3 X21.1535 Y24.1367 I-2.1115 J-2.1065
G2 X21.1462 I-0.0037 J3.0
G3 X19.0312 Y23.2606 I-0.0036 J-2.9824
G2 X19.026 Y23.2553 I-2.1239 J2.1187
G3 X18.15 Y21.1405 I2.1058 J-2.1111
G2 Y21.1327 I-3.0 J-0.0038
G3 X19.0258 Y19.0183 I2.9808 J-0.0039
G2 X19.0318 Y19.0123 I-2.1185 J-2.1241
G3 X21.1453 Y18.1369 I2.1091 J2.1029
G2 X21.1539 I0.0044 J-3.0
G3 X23.2685 Y19.0127 I0.0041 J2.9808
G2 X23.2741 Y19.0182 I2.124 J-2.1186
G3 X24.1499 Y21.1327 I-2.1049 J2.1106
G2 Y21.1408 I3.0 J0.004
G1 F40.0 X21.7499 Y21.1441
G1 Z-8.0
G3 F100.0 X21.5795 Y21.5557 I-0.5801 J0.0008
G2 X21.5696 Y21.5656 I3.8131 J3.8237
G3 X21.1565 Y21.7367 I-0.4124 J-0.4115
G2 X21.1434 I-0.0067 J5.4
G3 X20.7304 Y21.5656 I-0.0007 J-0.5824
G2 X20.7209 Y21.5561 I-3.8231 J3.8137
G3 X20.55 Y21.1435 I0.4109 J-0.4119
G2 Y21.1296 I-5.4 J-0.0068
G3 X20.7206 Y20.7176 I0.5808 J-0.0008
G2 X20.7313 Y20.7069 I-3.8133 J-3.8234
G3 X21.1418 Y20.5369 I0.4096 J0.4084
G2 X21.1572 I0.008 J-5.4
G3 X21.5692 Y20.7075 I0.0008 J0.5808
G2 X21.5793 Y20.7176 I3.8233 J-3.8135
G3 X21.7499 Y21.1296 I-0.4101 J0.4112
G2 Y21.1441 I5.4 J0.0071
G1 F40.0 X24.1499 Y21.1408
G3 F100.0 X23.2741 Y23.2551 I-2.9801 J0.0041
G2 X23.2687 Y23.2606 I2.1184 J2.1243
G3 X21.1535 Y24.1367 I-2.1115 J-2.1065
G2 X21.1462 I-0.0037 J3.0
G3 X19.0312 Y23.2606 I-0.0036 J-2.9824
G2 X19.026 Y23.2553 I-2.1239 J2.1187
G3 X18.15 Y21.1405 I2.1058 J-2.1111
G2 Y21.1327 I-3.0 J-0.0038
G3 X19.0258 Y19.0183 I2.9808 J-0.0039
G2 X19.0318 Y19.0123 I-2.1185 J-2.1241
G3 X21.1453 Y18.1369 I2.1091 J2.1029
G2 X21.1539 I0.0044 J-3.0
G3 X23.2685 Y19.0127 I0.0041 J2.9808
G2 X23.2741 Y19.0182 I2.124 J-2.1186
G3 X24.1499 Y21.1327 I-2.1049 J2.1106
G2 Y21.1408 I3.0 J0.004
G1 F40.0 X21.7499 Y21.1441
G1 Z-9.0
G3 F100.0 X21.5795 Y21.5557 I-0.5801 J0.0008
G2 X21.5696 Y21.5656 I3.8131 J3.8237
G3 X21.1565 Y21.7367 I-0.4124 J-0.4115
G2 X21.1434 I-0.0067 J5.4
G3 X20.7304 Y21.5656 I-0.0007 J-0.5824
G2 X20.7209 Y21.5561 I-3.8231 J3.8137
G3 X20.55 Y21.1435 I0.4109 J-0.4119
G2 Y21.1296 I-5.4 J-0.0068
G3 X20.7206 Y20.7176 I0.5808 J-0.0008
G2 X20.7313 Y20.7069 I-3.8133 J-3.8234
G3 X21.1418 Y20.5369 I0.4096 J0.4084
G2 X21.1572 I0.008 J-5.4
G3 X21.5692 Y20.7075 I0.0008 J0.5808
G2 X21.5793 Y20.7176 I3.8233 J-3.8135
G3 X21.7499 Y21.1296 I-0.4101 J0.4112
G2 Y21.1441 I5.4 J0.0071
G1 F40.0 X24.1499 Y21.1408
G3 F100.0 X23.2741 Y23.2551 I-2.9801 J0.0041
G2 X23.2687 Y23.2606 I2.1184 J2.1243
G3 X21.1535 Y24.1367 I-2.1115 J-2.1065
G2 X21.1462 I-0.0037 J3.0
G3 X19.0312 Y23.2606 I-0.0036 J-2.9824
G2 X19.026 Y23.2553 I-2.1239 J2.1187
G3 X18.15 Y21.1405 I2.1058 J-2.1111
G2 Y21.1327 I-3.0 J-0.0038
G3 X19.0258 Y19.0183 I2.9808 J-0.0039
G2 X19.0318 Y19.0123 I-2.1185 J-2.1241
G3 X21.1453 Y18.1369 I2.1091 J2.1029
G2 X21.1539 I0.0044 J-3.0
G3 X23.2685 Y19.0127 I0.0041 J2.9808
G2 X23.2741 Y19.0182 I2.124 J-2.1186
G3 X24.1499 Y21.1327 I-2.1049 J2.1106
G2 Y21.1408 I3.0 J0.004
G1 F40.0 X21.7499 Y21.1441
G1 Z-10.0
G3 F100.0 X21.5795 Y21.5557 I-0.5801 J0.0008
G2 X21.5696 Y21.5656 I3.8131 J3.8237
G3 X21.1565 Y21.7367 I-0.4124 J-0.4115
G2 X21.1434 I-0.0067 J5.4
G3 X20.7304 Y21.5656 I-0.0007 J-0.5824
G2 X20.7209 Y21.5561 I-3.8231 J3.8137
G3 X20.55 Y21.1435 I0.4109 J-0.4119
G2 Y21.1296 I-5.4 J-0.0068
G3 X20.7206 Y20.7176 I0.5808 J-0.0008
G2 X20.7313 Y20.7069 I-3.8133 J-3.8234
G3 X21.1418 Y20.5369 I0.4096 J0.4084
G2 X21.1572 I0.008 J-5.4
G3 X21.5692 Y20.7075 I0.0008 J0.5808
G2 X21.5793 Y20.7176 I3.8233 J-3.8135
G3 X21.7499 Y21.1296 I-0.4101 J0.4112
G2 Y21.1441 I5.4 J0.0071
G1 F40.0 X24.1499 Y21.1408
G3 F100.0 X23.2741 Y23.2551 I-2.9801 J0.0041
G2 X23.2687 Y23.2606 I2.1184 J2.1243
G3 X21.1535 Y24.1367 I-2.1115 J-2.1065
G2 X21.1462 I-0.0037 J3.0
G3 X19.0312 Y23.2606 I-0.0036 J-2.9824
G2 X19.026 Y23.2553 I-2.1239 J2.1187
G3 X18.15 Y21.1405 I2.1058 J-2.1111
G2 Y21.1327 I-3.0 J-0.0038
G3 X19.0258 Y19.0183 I2.9808 J-0.0039
G2 X19.0318 Y19.0123 I-2.1185 J-2.1241
G3 X21.1453 Y18.1369 I2.1091 J2.1029
G2 X21.1539 I0.0044 J-3.0
G3 X23.2685 Y19.0127 I0.0041 J2.9808
G2 X23.2741 Y19.0182 I2.124 J-2.1186
G3 X24.1499 Y21.1327 I-2.1049 J2.1106
G2 Y21.1408 I3.0 J0.004
G1 F40.0 X21.7499 Y21.1441
G1 Z-11.0
G3 F100.0 X21.5795 Y21.5557 I-0.5801 J0.0008
G2 X21.5696 Y21.5656 I3.8131 J3.8237
G3 X21.1565 Y21.7367 I-0.4124 J-0.4115
G2 X21.1434 I-0.0067 J5.4
G3 X20.7304 Y21.5656 I-0.0007 J-0.5824
G2 X20.7209 Y21.5561 I-3.8231 J3.8137
G3 X20.55 Y21.1435 I0.4109 J-0.4119
G2 Y21.1296 I-5.4 J-0.0068
G3 X20.7206 Y20.7176 I0.5808 J-0.0008
G2 X20.7313 Y20.7069 I-3.8133 J-3.8234
G3 X21.1418 Y20.5369 I0.4096 J0.4084
G2 X21.1572 I0.008 J-5.4
G3 X21.5692 Y20.7075 I0.0008 J0.5808
G2 X21.5793 Y20.7176 I3.8233 J-3.8135
G3 X21.7499 Y21.1296 I-0.4101 J0.4112
G2 Y21.1441 I5.4 J0.0071
G1 F40.0 X24.1499 Y21.1408
G3 F100.0 X23.2741 Y23.2551 I-2.9801 J0.0041
G2 X23.2687 Y23.2606 I2.1184 J2.1243
G3 X21.1535 Y24.1367 I-2.1115 J-2.1065
G2 X21.1462 I-0.0037 J3.0
G3 X19.0312 Y23.2606 I-0.0036 J-2.9824
G2 X19.026 Y23.2553 I-2.1239 J2.1187
G3 X18.15 Y21.1405 I2.1058 J-2.1111
G2 Y21.1327 I-3.0 J-0.0038
G3 X19.0258 Y19.0183 I2.9808 J-0.0039
G2 X19.0318 Y19.0123 I-2.1185 J-2.1241
G3 X21.1453 Y18.1369 I2.1091 J2.1029
G2 X21.1539 I0.0044 J-3.0
G3 X23.2685 Y19.0127 I0.0041 J2.9808
G2 X23.2741 Y19.0182 I2.124 J-2.1186
G3 X24.1499 Y21.1327 I-2.1049 J2.1106
G2 Y21.1408 I3.0 J0.004
( Pocket2 )
S1000
G0 Z-1.0
G1 F40.0 X22.9498 Y21.1528
G3 F100.0 X22.6544 Y22.1271 I-1.7453 J0.0028
G2 X22.6527 Y22.1296 I8.4738 J5.6775
G3 X21.8335 Y22.8052 I-1.5365 J-1.0288
G3 X21.1625 Y22.9367 I-0.6689 J-1.6353
G2 X21.1385 I-0.0127 J10.2
G3 X20.4648 Y22.8045 I-0.002 J-1.7737
G3 X19.8777 Y22.41 I0.7117 J-1.693
G2 X19.8673 Y22.3995 I-7.2132 J7.2118
G3 X19.3498 Y21.1504 I1.2434 J-1.2468
G2 Y21.1209 I-10.2 J-0.0137
G3 X19.4809 Y20.4542 I1.7473 J-0.0027
G3 X19.8771 Y19.8641 I1.6985 J0.7122
G2 X19.8871 Y19.854 I-7.2125 J-7.2125
G3 X21.1359 Y19.3367 I1.2465 J1.243
G2 X21.1631 I0.0138 J-10.2
G3 X21.8361 Y19.4693 I0.0023 J1.7632
G3 X22.419 Y19.8603 I-0.6984 J1.671
G2 X22.4318 Y19.8731 I7.216 J-7.2089
G3 X22.9498 Y21.1236 I-1.2451 J1.2483
G2 Y21.1528 I10.2 J0.0131
G1 F40.0 X25.3498 Y21.149
G3 F100.0 X24.6482 Y23.463 I-4.1453 J0.0066
G2 X24.6469 Y23.4649 I6.48 J4.3416
G3 X22.7534 Y25.0219 I-3.5307 J-2.3641
G3 X21.1595 Y25.3367 I-1.5887 J-3.852
G2 X21.1412 I-0.0097 J7.8
G3 X19.5452 Y25.0214 I-0.0046 J-4.1737
G3 X18.1805 Y24.1069 I1.6313 J-3.9099
G2 X18.1725 Y24.0989 I-5.5159 J5.5149
G3 X16.9498 Y21.1471 I2.9382 J-2.9462
G2 Y21.1246 I-7.8 J-0.0104
G3 X17.2643 Y19.534 I4.1473 J-0.0064
G3 X18.18 Y18.167 I3.9151 J1.6324
G2 X18.1877 Y18.1593 I-5.5154 J-5.5154
G3 X21.1392 Y16.9367 I2.9459 J2.9377
G2 X21.1599 I0.0106 J-7.8
G3 X22.7554 Y17.2523 I0.0054 J4.1632
G3 X24.1169 Y18.1641 I-1.6177 J3.888
G2 X24.1267 Y18.1738 I5.5181 J-5.5127
G3 X25.3497 Y21.1267 I-2.94 J2.9475
G2 X25.3498 Y21.149 I7.8 J0.01
G1 F40.0 X27.7497 Y21.1452
G3 F100.0 X26.6421 Y24.7989 I-6.5453 J0.0104
G2 X26.6412 Y24.8002 I4.4862 J3.0057
G3 X23.6733 Y27.2386 I-5.525 J-3.6993
G3 X21.1565 Y27.7367 I-2.5087 J-6.0687
G2 X21.1438 I-0.0067 J5.4
G3 X18.6256 Y27.2382 I-0.0073 J-6.5737
G3 X16.4833 Y25.8038 I2.5509 J-6.1267
G2 X16.4778 Y25.7983 I-3.8187 J3.818
G3 X14.5498 Y21.1439 I4.6329 J-4.6455
G2 Y21.1283 I-5.4 J-0.0072
G3 X15.0477 Y18.6138 I6.5473 J-0.0101
G3 X16.483 Y16.4699 I6.1317 J2.5526
G2 X16.4883 Y16.4646 I-3.8184 J-3.8184
G3 X21.1425 Y14.5367 I4.6453 J4.6324
G2 X21.1568 I0.0073 J-5.4
G3 X23.6748 Y15.0354 I0.0086 J6.5632
G3 X25.8148 Y16.4679 I-2.537 J6.105
G2 X25.8215 Y16.4746 I3.8203 J-3.8165
G3 X27.7497 Y21.1298 I-4.6349 J4.6467
G2 Y21.1452 I5.4 J0.0069
G1 F40.0 X30.1497 Y21.1414
G3 F100.0 X28.6359 Y26.1347 I-8.9453 J0.0142
G2 X28.6354 Y26.1355 I2.4923 J1.6699
G3 X24.5933 Y29.4553 I-7.5192 J-5.0346
G3 X21.1535 Y30.1367 I-3.4286 J-8.2854
G2 X21.1465 I-0.0037 J3.0
G3 X17.7059 Y29.455 I-0.0099 J-8.9737
G3 X14.7861 Y27.5007 I3.4706 J-8.3435
G2 X14.783 Y27.4976 I-2.1215 J2.1211
G3 X12.1498 Y21.1407 I6.3277 J-6.3449
G2 Y21.1321 I-3.0 J-0.004
G3 X12.8311 Y17.6936 I8.9473 J-0.0138
G3 X14.7859 Y14.7729 I8.3483 J3.4728
G2 X14.7888 Y14.7699 I-2.1213 J-2.1213
G3 X21.1457 Y12.1367 I6.3447 J6.3271
G2 X21.1537 I0.0041 J-3.0
G3 X24.5941 Y12.8184 I0.0117 J8.9632
G3 X27.5127 Y14.7716 I-3.4563 J8.3219
G2 X27.5164 Y14.7754 I2.1224 J-2.1203
G3 X30.1497 Y21.1328 I-6.3298 J6.3459
G2 Y21.1414 I3.0 J0.0039
G0 Z3.0
G0 X22.9498 Y21.1528
G1 F40.0 Z-2.0
G3 F100.0 X22.6544 Y22.1271 I-1.7453 J0.0028
G2 X22.6527 Y22.1296 I8.4738 J5.6775
G3 X21.8335 Y22.8052 I-1.5365 J-1.0288
G3 X21.1625 Y22.9367 I-0.6689 J-1.6353
G2 X21.1385 I-0.0127 J10.2
G3 X20.4648 Y22.8045 I-0.002 J-1.7737
G3 X19.8777 Y22.41 I0.7117 J-1.693
G2 X19.8673 Y22.3995 I-7.2132 J7.2118
G3 X19.3498 Y21.1504 I1.2434 J-1.2468
G2 Y21.1209 I-10.2 J-0.0137
G3 X19.4809 Y20.4542 I1.7473 J-0.0027
G3 X19.8771 Y19.8641 I1.6985 J0.7122
G2 X19.8871 Y19.854 I-7.2125 J-7.2125
G3 X21.1359 Y19.3367 I1.2465 J1.243
G2 X21.1631 I0.0138 J-10.2
G3 X21.8361 Y19.4693 I0.0023 J1.7632
G3 X22.419 Y19.8603 I-0.6984 J1.671
G2 X22.4318 Y19.8731 I7.216 J-7.2089
G3 X22.9498 Y21.1236 I-1.2451 J1.2483
G2 Y21.1528 I10.2 J0.0131
G1 F40.0 X25.3498 Y21.149
G3 F100.0 X24.6482 Y23.463 I-4.1453 J0.0066
G2 X24.6469 Y23.4649 I6.48 J4.3416
G3 X22.7534 Y25.0219 I-3.5307 J-2.3641
G3 X21.1595 Y25.3367 I-1.5887 J-3.852
G2 X21.1412 I-0.0097 J7.8
G3 X19.5452 Y25.0214 I-0.0046 J-4.1737
G3 X18.1805 Y24.1069 I1.6313 J-3.9099
G2 X18.1725 Y24.0989 I-5.5159 J5.5149
G3 X16.9498 Y21.1471 I2.9382 J-2.9462
G2 Y21.1246 I-7.8 J-0.0104
G3 X17.2643 Y19.534 I4.1473 J-0.0064
G3 X18.18 Y18.167 I3.9151 J1.6324
G2 X18.1877 Y18.1593 I-5.5154 J-5.5154
G3 X21.1392 Y16.9367 I2.9459 J2.9377
G2 X21.1599 I0.0106 J-7.8
G3 X22.7554 Y17.2523 I0.0054 J4.1632
G3 X24.1169 Y18.1641 I-1.6177 J3.888
G2 X24.1267 Y18.1738 I5.5181 J-5.5127
G3 X25.3497 Y21.1267 I-2.94 J2.9475
G2 X25.3498 Y21.149 I7.8 J0.01
G1 F40.0 X27.7497 Y21.1452
G3 F100.0 X26.6421 Y24.7989 I-6.5453 J0.0104
G2 X26.6412 Y24.8002 I4.4862 J3.0057
G3 X23.6733 Y27.2386 I-5.525 J-3.6993
G3 X21.1565 Y27.7367 I-2.5087 J-6.0687
G2 X21.1438 I-0.0067 J5.4
G3 X18.6256 Y27.2382 I-0.0073 J-6.5737
G3 X16.4833 Y25.8038 I2.5509 J-6.1267
G2 X16.4778 Y25.7983 I-3.8187 J3.818
G3 X14.5498 Y21.1439 I4.6329 J-4.6455
G2 Y21.1283 I-5.4 J-0.0072
G3 X15.0477 Y18.6138 I6.5473 J-0.0101
G3 X16.483 Y16.4699 I6.1317 J2.5526
G2 X16.4883 Y16.4646 I-3.8184 J-3.8184
G3 X21.1425 Y14.5367 I4.6453 J4.6324
G2 X21.1568 I0.0073 J-5.4
G3 X23.6748 Y15.0354 I0.0086 J6.5632
G3 X25.8148 Y16.4679 I-2.537 J6.105
G2 X25.8215 Y16.4746 I3.8203 J-3.8165
G3 X27.7497 Y21.1298 I-4.6349 J4.6467
G2 Y21.1452 I5.4 J0.0069
G1 F40.0 X30.1497 Y21.1414
G3 F100.0 X28.6359 Y26.1347 I-8.9453 J0.0142
G2 X28.6354 Y26.1355 I2.4923 J1.6699
G3 X24.5933 Y29.4553 I-7.5192 J-5.0346
G3 X21.1535 Y30.1367 I-3.4286 J-8.2854
G2 X21.1465 I-0.0037 J3.0
G3 X17.7059 Y29.455 I-0.0099 J-8.9737
G3 X14.7861 Y27.5007 I3.4706 J-8.3435
G2 X14.783 Y27.4976 I-2.1215 J2.1211
G3 X12.1498 Y21.1407 I6.3277 J-6.3449
G2 Y21.1321 I-3.0 J-0.004
G3 X12.8311 Y17.6936 I8.9473 J-0.0138
G3 X14.7859 Y14.7729 I8.3483 J3.4728
G2 X14.7888 Y14.7699 I-2.1213 J-2.1213
G3 X21.1457 Y12.1367 I6.3447 J6.3271
G2 X21.1537 I0.0041 J-3.0
G3 X24.5941 Y12.8184 I0.0117 J8.9632
G3 X27.5127 Y14.7716 I-3.4563 J8.3219
G2 X27.5164 Y14.7754 I2.1224 J-2.1203
G3 X30.1497 Y21.1328 I-6.3298 J6.3459
G2 Y21.1414 I3.0 J0.0039
G0 Z3.0
G0 X22.9498 Y21.1528
G1 F40.0 Z-2.4
G3 F100.0 X22.6544 Y22.1271 I-1.7453 J0.0028
G2 X22.6527 Y22.1296 I8.4738 J5.6775
G3 X21.8335 Y22.8052 I-1.5365 J-1.0288
G3 X21.1625 Y22.9367 I-0.6689 J-1.6353
G2 X21.1385 I-0.0127 J10.2
G3 X20.4648 Y22.8045 I-0.002 J-1.7737
G3 X19.8777 Y22.41 I0.7117 J-1.693
G2 X19.8673 Y22.3995 I-7.2132 J7.2118
G3 X19.3498 Y21.1504 I1.2434 J-1.2468
G2 Y21.1209 I-10.2 J-0.0137
G3 X19.4809 Y20.4542 I1.7473 J-0.0027
G3 X19.8771 Y19.8641 I1.6985 J0.7122
G2 X19.8871 Y19.854 I-7.2125 J-7.2125
G3 X21.1359 Y19.3367 I1.2465 J1.243
G2 X21.1631 I0.0138 J-10.2
G3 X21.8361 Y19.4693 I0.0023 J1.7632
G3 X22.419 Y19.8603 I-0.6984 J1.671
G2 X22.4318 Y19.8731 I7.216 J-7.2089
G3 X22.9498 Y21.1236 I-1.2451 J1.2483
G2 Y21.1528 I10.2 J0.0131
G1 F40.0 X25.3498 Y21.149
G3 F100.0 X24.6482 Y23.463 I-4.1453 J0.0066
G2 X24.6469 Y23.4649 I6.48 J4.3416
G3 X22.7534 Y25.0219 I-3.5307 J-2.3641
G3 X21.1595 Y25.3367 I-1.5887 J-3.852
G2 X21.1412 I-0.0097 J7.8
G3 X19.5452 Y25.0214 I-0.0046 J-4.1737
G3 X18.1805 Y24.1069 I1.6313 J-3.9099
G2 X18.1725 Y24.0989 I-5.5159 J5.5149
G3 X16.9498 Y21.1471 I2.9382 J-2.9462
G2 Y21.1246 I-7.8 J-0.0104
G3 X17.2643 Y19.534 I4.1473 J-0.0064
G3 X18.18 Y18.167 I3.9151 J1.6324
G2 X18.1877 Y18.1593 I-5.5154 J-5.5154
G3 X21.1392 Y16.9367 I2.9459 J2.9377
G2 X21.1599 I0.0106 J-7.8
G3 X22.7554 Y17.2523 I0.0054 J4.1632
G3 X24.1169 Y18.1641 I-1.6177 J3.888
G2 X24.1267 Y18.1738 I5.5181 J-5.5127
G3 X25.3497 Y21.1267 I-2.94 J2.9475
G2 X25.3498 Y21.149 I7.8 J0.01
G1 F40.0 X27.7497 Y21.1452
G3 F100.0 X26.6421 Y24.7989 I-6.5453 J0.0104
G2 X26.6412 Y24.8002 I4.4862 J3.0057
G3 X23.6733 Y27.2386 I-5.525 J-3.6993
G3 X21.1565 Y27.7367 I-2.5087 J-6.0687
G2 X21.1438 I-0.0067 J5.4
G3 X18.6256 Y27.2382 I-0.0073 J-6.5737
G3 X16.4833 Y25.8038 I2.5509 J-6.1267
G2 X16.4778 Y25.7983 I-3.8187 J3.818
G3 X14.5498 Y21.1439 I4.6329 J-4.6455
G2 Y21.1283 I-5.4 J-0.0072
G3 X15.0477 Y18.6138 I6.5473 J-0.0101
G3 X16.483 Y16.4699 I6.1317 J2.5526
G2 X16.4883 Y16.4646 I-3.8184 J-3.8184
G3 X21.1425 Y14.5367 I4.6453 J4.6324
G2 X21.1568 I0.0073 J-5.4
G3 X23.6748 Y15.0354 I0.0086 J6.5632
G3 X25.8148 Y16.4679 I-2.537 J6.105
G2 X25.8215 Y16.4746 I3.8203 J-3.8165
G3 X27.7497 Y21.1298 I-4.6349 J4.6467
G2 Y21.1452 I5.4 J0.0069
G1 F40.0 X30.1497 Y21.1414
G3 F100.0 X28.6359 Y26.1347 I-8.9453 J0.0142
G2 X28.6354 Y26.1355 I2.4923 J1.6699
G3 X24.5933 Y29.4553 I-7.5192 J-5.0346
G3 X21.1535 Y30.1367 I-3.4286 J-8.2854
G2 X21.1465 I-0.0037 J3.0
G3 X17.7059 Y29.455 I-0.0099 J-8.9737
G3 X14.7861 Y27.5007 I3.4706 J-8.3435
G2 X14.783 Y27.4976 I-2.1215 J2.1211
G3 X12.1498 Y21.1407 I6.3277 J-6.3449
G2 Y21.1321 I-3.0 J-0.004
G3 X12.8311 Y17.6936 I8.9473 J-0.0138
G3 X14.7859 Y14.7729 I8.3483 J3.4728
G2 X14.7888 Y14.7699 I-2.1213 J-2.1213
G3 X21.1457 Y12.1367 I6.3447 J6.3271
G2 X21.1537 I0.0041 J-3.0
G3 X24.5941 Y12.8184 I0.0117 J8.9632
G3 X27.5127 Y14.7716 I-3.4563 J8.3219
G2 X27.5164 Y14.7754 I2.1224 J-2.1203
G3 X30.1497 Y21.1328 I-6.3298 J6.3459
G2 Y21.1414 I3.0 J0.0039
( Profile1 )
S1000
G0 Z3.0
G0 X45.2999 Y4.2543
G1 F40.0 Z-1.0
G2 F100.0 Y4.2542 I-7.2535 J-0.0008
G2 X38.0462 Y-3.0 I-7.2535 J-0.0006
G1 X38.0463
G1 X38.0462
G1 X4.256
G2 X-0.8754 Y-0.8753 I-0.0087 J7.238
G2 X-3.0 Y4.2559 I5.1142 J5.123
G1 Y38.0173
G2 X-0.8747 Y43.1493 I7.2375 J0.0088
G2 X4.2553 Y45.2732 I5.1243 J-5.1196
G1 X38.0443
G2 X43.1755 Y43.1485 I0.0084 J-7.2381
G2 X45.2999 Y38.0174 I-5.1139 J-5.1226
G1 Y4.2542
G1 Y4.254
G1 Y4.2543
G1 F40.0 Z-2.0
G2 F100.0 Y4.2542 I-7.2535 J-0.0008
G2 X38.0462 Y-3.0 I-7.2535 J-0.0006
G1 X38.0463
G1 X38.0462
G1 X4.256
G2 X-0.8754 Y-0.8753 I-0.0087 J7.238
G2 X-3.0 Y4.2559 I5.1142 J5.123
G1 Y38.0173
G2 X-0.8747 Y43.1493 I7.2375 J0.0088
G2 X4.2553 Y45.2732 I5.1243 J-5.1196
G1 X38.0443
G2 X43.1755 Y43.1485 I0.0084 J-7.2381
G2 X45.2999 Y38.0174 I-5.1139 J-5.1226
G1 Y4.2542
G1 Y4.254
G1 Y4.2543
G1 F40.0 Z-3.0
G2 F100.0 Y4.2542 I-7.2535 J-0.0008
G2 X38.0462 Y-3.0 I-7.2535 J-0.0006
G1 X38.0463
G1 X38.0462
G1 X4.256
G2 X-0.8754 Y-0.8753 I-0.0087 J7.238
G2 X-3.0 Y4.2559 I5.1142 J5.123
G1 Y38.0173
G2 X-0.8747 Y43.1493 I7.2375 J0.0088
G2 X4.2553 Y45.2732 I5.1243 J-5.1196
G1 X38.0443
G2 X43.1755 Y43.1485 I0.0084 J-7.2381
G2 X45.2999 Y38.0174 I-5.1139 J-5.1226
G1 Y4.2542
G1 Y4.254
G1 Y4.2543
G1 F40.0 Z-4.0
G2 F100.0 Y4.2542 I-7.2535 J-0.0008
G2 X38.0462 Y-3.0 I-7.2535 J-0.0006
G1 X38.0463
G1 X38.0462
G1 X4.256
G2 X-0.8754 Y-0.8753 I-0.0087 J7.238
G2 X-3.0 Y4.2559 I5.1142 J5.123
G1 Y38.0173
G2 X-0.8747 Y43.1493 I7.2375 J0.0088
G2 X4.2553 Y45.2732 I5.1243 J-5.1196
G1 X38.0443
G2 X43.1755 Y43.1485 I0.0084 J-7.2381
G2 X45.2999 Y38.0174 I-5.1139 J-5.1226
G1 Y4.2542
G1 Y4.254
G1 Y4.2543
G1 F40.0 Z-5.0
G2 F100.0 Y4.2542 I-7.2535 J-0.0008
G2 X38.0462 Y-3.0 I-7.2535 J-0.0006
G1 X38.0463
G1 X38.0462
G1 X4.256
G2 X-0.8754 Y-0.8753 I-0.0087 J7.238
G2 X-3.0 Y4.2559 I5.1142 J5.123
G1 Y38.0173
G2 X-0.8747 Y43.1493 I7.2375 J0.0088
G2 X4.2553 Y45.2732 I5.1243 J-5.1196
G1 X38.0443
G2 X43.1755 Y43.1485 I0.0084 J-7.2381
G2 X45.2999 Y38.0174 I-5.1139 J-5.1226
G1 Y4.2542
G1 Y4.254
G1 Y4.2543
G1 F40.0 Z-6.0
G2 F100.0 Y4.2542 I-7.2535 J-0.0008
G2 X38.0462 Y-3.0 I-7.2535 J-0.0006
G1 X38.0463
G1 X38.0462
G1 X4.256
G2 X-0.8754 Y-0.8753 I-0.0087 J7.238
G2 X-3.0 Y4.2559 I5.1142 J5.123
G1 Y38.0173
G2 X-0.8747 Y43.1493 I7.2375 J0.0088
G2 X4.2553 Y45.2732 I5.1243 J-5.1196
G1 X38.0443
G2 X43.1755 Y43.1485 I0.0084 J-7.2381
G2 X45.2999 Y38.0174 I-5.1139 J-5.1226
G1 Y4.2542
G1 Y4.254
G1 Y4.2543
G1 F40.0 Z-7.0
G2 F100.0 Y4.2542 I-7.2535 J-0.0008
G2 X38.0462 Y-3.0 I-7.2535 J-0.0006
G1 X38.0463
G1 X38.0462
G1 X4.256
G2 X-0.8754 Y-0.8753 I-0.0087 J7.238
G2 X-3.0 Y4.2559 I5.1142 J5.123
G1 Y38.0173
G2 X-0.8747 Y43.1493 I7.2375 J0.0088
G2 X4.2553 Y45.2732 I5.1243 J-5.1196
G1 X38.0443
G2 X43.1755 Y43.1485 I0.0084 J-7.2381
G2 X45.2999 Y38.0174 I-5.1139 J-5.1226
G1 Y4.2542
G1 Y4.254
G1 Y4.2543
G1 F40.0 Z-8.0
G2 F100.0 Y4.2542 I-7.2535 J-0.0008
G2 X38.0462 Y-3.0 I-7.2535 J-0.0006
G1 X38.0463
G1 X38.0462
G1 X4.256
G2 X-0.8754 Y-0.8753 I-0.0087 J7.238
G2 X-3.0 Y4.2559 I5.1142 J5.123
G1 Y38.0173
G2 X-0.8747 Y43.1493 I7.2375 J0.0088
G2 X4.2553 Y45.2732 I5.1243 J-5.1196
G1 X38.0443
G2 X43.1755 Y43.1485 I0.0084 J-7.2381
G2 X45.2999 Y38.0174 I-5.1139 J-5.1226
G1 Y4.2542
G1 Y4.254
G1 Y4.2543
G1 F40.0 Z-9.0
G2 F100.0 Y4.2542 I-7.2535 J-0.0008
G2 X38.0462 Y-3.0 I-7.2535 J-0.0006
G1 X38.0463
G1 X38.0462
G1 X4.256
G2 X-0.8754 Y-0.8753 I-0.0087 J7.238
G2 X-3.0 Y4.2559 I5.1142 J5.123
G1 Y38.0173
G2 X-0.8747 Y43.1493 I7.2375 J0.0088
G2 X4.2553 Y45.2732 I5.1243 J-5.1196
G1 X38.0443
G2 X43.1755 Y43.1485 I0.0084 J-7.2381
G2 X45.2999 Y38.0174 I-5.1139 J-5.1226
G1 Y4.2542
G1 Y4.254
G1 Y4.2543
G1 F40.0 Z-10.0
G2 F100.0 Y4.2542 I-7.2535 J-0.0008
G2 X38.0462 Y-3.0 I-7.2535 J-0.0006
G1 X38.0463
G1 X38.0462
G1 X4.256
G2 X-0.8754 Y-0.8753 I-0.0087 J7.238
G2 X-3.0 Y4.2559 I5.1142 J5.123
G1 Y38.0173
G2 X-0.8747 Y43.1493 I7.2375 J0.0088
G2 X4.2553 Y45.2732 I5.1243 J-5.1196
G1 X38.0443
G2 X43.1755 Y43.1485 I0.0084 J-7.2381
G2 X45.2999 Y38.0174 I-5.1139 J-5.1226
G1 Y4.2542
G1 Y4.254
G1 Y4.2543
G1 F40.0 Z-10.5
G2 F100.0 Y4.2542 I-7.2535 J-0.0008
G2 X38.0462 Y-3.0 I-7.2535 J-0.0006
G1 X38.0463
G1 X38.0462
G1 X4.256
G2 X-0.8754 Y-0.8753 I-0.0087 J7.238
G2 X-3.0 Y4.2559 I5.1142 J5.123
G1 Y38.0173
G2 X-0.8747 Y43.1493 I7.2375 J0.0088
G2 X4.2553 Y45.2732 I5.1243 J-5.1196
G1 X38.0443
G2 X43.1755 Y43.1485 I0.0084 J-7.2381
G2 X45.2999 Y38.0174 I-5.1139 J-5.1226
G1 Y4.2542
G1 Y4.254
G1 Y4.2543
G0 Z3.0
M5
M30
