( Made using CamBam - http://www.cambam.co.uk )
( x stepper mount 12/24/2012 1:44:58 PM )
( T4 : 4.0 )
G21 G90 G64 G40
G0 Z3.0
( T4 : 4.0 )
T4 M6
( Profile1 4mm )
G17
M3 S1000
G0 X3.7338 Y4.273
G1 F50.0 Z-1.0
G3 X3.4928 Y3.8477 I0.2546 J-0.4253
G1 Y3.8474
G3 X3.9925 Y3.3477 I0.4996 J-0.0001
G2 X3.993 I0.0004 J-2.0
G3 X4.4157 Y3.585 I0.0 J0.495
G2 X6.1233 Y4.5439 I1.7076 J-1.0412
G1 X24.5236
G2 X26.2308 Y3.5856 I0.0 J-2.0
G3 X26.6545 Y3.3477 I0.4239 J0.2586
G1 X26.6544
G1 X26.6545
G3 X27.1541 Y3.8474 I0.0 J0.4996
G2 Y3.8488 I2.0 J0.0004
G3 X26.9665 Y4.2364 I-0.4937 J0.0002
G2 X26.2064 Y5.8057 I1.2399 J1.5693
G1 Y24.8908
G2 X26.9666 Y26.4602 I2.0 J0.0
G3 X27.1541 Y26.8475 I-0.3057 J0.387
G2 Y26.849 I2.0 J0.0011
G3 X26.6544 Y27.3488 I-0.4996 J0.0001
G2 X26.6534 I-0.0004 J2.0
G3 X26.2142 Y27.0878 I-0.0001 J-0.5
G2 X24.4574 Y26.0438 I-1.7567 J0.956
G1 X22.9564
G2 X20.9564 Y28.0438 I0.0 J2.0
G1 Y34.7052
G2 X21.8987 Y36.4026 I2.0 J0.0
G3 X22.1319 Y36.8227 I-0.2617 J0.42
G2 Y36.8233 I2.0 J0.0002
G3 X21.6321 Y37.323 I-0.4996 J0.0001
G2 X21.6315 I-0.0004 J2.0
G3 X21.1968 Y37.068 I-0.0001 J-0.498
G2 X19.451 Y36.0438 I-1.7458 J0.9759
G1 X11.5838
G2 X9.8376 Y37.0687 I0.0 J2.0
G3 X9.4041 Y37.323 I-0.4332 J-0.2419
G2 X9.4027 I-0.0011 J2.0
G3 X8.9029 Y36.8233 I-0.0001 J-0.4996
G2 Y36.8222 I-2.0 J-0.0004
G3 X9.1116 Y36.4188 I0.494 J-0.0002
G2 X9.9564 Y34.7862 I-1.1551 J-1.6327
G1 Y28.0438
G2 X7.9564 Y26.0438 I-2.0 J0.0
G1 X6.1895
G2 X4.4325 Y27.0883 I0.0 J2.0
G3 X3.994 Y27.3488 I-0.4382 J-0.2383
G2 X3.9925 I-0.0011 J2.0
G3 X3.4928 Y26.849 I-0.0001 J-0.4996
G1 Y26.8488
G3 X3.7339 Y26.4235 I0.4958 J0.0
G2 X4.7065 Y24.7075 I-1.0274 J-1.7159
G1 Y5.989
G2 X3.7338 Y4.273 I-2.0 J0.0
G1 Z-2.0
G3 X3.4928 Y3.8477 I0.2546 J-0.4253
G1 Y3.8474
G3 X3.9925 Y3.3477 I0.4996 J-0.0001
G2 X3.993 I0.0004 J-2.0
G3 X4.4157 Y3.585 I0.0 J0.495
G2 X6.1233 Y4.5439 I1.7076 J-1.0412
G1 X24.5236
G2 X26.2308 Y3.5856 I0.0 J-2.0
G3 X26.6545 Y3.3477 I0.4239 J0.2586
G1 X26.6544
G1 X26.6545
G3 X27.1541 Y3.8474 I0.0 J0.4996
G2 Y3.8488 I2.0 J0.0004
G3 X26.9665 Y4.2364 I-0.4937 J0.0002
G2 X26.2064 Y5.8057 I1.2399 J1.5693
G1 Y24.8908
G2 X26.9666 Y26.4602 I2.0 J0.0
G3 X27.1541 Y26.8475 I-0.3057 J0.387
G2 Y26.849 I2.0 J0.0011
G3 X26.6544 Y27.3488 I-0.4996 J0.0001
G2 X26.6534 I-0.0004 J2.0
G3 X26.2142 Y27.0878 I-0.0001 J-0.5
G2 X24.4574 Y26.0438 I-1.7567 J0.956
G1 X22.9564
G2 X20.9564 Y28.0438 I0.0 J2.0
G1 Y34.7052
G2 X21.8987 Y36.4026 I2.0 J0.0
G3 X22.1319 Y36.8227 I-0.2617 J0.42
G2 Y36.8233 I2.0 J0.0002
G3 X21.6321 Y37.323 I-0.4996 J0.0001
G2 X21.6315 I-0.0004 J2.0
G3 X21.1968 Y37.068 I-0.0001 J-0.498
G2 X19.451 Y36.0438 I-1.7458 J0.9759
G1 X11.5838
G2 X9.8376 Y37.0687 I0.0 J2.0
G3 X9.4041 Y37.323 I-0.4332 J-0.2419
G2 X9.4027 I-0.0011 J2.0
G3 X8.9029 Y36.8233 I-0.0001 J-0.4996
G2 Y36.8222 I-2.0 J-0.0004
G3 X9.1116 Y36.4188 I0.494 J-0.0002
G2 X9.9564 Y34.7862 I-1.1551 J-1.6327
G1 Y28.0438
G2 X7.9564 Y26.0438 I-2.0 J0.0
G1 X6.1895
G2 X4.4325 Y27.0883 I0.0 J2.0
G3 X3.994 Y27.3488 I-0.4382 J-0.2383
G2 X3.9925 I-0.0011 J2.0
G3 X3.4928 Y26.849 I-0.0001 J-0.4996
G1 Y26.8488
G3 X3.7339 Y26.4235 I0.4958 J0.0
G2 X4.7065 Y24.7075 I-1.0274 J-1.7159
G1 Y5.989
G2 X3.7338 Y4.273 I-2.0 J0.0
G1 Z-3.0
G3 X3.4928 Y3.8477 I0.2546 J-0.4253
G1 Y3.8474
G3 X3.9925 Y3.3477 I0.4996 J-0.0001
G2 X3.993 I0.0004 J-2.0
G3 X4.4157 Y3.585 I0.0 J0.495
G2 X6.1233 Y4.5439 I1.7076 J-1.0412
G1 X24.5236
G2 X26.2308 Y3.5856 I0.0 J-2.0
G3 X26.6545 Y3.3477 I0.4239 J0.2586
G1 X26.6544
G1 X26.6545
G3 X27.1541 Y3.8474 I0.0 J0.4996
G2 Y3.8488 I2.0 J0.0004
G3 X26.9665 Y4.2364 I-0.4937 J0.0002
G2 X26.2064 Y5.8057 I1.2399 J1.5693
G1 Y24.8908
G2 X26.9666 Y26.4602 I2.0 J0.0
G3 X27.1541 Y26.8475 I-0.3057 J0.387
G2 Y26.849 I2.0 J0.0011
G3 X26.6544 Y27.3488 I-0.4996 J0.0001
G2 X26.6534 I-0.0004 J2.0
G3 X26.2142 Y27.0878 I-0.0001 J-0.5
G2 X24.4574 Y26.0438 I-1.7567 J0.956
G1 X22.9564
G2 X20.9564 Y28.0438 I0.0 J2.0
G1 Y34.7052
G2 X21.8987 Y36.4026 I2.0 J0.0
G3 X22.1319 Y36.8227 I-0.2617 J0.42
G2 Y36.8233 I2.0 J0.0002
G3 X21.6321 Y37.323 I-0.4996 J0.0001
G2 X21.6315 I-0.0004 J2.0
G3 X21.1968 Y37.068 I-0.0001 J-0.498
G2 X19.451 Y36.0438 I-1.7458 J0.9759
G1 X11.5838
G2 X9.8376 Y37.0687 I0.0 J2.0
G3 X9.4041 Y37.323 I-0.4332 J-0.2419
G2 X9.4027 I-0.0011 J2.0
G3 X8.9029 Y36.8233 I-0.0001 J-0.4996
G2 Y36.8222 I-2.0 J-0.0004
G3 X9.1116 Y36.4188 I0.494 J-0.0002
G2 X9.9564 Y34.7862 I-1.1551 J-1.6327
G1 Y28.0438
G2 X7.9564 Y26.0438 I-2.0 J0.0
G1 X6.1895
G2 X4.4325 Y27.0883 I0.0 J2.0
G3 X3.994 Y27.3488 I-0.4382 J-0.2383
G2 X3.9925 I-0.0011 J2.0
G3 X3.4928 Y26.849 I-0.0001 J-0.4996
G1 Y26.8488
G3 X3.7339 Y26.4235 I0.4958 J0.0
G2 X4.7065 Y24.7075 I-1.0274 J-1.7159
G1 Y5.989
G2 X3.7338 Y4.273 I-2.0 J0.0
G1 Z-4.0
G3 X3.4928 Y3.8477 I0.2546 J-0.4253
G1 Y3.8474
G3 X3.9925 Y3.3477 I0.4996 J-0.0001
G2 X3.993 I0.0004 J-2.0
G3 X4.4157 Y3.585 I0.0 J0.495
G2 X6.1233 Y4.5439 I1.7076 J-1.0412
G1 X24.5236
G2 X26.2308 Y3.5856 I0.0 J-2.0
G3 X26.6545 Y3.3477 I0.4239 J0.2586
G1 X26.6544
G1 X26.6545
G3 X27.1541 Y3.8474 I0.0 J0.4996
G2 Y3.8488 I2.0 J0.0004
G3 X26.9665 Y4.2364 I-0.4937 J0.0002
G2 X26.2064 Y5.8057 I1.2399 J1.5693
G1 Y24.8908
G2 X26.9666 Y26.4602 I2.0 J0.0
G3 X27.1541 Y26.8475 I-0.3057 J0.387
G2 Y26.849 I2.0 J0.0011
G3 X26.6544 Y27.3488 I-0.4996 J0.0001
G2 X26.6534 I-0.0004 J2.0
G3 X26.2142 Y27.0878 I-0.0001 J-0.5
G2 X24.4574 Y26.0438 I-1.7567 J0.956
G1 X22.9564
G2 X20.9564 Y28.0438 I0.0 J2.0
G1 Y34.7052
G2 X21.8987 Y36.4026 I2.0 J0.0
G3 X22.1319 Y36.8227 I-0.2617 J0.42
G2 Y36.8233 I2.0 J0.0002
G3 X21.6321 Y37.323 I-0.4996 J0.0001
G2 X21.6315 I-0.0004 J2.0
G3 X21.1968 Y37.068 I-0.0001 J-0.498
G2 X19.451 Y36.0438 I-1.7458 J0.9759
G1 X11.5838
G2 X9.8376 Y37.0687 I0.0 J2.0
G3 X9.4041 Y37.323 I-0.4332 J-0.2419
G2 X9.4027 I-0.0011 J2.0
G3 X8.9029 Y36.8233 I-0.0001 J-0.4996
G2 Y36.8222 I-2.0 J-0.0004
G3 X9.1116 Y36.4188 I0.494 J-0.0002
G2 X9.9564 Y34.7862 I-1.1551 J-1.6327
G1 Y28.0438
G2 X7.9564 Y26.0438 I-2.0 J0.0
G1 X6.1895
G2 X4.4325 Y27.0883 I0.0 J2.0
G3 X3.994 Y27.3488 I-0.4382 J-0.2383
G2 X3.9925 I-0.0011 J2.0
G3 X3.4928 Y26.849 I-0.0001 J-0.4996
G1 Y26.8488
G3 X3.7339 Y26.4235 I0.4958 J0.0
G2 X4.7065 Y24.7075 I-1.0274 J-1.7159
G1 Y5.989
G2 X3.7338 Y4.273 I-2.0 J0.0
G1 Z-5.0
G3 X3.4928 Y3.8477 I0.2546 J-0.4253
G1 Y3.8474
G3 X3.9925 Y3.3477 I0.4996 J-0.0001
G2 X3.993 I0.0004 J-2.0
G3 X4.4157 Y3.585 I0.0 J0.495
G2 X6.1233 Y4.5439 I1.7076 J-1.0412
G1 X24.5236
G2 X26.2308 Y3.5856 I0.0 J-2.0
G3 X26.6545 Y3.3477 I0.4239 J0.2586
G1 X26.6544
G1 X26.6545
G3 X27.1541 Y3.8474 I0.0 J0.4996
G2 Y3.8488 I2.0 J0.0004
G3 X26.9665 Y4.2364 I-0.4937 J0.0002
G2 X26.2064 Y5.8057 I1.2399 J1.5693
G1 Y24.8908
G2 X26.9666 Y26.4602 I2.0 J0.0
G3 X27.1541 Y26.8475 I-0.3057 J0.387
G2 Y26.849 I2.0 J0.0011
G3 X26.6544 Y27.3488 I-0.4996 J0.0001
G2 X26.6534 I-0.0004 J2.0
G3 X26.2142 Y27.0878 I-0.0001 J-0.5
G2 X24.4574 Y26.0438 I-1.7567 J0.956
G1 X22.9564
G2 X20.9564 Y28.0438 I0.0 J2.0
G1 Y34.7052
G2 X21.8987 Y36.4026 I2.0 J0.0
G3 X22.1319 Y36.8227 I-0.2617 J0.42
G2 Y36.8233 I2.0 J0.0002
G3 X21.6321 Y37.323 I-0.4996 J0.0001
G2 X21.6315 I-0.0004 J2.0
G3 X21.1968 Y37.068 I-0.0001 J-0.498
G2 X19.451 Y36.0438 I-1.7458 J0.9759
G1 X11.5838
G2 X9.8376 Y37.0687 I0.0 J2.0
G3 X9.4041 Y37.323 I-0.4332 J-0.2419
G2 X9.4027 I-0.0011 J2.0
G3 X8.9029 Y36.8233 I-0.0001 J-0.4996
G2 Y36.8222 I-2.0 J-0.0004
G3 X9.1116 Y36.4188 I0.494 J-0.0002
G2 X9.9564 Y34.7862 I-1.1551 J-1.6327
G1 Y28.0438
G2 X7.9564 Y26.0438 I-2.0 J0.0
G1 X6.1895
G2 X4.4325 Y27.0883 I0.0 J2.0
G3 X3.994 Y27.3488 I-0.4382 J-0.2383
G2 X3.9925 I-0.0011 J2.0
G3 X3.4928 Y26.849 I-0.0001 J-0.4996
G1 Y26.8488
G3 X3.7339 Y26.4235 I0.4958 J0.0
G2 X4.7065 Y24.7075 I-1.0274 J-1.7159
G1 Y5.989
G2 X3.7338 Y4.273 I-2.0 J0.0
( Profile2 4mm )
S1000
G0 Z3.0
G0 X26.134 Y70.7898
G1 Z-1.0
G2 X27.8951 Y75.0283 I5.9874 J-0.0026
G2 X32.1329 Y76.7889 I4.2414 J-4.2287
G2 X32.1341 I0.0012 J-2.0
G1 X71.8471
G2 X71.8476 I0.0 J-2.0
G2 X76.0864 Y75.0281 I-0.0013 J-5.9857
G2 X77.8472 Y70.7898 I-4.2262 J-4.2407
G2 Y70.789 I-2.0 J-0.0008
G1 Y17.5924
G2 X77.8403 Y17.2523 I-5.7425 J-0.0537
G2 X77.722 Y16.1129 I-9.5842 J0.4193
G2 X77.7217 Y16.1111 I-1.9734 J0.325
G2 X77.5308 Y15.1798 I-12.3273 J2.0419
G2 X77.5282 Y15.1694 I-1.9426 J0.4759
G2 X76.3946 Y12.1396 I-13.9859 J3.5058
G2 X76.2015 Y11.7727 I-10.9773 J5.5444
G2 X76.1973 Y11.7651 I-1.7538 J0.9613
G1 X76.1232 Y11.6312
G2 X76.117 Y11.6201 I-1.7496 J0.9689
G2 X75.3856 Y10.4699 I-10.96 J6.1613
G2 X74.4407 Y9.347 I-7.4405 J5.3025
G2 X74.433 Y9.3393 I-1.4219 J1.4065
G1 X66.5155 Y1.4218
G2 X66.2701 Y1.1861 I-4.066 J3.9882
G2 X65.3797 Y0.4633 I-6.4348 J7.0169
G1 X65.3796 Y0.4632
G1 X65.3798 Y0.4633
G1 X65.3797
G2 X64.5847 Y-0.0612 I-7.2036 J10.0543
G2 X64.5769 Y-0.0659 I-1.0363 J1.7106
G2 X61.6298 Y-1.4078 I-7.3951 J12.3336
G2 X60.0412 Y-1.8206 I-4.1493 J12.7068
G2 X58.2829 Y-1.9999 I-1.8429 J9.359
G2 X58.2652 Y-2.0 I-0.0177 J1.9999
G1 X3.9999
G2 X3.9991 I0.0 J2.0
G2 X-0.2394 Y-0.2389 I0.0026 J5.9874
G2 X-2.0 Y3.9989 I4.2287 J4.2414
G2 Y4.0001 I2.0 J0.0012
G1 Y36.393
G2 Y36.3934 I2.0 J0.0
G2 X-0.2392 Y40.6322 I5.9857 J-0.0013
G2 X3.9991 Y42.3931 I4.2407 J-4.2262
G2 X3.9999 I0.0008 J-2.0
G1 X24.1336
G3 X25.5413 Y42.9787 I-0.0012 J1.9874
G2 X25.5481 Y42.9856 I1.4178 J-1.4106
G3 X26.134 Y44.3938 I-1.4034 J1.4099
G1 Y70.789
G2 Y70.7898 I2.0 J0.0
G1 Z-2.0
G2 X27.8951 Y75.0283 I5.9874 J-0.0026
G2 X32.1329 Y76.7889 I4.2414 J-4.2287
G2 X32.1341 I0.0012 J-2.0
G1 X71.8471
G2 X71.8476 I0.0 J-2.0
G2 X76.0864 Y75.0281 I-0.0013 J-5.9857
G2 X77.8472 Y70.7898 I-4.2262 J-4.2407
G2 Y70.789 I-2.0 J-0.0008
G1 Y17.5924
G2 X77.8403 Y17.2523 I-5.7425 J-0.0537
G2 X77.722 Y16.1129 I-9.5842 J0.4193
G2 X77.7217 Y16.1111 I-1.9734 J0.325
G2 X77.5308 Y15.1798 I-12.3273 J2.0419
G2 X77.5282 Y15.1694 I-1.9426 J0.4759
G2 X76.3946 Y12.1396 I-13.9859 J3.5058
G2 X76.2015 Y11.7727 I-10.9773 J5.5444
G2 X76.1973 Y11.7651 I-1.7538 J0.9613
G1 X76.1232 Y11.6312
G2 X76.117 Y11.6201 I-1.7496 J0.9689
G2 X75.3856 Y10.4699 I-10.96 J6.1613
G2 X74.4407 Y9.347 I-7.4405 J5.3025
G2 X74.433 Y9.3393 I-1.4219 J1.4065
G1 X66.5155 Y1.4218
G2 X66.2701 Y1.1861 I-4.066 J3.9882
G2 X65.3797 Y0.4633 I-6.4348 J7.0169
G1 X65.3796 Y0.4632
G1 X65.3798 Y0.4633
G1 X65.3797
G2 X64.5847 Y-0.0612 I-7.2036 J10.0543
G2 X64.5769 Y-0.0659 I-1.0363 J1.7106
G2 X61.6298 Y-1.4078 I-7.3951 J12.3336
G2 X60.0412 Y-1.8206 I-4.1493 J12.7068
G2 X58.2829 Y-1.9999 I-1.8429 J9.359
G2 X58.2652 Y-2.0 I-0.0177 J1.9999
G1 X3.9999
G2 X3.9991 I0.0 J2.0
G2 X-0.2394 Y-0.2389 I0.0026 J5.9874
G2 X-2.0 Y3.9989 I4.2287 J4.2414
G2 Y4.0001 I2.0 J0.0012
G1 Y36.393
G2 Y36.3934 I2.0 J0.0
G2 X-0.2392 Y40.6322 I5.9857 J-0.0013
G2 X3.9991 Y42.3931 I4.2407 J-4.2262
G2 X3.9999 I0.0008 J-2.0
G1 X24.1336
G3 X25.5413 Y42.9787 I-0.0012 J1.9874
G2 X25.5481 Y42.9856 I1.4178 J-1.4106
G3 X26.134 Y44.3938 I-1.4034 J1.4099
G1 Y70.789
G2 Y70.7898 I2.0 J0.0
G1 Z-3.0
G2 X27.8951 Y75.0283 I5.9874 J-0.0026
G2 X32.1329 Y76.7889 I4.2414 J-4.2287
G2 X32.1341 I0.0012 J-2.0
G1 X71.8471
G2 X71.8476 I0.0 J-2.0
G2 X76.0864 Y75.0281 I-0.0013 J-5.9857
G2 X77.8472 Y70.7898 I-4.2262 J-4.2407
G2 Y70.789 I-2.0 J-0.0008
G1 Y17.5924
G2 X77.8403 Y17.2523 I-5.7425 J-0.0537
G2 X77.722 Y16.1129 I-9.5842 J0.4193
G2 X77.7217 Y16.1111 I-1.9734 J0.325
G2 X77.5308 Y15.1798 I-12.3273 J2.0419
G2 X77.5282 Y15.1694 I-1.9426 J0.4759
G2 X76.3946 Y12.1396 I-13.9859 J3.5058
G2 X76.2015 Y11.7727 I-10.9773 J5.5444
G2 X76.1973 Y11.7651 I-1.7538 J0.9613
G1 X76.1232 Y11.6312
G2 X76.117 Y11.6201 I-1.7496 J0.9689
G2 X75.3856 Y10.4699 I-10.96 J6.1613
G2 X74.4407 Y9.347 I-7.4405 J5.3025
G2 X74.433 Y9.3393 I-1.4219 J1.4065
G1 X66.5155 Y1.4218
G2 X66.2701 Y1.1861 I-4.066 J3.9882
G2 X65.3797 Y0.4633 I-6.4348 J7.0169
G1 X65.3796 Y0.4632
G1 X65.3798 Y0.4633
G1 X65.3797
G2 X64.5847 Y-0.0612 I-7.2036 J10.0543
G2 X64.5769 Y-0.0659 I-1.0363 J1.7106
G2 X61.6298 Y-1.4078 I-7.3951 J12.3336
G2 X60.0412 Y-1.8206 I-4.1493 J12.7068
G2 X58.2829 Y-1.9999 I-1.8429 J9.359
G2 X58.2652 Y-2.0 I-0.0177 J1.9999
G1 X3.9999
G2 X3.9991 I0.0 J2.0
G2 X-0.2394 Y-0.2389 I0.0026 J5.9874
G2 X-2.0 Y3.9989 I4.2287 J4.2414
G2 Y4.0001 I2.0 J0.0012
G1 Y36.393
G2 Y36.3934 I2.0 J0.0
G2 X-0.2392 Y40.6322 I5.9857 J-0.0013
G2 X3.9991 Y42.3931 I4.2407 J-4.2262
G2 X3.9999 I0.0008 J-2.0
G1 X24.1336
G3 X25.5413 Y42.9787 I-0.0012 J1.9874
G2 X25.5481 Y42.9856 I1.4178 J-1.4106
G3 X26.134 Y44.3938 I-1.4034 J1.4099
G1 Y70.789
G2 Y70.7898 I2.0 J0.0
G1 Z-4.0
G2 X27.8951 Y75.0283 I5.9874 J-0.0026
G2 X32.1329 Y76.7889 I4.2414 J-4.2287
G2 X32.1341 I0.0012 J-2.0
G1 X71.8471
G2 X71.8476 I0.0 J-2.0
G2 X76.0864 Y75.0281 I-0.0013 J-5.9857
G2 X77.8472 Y70.7898 I-4.2262 J-4.2407
G2 Y70.789 I-2.0 J-0.0008
G1 Y17.5924
G2 X77.8403 Y17.2523 I-5.7425 J-0.0537
G2 X77.722 Y16.1129 I-9.5842 J0.4193
G2 X77.7217 Y16.1111 I-1.9734 J0.325
G2 X77.5308 Y15.1798 I-12.3273 J2.0419
G2 X77.5282 Y15.1694 I-1.9426 J0.4759
G2 X76.3946 Y12.1396 I-13.9859 J3.5058
G2 X76.2015 Y11.7727 I-10.9773 J5.5444
G2 X76.1973 Y11.7651 I-1.7538 J0.9613
G1 X76.1232 Y11.6312
G2 X76.117 Y11.6201 I-1.7496 J0.9689
G2 X75.3856 Y10.4699 I-10.96 J6.1613
G2 X74.4407 Y9.347 I-7.4405 J5.3025
G2 X74.433 Y9.3393 I-1.4219 J1.4065
G1 X66.5155 Y1.4218
G2 X66.2701 Y1.1861 I-4.066 J3.9882
G2 X65.3797 Y0.4633 I-6.4348 J7.0169
G1 X65.3796 Y0.4632
G1 X65.3798 Y0.4633
G1 X65.3797
G2 X64.5847 Y-0.0612 I-7.2036 J10.0543
G2 X64.5769 Y-0.0659 I-1.0363 J1.7106
G2 X61.6298 Y-1.4078 I-7.3951 J12.3336
G2 X60.0412 Y-1.8206 I-4.1493 J12.7068
G2 X58.2829 Y-1.9999 I-1.8429 J9.359
G2 X58.2652 Y-2.0 I-0.0177 J1.9999
G1 X3.9999
G2 X3.9991 I0.0 J2.0
G2 X-0.2394 Y-0.2389 I0.0026 J5.9874
G2 X-2.0 Y3.9989 I4.2287 J4.2414
G2 Y4.0001 I2.0 J0.0012
G1 Y36.393
G2 Y36.3934 I2.0 J0.0
G2 X-0.2392 Y40.6322 I5.9857 J-0.0013
G2 X3.9991 Y42.3931 I4.2407 J-4.2262
G2 X3.9999 I0.0008 J-2.0
G1 X24.1336
G3 X25.5413 Y42.9787 I-0.0012 J1.9874
G2 X25.5481 Y42.9856 I1.4178 J-1.4106
G3 X26.134 Y44.3938 I-1.4034 J1.4099
G1 Y70.789
G2 Y70.7898 I2.0 J0.0
G1 Z-5.0
G2 X27.8951 Y75.0283 I5.9874 J-0.0026
G2 X32.1329 Y76.7889 I4.2414 J-4.2287
G2 X32.1341 I0.0012 J-2.0
G1 X71.8471
G2 X71.8476 I0.0 J-2.0
G2 X76.0864 Y75.0281 I-0.0013 J-5.9857
G2 X77.8472 Y70.7898 I-4.2262 J-4.2407
G2 Y70.789 I-2.0 J-0.0008
G1 Y17.5924
G2 X77.8403 Y17.2523 I-5.7425 J-0.0537
G2 X77.722 Y16.1129 I-9.5842 J0.4193
G2 X77.7217 Y16.1111 I-1.9734 J0.325
G2 X77.5308 Y15.1798 I-12.3273 J2.0419
G2 X77.5282 Y15.1694 I-1.9426 J0.4759
G2 X76.3946 Y12.1396 I-13.9859 J3.5058
G2 X76.2015 Y11.7727 I-10.9773 J5.5444
G2 X76.1973 Y11.7651 I-1.7538 J0.9613
G1 X76.1232 Y11.6312
G2 X76.117 Y11.6201 I-1.7496 J0.9689
G2 X75.3856 Y10.4699 I-10.96 J6.1613
G2 X74.4407 Y9.347 I-7.4405 J5.3025
G2 X74.433 Y9.3393 I-1.4219 J1.4065
G1 X66.5155 Y1.4218
G2 X66.2701 Y1.1861 I-4.066 J3.9882
G2 X65.3797 Y0.4633 I-6.4348 J7.0169
G1 X65.3796 Y0.4632
G1 X65.3798 Y0.4633
G1 X65.3797
G2 X64.5847 Y-0.0612 I-7.2036 J10.0543
G2 X64.5769 Y-0.0659 I-1.0363 J1.7106
G2 X61.6298 Y-1.4078 I-7.3951 J12.3336
G2 X60.0412 Y-1.8206 I-4.1493 J12.7068
G2 X58.2829 Y-1.9999 I-1.8429 J9.359
G2 X58.2652 Y-2.0 I-0.0177 J1.9999
G1 X3.9999
G2 X3.9991 I0.0 J2.0
G2 X-0.2394 Y-0.2389 I0.0026 J5.9874
G2 X-2.0 Y3.9989 I4.2287 J4.2414
G2 Y4.0001 I2.0 J0.0012
G1 Y36.393
G2 Y36.3934 I2.0 J0.0
G2 X-0.2392 Y40.6322 I5.9857 J-0.0013
G2 X3.9991 Y42.3931 I4.2407 J-4.2262
G2 X3.9999 I0.0008 J-2.0
G1 X24.1336
G3 X25.5413 Y42.9787 I-0.0012 J1.9874
G2 X25.5481 Y42.9856 I1.4178 J-1.4106
G3 X26.134 Y44.3938 I-1.4034 J1.4099
G1 Y70.789
G2 Y70.7898 I2.0 J0.0
G1 Z-6.0
G2 X27.8951 Y75.0283 I5.9874 J-0.0026
G2 X32.1329 Y76.7889 I4.2414 J-4.2287
G2 X32.1341 I0.0012 J-2.0
G1 X71.8471
G2 X71.8476 I0.0 J-2.0
G2 X76.0864 Y75.0281 I-0.0013 J-5.9857
G2 X77.8472 Y70.7898 I-4.2262 J-4.2407
G2 Y70.789 I-2.0 J-0.0008
G1 Y17.5924
G2 X77.8403 Y17.2523 I-5.7425 J-0.0537
G2 X77.722 Y16.1129 I-9.5842 J0.4193
G2 X77.7217 Y16.1111 I-1.9734 J0.325
G2 X77.5308 Y15.1798 I-12.3273 J2.0419
G2 X77.5282 Y15.1694 I-1.9426 J0.4759
G2 X76.3946 Y12.1396 I-13.9859 J3.5058
G2 X76.2015 Y11.7727 I-10.9773 J5.5444
G2 X76.1973 Y11.7651 I-1.7538 J0.9613
G1 X76.1232 Y11.6312
G2 X76.117 Y11.6201 I-1.7496 J0.9689
G2 X75.3856 Y10.4699 I-10.96 J6.1613
G2 X74.4407 Y9.347 I-7.4405 J5.3025
G2 X74.433 Y9.3393 I-1.4219 J1.4065
G1 X66.5155 Y1.4218
G2 X66.2701 Y1.1861 I-4.066 J3.9882
G2 X65.3797 Y0.4633 I-6.4348 J7.0169
G1 X65.3796 Y0.4632
G1 X65.3798 Y0.4633
G1 X65.3797
G2 X64.5847 Y-0.0612 I-7.2036 J10.0543
G2 X64.5769 Y-0.0659 I-1.0363 J1.7106
G2 X61.6298 Y-1.4078 I-7.3951 J12.3336
G2 X60.0412 Y-1.8206 I-4.1493 J12.7068
G2 X58.2829 Y-1.9999 I-1.8429 J9.359
G2 X58.2652 Y-2.0 I-0.0177 J1.9999
G1 X3.9999
G2 X3.9991 I0.0 J2.0
G2 X-0.2394 Y-0.2389 I0.0026 J5.9874
G2 X-2.0 Y3.9989 I4.2287 J4.2414
G2 Y4.0001 I2.0 J0.0012
G1 Y36.393
G2 Y36.3934 I2.0 J0.0
G2 X-0.2392 Y40.6322 I5.9857 J-0.0013
G2 X3.9991 Y42.3931 I4.2407 J-4.2262
G2 X3.9999 I0.0008 J-2.0
G1 X24.1336
G3 X25.5413 Y42.9787 I-0.0012 J1.9874
G2 X25.5481 Y42.9856 I1.4178 J-1.4106
G3 X26.134 Y44.3938 I-1.4034 J1.4099
G1 Y70.789
G2 Y70.7898 I2.0 J0.0
G1 Z-7.0
G2 X27.8951 Y75.0283 I5.9874 J-0.0026
G2 X32.1329 Y76.7889 I4.2414 J-4.2287
G2 X32.1341 I0.0012 J-2.0
G1 X71.8471
G2 X71.8476 I0.0 J-2.0
G2 X76.0864 Y75.0281 I-0.0013 J-5.9857
G2 X77.8472 Y70.7898 I-4.2262 J-4.2407
G2 Y70.789 I-2.0 J-0.0008
G1 Y17.5924
G2 X77.8403 Y17.2523 I-5.7425 J-0.0537
G2 X77.722 Y16.1129 I-9.5842 J0.4193
G2 X77.7217 Y16.1111 I-1.9734 J0.325
G2 X77.5308 Y15.1798 I-12.3273 J2.0419
G2 X77.5282 Y15.1694 I-1.9426 J0.4759
G2 X76.3946 Y12.1396 I-13.9859 J3.5058
G2 X76.2015 Y11.7727 I-10.9773 J5.5444
G2 X76.1973 Y11.7651 I-1.7538 J0.9613
G1 X76.1232 Y11.6312
G2 X76.117 Y11.6201 I-1.7496 J0.9689
G2 X75.3856 Y10.4699 I-10.96 J6.1613
G2 X74.4407 Y9.347 I-7.4405 J5.3025
G2 X74.433 Y9.3393 I-1.4219 J1.4065
G1 X66.5155 Y1.4218
G2 X66.2701 Y1.1861 I-4.066 J3.9882
G2 X65.3797 Y0.4633 I-6.4348 J7.0169
G1 X65.3796 Y0.4632
G1 X65.3798 Y0.4633
G1 X65.3797
G2 X64.5847 Y-0.0612 I-7.2036 J10.0543
G2 X64.5769 Y-0.0659 I-1.0363 J1.7106
G2 X61.6298 Y-1.4078 I-7.3951 J12.3336
G2 X60.0412 Y-1.8206 I-4.1493 J12.7068
G2 X58.2829 Y-1.9999 I-1.8429 J9.359
G2 X58.2652 Y-2.0 I-0.0177 J1.9999
G1 X3.9999
G2 X3.9991 I0.0 J2.0
G2 X-0.2394 Y-0.2389 I0.0026 J5.9874
G2 X-2.0 Y3.9989 I4.2287 J4.2414
G2 Y4.0001 I2.0 J0.0012
G1 Y36.393
G2 Y36.3934 I2.0 J0.0
G2 X-0.2392 Y40.6322 I5.9857 J-0.0013
G2 X3.9991 Y42.3931 I4.2407 J-4.2262
G2 X3.9999 I0.0008 J-2.0
G1 X24.1336
G3 X25.5413 Y42.9787 I-0.0012 J1.9874
G2 X25.5481 Y42.9856 I1.4178 J-1.4106
G3 X26.134 Y44.3938 I-1.4034 J1.4099
G1 Y70.789
G2 Y70.7898 I2.0 J0.0
G1 Z-8.0
G2 X27.8951 Y75.0283 I5.9874 J-0.0026
G2 X32.1329 Y76.7889 I4.2414 J-4.2287
G2 X32.1341 I0.0012 J-2.0
G1 X71.8471
G2 X71.8476 I0.0 J-2.0
G2 X76.0864 Y75.0281 I-0.0013 J-5.9857
G2 X77.8472 Y70.7898 I-4.2262 J-4.2407
G2 Y70.789 I-2.0 J-0.0008
G1 Y17.5924
G2 X77.8403 Y17.2523 I-5.7425 J-0.0537
G2 X77.722 Y16.1129 I-9.5842 J0.4193
G2 X77.7217 Y16.1111 I-1.9734 J0.325
G2 X77.5308 Y15.1798 I-12.3273 J2.0419
G2 X77.5282 Y15.1694 I-1.9426 J0.4759
G2 X76.3946 Y12.1396 I-13.9859 J3.5058
G2 X76.2015 Y11.7727 I-10.9773 J5.5444
G2 X76.1973 Y11.7651 I-1.7538 J0.9613
G1 X76.1232 Y11.6312
G2 X76.117 Y11.6201 I-1.7496 J0.9689
G2 X75.3856 Y10.4699 I-10.96 J6.1613
G2 X74.4407 Y9.347 I-7.4405 J5.3025
G2 X74.433 Y9.3393 I-1.4219 J1.4065
G1 X66.5155 Y1.4218
G2 X66.2701 Y1.1861 I-4.066 J3.9882
G2 X65.3797 Y0.4633 I-6.4348 J7.0169
G1 X65.3796 Y0.4632
G1 X65.3798 Y0.4633
G1 X65.3797
G2 X64.5847 Y-0.0612 I-7.2036 J10.0543
G2 X64.5769 Y-0.0659 I-1.0363 J1.7106
G2 X61.6298 Y-1.4078 I-7.3951 J12.3336
G2 X60.0412 Y-1.8206 I-4.1493 J12.7068
G2 X58.2829 Y-1.9999 I-1.8429 J9.359
G2 X58.2652 Y-2.0 I-0.0177 J1.9999
G1 X3.9999
G2 X3.9991 I0.0 J2.0
G2 X-0.2394 Y-0.2389 I0.0026 J5.9874
G2 X-2.0 Y3.9989 I4.2287 J4.2414
G2 Y4.0001 I2.0 J0.0012
G1 Y36.393
G2 Y36.3934 I2.0 J0.0
G2 X-0.2392 Y40.6322 I5.9857 J-0.0013
G2 X3.9991 Y42.3931 I4.2407 J-4.2262
G2 X3.9999 I0.0008 J-2.0
G1 X24.1336
G3 X25.5413 Y42.9787 I-0.0012 J1.9874
G2 X25.5481 Y42.9856 I1.4178 J-1.4106
G3 X26.134 Y44.3938 I-1.4034 J1.4099
G1 Y70.789
G2 Y70.7898 I2.0 J0.0
G1 Z-9.0
G2 X27.8951 Y75.0283 I5.9874 J-0.0026
G2 X32.1329 Y76.7889 I4.2414 J-4.2287
G2 X32.1341 I0.0012 J-2.0
G1 X71.8471
G2 X71.8476 I0.0 J-2.0
G2 X76.0864 Y75.0281 I-0.0013 J-5.9857
G2 X77.8472 Y70.7898 I-4.2262 J-4.2407
G2 Y70.789 I-2.0 J-0.0008
G1 Y17.5924
G2 X77.8403 Y17.2523 I-5.7425 J-0.0537
G2 X77.722 Y16.1129 I-9.5842 J0.4193
G2 X77.7217 Y16.1111 I-1.9734 J0.325
G2 X77.5308 Y15.1798 I-12.3273 J2.0419
G2 X77.5282 Y15.1694 I-1.9426 J0.4759
G2 X76.3946 Y12.1396 I-13.9859 J3.5058
G2 X76.2015 Y11.7727 I-10.9773 J5.5444
G2 X76.1973 Y11.7651 I-1.7538 J0.9613
G1 X76.1232 Y11.6312
G2 X76.117 Y11.6201 I-1.7496 J0.9689
G2 X75.3856 Y10.4699 I-10.96 J6.1613
G2 X74.4407 Y9.347 I-7.4405 J5.3025
G2 X74.433 Y9.3393 I-1.4219 J1.4065
G1 X66.5155 Y1.4218
G2 X66.2701 Y1.1861 I-4.066 J3.9882
G2 X65.3797 Y0.4633 I-6.4348 J7.0169
G1 X65.3796 Y0.4632
G1 X65.3798 Y0.4633
G1 X65.3797
G2 X64.5847 Y-0.0612 I-7.2036 J10.0543
G2 X64.5769 Y-0.0659 I-1.0363 J1.7106
G2 X61.6298 Y-1.4078 I-7.3951 J12.3336
G2 X60.0412 Y-1.8206 I-4.1493 J12.7068
G2 X58.2829 Y-1.9999 I-1.8429 J9.359
G2 X58.2652 Y-2.0 I-0.0177 J1.9999
G1 X3.9999
G2 X3.9991 I0.0 J2.0
G2 X-0.2394 Y-0.2389 I0.0026 J5.9874
G2 X-2.0 Y3.9989 I4.2287 J4.2414
G2 Y4.0001 I2.0 J0.0012
G1 Y36.393
G2 Y36.3934 I2.0 J0.0
G2 X-0.2392 Y40.6322 I5.9857 J-0.0013
G2 X3.9991 Y42.3931 I4.2407 J-4.2262
G2 X3.9999 I0.0008 J-2.0
G1 X24.1336
G3 X25.5413 Y42.9787 I-0.0012 J1.9874
G2 X25.5481 Y42.9856 I1.4178 J-1.4106
G3 X26.134 Y44.3938 I-1.4034 J1.4099
G1 Y70.789
G2 Y70.7898 I2.0 J0.0
G1 Z-10.0
G2 X27.8951 Y75.0283 I5.9874 J-0.0026
G2 X32.1329 Y76.7889 I4.2414 J-4.2287
G2 X32.1341 I0.0012 J-2.0
G1 X71.8471
G2 X71.8476 I0.0 J-2.0
G2 X76.0864 Y75.0281 I-0.0013 J-5.9857
G2 X77.8472 Y70.7898 I-4.2262 J-4.2407
G2 Y70.789 I-2.0 J-0.0008
G1 Y17.5924
G2 X77.8403 Y17.2523 I-5.7425 J-0.0537
G2 X77.722 Y16.1129 I-9.5842 J0.4193
G2 X77.7217 Y16.1111 I-1.9734 J0.325
G2 X77.5308 Y15.1798 I-12.3273 J2.0419
G2 X77.5282 Y15.1694 I-1.9426 J0.4759
G2 X76.3946 Y12.1396 I-13.9859 J3.5058
G2 X76.2015 Y11.7727 I-10.9773 J5.5444
G2 X76.1973 Y11.7651 I-1.7538 J0.9613
G1 X76.1232 Y11.6312
G2 X76.117 Y11.6201 I-1.7496 J0.9689
G2 X75.3856 Y10.4699 I-10.96 J6.1613
G2 X74.4407 Y9.347 I-7.4405 J5.3025
G2 X74.433 Y9.3393 I-1.4219 J1.4065
G1 X66.5155 Y1.4218
G2 X66.2701 Y1.1861 I-4.066 J3.9882
G2 X65.3797 Y0.4633 I-6.4348 J7.0169
G1 X65.3796 Y0.4632
G1 X65.3798 Y0.4633
G1 X65.3797
G2 X64.5847 Y-0.0612 I-7.2036 J10.0543
G2 X64.5769 Y-0.0659 I-1.0363 J1.7106
G2 X61.6298 Y-1.4078 I-7.3951 J12.3336
G2 X60.0412 Y-1.8206 I-4.1493 J12.7068
G2 X58.2829 Y-1.9999 I-1.8429 J9.359
G2 X58.2652 Y-2.0 I-0.0177 J1.9999
G1 X3.9999
G2 X3.9991 I0.0 J2.0
G2 X-0.2394 Y-0.2389 I0.0026 J5.9874
G2 X-2.0 Y3.9989 I4.2287 J4.2414
G2 Y4.0001 I2.0 J0.0012
G1 Y36.393
G2 Y36.3934 I2.0 J0.0
G2 X-0.2392 Y40.6322 I5.9857 J-0.0013
G2 X3.9991 Y42.3931 I4.2407 J-4.2262
G2 X3.9999 I0.0008 J-2.0
G1 X24.1336
G3 X25.5413 Y42.9787 I-0.0012 J1.9874
G2 X25.5481 Y42.9856 I1.4178 J-1.4106
G3 X26.134 Y44.3938 I-1.4034 J1.4099
G1 Y70.789
G2 Y70.7898 I2.0 J0.0
G1 Z-11.0
G2 X27.8951 Y75.0283 I5.9874 J-0.0026
G2 X32.1329 Y76.7889 I4.2414 J-4.2287
G2 X32.1341 I0.0012 J-2.0
G1 X71.8471
G2 X71.8476 I0.0 J-2.0
G2 X76.0864 Y75.0281 I-0.0013 J-5.9857
G2 X77.8472 Y70.7898 I-4.2262 J-4.2407
G2 Y70.789 I-2.0 J-0.0008
G1 Y17.5924
G2 X77.8403 Y17.2523 I-5.7425 J-0.0537
G2 X77.722 Y16.1129 I-9.5842 J0.4193
G2 X77.7217 Y16.1111 I-1.9734 J0.325
G2 X77.5308 Y15.1798 I-12.3273 J2.0419
G2 X77.5282 Y15.1694 I-1.9426 J0.4759
G2 X76.3946 Y12.1396 I-13.9859 J3.5058
G2 X76.2015 Y11.7727 I-10.9773 J5.5444
G2 X76.1973 Y11.7651 I-1.7538 J0.9613
G1 X76.1232 Y11.6312
G2 X76.117 Y11.6201 I-1.7496 J0.9689
G2 X75.3856 Y10.4699 I-10.96 J6.1613
G2 X74.4407 Y9.347 I-7.4405 J5.3025
G2 X74.433 Y9.3393 I-1.4219 J1.4065
G1 X66.5155 Y1.4218
G2 X66.2701 Y1.1861 I-4.066 J3.9882
G2 X65.3797 Y0.4633 I-6.4348 J7.0169
G1 X65.3796 Y0.4632
G1 X65.3798 Y0.4633
G1 X65.3797
G2 X64.5847 Y-0.0612 I-7.2036 J10.0543
G2 X64.5769 Y-0.0659 I-1.0363 J1.7106
G2 X61.6298 Y-1.4078 I-7.3951 J12.3336
G2 X60.0412 Y-1.8206 I-4.1493 J12.7068
G2 X58.2829 Y-1.9999 I-1.8429 J9.359
G2 X58.2652 Y-2.0 I-0.0177 J1.9999
G1 X3.9999
G2 X3.9991 I0.0 J2.0
G2 X-0.2394 Y-0.2389 I0.0026 J5.9874
G2 X-2.0 Y3.9989 I4.2287 J4.2414
G2 Y4.0001 I2.0 J0.0012
G1 Y36.393
G2 Y36.3934 I2.0 J0.0
G2 X-0.2392 Y40.6322 I5.9857 J-0.0013
G2 X3.9991 Y42.3931 I4.2407 J-4.2262
G2 X3.9999 I0.0008 J-2.0
G1 X24.1336
G3 X25.5413 Y42.9787 I-0.0012 J1.9874
G2 X25.5481 Y42.9856 I1.4178 J-1.4106
G3 X26.134 Y44.3938 I-1.4034 J1.4099
G1 Y70.789
G2 Y70.7898 I2.0 J0.0
G0 Z3.0
M5
M30
