( Made using CamBam - http://www.cambam.co.uk )
( x stepper mount 12/24/2012 1:44:54 PM )
( T6 : 6.0 )
G21 G90 G64 G40
G0 Z3.0
( T6 : 6.0 )
T6 M6
( Pocket1 6mm )
G17
M3 S1000
G0 X49.7772 Y50.9088
G1 F50.0 Z-1.0
G2 X50.0726 Y51.8831 I1.7453 J0.0028
G3 X50.0743 Y51.8856 I-8.4738 J5.6775
G2 X50.8935 Y52.5611 I1.5365 J-1.0288
G2 X51.5645 Y52.6926 I0.6689 J-1.6353
G3 X51.5885 I0.0127 J10.2
G2 X52.2622 Y52.5605 I0.002 J-1.7737
G2 X52.8493 Y52.166 I-0.7117 J-1.693
G3 X52.8597 Y52.1555 I7.2132 J7.2118
G2 X53.3772 Y50.9063 I-1.2434 J-1.2468
G3 Y50.8769 I10.2 J-0.0137
G2 X53.2461 Y50.2101 I-1.7473 J-0.0027
G2 X52.8499 Y49.62 I-1.6985 J0.7122
G3 X52.8399 Y49.61 I7.2125 J-7.2125
G2 X51.5911 Y49.0927 I-1.2465 J1.243
G3 X51.5639 I-0.0138 J-10.2
G2 X50.8909 Y49.2253 I-0.0023 J1.7632
G2 X50.308 Y49.6163 I0.6984 J1.671
G3 X50.2952 Y49.629 I-7.216 J-7.2089
G2 X49.7772 Y50.8796 I1.2451 J1.2483
G3 Y50.9088 I-10.2 J0.0131
G1 X47.3772 Y50.905
G2 X48.0788 Y53.219 I4.1453 J0.0066
G3 X48.0801 Y53.2209 I-6.48 J4.3416
G2 X49.9736 Y54.7779 I3.5307 J-2.3641
G2 X51.5675 Y55.0926 I1.5887 J-3.852
G3 X51.5858 I0.0097 J7.8
G2 X53.1818 Y54.7773 I0.0046 J-4.1737
G2 X54.5465 Y53.8629 I-1.6313 J-3.9099
G3 X54.5545 Y53.8549 I5.5159 J5.5149
G2 X55.7772 Y50.9031 I-2.9382 J-2.9462
G3 Y50.8806 I7.8 J-0.0104
G2 X55.4627 Y49.29 I-4.1473 J-0.0064
G2 X54.547 Y47.923 I-3.9151 J1.6324
G3 X54.5393 Y47.9153 I5.5154 J-5.5154
G2 X51.5878 Y46.6927 I-2.9459 J2.9377
G3 X51.5671 I-0.0106 J-7.8
G2 X49.9716 Y47.0083 I-0.0054 J4.1632
G2 X48.6101 Y47.9201 I1.6177 J3.888
G3 X48.6003 Y47.9298 I-5.5181 J-5.5127
G2 X47.3773 Y50.8827 I2.94 J2.9475
G3 X47.3772 Y50.905 I-7.8 J0.01
G1 X44.9773 Y50.9012
G2 X46.0849 Y54.5548 I6.5453 J0.0104
G3 X46.0858 Y54.5562 I-4.4862 J3.0057
G2 X49.0537 Y56.9946 I5.525 J-3.6993
G2 X51.5705 Y57.4926 I2.5087 J-6.0687
G3 X51.5832 I0.0067 J5.4
G2 X54.1014 Y56.9942 I0.0073 J-6.5737
G2 X56.2437 Y55.5598 I-2.5509 J-6.1267
G3 X56.2492 Y55.5542 I3.8187 J3.818
G2 X58.1772 Y50.8999 I-4.6329 J-4.6455
G3 Y50.8843 I5.4 J-0.0072
G2 X57.6793 Y48.3698 I-6.5473 J-0.0101
G2 X56.244 Y46.2259 I-6.1317 J2.5526
G3 X56.2387 Y46.2206 I3.8184 J-3.8184
G2 X51.5845 Y44.2927 I-4.6453 J4.6324
G3 X51.5702 I-0.0073 J-5.4
G2 X49.0522 Y44.7914 I-0.0086 J6.5632
G2 X46.9122 Y46.2238 I2.537 J6.105
G3 X46.9055 Y46.2306 I-3.8203 J-3.8165
G2 X44.9773 Y50.8857 I4.6349 J4.6467
G3 Y50.9012 I-5.4 J0.0069
G1 X42.5773 Y50.8974
G2 X44.0911 Y55.8907 I8.9453 J0.0142
G3 X44.0916 Y55.8915 I-2.4923 J1.6699
G2 X48.1337 Y59.2113 I7.5192 J-5.0346
G2 X51.5735 Y59.8926 I3.4286 J-8.2854
G3 X51.5805 I0.0037 J3.0
G2 X55.0211 Y59.211 I0.0099 J-8.9737
G2 X57.9409 Y57.2567 I-3.4706 J-8.3435
G3 X57.944 Y57.2536 I2.1215 J2.1211
G2 X60.5772 Y50.8967 I-6.3277 J-6.3449
G3 Y50.888 I3.0 J-0.004
G2 X59.8959 Y47.4496 I-8.9473 J-0.0138
G2 X57.9411 Y44.5289 I-8.3483 J3.4728
G3 X57.9382 Y44.5259 I2.1213 J-2.1213
G2 X51.5813 Y41.8927 I-6.3447 J6.3271
G3 X51.5733 I-0.0041 J-3.0
G2 X48.1329 Y42.5744 I-0.0117 J8.9632
G2 X45.2143 Y44.5276 I3.4563 J8.3219
G3 X45.2106 Y44.5314 I-2.1224 J-2.1203
G2 X42.5773 Y50.8888 I6.3298 J6.3459
G3 Y50.8974 I-3.0 J0.0039
G0 Z3.0
G0 X49.7772 Y50.9088
G1 Z-2.0
G2 X50.0726 Y51.8831 I1.7453 J0.0028
G3 X50.0743 Y51.8856 I-8.4738 J5.6775
G2 X50.8935 Y52.5611 I1.5365 J-1.0288
G2 X51.5645 Y52.6926 I0.6689 J-1.6353
G3 X51.5885 I0.0127 J10.2
G2 X52.2622 Y52.5605 I0.002 J-1.7737
G2 X52.8493 Y52.166 I-0.7117 J-1.693
G3 X52.8597 Y52.1555 I7.2132 J7.2118
G2 X53.3772 Y50.9063 I-1.2434 J-1.2468
G3 Y50.8769 I10.2 J-0.0137
G2 X53.2461 Y50.2101 I-1.7473 J-0.0027
G2 X52.8499 Y49.62 I-1.6985 J0.7122
G3 X52.8399 Y49.61 I7.2125 J-7.2125
G2 X51.5911 Y49.0927 I-1.2465 J1.243
G3 X51.5639 I-0.0138 J-10.2
G2 X50.8909 Y49.2253 I-0.0023 J1.7632
G2 X50.308 Y49.6163 I0.6984 J1.671
G3 X50.2952 Y49.629 I-7.216 J-7.2089
G2 X49.7772 Y50.8796 I1.2451 J1.2483
G3 Y50.9088 I-10.2 J0.0131
G1 X47.3772 Y50.905
G2 X48.0788 Y53.219 I4.1453 J0.0066
G3 X48.0801 Y53.2209 I-6.48 J4.3416
G2 X49.9736 Y54.7779 I3.5307 J-2.3641
G2 X51.5675 Y55.0926 I1.5887 J-3.852
G3 X51.5858 I0.0097 J7.8
G2 X53.1818 Y54.7773 I0.0046 J-4.1737
G2 X54.5465 Y53.8629 I-1.6313 J-3.9099
G3 X54.5545 Y53.8549 I5.5159 J5.5149
G2 X55.7772 Y50.9031 I-2.9382 J-2.9462
G3 Y50.8806 I7.8 J-0.0104
G2 X55.4627 Y49.29 I-4.1473 J-0.0064
G2 X54.547 Y47.923 I-3.9151 J1.6324
G3 X54.5393 Y47.9153 I5.5154 J-5.5154
G2 X51.5878 Y46.6927 I-2.9459 J2.9377
G3 X51.5671 I-0.0106 J-7.8
G2 X49.9716 Y47.0083 I-0.0054 J4.1632
G2 X48.6101 Y47.9201 I1.6177 J3.888
G3 X48.6003 Y47.9298 I-5.5181 J-5.5127
G2 X47.3773 Y50.8827 I2.94 J2.9475
G3 X47.3772 Y50.905 I-7.8 J0.01
G1 X44.9773 Y50.9012
G2 X46.0849 Y54.5548 I6.5453 J0.0104
G3 X46.0858 Y54.5562 I-4.4862 J3.0057
G2 X49.0537 Y56.9946 I5.525 J-3.6993
G2 X51.5705 Y57.4926 I2.5087 J-6.0687
G3 X51.5832 I0.0067 J5.4
G2 X54.1014 Y56.9942 I0.0073 J-6.5737
G2 X56.2437 Y55.5598 I-2.5509 J-6.1267
G3 X56.2492 Y55.5542 I3.8187 J3.818
G2 X58.1772 Y50.8999 I-4.6329 J-4.6455
G3 Y50.8843 I5.4 J-0.0072
G2 X57.6793 Y48.3698 I-6.5473 J-0.0101
G2 X56.244 Y46.2259 I-6.1317 J2.5526
G3 X56.2387 Y46.2206 I3.8184 J-3.8184
G2 X51.5845 Y44.2927 I-4.6453 J4.6324
G3 X51.5702 I-0.0073 J-5.4
G2 X49.0522 Y44.7914 I-0.0086 J6.5632
G2 X46.9122 Y46.2238 I2.537 J6.105
G3 X46.9055 Y46.2306 I-3.8203 J-3.8165
G2 X44.9773 Y50.8857 I4.6349 J4.6467
G3 Y50.9012 I-5.4 J0.0069
G1 X42.5773 Y50.8974
G2 X44.0911 Y55.8907 I8.9453 J0.0142
G3 X44.0916 Y55.8915 I-2.4923 J1.6699
G2 X48.1337 Y59.2113 I7.5192 J-5.0346
G2 X51.5735 Y59.8926 I3.4286 J-8.2854
G3 X51.5805 I0.0037 J3.0
G2 X55.0211 Y59.211 I0.0099 J-8.9737
G2 X57.9409 Y57.2567 I-3.4706 J-8.3435
G3 X57.944 Y57.2536 I2.1215 J2.1211
G2 X60.5772 Y50.8967 I-6.3277 J-6.3449
G3 Y50.888 I3.0 J-0.004
G2 X59.8959 Y47.4496 I-8.9473 J-0.0138
G2 X57.9411 Y44.5289 I-8.3483 J3.4728
G3 X57.9382 Y44.5259 I2.1213 J-2.1213
G2 X51.5813 Y41.8927 I-6.3447 J6.3271
G3 X51.5733 I-0.0041 J-3.0
G2 X48.1329 Y42.5744 I-0.0117 J8.9632
G2 X45.2143 Y44.5276 I3.4563 J8.3219
G3 X45.2106 Y44.5314 I-2.1224 J-2.1203
G2 X42.5773 Y50.8888 I6.3298 J6.3459
G3 Y50.8974 I-3.0 J0.0039
G0 Z3.0
G0 X49.7772 Y50.9088
G1 Z-3.0
G2 X50.0726 Y51.8831 I1.7453 J0.0028
G3 X50.0743 Y51.8856 I-8.4738 J5.6775
G2 X50.8935 Y52.5611 I1.5365 J-1.0288
G2 X51.5645 Y52.6926 I0.6689 J-1.6353
G3 X51.5885 I0.0127 J10.2
G2 X52.2622 Y52.5605 I0.002 J-1.7737
G2 X52.8493 Y52.166 I-0.7117 J-1.693
G3 X52.8597 Y52.1555 I7.2132 J7.2118
G2 X53.3772 Y50.9063 I-1.2434 J-1.2468
G3 Y50.8769 I10.2 J-0.0137
G2 X53.2461 Y50.2101 I-1.7473 J-0.0027
G2 X52.8499 Y49.62 I-1.6985 J0.7122
G3 X52.8399 Y49.61 I7.2125 J-7.2125
G2 X51.5911 Y49.0927 I-1.2465 J1.243
G3 X51.5639 I-0.0138 J-10.2
G2 X50.8909 Y49.2253 I-0.0023 J1.7632
G2 X50.308 Y49.6163 I0.6984 J1.671
G3 X50.2952 Y49.629 I-7.216 J-7.2089
G2 X49.7772 Y50.8796 I1.2451 J1.2483
G3 Y50.9088 I-10.2 J0.0131
G1 X47.3772 Y50.905
G2 X48.0788 Y53.219 I4.1453 J0.0066
G3 X48.0801 Y53.2209 I-6.48 J4.3416
G2 X49.9736 Y54.7779 I3.5307 J-2.3641
G2 X51.5675 Y55.0926 I1.5887 J-3.852
G3 X51.5858 I0.0097 J7.8
G2 X53.1818 Y54.7773 I0.0046 J-4.1737
G2 X54.5465 Y53.8629 I-1.6313 J-3.9099
G3 X54.5545 Y53.8549 I5.5159 J5.5149
G2 X55.7772 Y50.9031 I-2.9382 J-2.9462
G3 Y50.8806 I7.8 J-0.0104
G2 X55.4627 Y49.29 I-4.1473 J-0.0064
G2 X54.547 Y47.923 I-3.9151 J1.6324
G3 X54.5393 Y47.9153 I5.5154 J-5.5154
G2 X51.5878 Y46.6927 I-2.9459 J2.9377
G3 X51.5671 I-0.0106 J-7.8
G2 X49.9716 Y47.0083 I-0.0054 J4.1632
G2 X48.6101 Y47.9201 I1.6177 J3.888
G3 X48.6003 Y47.9298 I-5.5181 J-5.5127
G2 X47.3773 Y50.8827 I2.94 J2.9475
G3 X47.3772 Y50.905 I-7.8 J0.01
G1 X44.9773 Y50.9012
G2 X46.0849 Y54.5548 I6.5453 J0.0104
G3 X46.0858 Y54.5562 I-4.4862 J3.0057
G2 X49.0537 Y56.9946 I5.525 J-3.6993
G2 X51.5705 Y57.4926 I2.5087 J-6.0687
G3 X51.5832 I0.0067 J5.4
G2 X54.1014 Y56.9942 I0.0073 J-6.5737
G2 X56.2437 Y55.5598 I-2.5509 J-6.1267
G3 X56.2492 Y55.5542 I3.8187 J3.818
G2 X58.1772 Y50.8999 I-4.6329 J-4.6455
G3 Y50.8843 I5.4 J-0.0072
G2 X57.6793 Y48.3698 I-6.5473 J-0.0101
G2 X56.244 Y46.2259 I-6.1317 J2.5526
G3 X56.2387 Y46.2206 I3.8184 J-3.8184
G2 X51.5845 Y44.2927 I-4.6453 J4.6324
G3 X51.5702 I-0.0073 J-5.4
G2 X49.0522 Y44.7914 I-0.0086 J6.5632
G2 X46.9122 Y46.2238 I2.537 J6.105
G3 X46.9055 Y46.2306 I-3.8203 J-3.8165
G2 X44.9773 Y50.8857 I4.6349 J4.6467
G3 Y50.9012 I-5.4 J0.0069
G1 X42.5773 Y50.8974
G2 X44.0911 Y55.8907 I8.9453 J0.0142
G3 X44.0916 Y55.8915 I-2.4923 J1.6699
G2 X48.1337 Y59.2113 I7.5192 J-5.0346
G2 X51.5735 Y59.8926 I3.4286 J-8.2854
G3 X51.5805 I0.0037 J3.0
G2 X55.0211 Y59.211 I0.0099 J-8.9737
G2 X57.9409 Y57.2567 I-3.4706 J-8.3435
G3 X57.944 Y57.2536 I2.1215 J2.1211
G2 X60.5772 Y50.8967 I-6.3277 J-6.3449
G3 Y50.888 I3.0 J-0.004
G2 X59.8959 Y47.4496 I-8.9473 J-0.0138
G2 X57.9411 Y44.5289 I-8.3483 J3.4728
G3 X57.9382 Y44.5259 I2.1213 J-2.1213
G2 X51.5813 Y41.8927 I-6.3447 J6.3271
G3 X51.5733 I-0.0041 J-3.0
G2 X48.1329 Y42.5744 I-0.0117 J8.9632
G2 X45.2143 Y44.5276 I3.4563 J8.3219
G3 X45.2106 Y44.5314 I-2.1224 J-2.1203
G2 X42.5773 Y50.8888 I6.3298 J6.3459
G3 Y50.8974 I-3.0 J0.0039
G0 Z3.0
G0 X49.7772 Y50.9088
G1 Z-4.0
G2 X50.0726 Y51.8831 I1.7453 J0.0028
G3 X50.0743 Y51.8856 I-8.4738 J5.6775
G2 X50.8935 Y52.5611 I1.5365 J-1.0288
G2 X51.5645 Y52.6926 I0.6689 J-1.6353
G3 X51.5885 I0.0127 J10.2
G2 X52.2622 Y52.5605 I0.002 J-1.7737
G2 X52.8493 Y52.166 I-0.7117 J-1.693
G3 X52.8597 Y52.1555 I7.2132 J7.2118
G2 X53.3772 Y50.9063 I-1.2434 J-1.2468
G3 Y50.8769 I10.2 J-0.0137
G2 X53.2461 Y50.2101 I-1.7473 J-0.0027
G2 X52.8499 Y49.62 I-1.6985 J0.7122
G3 X52.8399 Y49.61 I7.2125 J-7.2125
G2 X51.5911 Y49.0927 I-1.2465 J1.243
G3 X51.5639 I-0.0138 J-10.2
G2 X50.8909 Y49.2253 I-0.0023 J1.7632
G2 X50.308 Y49.6163 I0.6984 J1.671
G3 X50.2952 Y49.629 I-7.216 J-7.2089
G2 X49.7772 Y50.8796 I1.2451 J1.2483
G3 Y50.9088 I-10.2 J0.0131
G1 X47.3772 Y50.905
G2 X48.0788 Y53.219 I4.1453 J0.0066
G3 X48.0801 Y53.2209 I-6.48 J4.3416
G2 X49.9736 Y54.7779 I3.5307 J-2.3641
G2 X51.5675 Y55.0926 I1.5887 J-3.852
G3 X51.5858 I0.0097 J7.8
G2 X53.1818 Y54.7773 I0.0046 J-4.1737
G2 X54.5465 Y53.8629 I-1.6313 J-3.9099
G3 X54.5545 Y53.8549 I5.5159 J5.5149
G2 X55.7772 Y50.9031 I-2.9382 J-2.9462
G3 Y50.8806 I7.8 J-0.0104
G2 X55.4627 Y49.29 I-4.1473 J-0.0064
G2 X54.547 Y47.923 I-3.9151 J1.6324
G3 X54.5393 Y47.9153 I5.5154 J-5.5154
G2 X51.5878 Y46.6927 I-2.9459 J2.9377
G3 X51.5671 I-0.0106 J-7.8
G2 X49.9716 Y47.0083 I-0.0054 J4.1632
G2 X48.6101 Y47.9201 I1.6177 J3.888
G3 X48.6003 Y47.9298 I-5.5181 J-5.5127
G2 X47.3773 Y50.8827 I2.94 J2.9475
G3 X47.3772 Y50.905 I-7.8 J0.01
G1 X44.9773 Y50.9012
G2 X46.0849 Y54.5548 I6.5453 J0.0104
G3 X46.0858 Y54.5562 I-4.4862 J3.0057
G2 X49.0537 Y56.9946 I5.525 J-3.6993
G2 X51.5705 Y57.4926 I2.5087 J-6.0687
G3 X51.5832 I0.0067 J5.4
G2 X54.1014 Y56.9942 I0.0073 J-6.5737
G2 X56.2437 Y55.5598 I-2.5509 J-6.1267
G3 X56.2492 Y55.5542 I3.8187 J3.818
G2 X58.1772 Y50.8999 I-4.6329 J-4.6455
G3 Y50.8843 I5.4 J-0.0072
G2 X57.6793 Y48.3698 I-6.5473 J-0.0101
G2 X56.244 Y46.2259 I-6.1317 J2.5526
G3 X56.2387 Y46.2206 I3.8184 J-3.8184
G2 X51.5845 Y44.2927 I-4.6453 J4.6324
G3 X51.5702 I-0.0073 J-5.4
G2 X49.0522 Y44.7914 I-0.0086 J6.5632
G2 X46.9122 Y46.2238 I2.537 J6.105
G3 X46.9055 Y46.2306 I-3.8203 J-3.8165
G2 X44.9773 Y50.8857 I4.6349 J4.6467
G3 Y50.9012 I-5.4 J0.0069
G1 X42.5773 Y50.8974
G2 X44.0911 Y55.8907 I8.9453 J0.0142
G3 X44.0916 Y55.8915 I-2.4923 J1.6699
G2 X48.1337 Y59.2113 I7.5192 J-5.0346
G2 X51.5735 Y59.8926 I3.4286 J-8.2854
G3 X51.5805 I0.0037 J3.0
G2 X55.0211 Y59.211 I0.0099 J-8.9737
G2 X57.9409 Y57.2567 I-3.4706 J-8.3435
G3 X57.944 Y57.2536 I2.1215 J2.1211
G2 X60.5772 Y50.8967 I-6.3277 J-6.3449
G3 Y50.888 I3.0 J-0.004
G2 X59.8959 Y47.4496 I-8.9473 J-0.0138
G2 X57.9411 Y44.5289 I-8.3483 J3.4728
G3 X57.9382 Y44.5259 I2.1213 J-2.1213
G2 X51.5813 Y41.8927 I-6.3447 J6.3271
G3 X51.5733 I-0.0041 J-3.0
G2 X48.1329 Y42.5744 I-0.0117 J8.9632
G2 X45.2143 Y44.5276 I3.4563 J8.3219
G3 X45.2106 Y44.5314 I-2.1224 J-2.1203
G2 X42.5773 Y50.8888 I6.3298 J6.3459
G3 Y50.8974 I-3.0 J0.0039
G0 Z3.0
G0 X49.7772 Y50.9088
G1 Z-5.0
G2 X50.0726 Y51.8831 I1.7453 J0.0028
G3 X50.0743 Y51.8856 I-8.4738 J5.6775
G2 X50.8935 Y52.5611 I1.5365 J-1.0288
G2 X51.5645 Y52.6926 I0.6689 J-1.6353
G3 X51.5885 I0.0127 J10.2
G2 X52.2622 Y52.5605 I0.002 J-1.7737
G2 X52.8493 Y52.166 I-0.7117 J-1.693
G3 X52.8597 Y52.1555 I7.2132 J7.2118
G2 X53.3772 Y50.9063 I-1.2434 J-1.2468
G3 Y50.8769 I10.2 J-0.0137
G2 X53.2461 Y50.2101 I-1.7473 J-0.0027
G2 X52.8499 Y49.62 I-1.6985 J0.7122
G3 X52.8399 Y49.61 I7.2125 J-7.2125
G2 X51.5911 Y49.0927 I-1.2465 J1.243
G3 X51.5639 I-0.0138 J-10.2
G2 X50.8909 Y49.2253 I-0.0023 J1.7632
G2 X50.308 Y49.6163 I0.6984 J1.671
G3 X50.2952 Y49.629 I-7.216 J-7.2089
G2 X49.7772 Y50.8796 I1.2451 J1.2483
G3 Y50.9088 I-10.2 J0.0131
G1 X47.3772 Y50.905
G2 X48.0788 Y53.219 I4.1453 J0.0066
G3 X48.0801 Y53.2209 I-6.48 J4.3416
G2 X49.9736 Y54.7779 I3.5307 J-2.3641
G2 X51.5675 Y55.0926 I1.5887 J-3.852
G3 X51.5858 I0.0097 J7.8
G2 X53.1818 Y54.7773 I0.0046 J-4.1737
G2 X54.5465 Y53.8629 I-1.6313 J-3.9099
G3 X54.5545 Y53.8549 I5.5159 J5.5149
G2 X55.7772 Y50.9031 I-2.9382 J-2.9462
G3 Y50.8806 I7.8 J-0.0104
G2 X55.4627 Y49.29 I-4.1473 J-0.0064
G2 X54.547 Y47.923 I-3.9151 J1.6324
G3 X54.5393 Y47.9153 I5.5154 J-5.5154
G2 X51.5878 Y46.6927 I-2.9459 J2.9377
G3 X51.5671 I-0.0106 J-7.8
G2 X49.9716 Y47.0083 I-0.0054 J4.1632
G2 X48.6101 Y47.9201 I1.6177 J3.888
G3 X48.6003 Y47.9298 I-5.5181 J-5.5127
G2 X47.3773 Y50.8827 I2.94 J2.9475
G3 X47.3772 Y50.905 I-7.8 J0.01
G1 X44.9773 Y50.9012
G2 X46.0849 Y54.5548 I6.5453 J0.0104
G3 X46.0858 Y54.5562 I-4.4862 J3.0057
G2 X49.0537 Y56.9946 I5.525 J-3.6993
G2 X51.5705 Y57.4926 I2.5087 J-6.0687
G3 X51.5832 I0.0067 J5.4
G2 X54.1014 Y56.9942 I0.0073 J-6.5737
G2 X56.2437 Y55.5598 I-2.5509 J-6.1267
G3 X56.2492 Y55.5542 I3.8187 J3.818
G2 X58.1772 Y50.8999 I-4.6329 J-4.6455
G3 Y50.8843 I5.4 J-0.0072
G2 X57.6793 Y48.3698 I-6.5473 J-0.0101
G2 X56.244 Y46.2259 I-6.1317 J2.5526
G3 X56.2387 Y46.2206 I3.8184 J-3.8184
G2 X51.5845 Y44.2927 I-4.6453 J4.6324
G3 X51.5702 I-0.0073 J-5.4
G2 X49.0522 Y44.7914 I-0.0086 J6.5632
G2 X46.9122 Y46.2238 I2.537 J6.105
G3 X46.9055 Y46.2306 I-3.8203 J-3.8165
G2 X44.9773 Y50.8857 I4.6349 J4.6467
G3 Y50.9012 I-5.4 J0.0069
G1 X42.5773 Y50.8974
G2 X44.0911 Y55.8907 I8.9453 J0.0142
G3 X44.0916 Y55.8915 I-2.4923 J1.6699
G2 X48.1337 Y59.2113 I7.5192 J-5.0346
G2 X51.5735 Y59.8926 I3.4286 J-8.2854
G3 X51.5805 I0.0037 J3.0
G2 X55.0211 Y59.211 I0.0099 J-8.9737
G2 X57.9409 Y57.2567 I-3.4706 J-8.3435
G3 X57.944 Y57.2536 I2.1215 J2.1211
G2 X60.5772 Y50.8967 I-6.3277 J-6.3449
G3 Y50.888 I3.0 J-0.004
G2 X59.8959 Y47.4496 I-8.9473 J-0.0138
G2 X57.9411 Y44.5289 I-8.3483 J3.4728
G3 X57.9382 Y44.5259 I2.1213 J-2.1213
G2 X51.5813 Y41.8927 I-6.3447 J6.3271
G3 X51.5733 I-0.0041 J-3.0
G2 X48.1329 Y42.5744 I-0.0117 J8.9632
G2 X45.2143 Y44.5276 I3.4563 J8.3219
G3 X45.2106 Y44.5314 I-2.1224 J-2.1203
G2 X42.5773 Y50.8888 I6.3298 J6.3459
G3 Y50.8974 I-3.0 J0.0039
G0 Z3.0
G0 X49.7772 Y50.9088
G1 Z-6.0
G2 X50.0726 Y51.8831 I1.7453 J0.0028
G3 X50.0743 Y51.8856 I-8.4738 J5.6775
G2 X50.8935 Y52.5611 I1.5365 J-1.0288
G2 X51.5645 Y52.6926 I0.6689 J-1.6353
G3 X51.5885 I0.0127 J10.2
G2 X52.2622 Y52.5605 I0.002 J-1.7737
G2 X52.8493 Y52.166 I-0.7117 J-1.693
G3 X52.8597 Y52.1555 I7.2132 J7.2118
G2 X53.3772 Y50.9063 I-1.2434 J-1.2468
G3 Y50.8769 I10.2 J-0.0137
G2 X53.2461 Y50.2101 I-1.7473 J-0.0027
G2 X52.8499 Y49.62 I-1.6985 J0.7122
G3 X52.8399 Y49.61 I7.2125 J-7.2125
G2 X51.5911 Y49.0927 I-1.2465 J1.243
G3 X51.5639 I-0.0138 J-10.2
G2 X50.8909 Y49.2253 I-0.0023 J1.7632
G2 X50.308 Y49.6163 I0.6984 J1.671
G3 X50.2952 Y49.629 I-7.216 J-7.2089
G2 X49.7772 Y50.8796 I1.2451 J1.2483
G3 Y50.9088 I-10.2 J0.0131
G1 X47.3772 Y50.905
G2 X48.0788 Y53.219 I4.1453 J0.0066
G3 X48.0801 Y53.2209 I-6.48 J4.3416
G2 X49.9736 Y54.7779 I3.5307 J-2.3641
G2 X51.5675 Y55.0926 I1.5887 J-3.852
G3 X51.5858 I0.0097 J7.8
G2 X53.1818 Y54.7773 I0.0046 J-4.1737
G2 X54.5465 Y53.8629 I-1.6313 J-3.9099
G3 X54.5545 Y53.8549 I5.5159 J5.5149
G2 X55.7772 Y50.9031 I-2.9382 J-2.9462
G3 Y50.8806 I7.8 J-0.0104
G2 X55.4627 Y49.29 I-4.1473 J-0.0064
G2 X54.547 Y47.923 I-3.9151 J1.6324
G3 X54.5393 Y47.9153 I5.5154 J-5.5154
G2 X51.5878 Y46.6927 I-2.9459 J2.9377
G3 X51.5671 I-0.0106 J-7.8
G2 X49.9716 Y47.0083 I-0.0054 J4.1632
G2 X48.6101 Y47.9201 I1.6177 J3.888
G3 X48.6003 Y47.9298 I-5.5181 J-5.5127
G2 X47.3773 Y50.8827 I2.94 J2.9475
G3 X47.3772 Y50.905 I-7.8 J0.01
G1 X44.9773 Y50.9012
G2 X46.0849 Y54.5548 I6.5453 J0.0104
G3 X46.0858 Y54.5562 I-4.4862 J3.0057
G2 X49.0537 Y56.9946 I5.525 J-3.6993
G2 X51.5705 Y57.4926 I2.5087 J-6.0687
G3 X51.5832 I0.0067 J5.4
G2 X54.1014 Y56.9942 I0.0073 J-6.5737
G2 X56.2437 Y55.5598 I-2.5509 J-6.1267
G3 X56.2492 Y55.5542 I3.8187 J3.818
G2 X58.1772 Y50.8999 I-4.6329 J-4.6455
G3 Y50.8843 I5.4 J-0.0072
G2 X57.6793 Y48.3698 I-6.5473 J-0.0101
G2 X56.244 Y46.2259 I-6.1317 J2.5526
G3 X56.2387 Y46.2206 I3.8184 J-3.8184
G2 X51.5845 Y44.2927 I-4.6453 J4.6324
G3 X51.5702 I-0.0073 J-5.4
G2 X49.0522 Y44.7914 I-0.0086 J6.5632
G2 X46.9122 Y46.2238 I2.537 J6.105
G3 X46.9055 Y46.2306 I-3.8203 J-3.8165
G2 X44.9773 Y50.8857 I4.6349 J4.6467
G3 Y50.9012 I-5.4 J0.0069
G1 X42.5773 Y50.8974
G2 X44.0911 Y55.8907 I8.9453 J0.0142
G3 X44.0916 Y55.8915 I-2.4923 J1.6699
G2 X48.1337 Y59.2113 I7.5192 J-5.0346
G2 X51.5735 Y59.8926 I3.4286 J-8.2854
G3 X51.5805 I0.0037 J3.0
G2 X55.0211 Y59.211 I0.0099 J-8.9737
G2 X57.9409 Y57.2567 I-3.4706 J-8.3435
G3 X57.944 Y57.2536 I2.1215 J2.1211
G2 X60.5772 Y50.8967 I-6.3277 J-6.3449
G3 Y50.888 I3.0 J-0.004
G2 X59.8959 Y47.4496 I-8.9473 J-0.0138
G2 X57.9411 Y44.5289 I-8.3483 J3.4728
G3 X57.9382 Y44.5259 I2.1213 J-2.1213
G2 X51.5813 Y41.8927 I-6.3447 J6.3271
G3 X51.5733 I-0.0041 J-3.0
G2 X48.1329 Y42.5744 I-0.0117 J8.9632
G2 X45.2143 Y44.5276 I3.4563 J8.3219
G3 X45.2106 Y44.5314 I-2.1224 J-2.1203
G2 X42.5773 Y50.8888 I6.3298 J6.3459
G3 Y50.8974 I-3.0 J0.0039
G0 Z3.0
G0 X49.7772 Y50.9088
G1 Z-7.0
G2 X50.0726 Y51.8831 I1.7453 J0.0028
G3 X50.0743 Y51.8856 I-8.4738 J5.6775
G2 X50.8935 Y52.5611 I1.5365 J-1.0288
G2 X51.5645 Y52.6926 I0.6689 J-1.6353
G3 X51.5885 I0.0127 J10.2
G2 X52.2622 Y52.5605 I0.002 J-1.7737
G2 X52.8493 Y52.166 I-0.7117 J-1.693
G3 X52.8597 Y52.1555 I7.2132 J7.2118
G2 X53.3772 Y50.9063 I-1.2434 J-1.2468
G3 Y50.8769 I10.2 J-0.0137
G2 X53.2461 Y50.2101 I-1.7473 J-0.0027
G2 X52.8499 Y49.62 I-1.6985 J0.7122
G3 X52.8399 Y49.61 I7.2125 J-7.2125
G2 X51.5911 Y49.0927 I-1.2465 J1.243
G3 X51.5639 I-0.0138 J-10.2
G2 X50.8909 Y49.2253 I-0.0023 J1.7632
G2 X50.308 Y49.6163 I0.6984 J1.671
G3 X50.2952 Y49.629 I-7.216 J-7.2089
G2 X49.7772 Y50.8796 I1.2451 J1.2483
G3 Y50.9088 I-10.2 J0.0131
G1 X47.3772 Y50.905
G2 X48.0788 Y53.219 I4.1453 J0.0066
G3 X48.0801 Y53.2209 I-6.48 J4.3416
G2 X49.9736 Y54.7779 I3.5307 J-2.3641
G2 X51.5675 Y55.0926 I1.5887 J-3.852
G3 X51.5858 I0.0097 J7.8
G2 X53.1818 Y54.7773 I0.0046 J-4.1737
G2 X54.5465 Y53.8629 I-1.6313 J-3.9099
G3 X54.5545 Y53.8549 I5.5159 J5.5149
G2 X55.7772 Y50.9031 I-2.9382 J-2.9462
G3 Y50.8806 I7.8 J-0.0104
G2 X55.4627 Y49.29 I-4.1473 J-0.0064
G2 X54.547 Y47.923 I-3.9151 J1.6324
G3 X54.5393 Y47.9153 I5.5154 J-5.5154
G2 X51.5878 Y46.6927 I-2.9459 J2.9377
G3 X51.5671 I-0.0106 J-7.8
G2 X49.9716 Y47.0083 I-0.0054 J4.1632
G2 X48.6101 Y47.9201 I1.6177 J3.888
G3 X48.6003 Y47.9298 I-5.5181 J-5.5127
G2 X47.3773 Y50.8827 I2.94 J2.9475
G3 X47.3772 Y50.905 I-7.8 J0.01
G1 X44.9773 Y50.9012
G2 X46.0849 Y54.5548 I6.5453 J0.0104
G3 X46.0858 Y54.5562 I-4.4862 J3.0057
G2 X49.0537 Y56.9946 I5.525 J-3.6993
G2 X51.5705 Y57.4926 I2.5087 J-6.0687
G3 X51.5832 I0.0067 J5.4
G2 X54.1014 Y56.9942 I0.0073 J-6.5737
G2 X56.2437 Y55.5598 I-2.5509 J-6.1267
G3 X56.2492 Y55.5542 I3.8187 J3.818
G2 X58.1772 Y50.8999 I-4.6329 J-4.6455
G3 Y50.8843 I5.4 J-0.0072
G2 X57.6793 Y48.3698 I-6.5473 J-0.0101
G2 X56.244 Y46.2259 I-6.1317 J2.5526
G3 X56.2387 Y46.2206 I3.8184 J-3.8184
G2 X51.5845 Y44.2927 I-4.6453 J4.6324
G3 X51.5702 I-0.0073 J-5.4
G2 X49.0522 Y44.7914 I-0.0086 J6.5632
G2 X46.9122 Y46.2238 I2.537 J6.105
G3 X46.9055 Y46.2306 I-3.8203 J-3.8165
G2 X44.9773 Y50.8857 I4.6349 J4.6467
G3 Y50.9012 I-5.4 J0.0069
G1 X42.5773 Y50.8974
G2 X44.0911 Y55.8907 I8.9453 J0.0142
G3 X44.0916 Y55.8915 I-2.4923 J1.6699
G2 X48.1337 Y59.2113 I7.5192 J-5.0346
G2 X51.5735 Y59.8926 I3.4286 J-8.2854
G3 X51.5805 I0.0037 J3.0
G2 X55.0211 Y59.211 I0.0099 J-8.9737
G2 X57.9409 Y57.2567 I-3.4706 J-8.3435
G3 X57.944 Y57.2536 I2.1215 J2.1211
G2 X60.5772 Y50.8967 I-6.3277 J-6.3449
G3 Y50.888 I3.0 J-0.004
G2 X59.8959 Y47.4496 I-8.9473 J-0.0138
G2 X57.9411 Y44.5289 I-8.3483 J3.4728
G3 X57.9382 Y44.5259 I2.1213 J-2.1213
G2 X51.5813 Y41.8927 I-6.3447 J6.3271
G3 X51.5733 I-0.0041 J-3.0
G2 X48.1329 Y42.5744 I-0.0117 J8.9632
G2 X45.2143 Y44.5276 I3.4563 J8.3219
G3 X45.2106 Y44.5314 I-2.1224 J-2.1203
G2 X42.5773 Y50.8888 I6.3298 J6.3459
G3 Y50.8974 I-3.0 J0.0039
G0 Z3.0
G0 X49.7772 Y50.9088
G1 Z-8.0
G2 X50.0726 Y51.8831 I1.7453 J0.0028
G3 X50.0743 Y51.8856 I-8.4738 J5.6775
G2 X50.8935 Y52.5611 I1.5365 J-1.0288
G2 X51.5645 Y52.6926 I0.6689 J-1.6353
G3 X51.5885 I0.0127 J10.2
G2 X52.2622 Y52.5605 I0.002 J-1.7737
G2 X52.8493 Y52.166 I-0.7117 J-1.693
G3 X52.8597 Y52.1555 I7.2132 J7.2118
G2 X53.3772 Y50.9063 I-1.2434 J-1.2468
G3 Y50.8769 I10.2 J-0.0137
G2 X53.2461 Y50.2101 I-1.7473 J-0.0027
G2 X52.8499 Y49.62 I-1.6985 J0.7122
G3 X52.8399 Y49.61 I7.2125 J-7.2125
G2 X51.5911 Y49.0927 I-1.2465 J1.243
G3 X51.5639 I-0.0138 J-10.2
G2 X50.8909 Y49.2253 I-0.0023 J1.7632
G2 X50.308 Y49.6163 I0.6984 J1.671
G3 X50.2952 Y49.629 I-7.216 J-7.2089
G2 X49.7772 Y50.8796 I1.2451 J1.2483
G3 Y50.9088 I-10.2 J0.0131
G1 X47.3772 Y50.905
G2 X48.0788 Y53.219 I4.1453 J0.0066
G3 X48.0801 Y53.2209 I-6.48 J4.3416
G2 X49.9736 Y54.7779 I3.5307 J-2.3641
G2 X51.5675 Y55.0926 I1.5887 J-3.852
G3 X51.5858 I0.0097 J7.8
G2 X53.1818 Y54.7773 I0.0046 J-4.1737
G2 X54.5465 Y53.8629 I-1.6313 J-3.9099
G3 X54.5545 Y53.8549 I5.5159 J5.5149
G2 X55.7772 Y50.9031 I-2.9382 J-2.9462
G3 Y50.8806 I7.8 J-0.0104
G2 X55.4627 Y49.29 I-4.1473 J-0.0064
G2 X54.547 Y47.923 I-3.9151 J1.6324
G3 X54.5393 Y47.9153 I5.5154 J-5.5154
G2 X51.5878 Y46.6927 I-2.9459 J2.9377
G3 X51.5671 I-0.0106 J-7.8
G2 X49.9716 Y47.0083 I-0.0054 J4.1632
G2 X48.6101 Y47.9201 I1.6177 J3.888
G3 X48.6003 Y47.9298 I-5.5181 J-5.5127
G2 X47.3773 Y50.8827 I2.94 J2.9475
G3 X47.3772 Y50.905 I-7.8 J0.01
G1 X44.9773 Y50.9012
G2 X46.0849 Y54.5548 I6.5453 J0.0104
G3 X46.0858 Y54.5562 I-4.4862 J3.0057
G2 X49.0537 Y56.9946 I5.525 J-3.6993
G2 X51.5705 Y57.4926 I2.5087 J-6.0687
G3 X51.5832 I0.0067 J5.4
G2 X54.1014 Y56.9942 I0.0073 J-6.5737
G2 X56.2437 Y55.5598 I-2.5509 J-6.1267
G3 X56.2492 Y55.5542 I3.8187 J3.818
G2 X58.1772 Y50.8999 I-4.6329 J-4.6455
G3 Y50.8843 I5.4 J-0.0072
G2 X57.6793 Y48.3698 I-6.5473 J-0.0101
G2 X56.244 Y46.2259 I-6.1317 J2.5526
G3 X56.2387 Y46.2206 I3.8184 J-3.8184
G2 X51.5845 Y44.2927 I-4.6453 J4.6324
G3 X51.5702 I-0.0073 J-5.4
G2 X49.0522 Y44.7914 I-0.0086 J6.5632
G2 X46.9122 Y46.2238 I2.537 J6.105
G3 X46.9055 Y46.2306 I-3.8203 J-3.8165
G2 X44.9773 Y50.8857 I4.6349 J4.6467
G3 Y50.9012 I-5.4 J0.0069
G1 X42.5773 Y50.8974
G2 X44.0911 Y55.8907 I8.9453 J0.0142
G3 X44.0916 Y55.8915 I-2.4923 J1.6699
G2 X48.1337 Y59.2113 I7.5192 J-5.0346
G2 X51.5735 Y59.8926 I3.4286 J-8.2854
G3 X51.5805 I0.0037 J3.0
G2 X55.0211 Y59.211 I0.0099 J-8.9737
G2 X57.9409 Y57.2567 I-3.4706 J-8.3435
G3 X57.944 Y57.2536 I2.1215 J2.1211
G2 X60.5772 Y50.8967 I-6.3277 J-6.3449
G3 Y50.888 I3.0 J-0.004
G2 X59.8959 Y47.4496 I-8.9473 J-0.0138
G2 X57.9411 Y44.5289 I-8.3483 J3.4728
G3 X57.9382 Y44.5259 I2.1213 J-2.1213
G2 X51.5813 Y41.8927 I-6.3447 J6.3271
G3 X51.5733 I-0.0041 J-3.0
G2 X48.1329 Y42.5744 I-0.0117 J8.9632
G2 X45.2143 Y44.5276 I3.4563 J8.3219
G3 X45.2106 Y44.5314 I-2.1224 J-2.1203
G2 X42.5773 Y50.8888 I6.3298 J6.3459
G3 Y50.8974 I-3.0 J0.0039
( Pocket2 6mm )
S1000
G0 Z3.0
G0 X49.527 Y48.5493
G1 Z-1.0
G1 Y53.2357
G1 X53.9271
G1 Y48.5493
G1 X49.527
G1 Y46.1493
G1 X47.127
G1 Y55.6357
G1 X56.3271
G1 Y46.1493
G1 X49.527
G1 Y43.7493
G1 X44.727
G1 Y58.0357
G1 X58.7271
G1 Y43.7493
G1 X49.527
G1 Y41.3493
G1 X42.327
G1 Y60.4357
G1 X61.1271
G1 Y41.3493
G1 X49.527
G1 Y38.9493
G1 X39.927
G1 Y62.8357
G1 X63.5271
G1 Y38.9493
G1 X49.527
G1 Y36.5493
G1 X37.527
G1 Y65.2357
G1 X65.9271
G1 Y36.5493
G1 X49.527
G1 Y34.1493
G1 X35.127
G1 Y67.6357
G1 X68.3271
G1 Y34.1493
G1 X49.527
G1 Y31.7493
G1 X34.1516
G3 X34.149 I0.0 J-3.0
G2 X33.1548 Y32.1653 I-0.0012 J1.393
G3 X33.1489 Y32.1714 I-2.1385 J-2.104
G2 X32.727 Y33.2002 I1.0369 J1.026
G3 Y33.2059 I-3.0 J0.0057
G1 Y68.5793
G3 Y68.585 I-3.0 J0.0
G2 X33.1488 Y69.6137 I1.4585 J0.0028
G3 X33.1543 Y69.6193 I-2.1324 J2.1101
G2 X34.1495 Y70.0357 I0.9943 J-0.9787
G3 X34.1516 I0.0021 J3.0
G1 X69.3019
G3 X69.3037 I0.0 J3.0
G2 X70.3 Y69.6189 I0.0008 J-1.3973
G3 X70.3048 Y69.614 I2.1374 J2.1051
G2 X70.7271 Y68.5843 I-1.0383 J-1.0273
G3 Y68.5793 I3.0 J-0.005
G1 Y33.2059
G3 Y33.2005 I3.0 J0.0
G2 X70.3051 Y32.1714 I-1.4594 J-0.0026
G3 X70.2996 Y32.1659 I2.1324 J-2.1102
G2 X69.304 Y31.7493 I-0.9946 J0.9792
G3 X69.3019 I-0.0021 J-3.0
G1 X49.527
G0 Z3.0
G0 Y48.5493
G1 Z-2.0
G1 Y53.2357
G1 X53.9271
G1 Y48.5493
G1 X49.527
G1 Y46.1493
G1 X47.127
G1 Y55.6357
G1 X56.3271
G1 Y46.1493
G1 X49.527
G1 Y43.7493
G1 X44.727
G1 Y58.0357
G1 X58.7271
G1 Y43.7493
G1 X49.527
G1 Y41.3493
G1 X42.327
G1 Y60.4357
G1 X61.1271
G1 Y41.3493
G1 X49.527
G1 Y38.9493
G1 X39.927
G1 Y62.8357
G1 X63.5271
G1 Y38.9493
G1 X49.527
G1 Y36.5493
G1 X37.527
G1 Y65.2357
G1 X65.9271
G1 Y36.5493
G1 X49.527
G1 Y34.1493
G1 X35.127
G1 Y67.6357
G1 X68.3271
G1 Y34.1493
G1 X49.527
G1 Y31.7493
G1 X34.1516
G3 X34.149 I0.0 J-3.0
G2 X33.1548 Y32.1653 I-0.0012 J1.393
G3 X33.1489 Y32.1714 I-2.1385 J-2.104
G2 X32.727 Y33.2002 I1.0369 J1.026
G3 Y33.2059 I-3.0 J0.0057
G1 Y68.5793
G3 Y68.585 I-3.0 J0.0
G2 X33.1488 Y69.6137 I1.4585 J0.0028
G3 X33.1543 Y69.6193 I-2.1324 J2.1101
G2 X34.1495 Y70.0357 I0.9943 J-0.9787
G3 X34.1516 I0.0021 J3.0
G1 X69.3019
G3 X69.3037 I0.0 J3.0
G2 X70.3 Y69.6189 I0.0008 J-1.3973
G3 X70.3048 Y69.614 I2.1374 J2.1051
G2 X70.7271 Y68.5843 I-1.0383 J-1.0273
G3 Y68.5793 I3.0 J-0.005
G1 Y33.2059
G3 Y33.2005 I3.0 J0.0
G2 X70.3051 Y32.1714 I-1.4594 J-0.0026
G3 X70.2996 Y32.1659 I2.1324 J-2.1102
G2 X69.304 Y31.7493 I-0.9946 J0.9792
G3 X69.3019 I-0.0021 J-3.0
G1 X49.527
G0 Z3.0
G0 Y48.5493
G1 Z-3.0
G1 Y53.2357
G1 X53.9271
G1 Y48.5493
G1 X49.527
G1 Y46.1493
G1 X47.127
G1 Y55.6357
G1 X56.3271
G1 Y46.1493
G1 X49.527
G1 Y43.7493
G1 X44.727
G1 Y58.0357
G1 X58.7271
G1 Y43.7493
G1 X49.527
G1 Y41.3493
G1 X42.327
G1 Y60.4357
G1 X61.1271
G1 Y41.3493
G1 X49.527
G1 Y38.9493
G1 X39.927
G1 Y62.8357
G1 X63.5271
G1 Y38.9493
G1 X49.527
G1 Y36.5493
G1 X37.527
G1 Y65.2357
G1 X65.9271
G1 Y36.5493
G1 X49.527
G1 Y34.1493
G1 X35.127
G1 Y67.6357
G1 X68.3271
G1 Y34.1493
G1 X49.527
G1 Y31.7493
G1 X34.1516
G3 X34.149 I0.0 J-3.0
G2 X33.1548 Y32.1653 I-0.0012 J1.393
G3 X33.1489 Y32.1714 I-2.1385 J-2.104
G2 X32.727 Y33.2002 I1.0369 J1.026
G3 Y33.2059 I-3.0 J0.0057
G1 Y68.5793
G3 Y68.585 I-3.0 J0.0
G2 X33.1488 Y69.6137 I1.4585 J0.0028
G3 X33.1543 Y69.6193 I-2.1324 J2.1101
G2 X34.1495 Y70.0357 I0.9943 J-0.9787
G3 X34.1516 I0.0021 J3.0
G1 X69.3019
G3 X69.3037 I0.0 J3.0
G2 X70.3 Y69.6189 I0.0008 J-1.3973
G3 X70.3048 Y69.614 I2.1374 J2.1051
G2 X70.7271 Y68.5843 I-1.0383 J-1.0273
G3 Y68.5793 I3.0 J-0.005
G1 Y33.2059
G3 Y33.2005 I3.0 J0.0
G2 X70.3051 Y32.1714 I-1.4594 J-0.0026
G3 X70.2996 Y32.1659 I2.1324 J-2.1102
G2 X69.304 Y31.7493 I-0.9946 J0.9792
G3 X69.3019 I-0.0021 J-3.0
G1 X49.527
G0 Z3.0
G0 Y48.5493
G1 Z-4.0
G1 Y53.2357
G1 X53.9271
G1 Y48.5493
G1 X49.527
G1 Y46.1493
G1 X47.127
G1 Y55.6357
G1 X56.3271
G1 Y46.1493
G1 X49.527
G1 Y43.7493
G1 X44.727
G1 Y58.0357
G1 X58.7271
G1 Y43.7493
G1 X49.527
G1 Y41.3493
G1 X42.327
G1 Y60.4357
G1 X61.1271
G1 Y41.3493
G1 X49.527
G1 Y38.9493
G1 X39.927
G1 Y62.8357
G1 X63.5271
G1 Y38.9493
G1 X49.527
G1 Y36.5493
G1 X37.527
G1 Y65.2357
G1 X65.9271
G1 Y36.5493
G1 X49.527
G1 Y34.1493
G1 X35.127
G1 Y67.6357
G1 X68.3271
G1 Y34.1493
G1 X49.527
G1 Y31.7493
G1 X34.1516
G3 X34.149 I0.0 J-3.0
G2 X33.1548 Y32.1653 I-0.0012 J1.393
G3 X33.1489 Y32.1714 I-2.1385 J-2.104
G2 X32.727 Y33.2002 I1.0369 J1.026
G3 Y33.2059 I-3.0 J0.0057
G1 Y68.5793
G3 Y68.585 I-3.0 J0.0
G2 X33.1488 Y69.6137 I1.4585 J0.0028
G3 X33.1543 Y69.6193 I-2.1324 J2.1101
G2 X34.1495 Y70.0357 I0.9943 J-0.9787
G3 X34.1516 I0.0021 J3.0
G1 X69.3019
G3 X69.3037 I0.0 J3.0
G2 X70.3 Y69.6189 I0.0008 J-1.3973
G3 X70.3048 Y69.614 I2.1374 J2.1051
G2 X70.7271 Y68.5843 I-1.0383 J-1.0273
G3 Y68.5793 I3.0 J-0.005
G1 Y33.2059
G3 Y33.2005 I3.0 J0.0
G2 X70.3051 Y32.1714 I-1.4594 J-0.0026
G3 X70.2996 Y32.1659 I2.1324 J-2.1102
G2 X69.304 Y31.7493 I-0.9946 J0.9792
G3 X69.3019 I-0.0021 J-3.0
G1 X49.527
G0 Z3.0
G0 Y48.5493
G1 Z-5.0
G1 Y53.2357
G1 X53.9271
G1 Y48.5493
G1 X49.527
G1 Y46.1493
G1 X47.127
G1 Y55.6357
G1 X56.3271
G1 Y46.1493
G1 X49.527
G1 Y43.7493
G1 X44.727
G1 Y58.0357
G1 X58.7271
G1 Y43.7493
G1 X49.527
G1 Y41.3493
G1 X42.327
G1 Y60.4357
G1 X61.1271
G1 Y41.3493
G1 X49.527
G1 Y38.9493
G1 X39.927
G1 Y62.8357
G1 X63.5271
G1 Y38.9493
G1 X49.527
G1 Y36.5493
G1 X37.527
G1 Y65.2357
G1 X65.9271
G1 Y36.5493
G1 X49.527
G1 Y34.1493
G1 X35.127
G1 Y67.6357
G1 X68.3271
G1 Y34.1493
G1 X49.527
G1 Y31.7493
G1 X34.1516
G3 X34.149 I0.0 J-3.0
G2 X33.1548 Y32.1653 I-0.0012 J1.393
G3 X33.1489 Y32.1714 I-2.1385 J-2.104
G2 X32.727 Y33.2002 I1.0369 J1.026
G3 Y33.2059 I-3.0 J0.0057
G1 Y68.5793
G3 Y68.585 I-3.0 J0.0
G2 X33.1488 Y69.6137 I1.4585 J0.0028
G3 X33.1543 Y69.6193 I-2.1324 J2.1101
G2 X34.1495 Y70.0357 I0.9943 J-0.9787
G3 X34.1516 I0.0021 J3.0
G1 X69.3019
G3 X69.3037 I0.0 J3.0
G2 X70.3 Y69.6189 I0.0008 J-1.3973
G3 X70.3048 Y69.614 I2.1374 J2.1051
G2 X70.7271 Y68.5843 I-1.0383 J-1.0273
G3 Y68.5793 I3.0 J-0.005
G1 Y33.2059
G3 Y33.2005 I3.0 J0.0
G2 X70.3051 Y32.1714 I-1.4594 J-0.0026
G3 X70.2996 Y32.1659 I2.1324 J-2.1102
G2 X69.304 Y31.7493 I-0.9946 J0.9792
G3 X69.3019 I-0.0021 J-3.0
G1 X49.527
( Pocket3 6mm )
S1000
G0 Z3.0
G0 X15.3065 Y15.1439
G1 Z-1.0
G1 Y17.8096
G3 X15.4564 Y17.919 I-7.35 J10.2341
G3 X15.6064 Y17.8096 I7.5 J10.1247
G1 Y15.1439
G1 X15.3065
G1 Y12.7439
G1 X12.9065
G1 Y19.1254
G3 X15.4564 Y21.1307 I-4.95 J8.9184
G3 X18.0064 Y19.1254 I7.5 J6.9131
G1 Y12.7439
G1 X15.3065
G1 Y10.3439
G1 X10.5065
G1 Y20.6724
G3 X15.4564 Y25.9012 I-2.55 J7.3714
G3 X20.4064 Y20.6724 I7.5 J2.1425
G1 Y10.3439
G1 X15.3065
G1 Y7.9439
G1 X8.1065
G1 Y22.6459
G3 X13.3564 Y28.0438 I-0.15 J5.3979
G1 Y32.6438
G1 X17.5564
G1 Y28.0438
G3 X22.8064 Y22.6459 I5.4 J0.0
G1 Y7.9439
G1 X15.3065
G1 Y5.5439
G1 X6.1233
G3 X5.6678 Y5.5091 I0.0 J-3.0
G3 X5.7065 Y5.989 I-2.9614 J0.4799
G1 Y24.7075
G3 X5.6824 Y25.0869 I-3.0 J0.0
G3 X6.1895 Y25.0438 I0.5071 J2.9568
G1 X7.9564
G3 X10.9564 Y28.0438 I0.0 J3.0
G1 Y34.7862
G3 X10.9385 Y35.1141 I-3.0 J0.0
G3 X11.5838 Y35.0438 I0.6453 J2.9298
G1 X19.451
G3 X19.9813 Y35.0911 I0.0 J3.0
G3 X19.9564 Y34.7052 I2.9751 J-0.3859
G1 Y28.0438
G3 X22.9564 Y25.0438 I3.0 J0.0
G1 X24.4574
G3 X25.2169 Y25.1415 I0.0 J3.0
G3 X25.2064 Y24.8908 I2.9895 J-0.2507
G1 Y5.8057
G3 X25.2263 Y5.4604 I3.0 J0.0
G3 X24.5236 Y5.5439 I-0.7027 J-2.9165
G1 X15.3065
G0 Z3.0
G0 Y15.1439
G1 Z-2.0
G1 Y17.8096
G3 X15.4564 Y17.919 I-7.35 J10.2341
G3 X15.6064 Y17.8096 I7.5 J10.1247
G1 Y15.1439
G1 X15.3065
G1 Y12.7439
G1 X12.9065
G1 Y19.1254
G3 X15.4564 Y21.1307 I-4.95 J8.9184
G3 X18.0064 Y19.1254 I7.5 J6.9131
G1 Y12.7439
G1 X15.3065
G1 Y10.3439
G1 X10.5065
G1 Y20.6724
G3 X15.4564 Y25.9012 I-2.55 J7.3714
G3 X20.4064 Y20.6724 I7.5 J2.1425
G1 Y10.3439
G1 X15.3065
G1 Y7.9439
G1 X8.1065
G1 Y22.6459
G3 X13.3564 Y28.0438 I-0.15 J5.3979
G1 Y32.6438
G1 X17.5564
G1 Y28.0438
G3 X22.8064 Y22.6459 I5.4 J0.0
G1 Y7.9439
G1 X15.3065
G1 Y5.5439
G1 X6.1233
G3 X5.6678 Y5.5091 I0.0 J-3.0
G3 X5.7065 Y5.989 I-2.9614 J0.4799
G1 Y24.7075
G3 X5.6824 Y25.0869 I-3.0 J0.0
G3 X6.1895 Y25.0438 I0.5071 J2.9568
G1 X7.9564
G3 X10.9564 Y28.0438 I0.0 J3.0
G1 Y34.7862
G3 X10.9385 Y35.1141 I-3.0 J0.0
G3 X11.5838 Y35.0438 I0.6453 J2.9298
G1 X19.451
G3 X19.9813 Y35.0911 I0.0 J3.0
G3 X19.9564 Y34.7052 I2.9751 J-0.3859
G1 Y28.0438
G3 X22.9564 Y25.0438 I3.0 J0.0
G1 X24.4574
G3 X25.2169 Y25.1415 I0.0 J3.0
G3 X25.2064 Y24.8908 I2.9895 J-0.2507
G1 Y5.8057
G3 X25.2263 Y5.4604 I3.0 J0.0
G3 X24.5236 Y5.5439 I-0.7027 J-2.9165
G1 X15.3065
G0 Z3.0
G0 Y15.1439
G1 Z-3.0
G1 Y17.8096
G3 X15.4564 Y17.919 I-7.35 J10.2341
G3 X15.6064 Y17.8096 I7.5 J10.1247
G1 Y15.1439
G1 X15.3065
G1 Y12.7439
G1 X12.9065
G1 Y19.1254
G3 X15.4564 Y21.1307 I-4.95 J8.9184
G3 X18.0064 Y19.1254 I7.5 J6.9131
G1 Y12.7439
G1 X15.3065
G1 Y10.3439
G1 X10.5065
G1 Y20.6724
G3 X15.4564 Y25.9012 I-2.55 J7.3714
G3 X20.4064 Y20.6724 I7.5 J2.1425
G1 Y10.3439
G1 X15.3065
G1 Y7.9439
G1 X8.1065
G1 Y22.6459
G3 X13.3564 Y28.0438 I-0.15 J5.3979
G1 Y32.6438
G1 X17.5564
G1 Y28.0438
G3 X22.8064 Y22.6459 I5.4 J0.0
G1 Y7.9439
G1 X15.3065
G1 Y5.5439
G1 X6.1233
G3 X5.6678 Y5.5091 I0.0 J-3.0
G3 X5.7065 Y5.989 I-2.9614 J0.4799
G1 Y24.7075
G3 X5.6824 Y25.0869 I-3.0 J0.0
G3 X6.1895 Y25.0438 I0.5071 J2.9568
G1 X7.9564
G3 X10.9564 Y28.0438 I0.0 J3.0
G1 Y34.7862
G3 X10.9385 Y35.1141 I-3.0 J0.0
G3 X11.5838 Y35.0438 I0.6453 J2.9298
G1 X19.451
G3 X19.9813 Y35.0911 I0.0 J3.0
G3 X19.9564 Y34.7052 I2.9751 J-0.3859
G1 Y28.0438
G3 X22.9564 Y25.0438 I3.0 J0.0
G1 X24.4574
G3 X25.2169 Y25.1415 I0.0 J3.0
G3 X25.2064 Y24.8908 I2.9895 J-0.2507
G1 Y5.8057
G3 X25.2263 Y5.4604 I3.0 J0.0
G3 X24.5236 Y5.5439 I-0.7027 J-2.9165
G1 X15.3065
G0 Z3.0
G0 Y15.1439
G1 Z-4.0
G1 Y17.8096
G3 X15.4564 Y17.919 I-7.35 J10.2341
G3 X15.6064 Y17.8096 I7.5 J10.1247
G1 Y15.1439
G1 X15.3065
G1 Y12.7439
G1 X12.9065
G1 Y19.1254
G3 X15.4564 Y21.1307 I-4.95 J8.9184
G3 X18.0064 Y19.1254 I7.5 J6.9131
G1 Y12.7439
G1 X15.3065
G1 Y10.3439
G1 X10.5065
G1 Y20.6724
G3 X15.4564 Y25.9012 I-2.55 J7.3714
G3 X20.4064 Y20.6724 I7.5 J2.1425
G1 Y10.3439
G1 X15.3065
G1 Y7.9439
G1 X8.1065
G1 Y22.6459
G3 X13.3564 Y28.0438 I-0.15 J5.3979
G1 Y32.6438
G1 X17.5564
G1 Y28.0438
G3 X22.8064 Y22.6459 I5.4 J0.0
G1 Y7.9439
G1 X15.3065
G1 Y5.5439
G1 X6.1233
G3 X5.6678 Y5.5091 I0.0 J-3.0
G3 X5.7065 Y5.989 I-2.9614 J0.4799
G1 Y24.7075
G3 X5.6824 Y25.0869 I-3.0 J0.0
G3 X6.1895 Y25.0438 I0.5071 J2.9568
G1 X7.9564
G3 X10.9564 Y28.0438 I0.0 J3.0
G1 Y34.7862
G3 X10.9385 Y35.1141 I-3.0 J0.0
G3 X11.5838 Y35.0438 I0.6453 J2.9298
G1 X19.451
G3 X19.9813 Y35.0911 I0.0 J3.0
G3 X19.9564 Y34.7052 I2.9751 J-0.3859
G1 Y28.0438
G3 X22.9564 Y25.0438 I3.0 J0.0
G1 X24.4574
G3 X25.2169 Y25.1415 I0.0 J3.0
G3 X25.2064 Y24.8908 I2.9895 J-0.2507
G1 Y5.8057
G3 X25.2263 Y5.4604 I3.0 J0.0
G3 X24.5236 Y5.5439 I-0.7027 J-2.9165
G1 X15.3065
G0 Z3.0
G0 Y15.1439
G1 Z-5.0
G1 Y17.8096
G3 X15.4564 Y17.919 I-7.35 J10.2341
G3 X15.6064 Y17.8096 I7.5 J10.1247
G1 Y15.1439
G1 X15.3065
G1 Y12.7439
G1 X12.9065
G1 Y19.1254
G3 X15.4564 Y21.1307 I-4.95 J8.9184
G3 X18.0064 Y19.1254 I7.5 J6.9131
G1 Y12.7439
G1 X15.3065
G1 Y10.3439
G1 X10.5065
G1 Y20.6724
G3 X15.4564 Y25.9012 I-2.55 J7.3714
G3 X20.4064 Y20.6724 I7.5 J2.1425
G1 Y10.3439
G1 X15.3065
G1 Y7.9439
G1 X8.1065
G1 Y22.6459
G3 X13.3564 Y28.0438 I-0.15 J5.3979
G1 Y32.6438
G1 X17.5564
G1 Y28.0438
G3 X22.8064 Y22.6459 I5.4 J0.0
G1 Y7.9439
G1 X15.3065
G1 Y5.5439
G1 X6.1233
G3 X5.6678 Y5.5091 I0.0 J-3.0
G3 X5.7065 Y5.989 I-2.9614 J0.4799
G1 Y24.7075
G3 X5.6824 Y25.0869 I-3.0 J0.0
G3 X6.1895 Y25.0438 I0.5071 J2.9568
G1 X7.9564
G3 X10.9564 Y28.0438 I0.0 J3.0
G1 Y34.7862
G3 X10.9385 Y35.1141 I-3.0 J0.0
G3 X11.5838 Y35.0438 I0.6453 J2.9298
G1 X19.451
G3 X19.9813 Y35.0911 I0.0 J3.0
G3 X19.9564 Y34.7052 I2.9751 J-0.3859
G1 Y28.0438
G3 X22.9564 Y25.0438 I3.0 J0.0
G1 X24.4574
G3 X25.2169 Y25.1415 I0.0 J3.0
G3 X25.2064 Y24.8908 I2.9895 J-0.2507
G1 Y5.8057
G3 X25.2263 Y5.4604 I3.0 J0.0
G3 X24.5236 Y5.5439 I-0.7027 J-2.9165
G1 X15.3065
G0 Z3.0
M5
M30
