( Made using CamBam - http://www.cambam.co.uk )
( back plate 9/17/2013 4:49:40 PM )
( T5 : 5.0 )
G21 G90 G64 G40
G0 Z3.0
( T5 : 5.0 )
T5 M6
( Air Hose )
G17
M3 S1000
G0 X67.6884 Y48.9381
G0 Z1.0
G1 F50.0 Z-1.0
G3 F100.0 X69.7069 Y44.065 I6.8692 J-0.0093
G2 X69.7114 Y44.0605 I-1.7654 J-1.7701
G3 X74.5853 Y42.0416 I4.8658 J4.8541
G2 X74.5917 I0.0029 J-2.5
G3 X79.4648 Y44.0601 I0.0096 J6.8684
G2 X79.4695 Y44.0647 I1.7702 J-1.7653
G3 X81.4883 Y48.9385 I-4.8535 J4.8655
G2 Y48.9445 I2.5 J0.003
G3 X79.4694 Y53.8186 I-6.8737 J0.008
G2 X79.4647 Y53.8233 I1.7657 J1.7698
G3 X74.5918 Y55.8418 I-4.8631 J-4.8488
G2 X74.5852 I-0.0036 J2.5
G3 X69.7116 Y53.8229 I-0.0083 J-6.8717
G2 X69.7072 Y53.8186 I-1.77 J1.7655
G3 X67.6884 Y48.9445 I4.8546 J-4.8659
G2 Y48.9381 I-2.5 J-0.003
G1 F50.0 Z-2.0
G3 F100.0 X69.7069 Y44.065 I6.8692 J-0.0093
G2 X69.7114 Y44.0605 I-1.7654 J-1.7701
G3 X74.5853 Y42.0416 I4.8658 J4.8541
G2 X74.5917 I0.0029 J-2.5
G3 X79.4648 Y44.0601 I0.0096 J6.8684
G2 X79.4695 Y44.0647 I1.7702 J-1.7653
G3 X81.4883 Y48.9385 I-4.8535 J4.8655
G2 Y48.9445 I2.5 J0.003
G3 X79.4694 Y53.8186 I-6.8737 J0.008
G2 X79.4647 Y53.8233 I1.7657 J1.7698
G3 X74.5918 Y55.8418 I-4.8631 J-4.8488
G2 X74.5852 I-0.0036 J2.5
G3 X69.7116 Y53.8229 I-0.0083 J-6.8717
G2 X69.7072 Y53.8186 I-1.77 J1.7655
G3 X67.6884 Y48.9445 I4.8546 J-4.8659
G2 Y48.9381 I-2.5 J-0.003
G1 F50.0 Z-3.0
G3 F100.0 X69.7069 Y44.065 I6.8692 J-0.0093
G2 X69.7114 Y44.0605 I-1.7654 J-1.7701
G3 X74.5853 Y42.0416 I4.8658 J4.8541
G2 X74.5917 I0.0029 J-2.5
G3 X79.4648 Y44.0601 I0.0096 J6.8684
G2 X79.4695 Y44.0647 I1.7702 J-1.7653
G3 X81.4883 Y48.9385 I-4.8535 J4.8655
G2 Y48.9445 I2.5 J0.003
G3 X79.4694 Y53.8186 I-6.8737 J0.008
G2 X79.4647 Y53.8233 I1.7657 J1.7698
G3 X74.5918 Y55.8418 I-4.8631 J-4.8488
G2 X74.5852 I-0.0036 J2.5
G3 X69.7116 Y53.8229 I-0.0083 J-6.8717
G2 X69.7072 Y53.8186 I-1.77 J1.7655
G3 X67.6884 Y48.9445 I4.8546 J-4.8659
G2 Y48.9381 I-2.5 J-0.003
G1 F50.0 Z-4.0
G3 F100.0 X69.7069 Y44.065 I6.8692 J-0.0093
G2 X69.7114 Y44.0605 I-1.7654 J-1.7701
G3 X74.5853 Y42.0416 I4.8658 J4.8541
G2 X74.5917 I0.0029 J-2.5
G3 X79.4648 Y44.0601 I0.0096 J6.8684
G2 X79.4695 Y44.0647 I1.7702 J-1.7653
G3 X81.4883 Y48.9385 I-4.8535 J4.8655
G2 Y48.9445 I2.5 J0.003
G3 X79.4694 Y53.8186 I-6.8737 J0.008
G2 X79.4647 Y53.8233 I1.7657 J1.7698
G3 X74.5918 Y55.8418 I-4.8631 J-4.8488
G2 X74.5852 I-0.0036 J2.5
G3 X69.7116 Y53.8229 I-0.0083 J-6.8717
G2 X69.7072 Y53.8186 I-1.77 J1.7655
G3 X67.6884 Y48.9445 I4.8546 J-4.8659
G2 Y48.9381 I-2.5 J-0.003
G1 F50.0 Z-5.0
G3 F100.0 X69.7069 Y44.065 I6.8692 J-0.0093
G2 X69.7114 Y44.0605 I-1.7654 J-1.7701
G3 X74.5853 Y42.0416 I4.8658 J4.8541
G2 X74.5917 I0.0029 J-2.5
G3 X79.4648 Y44.0601 I0.0096 J6.8684
G2 X79.4695 Y44.0647 I1.7702 J-1.7653
G3 X81.4883 Y48.9385 I-4.8535 J4.8655
G2 Y48.9445 I2.5 J0.003
G3 X79.4694 Y53.8186 I-6.8737 J0.008
G2 X79.4647 Y53.8233 I1.7657 J1.7698
G3 X74.5918 Y55.8418 I-4.8631 J-4.8488
G2 X74.5852 I-0.0036 J2.5
G3 X69.7116 Y53.8229 I-0.0083 J-6.8717
G2 X69.7072 Y53.8186 I-1.77 J1.7655
G3 X67.6884 Y48.9445 I4.8546 J-4.8659
G2 Y48.9381 I-2.5 J-0.003
G1 F50.0 Z-6.0
G3 F100.0 X69.7069 Y44.065 I6.8692 J-0.0093
G2 X69.7114 Y44.0605 I-1.7654 J-1.7701
G3 X74.5853 Y42.0416 I4.8658 J4.8541
G2 X74.5917 I0.0029 J-2.5
G3 X79.4648 Y44.0601 I0.0096 J6.8684
G2 X79.4695 Y44.0647 I1.7702 J-1.7653
G3 X81.4883 Y48.9385 I-4.8535 J4.8655
G2 Y48.9445 I2.5 J0.003
G3 X79.4694 Y53.8186 I-6.8737 J0.008
G2 X79.4647 Y53.8233 I1.7657 J1.7698
G3 X74.5918 Y55.8418 I-4.8631 J-4.8488
G2 X74.5852 I-0.0036 J2.5
G3 X69.7116 Y53.8229 I-0.0083 J-6.8717
G2 X69.7072 Y53.8186 I-1.77 J1.7655
G3 X67.6884 Y48.9445 I4.8546 J-4.8659
G2 Y48.9381 I-2.5 J-0.003
G1 F50.0 Z-7.0
G3 F100.0 X69.7069 Y44.065 I6.8692 J-0.0093
G2 X69.7114 Y44.0605 I-1.7654 J-1.7701
G3 X74.5853 Y42.0416 I4.8658 J4.8541
G2 X74.5917 I0.0029 J-2.5
G3 X79.4648 Y44.0601 I0.0096 J6.8684
G2 X79.4695 Y44.0647 I1.7702 J-1.7653
G3 X81.4883 Y48.9385 I-4.8535 J4.8655
G2 Y48.9445 I2.5 J0.003
G3 X79.4694 Y53.8186 I-6.8737 J0.008
G2 X79.4647 Y53.8233 I1.7657 J1.7698
G3 X74.5918 Y55.8418 I-4.8631 J-4.8488
G2 X74.5852 I-0.0036 J2.5
G3 X69.7116 Y53.8229 I-0.0083 J-6.8717
G2 X69.7072 Y53.8186 I-1.77 J1.7655
G3 X67.6884 Y48.9445 I4.8546 J-4.8659
G2 Y48.9381 I-2.5 J-0.003
G1 F50.0 Z-8.0
G3 F100.0 X69.7069 Y44.065 I6.8692 J-0.0093
G2 X69.7114 Y44.0605 I-1.7654 J-1.7701
G3 X74.5853 Y42.0416 I4.8658 J4.8541
G2 X74.5917 I0.0029 J-2.5
G3 X79.4648 Y44.0601 I0.0096 J6.8684
G2 X79.4695 Y44.0647 I1.7702 J-1.7653
G3 X81.4883 Y48.9385 I-4.8535 J4.8655
G2 Y48.9445 I2.5 J0.003
G3 X79.4694 Y53.8186 I-6.8737 J0.008
G2 X79.4647 Y53.8233 I1.7657 J1.7698
G3 X74.5918 Y55.8418 I-4.8631 J-4.8488
G2 X74.5852 I-0.0036 J2.5
G3 X69.7116 Y53.8229 I-0.0083 J-6.8717
G2 X69.7072 Y53.8186 I-1.77 J1.7655
G3 X67.6884 Y48.9445 I4.8546 J-4.8659
G2 Y48.9381 I-2.5 J-0.003
G1 F50.0 Z-9.0
G3 F100.0 X69.7069 Y44.065 I6.8692 J-0.0093
G2 X69.7114 Y44.0605 I-1.7654 J-1.7701
G3 X74.5853 Y42.0416 I4.8658 J4.8541
G2 X74.5917 I0.0029 J-2.5
G3 X79.4648 Y44.0601 I0.0096 J6.8684
G2 X79.4695 Y44.0647 I1.7702 J-1.7653
G3 X81.4883 Y48.9385 I-4.8535 J4.8655
G2 Y48.9445 I2.5 J0.003
G3 X79.4694 Y53.8186 I-6.8737 J0.008
G2 X79.4647 Y53.8233 I1.7657 J1.7698
G3 X74.5918 Y55.8418 I-4.8631 J-4.8488
G2 X74.5852 I-0.0036 J2.5
G3 X69.7116 Y53.8229 I-0.0083 J-6.8717
G2 X69.7072 Y53.8186 I-1.77 J1.7655
G3 X67.6884 Y48.9445 I4.8546 J-4.8659
G2 Y48.9381 I-2.5 J-0.003
G1 F50.0 Z-10.0
G3 F100.0 X69.7069 Y44.065 I6.8692 J-0.0093
G2 X69.7114 Y44.0605 I-1.7654 J-1.7701
G3 X74.5853 Y42.0416 I4.8658 J4.8541
G2 X74.5917 I0.0029 J-2.5
G3 X79.4648 Y44.0601 I0.0096 J6.8684
G2 X79.4695 Y44.0647 I1.7702 J-1.7653
G3 X81.4883 Y48.9385 I-4.8535 J4.8655
G2 Y48.9445 I2.5 J0.003
G3 X79.4694 Y53.8186 I-6.8737 J0.008
G2 X79.4647 Y53.8233 I1.7657 J1.7698
G3 X74.5918 Y55.8418 I-4.8631 J-4.8488
G2 X74.5852 I-0.0036 J2.5
G3 X69.7116 Y53.8229 I-0.0083 J-6.8717
G2 X69.7072 Y53.8186 I-1.77 J1.7655
G3 X67.6884 Y48.9445 I4.8546 J-4.8659
G2 Y48.9381 I-2.5 J-0.003
G1 F50.0 Z-11.0
G3 F100.0 X69.7069 Y44.065 I6.8692 J-0.0093
G2 X69.7114 Y44.0605 I-1.7654 J-1.7701
G3 X74.5853 Y42.0416 I4.8658 J4.8541
G2 X74.5917 I0.0029 J-2.5
G3 X79.4648 Y44.0601 I0.0096 J6.8684
G2 X79.4695 Y44.0647 I1.7702 J-1.7653
G3 X81.4883 Y48.9385 I-4.8535 J4.8655
G2 Y48.9445 I2.5 J0.003
G3 X79.4694 Y53.8186 I-6.8737 J0.008
G2 X79.4647 Y53.8233 I1.7657 J1.7698
G3 X74.5918 Y55.8418 I-4.8631 J-4.8488
G2 X74.5852 I-0.0036 J2.5
G3 X69.7116 Y53.8229 I-0.0083 J-6.8717
G2 X69.7072 Y53.8186 I-1.77 J1.7655
G3 X67.6884 Y48.9445 I4.8546 J-4.8659
G2 Y48.9381 I-2.5 J-0.003
G1 F50.0 Z-12.0
G3 F100.0 X69.7069 Y44.065 I6.8692 J-0.0093
G2 X69.7114 Y44.0605 I-1.7654 J-1.7701
G3 X74.5853 Y42.0416 I4.8658 J4.8541
G2 X74.5917 I0.0029 J-2.5
G3 X79.4648 Y44.0601 I0.0096 J6.8684
G2 X79.4695 Y44.0647 I1.7702 J-1.7653
G3 X81.4883 Y48.9385 I-4.8535 J4.8655
G2 Y48.9445 I2.5 J0.003
G3 X79.4694 Y53.8186 I-6.8737 J0.008
G2 X79.4647 Y53.8233 I1.7657 J1.7698
G3 X74.5918 Y55.8418 I-4.8631 J-4.8488
G2 X74.5852 I-0.0036 J2.5
G3 X69.7116 Y53.8229 I-0.0083 J-6.8717
G2 X69.7072 Y53.8186 I-1.77 J1.7655
G3 X67.6884 Y48.9445 I4.8546 J-4.8659
G2 Y48.9381 I-2.5 J-0.003
G1 F50.0 Z-13.0
G3 F100.0 X69.7069 Y44.065 I6.8692 J-0.0093
G2 X69.7114 Y44.0605 I-1.7654 J-1.7701
G3 X74.5853 Y42.0416 I4.8658 J4.8541
G2 X74.5917 I0.0029 J-2.5
G3 X79.4648 Y44.0601 I0.0096 J6.8684
G2 X79.4695 Y44.0647 I1.7702 J-1.7653
G3 X81.4883 Y48.9385 I-4.8535 J4.8655
G2 Y48.9445 I2.5 J0.003
G3 X79.4694 Y53.8186 I-6.8737 J0.008
G2 X79.4647 Y53.8233 I1.7657 J1.7698
G3 X74.5918 Y55.8418 I-4.8631 J-4.8488
G2 X74.5852 I-0.0036 J2.5
G3 X69.7116 Y53.8229 I-0.0083 J-6.8717
G2 X69.7072 Y53.8186 I-1.77 J1.7655
G3 X67.6884 Y48.9445 I4.8546 J-4.8659
G2 Y48.9381 I-2.5 J-0.003
G1 F50.0 Z-14.0
G3 F100.0 X69.7069 Y44.065 I6.8692 J-0.0093
G2 X69.7114 Y44.0605 I-1.7654 J-1.7701
G3 X74.5853 Y42.0416 I4.8658 J4.8541
G2 X74.5917 I0.0029 J-2.5
G3 X79.4648 Y44.0601 I0.0096 J6.8684
G2 X79.4695 Y44.0647 I1.7702 J-1.7653
G3 X81.4883 Y48.9385 I-4.8535 J4.8655
G2 Y48.9445 I2.5 J0.003
G3 X79.4694 Y53.8186 I-6.8737 J0.008
G2 X79.4647 Y53.8233 I1.7657 J1.7698
G3 X74.5918 Y55.8418 I-4.8631 J-4.8488
G2 X74.5852 I-0.0036 J2.5
G3 X69.7116 Y53.8229 I-0.0083 J-6.8717
G2 X69.7072 Y53.8186 I-1.77 J1.7655
G3 X67.6884 Y48.9445 I4.8546 J-4.8659
G2 Y48.9381 I-2.5 J-0.003
G1 F50.0 Z-15.0
G3 F100.0 X69.7069 Y44.065 I6.8692 J-0.0093
G2 X69.7114 Y44.0605 I-1.7654 J-1.7701
G3 X74.5853 Y42.0416 I4.8658 J4.8541
G2 X74.5917 I0.0029 J-2.5
G3 X79.4648 Y44.0601 I0.0096 J6.8684
G2 X79.4695 Y44.0647 I1.7702 J-1.7653
G3 X81.4883 Y48.9385 I-4.8535 J4.8655
G2 Y48.9445 I2.5 J0.003
G3 X79.4694 Y53.8186 I-6.8737 J0.008
G2 X79.4647 Y53.8233 I1.7657 J1.7698
G3 X74.5918 Y55.8418 I-4.8631 J-4.8488
G2 X74.5852 I-0.0036 J2.5
G3 X69.7116 Y53.8229 I-0.0083 J-6.8717
G2 X69.7072 Y53.8186 I-1.77 J1.7655
G3 X67.6884 Y48.9445 I4.8546 J-4.8659
G2 Y48.9381 I-2.5 J-0.003
G1 F50.0 Z-16.0
G3 F100.0 X69.7069 Y44.065 I6.8692 J-0.0093
G2 X69.7114 Y44.0605 I-1.7654 J-1.7701
G3 X74.5853 Y42.0416 I4.8658 J4.8541
G2 X74.5917 I0.0029 J-2.5
G3 X79.4648 Y44.0601 I0.0096 J6.8684
G2 X79.4695 Y44.0647 I1.7702 J-1.7653
G3 X81.4883 Y48.9385 I-4.8535 J4.8655
G2 Y48.9445 I2.5 J0.003
G3 X79.4694 Y53.8186 I-6.8737 J0.008
G2 X79.4647 Y53.8233 I1.7657 J1.7698
G3 X74.5918 Y55.8418 I-4.8631 J-4.8488
G2 X74.5852 I-0.0036 J2.5
G3 X69.7116 Y53.8229 I-0.0083 J-6.8717
G2 X69.7072 Y53.8186 I-1.77 J1.7655
G3 X67.6884 Y48.9445 I4.8546 J-4.8659
G2 Y48.9381 I-2.5 J-0.003
G1 F50.0 Z-17.0
G3 F100.0 X69.7069 Y44.065 I6.8692 J-0.0093
G2 X69.7114 Y44.0605 I-1.7654 J-1.7701
G3 X74.5853 Y42.0416 I4.8658 J4.8541
G2 X74.5917 I0.0029 J-2.5
G3 X79.4648 Y44.0601 I0.0096 J6.8684
G2 X79.4695 Y44.0647 I1.7702 J-1.7653
G3 X81.4883 Y48.9385 I-4.8535 J4.8655
G2 Y48.9445 I2.5 J0.003
G3 X79.4694 Y53.8186 I-6.8737 J0.008
G2 X79.4647 Y53.8233 I1.7657 J1.7698
G3 X74.5918 Y55.8418 I-4.8631 J-4.8488
G2 X74.5852 I-0.0036 J2.5
G3 X69.7116 Y53.8229 I-0.0083 J-6.8717
G2 X69.7072 Y53.8186 I-1.77 J1.7655
G3 X67.6884 Y48.9445 I4.8546 J-4.8659
G2 Y48.9381 I-2.5 J-0.003
G1 F50.0 Z-18.0
G3 F100.0 X69.7069 Y44.065 I6.8692 J-0.0093
G2 X69.7114 Y44.0605 I-1.7654 J-1.7701
G3 X74.5853 Y42.0416 I4.8658 J4.8541
G2 X74.5917 I0.0029 J-2.5
G3 X79.4648 Y44.0601 I0.0096 J6.8684
G2 X79.4695 Y44.0647 I1.7702 J-1.7653
G3 X81.4883 Y48.9385 I-4.8535 J4.8655
G2 Y48.9445 I2.5 J0.003
G3 X79.4694 Y53.8186 I-6.8737 J0.008
G2 X79.4647 Y53.8233 I1.7657 J1.7698
G3 X74.5918 Y55.8418 I-4.8631 J-4.8488
G2 X74.5852 I-0.0036 J2.5
G3 X69.7116 Y53.8229 I-0.0083 J-6.8717
G2 X69.7072 Y53.8186 I-1.77 J1.7655
G3 X67.6884 Y48.9445 I4.8546 J-4.8659
G2 Y48.9381 I-2.5 J-0.003
G1 F50.0 Z-19.0
G3 F100.0 X69.7069 Y44.065 I6.8692 J-0.0093
G2 X69.7114 Y44.0605 I-1.7654 J-1.7701
G3 X74.5853 Y42.0416 I4.8658 J4.8541
G2 X74.5917 I0.0029 J-2.5
G3 X79.4648 Y44.0601 I0.0096 J6.8684
G2 X79.4695 Y44.0647 I1.7702 J-1.7653
G3 X81.4883 Y48.9385 I-4.8535 J4.8655
G2 Y48.9445 I2.5 J0.003
G3 X79.4694 Y53.8186 I-6.8737 J0.008
G2 X79.4647 Y53.8233 I1.7657 J1.7698
G3 X74.5918 Y55.8418 I-4.8631 J-4.8488
G2 X74.5852 I-0.0036 J2.5
G3 X69.7116 Y53.8229 I-0.0083 J-6.8717
G2 X69.7072 Y53.8186 I-1.77 J1.7655
G3 X67.6884 Y48.9445 I4.8546 J-4.8659
G2 Y48.9381 I-2.5 J-0.003
G1 F50.0 Z-20.0
G3 F100.0 X69.7069 Y44.065 I6.8692 J-0.0093
G2 X69.7114 Y44.0605 I-1.7654 J-1.7701
G3 X74.5853 Y42.0416 I4.8658 J4.8541
G2 X74.5917 I0.0029 J-2.5
G3 X79.4648 Y44.0601 I0.0096 J6.8684
G2 X79.4695 Y44.0647 I1.7702 J-1.7653
G3 X81.4883 Y48.9385 I-4.8535 J4.8655
G2 Y48.9445 I2.5 J0.003
G3 X79.4694 Y53.8186 I-6.8737 J0.008
G2 X79.4647 Y53.8233 I1.7657 J1.7698
G3 X74.5918 Y55.8418 I-4.8631 J-4.8488
G2 X74.5852 I-0.0036 J2.5
G3 X69.7116 Y53.8229 I-0.0083 J-6.8717
G2 X69.7072 Y53.8186 I-1.77 J1.7655
G3 X67.6884 Y48.9445 I4.8546 J-4.8659
G2 Y48.9381 I-2.5 J-0.003
G1 F50.0 Z-21.0
G3 F100.0 X69.7069 Y44.065 I6.8692 J-0.0093
G2 X69.7114 Y44.0605 I-1.7654 J-1.7701
G3 X74.5853 Y42.0416 I4.8658 J4.8541
G2 X74.5917 I0.0029 J-2.5
G3 X79.4648 Y44.0601 I0.0096 J6.8684
G2 X79.4695 Y44.0647 I1.7702 J-1.7653
G3 X81.4883 Y48.9385 I-4.8535 J4.8655
G2 Y48.9445 I2.5 J0.003
G3 X79.4694 Y53.8186 I-6.8737 J0.008
G2 X79.4647 Y53.8233 I1.7657 J1.7698
G3 X74.5918 Y55.8418 I-4.8631 J-4.8488
G2 X74.5852 I-0.0036 J2.5
G3 X69.7116 Y53.8229 I-0.0083 J-6.8717
G2 X69.7072 Y53.8186 I-1.77 J1.7655
G3 X67.6884 Y48.9445 I4.8546 J-4.8659
G2 Y48.9381 I-2.5 J-0.003
G0 Z3.0
M5
M30
