( Made using CamBam - http://www.cambam.co.uk )
( back plate 9/17/2013 5:52:28 PM )
( T5 : 4.7 )
G21 G90 G64 G40
G0 Z3.0
( T5 : 4.7 )
T5 M6
( Cable Entry )
G17
M3 S1000
G0 X62.3501 Y22.5914
G0 Z1.0
G1 F50.0 Z-1.0
G1 F100.0 Y11.0581
G2 Y11.0546 I-2.35 J0.0
G3 X62.8993 Y9.7288 I1.8684 J-0.0027
G2 X62.9041 Y9.724 I-1.6593 J-1.6641
G3 X64.2302 Y9.1747 I1.3235 J1.3197
G2 X64.2335 I0.0033 J-2.35
G1 X105.9339
G2 X105.9368 I0.0 J-2.35
G3 X107.2636 Y9.7243 I0.0023 J1.871
G2 X107.2676 Y9.7283 I1.6637 J-1.6597
G3 X107.8173 Y11.0553 I-1.3217 J1.3248
G2 Y11.0581 I2.35 J0.0028
G1 Y22.5914
G2 Y22.5939 I2.35 J0.0
G3 X107.2674 Y23.9213 I-1.8721 J0.002
G2 X107.2633 Y23.9254 I1.6598 J1.6636
G3 X105.9371 Y24.4747 I-1.3238 J-1.3202
G2 X105.9339 I-0.0032 J2.35
G1 X64.2335
G2 X64.2305 I0.0 J2.35
G3 X62.9039 Y23.9252 I-0.0023 J-1.8704
G2 X62.8992 Y23.9205 I-1.6638 J1.6596
G3 X62.3501 Y22.595 I1.3186 J-1.3227
G2 Y22.5914 I-2.35 J-0.0036
G1 F50.0 Z-2.0
G1 F100.0 Y11.0581
G2 Y11.0546 I-2.35 J0.0
G3 X62.8993 Y9.7288 I1.8684 J-0.0027
G2 X62.9041 Y9.724 I-1.6593 J-1.6641
G3 X64.2302 Y9.1747 I1.3235 J1.3197
G2 X64.2335 I0.0033 J-2.35
G1 X105.9339
G2 X105.9368 I0.0 J-2.35
G3 X107.2636 Y9.7243 I0.0023 J1.871
G2 X107.2676 Y9.7283 I1.6637 J-1.6597
G3 X107.8173 Y11.0553 I-1.3217 J1.3248
G2 Y11.0581 I2.35 J0.0028
G1 Y22.5914
G2 Y22.5939 I2.35 J0.0
G3 X107.2674 Y23.9213 I-1.8721 J0.002
G2 X107.2633 Y23.9254 I1.6598 J1.6636
G3 X105.9371 Y24.4747 I-1.3238 J-1.3202
G2 X105.9339 I-0.0032 J2.35
G1 X64.2335
G2 X64.2305 I0.0 J2.35
G3 X62.9039 Y23.9252 I-0.0023 J-1.8704
G2 X62.8992 Y23.9205 I-1.6638 J1.6596
G3 X62.3501 Y22.595 I1.3186 J-1.3227
G2 Y22.5914 I-2.35 J-0.0036
G1 F50.0 Z-3.0
G1 F100.0 Y11.0581
G2 Y11.0546 I-2.35 J0.0
G3 X62.8993 Y9.7288 I1.8684 J-0.0027
G2 X62.9041 Y9.724 I-1.6593 J-1.6641
G3 X64.2302 Y9.1747 I1.3235 J1.3197
G2 X64.2335 I0.0033 J-2.35
G1 X105.9339
G2 X105.9368 I0.0 J-2.35
G3 X107.2636 Y9.7243 I0.0023 J1.871
G2 X107.2676 Y9.7283 I1.6637 J-1.6597
G3 X107.8173 Y11.0553 I-1.3217 J1.3248
G2 Y11.0581 I2.35 J0.0028
G1 Y22.5914
G2 Y22.5939 I2.35 J0.0
G3 X107.2674 Y23.9213 I-1.8721 J0.002
G2 X107.2633 Y23.9254 I1.6598 J1.6636
G3 X105.9371 Y24.4747 I-1.3238 J-1.3202
G2 X105.9339 I-0.0032 J2.35
G1 X64.2335
G2 X64.2305 I0.0 J2.35
G3 X62.9039 Y23.9252 I-0.0023 J-1.8704
G2 X62.8992 Y23.9205 I-1.6638 J1.6596
G3 X62.3501 Y22.595 I1.3186 J-1.3227
G2 Y22.5914 I-2.35 J-0.0036
G1 F50.0 Z-4.0
G1 F100.0 Y11.0581
G2 Y11.0546 I-2.35 J0.0
G3 X62.8993 Y9.7288 I1.8684 J-0.0027
G2 X62.9041 Y9.724 I-1.6593 J-1.6641
G3 X64.2302 Y9.1747 I1.3235 J1.3197
G2 X64.2335 I0.0033 J-2.35
G1 X105.9339
G2 X105.9368 I0.0 J-2.35
G3 X107.2636 Y9.7243 I0.0023 J1.871
G2 X107.2676 Y9.7283 I1.6637 J-1.6597
G3 X107.8173 Y11.0553 I-1.3217 J1.3248
G2 Y11.0581 I2.35 J0.0028
G1 Y22.5914
G2 Y22.5939 I2.35 J0.0
G3 X107.2674 Y23.9213 I-1.8721 J0.002
G2 X107.2633 Y23.9254 I1.6598 J1.6636
G3 X105.9371 Y24.4747 I-1.3238 J-1.3202
G2 X105.9339 I-0.0032 J2.35
G1 X64.2335
G2 X64.2305 I0.0 J2.35
G3 X62.9039 Y23.9252 I-0.0023 J-1.8704
G2 X62.8992 Y23.9205 I-1.6638 J1.6596
G3 X62.3501 Y22.595 I1.3186 J-1.3227
G2 Y22.5914 I-2.35 J-0.0036
G1 F50.0 Z-5.0
G1 F100.0 Y11.0581
G2 Y11.0546 I-2.35 J0.0
G3 X62.8993 Y9.7288 I1.8684 J-0.0027
G2 X62.9041 Y9.724 I-1.6593 J-1.6641
G3 X64.2302 Y9.1747 I1.3235 J1.3197
G2 X64.2335 I0.0033 J-2.35
G1 X105.9339
G2 X105.9368 I0.0 J-2.35
G3 X107.2636 Y9.7243 I0.0023 J1.871
G2 X107.2676 Y9.7283 I1.6637 J-1.6597
G3 X107.8173 Y11.0553 I-1.3217 J1.3248
G2 Y11.0581 I2.35 J0.0028
G1 Y22.5914
G2 Y22.5939 I2.35 J0.0
G3 X107.2674 Y23.9213 I-1.8721 J0.002
G2 X107.2633 Y23.9254 I1.6598 J1.6636
G3 X105.9371 Y24.4747 I-1.3238 J-1.3202
G2 X105.9339 I-0.0032 J2.35
G1 X64.2335
G2 X64.2305 I0.0 J2.35
G3 X62.9039 Y23.9252 I-0.0023 J-1.8704
G2 X62.8992 Y23.9205 I-1.6638 J1.6596
G3 X62.3501 Y22.595 I1.3186 J-1.3227
G2 Y22.5914 I-2.35 J-0.0036
G1 F50.0 Z-6.0
G1 F100.0 Y11.0581
G2 Y11.0546 I-2.35 J0.0
G3 X62.8993 Y9.7288 I1.8684 J-0.0027
G2 X62.9041 Y9.724 I-1.6593 J-1.6641
G3 X64.2302 Y9.1747 I1.3235 J1.3197
G2 X64.2335 I0.0033 J-2.35
G1 X105.9339
G2 X105.9368 I0.0 J-2.35
G3 X107.2636 Y9.7243 I0.0023 J1.871
G2 X107.2676 Y9.7283 I1.6637 J-1.6597
G3 X107.8173 Y11.0553 I-1.3217 J1.3248
G2 Y11.0581 I2.35 J0.0028
G1 Y22.5914
G2 Y22.5939 I2.35 J0.0
G3 X107.2674 Y23.9213 I-1.8721 J0.002
G2 X107.2633 Y23.9254 I1.6598 J1.6636
G3 X105.9371 Y24.4747 I-1.3238 J-1.3202
G2 X105.9339 I-0.0032 J2.35
G1 X64.2335
G2 X64.2305 I0.0 J2.35
G3 X62.9039 Y23.9252 I-0.0023 J-1.8704
G2 X62.8992 Y23.9205 I-1.6638 J1.6596
G3 X62.3501 Y22.595 I1.3186 J-1.3227
G2 Y22.5914 I-2.35 J-0.0036
G1 F50.0 Z-7.0
G1 F100.0 Y11.0581
G2 Y11.0546 I-2.35 J0.0
G3 X62.8993 Y9.7288 I1.8684 J-0.0027
G2 X62.9041 Y9.724 I-1.6593 J-1.6641
G3 X64.2302 Y9.1747 I1.3235 J1.3197
G2 X64.2335 I0.0033 J-2.35
G1 X105.9339
G2 X105.9368 I0.0 J-2.35
G3 X107.2636 Y9.7243 I0.0023 J1.871
G2 X107.2676 Y9.7283 I1.6637 J-1.6597
G3 X107.8173 Y11.0553 I-1.3217 J1.3248
G2 Y11.0581 I2.35 J0.0028
G1 Y22.5914
G2 Y22.5939 I2.35 J0.0
G3 X107.2674 Y23.9213 I-1.8721 J0.002
G2 X107.2633 Y23.9254 I1.6598 J1.6636
G3 X105.9371 Y24.4747 I-1.3238 J-1.3202
G2 X105.9339 I-0.0032 J2.35
G1 X64.2335
G2 X64.2305 I0.0 J2.35
G3 X62.9039 Y23.9252 I-0.0023 J-1.8704
G2 X62.8992 Y23.9205 I-1.6638 J1.6596
G3 X62.3501 Y22.595 I1.3186 J-1.3227
G2 Y22.5914 I-2.35 J-0.0036
G1 F50.0 Z-8.0
G1 F100.0 Y11.0581
G2 Y11.0546 I-2.35 J0.0
G3 X62.8993 Y9.7288 I1.8684 J-0.0027
G2 X62.9041 Y9.724 I-1.6593 J-1.6641
G3 X64.2302 Y9.1747 I1.3235 J1.3197
G2 X64.2335 I0.0033 J-2.35
G1 X105.9339
G2 X105.9368 I0.0 J-2.35
G3 X107.2636 Y9.7243 I0.0023 J1.871
G2 X107.2676 Y9.7283 I1.6637 J-1.6597
G3 X107.8173 Y11.0553 I-1.3217 J1.3248
G2 Y11.0581 I2.35 J0.0028
G1 Y22.5914
G2 Y22.5939 I2.35 J0.0
G3 X107.2674 Y23.9213 I-1.8721 J0.002
G2 X107.2633 Y23.9254 I1.6598 J1.6636
G3 X105.9371 Y24.4747 I-1.3238 J-1.3202
G2 X105.9339 I-0.0032 J2.35
G1 X64.2335
G2 X64.2305 I0.0 J2.35
G3 X62.9039 Y23.9252 I-0.0023 J-1.8704
G2 X62.8992 Y23.9205 I-1.6638 J1.6596
G3 X62.3501 Y22.595 I1.3186 J-1.3227
G2 Y22.5914 I-2.35 J-0.0036
G1 F50.0 Z-9.0
G1 F100.0 Y11.0581
G2 Y11.0546 I-2.35 J0.0
G3 X62.8993 Y9.7288 I1.8684 J-0.0027
G2 X62.9041 Y9.724 I-1.6593 J-1.6641
G3 X64.2302 Y9.1747 I1.3235 J1.3197
G2 X64.2335 I0.0033 J-2.35
G1 X105.9339
G2 X105.9368 I0.0 J-2.35
G3 X107.2636 Y9.7243 I0.0023 J1.871
G2 X107.2676 Y9.7283 I1.6637 J-1.6597
G3 X107.8173 Y11.0553 I-1.3217 J1.3248
G2 Y11.0581 I2.35 J0.0028
G1 Y22.5914
G2 Y22.5939 I2.35 J0.0
G3 X107.2674 Y23.9213 I-1.8721 J0.002
G2 X107.2633 Y23.9254 I1.6598 J1.6636
G3 X105.9371 Y24.4747 I-1.3238 J-1.3202
G2 X105.9339 I-0.0032 J2.35
G1 X64.2335
G2 X64.2305 I0.0 J2.35
G3 X62.9039 Y23.9252 I-0.0023 J-1.8704
G2 X62.8992 Y23.9205 I-1.6638 J1.6596
G3 X62.3501 Y22.595 I1.3186 J-1.3227
G2 Y22.5914 I-2.35 J-0.0036
G1 F50.0 Z-10.0
G1 F100.0 Y11.0581
G2 Y11.0546 I-2.35 J0.0
G3 X62.8993 Y9.7288 I1.8684 J-0.0027
G2 X62.9041 Y9.724 I-1.6593 J-1.6641
G3 X64.2302 Y9.1747 I1.3235 J1.3197
G2 X64.2335 I0.0033 J-2.35
G1 X105.9339
G2 X105.9368 I0.0 J-2.35
G3 X107.2636 Y9.7243 I0.0023 J1.871
G2 X107.2676 Y9.7283 I1.6637 J-1.6597
G3 X107.8173 Y11.0553 I-1.3217 J1.3248
G2 Y11.0581 I2.35 J0.0028
G1 Y22.5914
G2 Y22.5939 I2.35 J0.0
G3 X107.2674 Y23.9213 I-1.8721 J0.002
G2 X107.2633 Y23.9254 I1.6598 J1.6636
G3 X105.9371 Y24.4747 I-1.3238 J-1.3202
G2 X105.9339 I-0.0032 J2.35
G1 X64.2335
G2 X64.2305 I0.0 J2.35
G3 X62.9039 Y23.9252 I-0.0023 J-1.8704
G2 X62.8992 Y23.9205 I-1.6638 J1.6596
G3 X62.3501 Y22.595 I1.3186 J-1.3227
G2 Y22.5914 I-2.35 J-0.0036
G1 F50.0 Z-11.0
G1 F100.0 Y11.0581
G2 Y11.0546 I-2.35 J0.0
G3 X62.8993 Y9.7288 I1.8684 J-0.0027
G2 X62.9041 Y9.724 I-1.6593 J-1.6641
G3 X64.2302 Y9.1747 I1.3235 J1.3197
G2 X64.2335 I0.0033 J-2.35
G1 X105.9339
G2 X105.9368 I0.0 J-2.35
G3 X107.2636 Y9.7243 I0.0023 J1.871
G2 X107.2676 Y9.7283 I1.6637 J-1.6597
G3 X107.8173 Y11.0553 I-1.3217 J1.3248
G2 Y11.0581 I2.35 J0.0028
G1 Y22.5914
G2 Y22.5939 I2.35 J0.0
G3 X107.2674 Y23.9213 I-1.8721 J0.002
G2 X107.2633 Y23.9254 I1.6598 J1.6636
G3 X105.9371 Y24.4747 I-1.3238 J-1.3202
G2 X105.9339 I-0.0032 J2.35
G1 X64.2335
G2 X64.2305 I0.0 J2.35
G3 X62.9039 Y23.9252 I-0.0023 J-1.8704
G2 X62.8992 Y23.9205 I-1.6638 J1.6596
G3 X62.3501 Y22.595 I1.3186 J-1.3227
G2 Y22.5914 I-2.35 J-0.0036
G1 F50.0 Z-12.0
G1 F100.0 Y11.0581
G2 Y11.0546 I-2.35 J0.0
G3 X62.8993 Y9.7288 I1.8684 J-0.0027
G2 X62.9041 Y9.724 I-1.6593 J-1.6641
G3 X64.2302 Y9.1747 I1.3235 J1.3197
G2 X64.2335 I0.0033 J-2.35
G1 X105.9339
G2 X105.9368 I0.0 J-2.35
G3 X107.2636 Y9.7243 I0.0023 J1.871
G2 X107.2676 Y9.7283 I1.6637 J-1.6597
G3 X107.8173 Y11.0553 I-1.3217 J1.3248
G2 Y11.0581 I2.35 J0.0028
G1 Y22.5914
G2 Y22.5939 I2.35 J0.0
G3 X107.2674 Y23.9213 I-1.8721 J0.002
G2 X107.2633 Y23.9254 I1.6598 J1.6636
G3 X105.9371 Y24.4747 I-1.3238 J-1.3202
G2 X105.9339 I-0.0032 J2.35
G1 X64.2335
G2 X64.2305 I0.0 J2.35
G3 X62.9039 Y23.9252 I-0.0023 J-1.8704
G2 X62.8992 Y23.9205 I-1.6638 J1.6596
G3 X62.3501 Y22.595 I1.3186 J-1.3227
G2 Y22.5914 I-2.35 J-0.0036
G1 F50.0 Z-13.0
G1 F100.0 Y11.0581
G2 Y11.0546 I-2.35 J0.0
G3 X62.8993 Y9.7288 I1.8684 J-0.0027
G2 X62.9041 Y9.724 I-1.6593 J-1.6641
G3 X64.2302 Y9.1747 I1.3235 J1.3197
G2 X64.2335 I0.0033 J-2.35
G1 X105.9339
G2 X105.9368 I0.0 J-2.35
G3 X107.2636 Y9.7243 I0.0023 J1.871
G2 X107.2676 Y9.7283 I1.6637 J-1.6597
G3 X107.8173 Y11.0553 I-1.3217 J1.3248
G2 Y11.0581 I2.35 J0.0028
G1 Y22.5914
G2 Y22.5939 I2.35 J0.0
G3 X107.2674 Y23.9213 I-1.8721 J0.002
G2 X107.2633 Y23.9254 I1.6598 J1.6636
G3 X105.9371 Y24.4747 I-1.3238 J-1.3202
G2 X105.9339 I-0.0032 J2.35
G1 X64.2335
G2 X64.2305 I0.0 J2.35
G3 X62.9039 Y23.9252 I-0.0023 J-1.8704
G2 X62.8992 Y23.9205 I-1.6638 J1.6596
G3 X62.3501 Y22.595 I1.3186 J-1.3227
G2 Y22.5914 I-2.35 J-0.0036
G1 F50.0 Z-14.0
G1 F100.0 Y11.0581
G2 Y11.0546 I-2.35 J0.0
G3 X62.8993 Y9.7288 I1.8684 J-0.0027
G2 X62.9041 Y9.724 I-1.6593 J-1.6641
G3 X64.2302 Y9.1747 I1.3235 J1.3197
G2 X64.2335 I0.0033 J-2.35
G1 X105.9339
G2 X105.9368 I0.0 J-2.35
G3 X107.2636 Y9.7243 I0.0023 J1.871
G2 X107.2676 Y9.7283 I1.6637 J-1.6597
G3 X107.8173 Y11.0553 I-1.3217 J1.3248
G2 Y11.0581 I2.35 J0.0028
G1 Y22.5914
G2 Y22.5939 I2.35 J0.0
G3 X107.2674 Y23.9213 I-1.8721 J0.002
G2 X107.2633 Y23.9254 I1.6598 J1.6636
G3 X105.9371 Y24.4747 I-1.3238 J-1.3202
G2 X105.9339 I-0.0032 J2.35
G1 X64.2335
G2 X64.2305 I0.0 J2.35
G3 X62.9039 Y23.9252 I-0.0023 J-1.8704
G2 X62.8992 Y23.9205 I-1.6638 J1.6596
G3 X62.3501 Y22.595 I1.3186 J-1.3227
G2 Y22.5914 I-2.35 J-0.0036
G1 F50.0 Z-15.0
G1 F100.0 Y11.0581
G2 Y11.0546 I-2.35 J0.0
G3 X62.8993 Y9.7288 I1.8684 J-0.0027
G2 X62.9041 Y9.724 I-1.6593 J-1.6641
G3 X64.2302 Y9.1747 I1.3235 J1.3197
G2 X64.2335 I0.0033 J-2.35
G1 X105.9339
G2 X105.9368 I0.0 J-2.35
G3 X107.2636 Y9.7243 I0.0023 J1.871
G2 X107.2676 Y9.7283 I1.6637 J-1.6597
G3 X107.8173 Y11.0553 I-1.3217 J1.3248
G2 Y11.0581 I2.35 J0.0028
G1 Y22.5914
G2 Y22.5939 I2.35 J0.0
G3 X107.2674 Y23.9213 I-1.8721 J0.002
G2 X107.2633 Y23.9254 I1.6598 J1.6636
G3 X105.9371 Y24.4747 I-1.3238 J-1.3202
G2 X105.9339 I-0.0032 J2.35
G1 X64.2335
G2 X64.2305 I0.0 J2.35
G3 X62.9039 Y23.9252 I-0.0023 J-1.8704
G2 X62.8992 Y23.9205 I-1.6638 J1.6596
G3 X62.3501 Y22.595 I1.3186 J-1.3227
G2 Y22.5914 I-2.35 J-0.0036
G1 F50.0 Z-16.0
G1 F100.0 Y11.0581
G2 Y11.0546 I-2.35 J0.0
G3 X62.8993 Y9.7288 I1.8684 J-0.0027
G2 X62.9041 Y9.724 I-1.6593 J-1.6641
G3 X64.2302 Y9.1747 I1.3235 J1.3197
G2 X64.2335 I0.0033 J-2.35
G1 X105.9339
G2 X105.9368 I0.0 J-2.35
G3 X107.2636 Y9.7243 I0.0023 J1.871
G2 X107.2676 Y9.7283 I1.6637 J-1.6597
G3 X107.8173 Y11.0553 I-1.3217 J1.3248
G2 Y11.0581 I2.35 J0.0028
G1 Y22.5914
G2 Y22.5939 I2.35 J0.0
G3 X107.2674 Y23.9213 I-1.8721 J0.002
G2 X107.2633 Y23.9254 I1.6598 J1.6636
G3 X105.9371 Y24.4747 I-1.3238 J-1.3202
G2 X105.9339 I-0.0032 J2.35
G1 X64.2335
G2 X64.2305 I0.0 J2.35
G3 X62.9039 Y23.9252 I-0.0023 J-1.8704
G2 X62.8992 Y23.9205 I-1.6638 J1.6596
G3 X62.3501 Y22.595 I1.3186 J-1.3227
G2 Y22.5914 I-2.35 J-0.0036
G1 F50.0 Z-17.0
G1 F100.0 Y11.0581
G2 Y11.0546 I-2.35 J0.0
G3 X62.8993 Y9.7288 I1.8684 J-0.0027
G2 X62.9041 Y9.724 I-1.6593 J-1.6641
G3 X64.2302 Y9.1747 I1.3235 J1.3197
G2 X64.2335 I0.0033 J-2.35
G1 X105.9339
G2 X105.9368 I0.0 J-2.35
G3 X107.2636 Y9.7243 I0.0023 J1.871
G2 X107.2676 Y9.7283 I1.6637 J-1.6597
G3 X107.8173 Y11.0553 I-1.3217 J1.3248
G2 Y11.0581 I2.35 J0.0028
G1 Y22.5914
G2 Y22.5939 I2.35 J0.0
G3 X107.2674 Y23.9213 I-1.8721 J0.002
G2 X107.2633 Y23.9254 I1.6598 J1.6636
G3 X105.9371 Y24.4747 I-1.3238 J-1.3202
G2 X105.9339 I-0.0032 J2.35
G1 X64.2335
G2 X64.2305 I0.0 J2.35
G3 X62.9039 Y23.9252 I-0.0023 J-1.8704
G2 X62.8992 Y23.9205 I-1.6638 J1.6596
G3 X62.3501 Y22.595 I1.3186 J-1.3227
G2 Y22.5914 I-2.35 J-0.0036
G1 F50.0 Z-18.0
G1 F100.0 Y11.0581
G2 Y11.0546 I-2.35 J0.0
G3 X62.8993 Y9.7288 I1.8684 J-0.0027
G2 X62.9041 Y9.724 I-1.6593 J-1.6641
G3 X64.2302 Y9.1747 I1.3235 J1.3197
G2 X64.2335 I0.0033 J-2.35
G1 X105.9339
G2 X105.9368 I0.0 J-2.35
G3 X107.2636 Y9.7243 I0.0023 J1.871
G2 X107.2676 Y9.7283 I1.6637 J-1.6597
G3 X107.8173 Y11.0553 I-1.3217 J1.3248
G2 Y11.0581 I2.35 J0.0028
G1 Y22.5914
G2 Y22.5939 I2.35 J0.0
G3 X107.2674 Y23.9213 I-1.8721 J0.002
G2 X107.2633 Y23.9254 I1.6598 J1.6636
G3 X105.9371 Y24.4747 I-1.3238 J-1.3202
G2 X105.9339 I-0.0032 J2.35
G1 X64.2335
G2 X64.2305 I0.0 J2.35
G3 X62.9039 Y23.9252 I-0.0023 J-1.8704
G2 X62.8992 Y23.9205 I-1.6638 J1.6596
G3 X62.3501 Y22.595 I1.3186 J-1.3227
G2 Y22.5914 I-2.35 J-0.0036
G1 F50.0 Z-19.0
G1 F100.0 Y11.0581
G2 Y11.0546 I-2.35 J0.0
G3 X62.8993 Y9.7288 I1.8684 J-0.0027
G2 X62.9041 Y9.724 I-1.6593 J-1.6641
G3 X64.2302 Y9.1747 I1.3235 J1.3197
G2 X64.2335 I0.0033 J-2.35
G1 X105.9339
G2 X105.9368 I0.0 J-2.35
G3 X107.2636 Y9.7243 I0.0023 J1.871
G2 X107.2676 Y9.7283 I1.6637 J-1.6597
G3 X107.8173 Y11.0553 I-1.3217 J1.3248
G2 Y11.0581 I2.35 J0.0028
G1 Y22.5914
G2 Y22.5939 I2.35 J0.0
G3 X107.2674 Y23.9213 I-1.8721 J0.002
G2 X107.2633 Y23.9254 I1.6598 J1.6636
G3 X105.9371 Y24.4747 I-1.3238 J-1.3202
G2 X105.9339 I-0.0032 J2.35
G1 X64.2335
G2 X64.2305 I0.0 J2.35
G3 X62.9039 Y23.9252 I-0.0023 J-1.8704
G2 X62.8992 Y23.9205 I-1.6638 J1.6596
G3 X62.3501 Y22.595 I1.3186 J-1.3227
G2 Y22.5914 I-2.35 J-0.0036
G1 F50.0 Z-20.0
G1 F100.0 Y11.0581
G2 Y11.0546 I-2.35 J0.0
G3 X62.8993 Y9.7288 I1.8684 J-0.0027
G2 X62.9041 Y9.724 I-1.6593 J-1.6641
G3 X64.2302 Y9.1747 I1.3235 J1.3197
G2 X64.2335 I0.0033 J-2.35
G1 X105.9339
G2 X105.9368 I0.0 J-2.35
G3 X107.2636 Y9.7243 I0.0023 J1.871
G2 X107.2676 Y9.7283 I1.6637 J-1.6597
G3 X107.8173 Y11.0553 I-1.3217 J1.3248
G2 Y11.0581 I2.35 J0.0028
G1 Y22.5914
G2 Y22.5939 I2.35 J0.0
G3 X107.2674 Y23.9213 I-1.8721 J0.002
G2 X107.2633 Y23.9254 I1.6598 J1.6636
G3 X105.9371 Y24.4747 I-1.3238 J-1.3202
G2 X105.9339 I-0.0032 J2.35
G1 X64.2335
G2 X64.2305 I0.0 J2.35
G3 X62.9039 Y23.9252 I-0.0023 J-1.8704
G2 X62.8992 Y23.9205 I-1.6638 J1.6596
G3 X62.3501 Y22.595 I1.3186 J-1.3227
G2 Y22.5914 I-2.35 J-0.0036
G1 F50.0 Z-21.0
G1 F100.0 Y11.0581
G2 Y11.0546 I-2.35 J0.0
G3 X62.8993 Y9.7288 I1.8684 J-0.0027
G2 X62.9041 Y9.724 I-1.6593 J-1.6641
G3 X64.2302 Y9.1747 I1.3235 J1.3197
G2 X64.2335 I0.0033 J-2.35
G1 X105.9339
G2 X105.9368 I0.0 J-2.35
G3 X107.2636 Y9.7243 I0.0023 J1.871
G2 X107.2676 Y9.7283 I1.6637 J-1.6597
G3 X107.8173 Y11.0553 I-1.3217 J1.3248
G2 Y11.0581 I2.35 J0.0028
G1 Y22.5914
G2 Y22.5939 I2.35 J0.0
G3 X107.2674 Y23.9213 I-1.8721 J0.002
G2 X107.2633 Y23.9254 I1.6598 J1.6636
G3 X105.9371 Y24.4747 I-1.3238 J-1.3202
G2 X105.9339 I-0.0032 J2.35
G1 X64.2335
G2 X64.2305 I0.0 J2.35
G3 X62.9039 Y23.9252 I-0.0023 J-1.8704
G2 X62.8992 Y23.9205 I-1.6638 J1.6596
G3 X62.3501 Y22.595 I1.3186 J-1.3227
G2 Y22.5914 I-2.35 J-0.0036
G0 Z3.0
M5
M30
