( Made using CamBam - http://www.cambam.co.uk )
( back plate 9/17/2013 4:49:47 PM )
( T5 : 5.0 )
G21 G90 G64 G40
G0 Z3.0
( T5 : 5.0 )
T5 M6
( Mains Socket )
G17
M3 S1000
G0 X108.6772 Y54.0239
G0 Z1.0
G1 F50.0 Z-1.0
G1 F100.0 Y39.5236
G1 X130.6774
G1 Y54.0239
G1 X108.6772
G1 F50.0 Z-2.0
G1 F100.0 Y39.5236
G1 X130.6774
G1 Y54.0239
G1 X108.6772
G1 F50.0 Z-3.0
G1 F100.0 Y39.5236
G1 X130.6774
G1 Y54.0239
G1 X108.6772
G1 F50.0 Z-4.0
G1 F100.0 Y39.5236
G1 X130.6774
G1 Y54.0239
G1 X108.6772
G1 F50.0 Z-5.0
G1 F100.0 Y39.5236
G1 X130.6774
G1 Y54.0239
G1 X108.6772
G1 F50.0 Z-6.0
G1 F100.0 Y39.5236
G1 X130.6774
G1 Y54.0239
G1 X108.6772
G1 F50.0 Z-7.0
G1 F100.0 Y39.5236
G1 X130.6774
G1 Y54.0239
G1 X108.6772
G1 F50.0 Z-8.0
G1 F100.0 Y39.5236
G1 X130.6774
G1 Y54.0239
G1 X108.6772
G1 F50.0 Z-9.0
G1 F100.0 Y39.5236
G1 X130.6774
G1 Y54.0239
G1 X108.6772
G1 F50.0 Z-10.0
G1 F100.0 Y39.5236
G1 X130.6774
G1 Y54.0239
G1 X108.6772
G1 F50.0 Z-11.0
G1 F100.0 Y39.5236
G1 X130.6774
G1 Y54.0239
G1 X108.6772
G1 F50.0 Z-12.0
G1 F100.0 Y39.5236
G1 X130.6774
G1 Y54.0239
G1 X108.6772
G1 F50.0 Z-13.0
G1 F100.0 Y39.5236
G1 X130.6774
G1 Y54.0239
G1 X108.6772
G1 F50.0 Z-14.0
G1 F100.0 Y39.5236
G1 X130.6774
G1 Y54.0239
G1 X108.6772
G1 F50.0 Z-15.0
G1 F100.0 Y39.5236
G1 X130.6774
G1 Y54.0239
G1 X108.6772
G1 F50.0 Z-16.0
G1 F100.0 Y39.5236
G1 X130.6774
G1 Y54.0239
G1 X108.6772
G1 F50.0 Z-17.0
G1 F100.0 Y39.5236
G1 X130.6774
G1 Y54.0239
G1 X108.6772
G1 F50.0 Z-18.0
G1 F100.0 Y39.5236
G1 X130.6774
G1 Y54.0239
G1 X108.6772
G1 F50.0 Z-19.0
G1 F100.0 Y39.5236
G1 X130.6774
G1 Y54.0239
G1 X108.6772
G1 F50.0 Z-20.0
G1 F100.0 Y39.5236
G1 X130.6774
G1 Y54.0239
G1 X108.6772
G1 F50.0 Z-21.0
G1 F100.0 Y39.5236
G1 X130.6774
G1 Y54.0239
G1 X108.6772
G0 Z3.0
M5
M30
