( Made using CamBam - http://www.cambam.co.uk )
( belt bearing housing2 9/15/2013 10:47:06 PM )
( T16 : 1.0 )
G21 G90 G64 G40
G0 Z3.0
( T16 : 1.0 )
T16 M6
( Spot Drill )
G17
M3 S1000
G0 X5.2922 Y45.6051
G98
G81 X5.2922 Y45.6051 Z-1.0 R2.0 F50.0
G81 X5.7797 Y26.0902 Z-1.0
G81 Y6.0902 Z-1.0
G81 X30.8141 Y20.5898 Z-1.0
G81 X55.8266 Y6.0902 Z-1.0
G81 X73.5681 Z-1.0
G81 Y26.0902 Z-1.0
G81 Y45.6051 Z-1.0
G81 X55.3391 Z-1.0
G81 Y65.6051 Z-1.0
G81 X73.5681 Z-1.0
G81 X30.3046 Y60.1047 Z-1.0
G80
G0 Z3.0
M5
M30
