( Made using CamBam - http://www.cambam.co.uk )
( belt bearing housing2 9/15/2013 10:47:16 PM )
( T11 : 5.0 )
G21 G90 G64 G40
G0 Z3.0
( T11 : 5.0 )
T11 M6
( 5mm Drill )
G17
M3 S1000
G0 X5.2922 Y45.6051
G98
G83 X5.2922 Y45.6051 Z-8.0 Q2.0 R2.0 F50.0
G83 X5.7797 Y26.0902 Z-8.0
G83 Y6.0902 Z-8.0
G83 X30.8141 Y20.5898 Z-8.0
G83 X55.8266 Y6.0902 Z-8.0
G83 X73.5681 Z-8.0
G83 Y26.0902 Z-8.0
G83 Y45.6051 Z-8.0
G83 X55.3391 Z-8.0
G83 Y65.6051 Z-8.0
G83 X73.5681 Z-8.0
G83 X30.3046 Y60.1047 Z-8.0
G80
G0 Z3.0
M5
M30
