( Made using CamBam - http://www.cambam.co.uk )
( belt bearing housing2 9/15/2013 10:47:39 PM )
( T0 : 5.9 )
( T6 : 6.0 )
G21 G90 G64 G40
G0 Z3.0
( T6 : 6.0 )
T6 M6
( Pocket1 )
G17
M3 S1000
G0 X16.8041 Y60.1052
G0 Z1.0
G1 F50.0 Z-1.0
G2 F120.0 X20.7589 Y69.6509 I13.4672 J0.0126
G2 X30.3043 Y73.6041 I9.5329 J-9.5172
G2 X39.8513 Y69.6494 I0.014 J-13.4673
G2 X42.7777 Y65.2759 I-9.5692 J-9.5689
G2 X42.7792 Y65.2724 I-2.7701 J-1.1518
G2 X43.8044 Y60.1051 I-12.4387 J-5.1533
G2 X39.8485 Y50.5583 I-13.4661 J-0.013
G2 X35.475 Y47.6325 I-9.569 J9.5721
G2 X35.4713 Y47.631 I-1.1516 J2.7702
G2 X30.3044 Y46.6059 I-5.154 J12.4447
G2 X20.7589 Y50.5596 I-0.0127 J13.4692
G2 X16.8041 Y60.1052 I9.5123 J9.533
G0 Z3.0
G0 X9.4732 Y45.4035
G0 Z1.0
G1 F50.0 Z-1.0
G1 F120.0 Y35.1386
G2 X9.8559 Y35.1079 I-1.0065 J-14.9614
G2 X12.781 Y38.6118 I20.9808 J-14.5423
G2 X14.4483 Y40.1397 I18.0196 J-17.9898
G2 X12.2778 Y42.0769 I15.8434 J19.9354
G2 X9.4732 Y45.4035 I17.9934 J18.0157
G1 F50.0 X7.0732
G1 F120.0 Y32.7724
G1 X8.4667
G2 X11.031 Y32.5086 I0.0 J-12.5952
G2 X14.4789 Y36.9156 I19.8057 J-11.943
G2 X18.6006 Y40.1934 I16.3216 J-16.2937
G2 X13.9747 Y43.7741 I11.6911 J19.8817
G2 X7.2089 Y60.1052 I16.2965 J16.3185
G2 X7.5923 Y64.3056 I23.0624 J0.0126
G1 X7.0732
G1 Y45.4035
G1 F50.0 X4.6732
G1 F120.0 Y30.3724
G1 X8.4667
G2 X12.2105 Y29.6602 I0.0 J-10.1952
G2 X16.1769 Y35.2195 I18.6262 J-9.0945
G2 X24.4005 Y40.2683 I14.6236 J-14.5975
G2 X15.6716 Y45.4714 I5.8912 J19.8068
G2 X9.6089 Y60.1052 I14.5996 J14.6213
G2 X10.6872 Y66.7056 I20.6624 J0.0126
G1 X4.6732
G1 Y45.4035
G0 Z3.0
G0 X16.3852 Y5.7557
G0 Z1.0
G1 F50.0 Z-1.0
G2 F120.0 X16.1676 Y5.4962 I-7.9186 J6.4217
G1 X16.6568
G2 X16.3852 Y5.7557 I14.1824 J15.1192
G1 F50.0 X18.0586 Y7.4761
G2 F120.0 X17.8819 Y7.6503 I12.7806 J13.1394
G2 X15.9348 Y9.9431 I12.8986 J12.9268
G2 X8.4667 Y4.3822 I-7.4681 J2.2343
G1 X2.2732
G1 Y3.0962
G1 X25.4536
G2 X23.8126 Y3.6858 I5.3478 J17.4645
G2 X23.803 Y3.6898 I2.9827 J7.202
G2 X18.0586 Y7.4761 I7.0362 J16.9257
G0 Z3.0
G0 X55.9632 Y32.6657
G0 Z1.0
G1 F50.0 Z-1.0
G2 F120.0 X57.7465 Y34.2971 I12.6045 J-11.9883
G1 X55.1123
G2 X55.9632 Y32.6657 I-24.2649 J-13.6942
G1 F50.0 X53.7998 Y31.6267
G2 F120.0 X55.3071 Y27.6782 I-22.9524 J-11.0238
G2 X68.3732 Y35.6714 I13.2607 J-7.0008
G1 Y36.1981
G2 X63.8701 Y36.9517 I0.1945 J14.9939
G2 X61.1187 Y36.6971 I-2.7514 J14.7406
G1 X52.6521
G2 X50.4439 Y36.8606 I0.0 J14.9952
G2 X53.7998 Y31.6267 I-19.5966 J-16.2577
G1 F50.0 X51.6364 Y30.5876
G2 F120.0 X53.9098 Y20.5903 I-20.789 J-9.9847
G2 X50.1102 Y7.8962 I-23.0623 J-0.0126
G1 X56.5534
G2 X55.9725 Y11.6772 I12.0143 J3.7809
G1 Y20.6775
G2 X68.5677 Y33.2727 I12.5952 J0.0
G1 X70.7732
G1 Y38.5969
G1 X68.5677
G2 X64.0372 Y39.4399 I0.0 J12.5952
G2 X61.1187 Y39.0971 I-2.9185 J12.2524
G1 X52.6521
G2 X44.625 Y41.9864 I0.0 J12.5952
G2 X42.5168 Y40.5027 I-14.3455 J18.144
G2 X47.1438 Y36.9217 I-11.6899 J-19.884
G2 X51.6364 Y30.5876 I-16.2964 J-16.3188
G1 F50.0 X49.473 Y29.5485
G2 F120.0 X51.5098 Y20.5903 I-18.6256 J-8.9456
G2 X45.4471 Y5.9565 I-20.6623 J-0.0126
G2 X44.9725 Y5.4962 I-14.6201 J14.6037
G1 X60.4598
G2 X58.3725 Y11.6772 I8.1079 J6.1809
G1 Y20.6775
G2 X68.5677 Y30.8727 I10.1952 J0.0
G1 X73.1732
G1 Y40.9969
G1 X68.5677
G2 X64.2076 Y41.9762 I0.0 J10.1952
G2 X61.1187 Y41.4971 I-3.0888 J9.716
G1 X52.6521
G2 X44.7335 Y45.2706 I0.0 J10.1952
G2 X38.237 Y40.9885 I-14.454 J14.8598
G2 X38.2244 Y40.9833 I-3.9136 J9.4141
G2 X36.718 Y40.427 I-7.9071 J19.0923
G2 X45.447 Y35.2244 I-5.8911 J-19.8082
G2 X49.473 Y29.5485 I-14.5996 J-14.6215
G1 F50.0 X47.3095 Y28.5095
G2 F120.0 X49.1098 Y20.5903 I-16.4622 J-7.9066
G2 X43.7502 Y7.6537 I-18.2623 J-0.0126
G2 X36.1747 Y3.0962 I-12.9232 J12.9065
G1 X75.5732
G1 Y3.882
G1 X68.5677
G2 X60.7725 Y11.6772 I0.0 J7.7952
G1 Y20.6775
G2 X68.5677 Y28.4727 I7.7952 J0.0
G1 X75.5732
G1 Y43.3969
G1 X68.5677
G2 X64.3847 Y44.6142 I0.0 J7.7952
G2 X61.1187 Y43.8971 I-3.266 J7.078
G1 X52.6521
G2 X45.1839 Y49.458 I0.0 J7.7952
G2 X43.2369 Y47.1652 I-14.8456 J10.634
G2 X37.3157 Y43.2047 I-12.9574 J12.9652
G2 X37.3061 Y43.2007 I-2.9923 J7.198
G2 X30.3044 Y41.8107 I-6.9888 J16.875
G2 X17.3685 Y47.1686 I-0.0127 J18.2644
G2 X12.0089 Y60.1052 I12.9027 J12.9241
G2 X14.3737 Y69.1056 I18.2624 J0.0126
G1 X2.2732
G1 Y27.9724
G1 X8.4667
G2 X13.4015 Y26.2116 I0.0 J-7.7952
G2 X13.9095 Y27.5929 I17.3769 J-5.6073
G2 X13.9133 Y27.602 I7.2016 J-2.9836
G2 X17.8749 Y33.5234 I16.9234 J-7.0364
G2 X30.8147 Y38.8844 I12.9256 J-12.9014
G2 X43.7501 Y33.5272 I0.0122 J-18.2657
G2 X47.3095 Y28.5095 I-12.9027 J-12.9243
G0 Z3.0
G0 X47.7173 Y65.7265
G0 Z1.0
G1 F50.0 Z-1.0
G2 F120.0 X52.6521 Y67.4873 I4.9348 J-6.0343
G1 X61.1187
G2 X64.3847 Y66.7702 I0.0 J-7.7952
G2 X68.5677 Y67.9876 I4.183 J-6.5778
G1 X75.5732
G1 Y69.1056
G1 X46.2339
G2 X47.2054 Y67.1169 I-15.9518 J-9.025
G2 X47.2092 Y67.1078 I-7.1978 J-2.9927
G2 X47.7173 Y65.7265 I-16.8688 J-6.9887
G0 Z3.0
G0 X36.3905 Y35.477
G0 Z1.0
G1 F50.0 Z-1.0
G2 F120.0 X42.0533 Y31.8299 I-5.5636 J-14.8582
G2 X46.7098 Y20.5903 I-11.2059 J-11.227
G2 X42.0533 Y9.3509 I-15.8623 J-0.0126
G2 X30.8144 Y4.6958 I-11.2263 J11.2093
G2 X24.731 Y5.9031 I-0.013 J15.8649
G2 X24.7243 Y5.9059 I2.0644 J4.9846
G2 X19.5778 Y9.3486 I6.115 J14.7096
G2 X14.9191 Y20.5901 I11.2027 J11.2286
G2 X16.1268 Y26.6743 I15.8592 J0.0141
G2 X16.1294 Y26.6806 I4.9844 J-2.065
G2 X19.5729 Y31.8273 I14.7073 J-6.115
G2 X30.8146 Y36.4844 I11.2276 J-11.2053
G2 X36.3905 Y35.477 I0.0123 J-15.8657
G1 F50.0 X35.5506 Y33.2339
G2 F120.0 X40.3598 Y30.136 I-4.7237 J-12.6151
G2 X44.3146 Y20.5903 I-9.5125 J-9.5331
G2 X40.3598 Y11.0447 I-13.4671 J-0.0126
G2 X30.8143 Y7.091 I-9.5328 J9.5155
G2 X25.6474 Y8.1161 I-0.0129 J13.4697
G2 X25.6437 Y8.1176 I1.1479 J2.7717
G2 X21.2703 Y11.0434 I5.1955 J12.4979
G2 X17.3143 Y20.5902 I9.5102 J9.5337
G2 X18.3396 Y25.7575 I13.464 J0.014
G2 X18.341 Y25.761 I2.7716 J-1.1482
G2 X21.2675 Y30.1345 I12.4957 J-5.1954
G2 X30.8145 Y34.0892 I9.533 J-9.5125
G2 X35.5506 Y33.2339 I0.0125 J-13.4705
G0 Z3.0
G0 X33.3533 Y44.5039
G0 Z1.0
G1 F50.0 Z-1.0
G2 F120.0 X30.3044 Y44.2107 I-3.036 J15.5717
G2 X19.0654 Y48.8658 I-0.0127 J15.8644
G2 X14.4089 Y60.1052 I11.2058 J11.2268
G2 X19.0655 Y71.3448 I15.8624 J0.0126
G2 X19.2284 Y71.5056 I11.2263 J-11.2111
G1 X-0.1268
G1 Y25.5709
G2 X0.0 Y25.5724 I0.1268 J-5.3937
G1 X8.4667
G2 X13.8619 Y20.1772 I0.0 J-5.3952
G1 Y12.1774
G2 X8.4667 Y6.7822 I-5.3952 J0.0
G1 X0.0
G2 X-0.1268 Y6.7837 I0.0 J5.3952
G1 Y0.6962
G1 X77.9732
G1 Y6.282
G1 X68.5677
G2 X63.1725 Y11.6772 I0.0 J5.3952
G1 Y20.6775
G2 X68.5677 Y26.0727 I5.3952 J0.0
G1 X77.9732
G1 Y45.7969
G1 X68.5677
G2 X64.5822 Y47.5556 I0.0 J5.3952
G2 X61.1187 Y46.2971 I-3.4635 J4.1367
G1 X52.6521
G2 X47.2569 Y51.6923 I0.0 J5.3952
G1 Y59.6921
G2 X52.6521 Y65.0873 I5.3952 J0.0
G1 X61.1187
G2 X64.5822 Y63.8288 I0.0 J-5.3952
G2 X68.5677 Y65.5876 I3.9855 J-3.6365
G1 X77.9732
G1 Y71.5056
G1 X41.3804
G2 X41.5459 Y71.3422 I-11.0621 J-11.3687
G2 X44.9894 Y66.1955 I-11.2638 J-11.2616
G2 X44.992 Y66.1892 I-4.9818 J-2.0713
G2 X46.1996 Y60.105 I-14.6516 J-6.0701
G2 X41.541 Y48.8635 I-15.8613 J-0.013
G2 X36.3944 Y45.4208 I-11.2615 J11.2669
G2 X36.3878 Y45.418 I-2.071 J4.9819
G2 X33.3533 Y44.5039 I-6.0704 J14.6576
G0 Z3.0
G0 Y73.9056
G0 Z1.0
G1 F50.0 Z-1.0
G1 F120.0 X-2.5268
G1 Y21.7944
G2 X0.0 Y23.1772 I2.5268 J-1.6172
G1 X8.4667
G2 X11.4667 Y20.1772 I0.0 J-3.0
G1 Y12.1774
G2 X8.4667 Y9.1774 I-3.0 J0.0
G1 X0.0
G2 X-2.5268 Y10.5602 I0.0 J3.0
G1 Y-1.7038
G1 X80.3732
G1 Y9.2815
G2 X78.5675 Y8.6772 I-1.8057 J2.3957
G1 X68.5677
G2 X65.5677 Y11.6772 I0.0 J3.0
G1 Y20.6775
G2 X68.5677 Y23.6775 I3.0 J0.0
G1 X78.5675
G2 X80.3732 Y23.0732 I0.0 J-3.0
G1 Y48.7964
G2 X78.5675 Y48.1921 I-1.8057 J2.3957
G1 X68.5677
G2 X65.5677 Y51.1921 I0.0 J3.0
G1 Y60.1924
G2 X68.5677 Y63.1924 I3.0 J0.0
G1 X78.5675
G2 X80.3732 Y62.5881 I0.0 J-3.0
G1 Y73.9056
G1 X33.3533
G1 F50.0 X33.2173 Y73.2884
G1 Z-2.0
G2 F120.0 X39.8513 Y69.6494 I-2.8991 J-13.1515
G2 X42.7777 Y65.2759 I-9.5692 J-9.5689
G2 X42.7792 Y65.2724 I-2.7701 J-1.1518
G2 X43.8044 Y60.1051 I-12.4387 J-5.1533
G2 X39.8485 Y50.5583 I-13.4661 J-0.013
G2 X35.475 Y47.6325 I-9.569 J9.5721
G2 X35.4713 Y47.631 I-1.1516 J2.7702
G2 X30.3044 Y46.6059 I-5.154 J12.4447
G2 X20.7589 Y50.5596 I-0.0127 J13.4692
G2 X16.8041 Y60.1052 I9.5123 J9.533
G2 X20.7589 Y69.6509 I13.4672 J0.0126
G2 X30.3043 Y73.6041 I9.5329 J-9.5172
G2 X33.2173 Y73.2884 I0.014 J-13.4673
G0 Z3.0
G0 X50.1939 Y61.4118
G0 Z1.0
G1 F50.0 Z-1.0
G2 F120.0 X52.6521 Y62.6921 I2.4582 J-1.7197
G1 X61.1187
G2 X64.1187 Y59.6921 I0.0 J-3.0
G1 Y51.6923
G2 X61.1187 Y48.6923 I-3.0 J0.0
G1 X52.6521
G2 X49.6521 Y51.6923 I0.0 J3.0
G1 Y59.6921
G2 X50.1939 Y61.4118 I3.0 J0.0
G1 F50.0 Z-2.0
G2 F120.0 X52.6521 Y62.6921 I2.4582 J-1.7197
G1 X61.1187
G2 X64.1187 Y59.6921 I0.0 J-3.0
G1 Y51.6923
G2 X61.1187 Y48.6923 I-3.0 J0.0
G1 X52.6521
G2 X49.6521 Y51.6923 I0.0 J3.0
G1 Y59.6921
G2 X50.1939 Y61.4118 I3.0 J0.0
G0 Z3.0
G0 X47.7173 Y65.7265
G0 Z0.0
G1 F50.0 Z-2.0
G2 F120.0 X52.6521 Y67.4873 I4.9348 J-6.0343
G1 X61.1187
G2 X64.3847 Y66.7702 I0.0 J-7.7952
G2 X68.5677 Y67.9876 I4.183 J-6.5778
G1 X75.5732
G1 Y69.1056
G1 X46.2339
G2 X47.2054 Y67.1169 I-15.9518 J-9.025
G2 X47.2092 Y67.1078 I-7.1978 J-2.9927
G2 X47.7173 Y65.7265 I-16.8688 J-6.9887
G0 Z3.0
G0 X55.1123 Y34.2971
G0 Z0.0
G1 F50.0 Z-2.0
G2 F120.0 X55.9632 Y32.6657 I-24.2649 J-13.6942
G2 X57.7465 Y34.2971 I12.6045 J-11.9883
G1 X55.1123
G1 F50.0 X53.0222 Y33.1175
G2 F120.0 X55.3071 Y27.6782 I-22.1748 J-12.5146
G2 X68.3732 Y35.6714 I13.2607 J-7.0008
G1 Y36.1981
G2 X63.8701 Y36.9517 I0.1945 J14.9939
G2 X61.1187 Y36.6971 I-2.7514 J14.7406
G1 X52.6521
G2 X50.4439 Y36.8606 I0.0 J14.9952
G2 X53.0222 Y33.1175 I-19.5966 J-16.2577
G1 F50.0 X50.932 Y31.9379
G2 F120.0 X53.9098 Y20.5903 I-20.0847 J-11.335
G2 X50.1102 Y7.8962 I-23.0623 J-0.0126
G1 X56.5534
G2 X55.9725 Y11.6772 I12.0143 J3.7809
G1 Y20.6775
G2 X68.5677 Y33.2727 I12.5952 J0.0
G1 X70.7732
G1 Y38.5969
G1 X68.5677
G2 X64.0372 Y39.4399 I0.0 J12.5952
G2 X61.1187 Y39.0971 I-2.9185 J12.2524
G1 X52.6521
G2 X44.625 Y41.9864 I0.0 J12.5952
G2 X42.5168 Y40.5027 I-14.3455 J18.144
G2 X47.1438 Y36.9217 I-11.6899 J-19.884
G2 X50.932 Y31.9379 I-16.2964 J-16.3188
G1 F50.0 X48.8419 Y30.7583
G2 F120.0 X51.5098 Y20.5903 I-17.9946 J-10.1554
G2 X45.4471 Y5.9565 I-20.6623 J-0.0126
G2 X44.9725 Y5.4962 I-14.6201 J14.6037
G1 X60.4598
G2 X58.3725 Y11.6772 I8.1079 J6.1809
G1 Y20.6775
G2 X68.5677 Y30.8727 I10.1952 J0.0
G1 X73.1732
G1 Y40.9969
G1 X68.5677
G2 X64.2076 Y41.9762 I0.0 J10.1952
G2 X61.1187 Y41.4971 I-3.0888 J9.716
G1 X52.6521
G2 X44.7335 Y45.2706 I0.0 J10.1952
G2 X38.237 Y40.9885 I-14.454 J14.8598
G2 X38.2244 Y40.9833 I-3.9136 J9.4141
G2 X36.718 Y40.427 I-7.9071 J19.0923
G2 X45.447 Y35.2244 I-5.8911 J-19.8082
G2 X48.8419 Y30.7583 I-14.5996 J-14.6215
G0 Z3.0
G0 X14.4483 Y40.1397
G0 Z0.0
G1 F50.0 Z-2.0
G2 F120.0 X12.2778 Y42.0769 I15.8434 J19.9354
G2 X9.4732 Y45.4035 I17.9934 J18.0157
G1 Y35.1386
G2 X9.8559 Y35.1079 I-1.0065 J-14.9614
G2 X12.781 Y38.6118 I20.9808 J-14.5423
G2 X14.4483 Y40.1397 I18.0196 J-17.9898
G1 F50.0 X15.9896 Y38.3
G2 F120.0 X18.6006 Y40.1934 I14.8109 J-17.6781
G2 X13.9747 Y43.7741 I11.6911 J19.8817
G2 X7.2089 Y60.1052 I16.2965 J16.3185
G2 X7.5923 Y64.3056 I23.0624 J0.0126
G1 X7.0732
G1 Y32.7724
G1 X8.4667
G2 X11.031 Y32.5086 I0.0 J-12.5952
G2 X14.4789 Y36.9156 I19.8057 J-11.943
G2 X15.9896 Y38.3 I16.3216 J-16.2937
G1 F50.0 X17.5309 Y36.4604
G2 F120.0 X24.4005 Y40.2683 I13.2696 J-15.8384
G2 X15.6716 Y45.4714 I5.8912 J19.8068
G2 X9.6089 Y60.1052 I14.5996 J14.6213
G2 X10.6872 Y66.7056 I20.6624 J0.0126
G1 X4.6732
G1 Y30.3724
G1 X8.4667
G2 X12.2105 Y29.6602 I0.0 J-10.1952
G2 X16.1769 Y35.2195 I18.6262 J-9.0945
G2 X17.5309 Y36.4604 I14.6236 J-14.5975
G1 F50.0 X19.0722 Y34.6207
G2 F120.0 X30.8147 Y38.8844 I11.7283 J-13.9987
G2 X43.7501 Y33.5272 I0.0122 J-18.2657
G2 X49.1098 Y20.5903 I-12.9027 J-12.9243
G2 X43.7502 Y7.6537 I-18.2623 J-0.0126
G2 X36.1747 Y3.0962 I-12.9232 J12.9065
G1 X75.5732
G1 Y3.882
G1 X68.5677
G2 X60.7725 Y11.6772 I0.0 J7.7952
G1 Y20.6775
G2 X68.5677 Y28.4727 I7.7952 J0.0
G1 X75.5732
G1 Y43.3969
G1 X68.5677
G2 X64.3847 Y44.6142 I0.0 J7.7952
G2 X61.1187 Y43.8971 I-3.266 J7.078
G1 X52.6521
G2 X45.1839 Y49.458 I0.0 J7.7952
G2 X43.2369 Y47.1652 I-14.8456 J10.634
G2 X37.3157 Y43.2047 I-12.9574 J12.9652
G2 X37.3061 Y43.2007 I-2.9923 J7.198
G2 X30.3044 Y41.8107 I-6.9888 J16.875
G2 X17.3685 Y47.1686 I-0.0127 J18.2644
G2 X12.0089 Y60.1052 I12.9027 J12.9241
G2 X14.3737 Y69.1056 I18.2624 J0.0126
G1 X2.2732
G1 Y27.9724
G1 X8.4667
G2 X13.4015 Y26.2116 I0.0 J-7.7952
G2 X13.9095 Y27.5929 I17.3769 J-5.6073
G2 X13.9133 Y27.602 I7.2016 J-2.9836
G2 X17.8749 Y33.5234 I16.9234 J-7.0364
G2 X19.0722 Y34.6207 I12.9256 J-12.9014
G0 Z3.0
G0 X16.3852 Y5.7557
G0 Z0.0
G1 F50.0 Z-2.0
G2 F120.0 X16.1676 Y5.4962 I-7.9186 J6.4217
G1 X16.6568
G2 X16.3852 Y5.7557 I14.1824 J15.1192
G1 F50.0 X18.0586 Y7.4761
G2 F120.0 X17.8819 Y7.6503 I12.7806 J13.1394
G2 X15.9348 Y9.9431 I12.8986 J12.9268
G2 X8.4667 Y4.3822 I-7.4681 J2.2343
G1 X2.2732
G1 Y3.0962
G1 X25.4536
G2 X23.8126 Y3.6858 I5.3478 J17.4645
G2 X23.803 Y3.6898 I2.9827 J7.202
G2 X18.0586 Y7.4761 I7.0362 J16.9257
G1 F50.0 X19.732 Y9.1964
G2 F120.0 X19.5778 Y9.3486 I11.1072 J11.419
G2 X14.9191 Y20.5901 I11.2027 J11.2286
G2 X16.1268 Y26.6743 I15.8592 J0.0141
G2 X16.1294 Y26.6806 I4.9844 J-2.065
G2 X19.5729 Y31.8273 I14.7073 J-6.115
G2 X30.8146 Y36.4844 I11.2276 J-11.2053
G2 X42.0533 Y31.8299 I0.0123 J-15.8657
G2 X46.7098 Y20.5903 I-11.2059 J-11.227
G2 X42.0533 Y9.3509 I-15.8623 J-0.0126
G2 X30.8144 Y4.6958 I-11.2263 J11.2093
G2 X24.731 Y5.9031 I-0.013 J15.8649
G2 X24.7243 Y5.9059 I2.0644 J4.9846
G2 X19.732 Y9.1964 I6.115 J14.7096
G1 F50.0 X21.4021 Y10.9134
G2 F120.0 X21.2703 Y11.0434 I9.4372 J9.7021
G2 X17.3143 Y20.5902 I9.5102 J9.5337
G2 X18.3396 Y25.7575 I13.464 J0.014
G2 X18.341 Y25.761 I2.7716 J-1.1482
G2 X21.2675 Y30.1345 I12.4957 J-5.1954
G2 X30.8145 Y34.0892 I9.533 J-9.5125
G2 X40.3598 Y30.136 I0.0125 J-13.4705
G2 X44.3146 Y20.5903 I-9.5125 J-9.5331
G2 X40.3598 Y11.0447 I-13.4671 J-0.0126
G2 X30.8143 Y7.091 I-9.5328 J9.5155
G2 X25.6474 Y8.1161 I-0.0129 J13.4697
G2 X25.6437 Y8.1176 I1.1479 J2.7717
G2 X21.4021 Y10.9134 I5.1955 J12.4979
G0 Z3.0
G0 X13.8363 Y11.6527
G0 Z0.0
G1 F50.0 Z-2.0
G2 F120.0 X8.4667 Y6.7822 I-5.3696 J0.5247
G1 X0.0
G2 X-0.1268 Y6.7837 I0.0 J5.3952
G1 Y0.6962
G1 X77.9732
G1 Y6.282
G1 X68.5677
G2 X63.1725 Y11.6772 I0.0 J5.3952
G1 Y20.6775
G2 X68.5677 Y26.0727 I5.3952 J0.0
G1 X77.9732
G1 Y45.7969
G1 X68.5677
G2 X64.5822 Y47.5556 I0.0 J5.3952
G2 X61.1187 Y46.2971 I-3.4635 J4.1367
G1 X52.6521
G2 X47.2569 Y51.6923 I0.0 J5.3952
G1 Y59.6921
G2 X52.6521 Y65.0873 I5.3952 J0.0
G1 X61.1187
G2 X64.5822 Y63.8288 I0.0 J-5.3952
G2 X68.5677 Y65.5876 I3.9855 J-3.6365
G1 X77.9732
G1 Y71.5056
G1 X41.3804
G2 X41.5459 Y71.3422 I-11.0621 J-11.3687
G2 X44.9894 Y66.1955 I-11.2638 J-11.2616
G2 X44.992 Y66.1892 I-4.9818 J-2.0713
G2 X46.1996 Y60.105 I-14.6516 J-6.0701
G2 X41.541 Y48.8635 I-15.8613 J-0.013
G2 X36.3944 Y45.4208 I-11.2615 J11.2669
G2 X36.3878 Y45.418 I-2.071 J4.9819
G2 X30.3044 Y44.2107 I-6.0704 J14.6576
G2 X19.0654 Y48.8658 I-0.0127 J15.8644
G2 X14.4089 Y60.1052 I11.2058 J11.2268
G2 X19.0655 Y71.3448 I15.8624 J0.0126
G2 X19.2284 Y71.5056 I11.2263 J-11.2111
G1 X-0.1268
G1 Y25.5709
G2 X0.0 Y25.5724 I0.1268 J-5.3937
G1 X8.4667
G2 X13.8619 Y20.1772 I0.0 J-5.3952
G1 Y12.1774
G2 X13.8363 Y11.6527 I-5.3952 J0.0
G1 F50.0 X11.4524 Y11.8856
G2 F120.0 X8.4667 Y9.1774 I-2.9858 J0.2918
G1 X0.0
G2 X-2.5268 Y10.5602 I0.0 J3.0
G1 Y-1.7038
G1 X80.3732
G1 Y9.2815
G2 X78.5675 Y8.6772 I-1.8057 J2.3957
G1 X68.5677
G2 X65.5677 Y11.6772 I0.0 J3.0
G1 Y20.6775
G2 X68.5677 Y23.6775 I3.0 J0.0
G1 X78.5675
G2 X80.3732 Y23.0732 I0.0 J-3.0
G1 Y48.7964
G2 X78.5675 Y48.1921 I-1.8057 J2.3957
G1 X68.5677
G2 X65.5677 Y51.1921 I0.0 J3.0
G1 Y60.1924
G2 X68.5677 Y63.1924 I3.0 J0.0
G1 X78.5675
G2 X80.3732 Y62.5881 I0.0 J-3.0
G1 Y73.9056
G1 X-2.5268
G1 Y21.7944
G2 X0.0 Y23.1772 I2.5268 J-1.6172
G1 X8.4667
G2 X11.4667 Y20.1772 I0.0 J-3.0
G1 Y12.1774
G2 X11.4524 Y11.8856 I-3.0 J0.0
G0 Z3.0
G0 X16.3852 Y5.7557
G0 Z-1.0
G1 F50.0 Z-3.0
G2 F120.0 X16.1676 Y5.4962 I-7.9186 J6.4217
G1 X16.6568
G2 X16.3852 Y5.7557 I14.1824 J15.1192
G1 F50.0 X18.0586 Y7.4761
G2 F120.0 X17.8819 Y7.6503 I12.7806 J13.1394
G2 X15.9348 Y9.9431 I12.8986 J12.9268
G2 X8.4667 Y4.3822 I-7.4681 J2.2343
G1 X2.2732
G1 Y3.0962
G1 X25.4536
G2 X23.8126 Y3.6858 I5.3478 J17.4645
G2 X23.803 Y3.6898 I2.9827 J7.202
G2 X18.0586 Y7.4761 I7.0362 J16.9257
G0 Z3.0
G0 X9.8559 Y35.1079
G0 Z-1.0
G1 F50.0 Z-3.0
G2 F120.0 X12.781 Y38.6118 I20.9808 J-14.5423
G2 X14.4483 Y40.1397 I18.0196 J-17.9898
G2 X12.2778 Y42.0769 I15.8434 J19.9354
G2 X9.4732 Y45.4035 I17.9934 J18.0157
G1 Y35.1386
G2 X9.8559 Y35.1079 I-1.0065 J-14.9614
G1 F50.0 X9.6335 Y32.7183
G2 F120.0 X11.031 Y32.5086 I-1.1669 J-12.541
G2 X14.4789 Y36.9156 I19.8057 J-11.943
G2 X18.6006 Y40.1934 I16.3216 J-16.2937
G2 X13.9747 Y43.7741 I11.6911 J19.8817
G2 X7.2089 Y60.1052 I16.2965 J16.3185
G2 X7.5923 Y64.3056 I23.0624 J0.0126
G1 X7.0732
G1 Y32.7724
G1 X8.4667
G2 X9.6335 Y32.7183 I0.0 J-12.5952
G1 F50.0 X9.4112 Y30.3286
G2 F120.0 X12.2105 Y29.6602 I-0.9445 J-10.1514
G2 X16.1769 Y35.2195 I18.6262 J-9.0945
G2 X24.4005 Y40.2683 I14.6236 J-14.5975
G2 X15.6716 Y45.4714 I5.8912 J19.8068
G2 X9.6089 Y60.1052 I14.5996 J14.6213
G2 X10.6872 Y66.7056 I20.6624 J0.0126
G1 X4.6732
G1 Y30.3724
G1 X8.4667
G2 X9.4112 Y30.3286 I0.0 J-10.1952
G0 Z3.0
G0 X55.1123 Y34.2971
G0 Z-1.0
G1 F50.0 Z-3.0
G2 F120.0 X55.9632 Y32.6657 I-24.2649 J-13.6942
G2 X57.7465 Y34.2971 I12.6045 J-11.9883
G1 X55.1123
G1 F50.0 X53.0222 Y33.1175
G2 F120.0 X55.3071 Y27.6782 I-22.1748 J-12.5146
G2 X68.3732 Y35.6714 I13.2607 J-7.0008
G1 Y36.1981
G2 X63.8701 Y36.9517 I0.1945 J14.9939
G2 X61.1187 Y36.6971 I-2.7514 J14.7406
G1 X52.6521
G2 X50.4439 Y36.8606 I0.0 J14.9952
G2 X53.0222 Y33.1175 I-19.5966 J-16.2577
G1 F50.0 X50.932 Y31.9379
G2 F120.0 X53.9098 Y20.5903 I-20.0847 J-11.335
G2 X50.1102 Y7.8962 I-23.0623 J-0.0126
G1 X56.5534
G2 X55.9725 Y11.6772 I12.0143 J3.7809
G1 Y20.6775
G2 X68.5677 Y33.2727 I12.5952 J0.0
G1 X70.7732
G1 Y38.5969
G1 X68.5677
G2 X64.0372 Y39.4399 I0.0 J12.5952
G2 X61.1187 Y39.0971 I-2.9185 J12.2524
G1 X52.6521
G2 X44.625 Y41.9864 I0.0 J12.5952
G2 X42.5168 Y40.5027 I-14.3455 J18.144
G2 X47.1438 Y36.9217 I-11.6899 J-19.884
G2 X50.932 Y31.9379 I-16.2964 J-16.3188
G1 F50.0 X48.8419 Y30.7583
G2 F120.0 X51.5098 Y20.5903 I-17.9946 J-10.1554
G2 X45.4471 Y5.9565 I-20.6623 J-0.0126
G2 X44.9725 Y5.4962 I-14.6201 J14.6037
G1 X60.4598
G2 X58.3725 Y11.6772 I8.1079 J6.1809
G1 Y20.6775
G2 X68.5677 Y30.8727 I10.1952 J0.0
G1 X73.1732
G1 Y40.9969
G1 X68.5677
G2 X64.2076 Y41.9762 I0.0 J10.1952
G2 X61.1187 Y41.4971 I-3.0888 J9.716
G1 X52.6521
G2 X44.7335 Y45.2706 I0.0 J10.1952
G2 X38.237 Y40.9885 I-14.454 J14.8598
G2 X38.2244 Y40.9833 I-3.9136 J9.4141
G2 X36.718 Y40.427 I-7.9071 J19.0923
G2 X45.447 Y35.2244 I-5.8911 J-19.8082
G2 X48.8419 Y30.7583 I-14.5996 J-14.6215
G1 F50.0 X46.7518 Y29.5788
G2 F120.0 X49.1098 Y20.5903 I-15.9044 J-8.9759
G2 X43.7502 Y7.6537 I-18.2623 J-0.0126
G2 X36.1747 Y3.0962 I-12.9232 J12.9065
G1 X75.5732
G1 Y3.882
G1 X68.5677
G2 X60.7725 Y11.6772 I0.0 J7.7952
G1 Y20.6775
G2 X68.5677 Y28.4727 I7.7952 J0.0
G1 X75.5732
G1 Y43.3969
G1 X68.5677
G2 X64.3847 Y44.6142 I0.0 J7.7952
G2 X61.1187 Y43.8971 I-3.266 J7.078
G1 X52.6521
G2 X45.1839 Y49.458 I0.0 J7.7952
G2 X43.2369 Y47.1652 I-14.8456 J10.634
G2 X37.3157 Y43.2047 I-12.9574 J12.9652
G2 X37.3061 Y43.2007 I-2.9923 J7.198
G2 X30.3044 Y41.8107 I-6.9888 J16.875
G2 X17.3685 Y47.1686 I-0.0127 J18.2644
G2 X12.0089 Y60.1052 I12.9027 J12.9241
G2 X14.3737 Y69.1056 I18.2624 J0.0126
G1 X2.2732
G1 Y27.9724
G1 X8.4667
G2 X13.4015 Y26.2116 I0.0 J-7.7952
G2 X13.9095 Y27.5929 I17.3769 J-5.6073
G2 X13.9133 Y27.602 I7.2016 J-2.9836
G2 X17.8749 Y33.5234 I16.9234 J-7.0364
G2 X30.8147 Y38.8844 I12.9256 J-12.9014
G2 X43.7501 Y33.5272 I0.0122 J-18.2657
G2 X46.7518 Y29.5788 I-12.9027 J-12.9243
G0 Z3.0
G0 X47.7173 Y65.7265
G0 Z-1.0
G1 F50.0 Z-3.0
G2 F120.0 X52.6521 Y67.4873 I4.9348 J-6.0343
G1 X61.1187
G2 X64.3847 Y66.7702 I0.0 J-7.7952
G2 X68.5677 Y67.9876 I4.183 J-6.5778
G1 X75.5732
G1 Y69.1056
G1 X46.2339
G2 X47.2054 Y67.1169 I-15.9518 J-9.025
G2 X47.2092 Y67.1078 I-7.1978 J-2.9927
G2 X47.7173 Y65.7265 I-16.8688 J-6.9887
G0 Z3.0
G0 X36.3905 Y35.477
G0 Z-1.0
G1 F50.0 Z-3.0
G2 F120.0 X42.0533 Y31.8299 I-5.5636 J-14.8582
G2 X46.7098 Y20.5903 I-11.2059 J-11.227
G2 X42.0533 Y9.3509 I-15.8623 J-0.0126
G2 X30.8144 Y4.6958 I-11.2263 J11.2093
G2 X24.731 Y5.9031 I-0.013 J15.8649
G2 X24.7243 Y5.9059 I2.0644 J4.9846
G2 X19.5778 Y9.3486 I6.115 J14.7096
G2 X14.9191 Y20.5901 I11.2027 J11.2286
G2 X16.1268 Y26.6743 I15.8592 J0.0141
G2 X16.1294 Y26.6806 I4.9844 J-2.065
G2 X19.5729 Y31.8273 I14.7073 J-6.115
G2 X30.8146 Y36.4844 I11.2276 J-11.2053
G2 X36.3905 Y35.477 I0.0123 J-15.8657
G1 F50.0 X35.5506 Y33.2339
G2 F120.0 X40.3598 Y30.136 I-4.7237 J-12.6151
G2 X44.3146 Y20.5903 I-9.5125 J-9.5331
G2 X40.3598 Y11.0447 I-13.4671 J-0.0126
G2 X30.8143 Y7.091 I-9.5328 J9.5155
G2 X25.6474 Y8.1161 I-0.0129 J13.4697
G2 X25.6437 Y8.1176 I1.1479 J2.7717
G2 X21.2703 Y11.0434 I5.1955 J12.4979
G2 X17.3143 Y20.5902 I9.5102 J9.5337
G2 X18.3396 Y25.7575 I13.464 J0.014
G2 X18.341 Y25.761 I2.7716 J-1.1482
G2 X21.2675 Y30.1345 I12.4957 J-5.1954
G2 X30.8145 Y34.0892 I9.533 J-9.5125
G2 X35.5506 Y33.2339 I0.0125 J-13.4705
G0 Z3.0
G0 X33.3533 Y44.5039
G0 Z-1.0
G1 F50.0 Z-3.0
G2 F120.0 X30.3044 Y44.2107 I-3.036 J15.5717
G2 X19.0654 Y48.8658 I-0.0127 J15.8644
G2 X14.4089 Y60.1052 I11.2058 J11.2268
G2 X19.0655 Y71.3448 I15.8624 J0.0126
G2 X19.2284 Y71.5056 I11.2263 J-11.2111
G1 X-0.1268
G1 Y25.5709
G2 X0.0 Y25.5724 I0.1268 J-5.3937
G1 X8.4667
G2 X13.8619 Y20.1772 I0.0 J-5.3952
G1 Y12.1774
G2 X8.4667 Y6.7822 I-5.3952 J0.0
G1 X0.0
G2 X-0.1268 Y6.7837 I0.0 J5.3952
G1 Y0.6962
G1 X77.9732
G1 Y6.282
G1 X68.5677
G2 X63.1725 Y11.6772 I0.0 J5.3952
G1 Y20.6775
G2 X68.5677 Y26.0727 I5.3952 J0.0
G1 X77.9732
G1 Y45.7969
G1 X68.5677
G2 X64.5822 Y47.5556 I0.0 J5.3952
G2 X61.1187 Y46.2971 I-3.4635 J4.1367
G1 X52.6521
G2 X47.2569 Y51.6923 I0.0 J5.3952
G1 Y59.6921
G2 X52.6521 Y65.0873 I5.3952 J0.0
G1 X61.1187
G2 X64.5822 Y63.8288 I0.0 J-5.3952
G2 X68.5677 Y65.5876 I3.9855 J-3.6365
G1 X77.9732
G1 Y71.5056
G1 X41.3804
G2 X41.5459 Y71.3422 I-11.0621 J-11.3687
G2 X44.9894 Y66.1955 I-11.2638 J-11.2616
G2 X44.992 Y66.1892 I-4.9818 J-2.0713
G2 X46.1996 Y60.105 I-14.6516 J-6.0701
G2 X41.541 Y48.8635 I-15.8613 J-0.013
G2 X36.3944 Y45.4208 I-11.2615 J11.2669
G2 X36.3878 Y45.418 I-2.071 J4.9819
G2 X33.3533 Y44.5039 I-6.0704 J14.6576
G0 Z3.0
G0 Y73.9056
G0 Z-1.0
G1 F50.0 Z-3.0
G1 F120.0 X-2.5268
G1 Y21.7944
G2 X0.0 Y23.1772 I2.5268 J-1.6172
G1 X8.4667
G2 X11.4667 Y20.1772 I0.0 J-3.0
G1 Y12.1774
G2 X8.4667 Y9.1774 I-3.0 J0.0
G1 X0.0
G2 X-2.5268 Y10.5602 I0.0 J3.0
G1 Y-1.7038
G1 X80.3732
G1 Y9.2815
G2 X78.5675 Y8.6772 I-1.8057 J2.3957
G1 X68.5677
G2 X65.5677 Y11.6772 I0.0 J3.0
G1 Y20.6775
G2 X68.5677 Y23.6775 I3.0 J0.0
G1 X78.5675
G2 X80.3732 Y23.0732 I0.0 J-3.0
G1 Y48.7964
G2 X78.5675 Y48.1921 I-1.8057 J2.3957
G1 X68.5677
G2 X65.5677 Y51.1921 I0.0 J3.0
G1 Y60.1924
G2 X68.5677 Y63.1924 I3.0 J0.0
G1 X78.5675
G2 X80.3732 Y62.5881 I0.0 J-3.0
G1 Y73.9056
G1 X33.3533
G1 F50.0 X33.2173 Y73.2884
G2 F120.0 X39.8513 Y69.6494 I-2.8991 J-13.1515
G2 X42.7777 Y65.2759 I-9.5692 J-9.5689
G2 X42.7792 Y65.2724 I-2.7701 J-1.1518
G2 X43.8044 Y60.1051 I-12.4387 J-5.1533
G2 X39.8485 Y50.5583 I-13.4661 J-0.013
G2 X35.475 Y47.6325 I-9.569 J9.5721
G2 X35.4713 Y47.631 I-1.1516 J2.7702
G2 X30.3044 Y46.6059 I-5.154 J12.4447
G2 X20.7589 Y50.5596 I-0.0127 J13.4692
G2 X16.8041 Y60.1052 I9.5123 J9.533
G2 X20.7589 Y69.6509 I13.4672 J0.0126
G2 X30.3043 Y73.6041 I9.5329 J-9.5172
G2 X33.2173 Y73.2884 I0.014 J-13.4673
G1 F50.0 Z-3.35
G2 F120.0 X39.8513 Y69.6494 I-2.8991 J-13.1515
G2 X42.7777 Y65.2759 I-9.5692 J-9.5689
G2 X42.7792 Y65.2724 I-2.7701 J-1.1518
G2 X43.8044 Y60.1051 I-12.4387 J-5.1533
G2 X39.8485 Y50.5583 I-13.4661 J-0.013
G2 X35.475 Y47.6325 I-9.569 J9.5721
G2 X35.4713 Y47.631 I-1.1516 J2.7702
G2 X30.3044 Y46.6059 I-5.154 J12.4447
G2 X20.7589 Y50.5596 I-0.0127 J13.4692
G2 X16.8041 Y60.1052 I9.5123 J9.533
G2 X20.7589 Y69.6509 I13.4672 J0.0126
G2 X30.3043 Y73.6041 I9.5329 J-9.5172
G2 X33.2173 Y73.2884 I0.014 J-13.4673
G0 Z3.0
G0 X50.1939 Y61.4118
G0 Z-1.0
G1 F50.0 Z-3.0
G2 F120.0 X52.6521 Y62.6921 I2.4582 J-1.7197
G1 X61.1187
G2 X64.1187 Y59.6921 I0.0 J-3.0
G1 Y51.6923
G2 X61.1187 Y48.6923 I-3.0 J0.0
G1 X52.6521
G2 X49.6521 Y51.6923 I0.0 J3.0
G1 Y59.6921
G2 X50.1939 Y61.4118 I3.0 J0.0
G1 F50.0 Z-3.35
G2 F120.0 X52.6521 Y62.6921 I2.4582 J-1.7197
G1 X61.1187
G2 X64.1187 Y59.6921 I0.0 J-3.0
G1 Y51.6923
G2 X61.1187 Y48.6923 I-3.0 J0.0
G1 X52.6521
G2 X49.6521 Y51.6923 I0.0 J3.0
G1 Y59.6921
G2 X50.1939 Y61.4118 I3.0 J0.0
G0 Z3.0
G0 X47.7173 Y65.7265
G0 Z-2.0
G1 F50.0 Z-3.35
G2 F120.0 X52.6521 Y67.4873 I4.9348 J-6.0343
G1 X61.1187
G2 X64.3847 Y66.7702 I0.0 J-7.7952
G2 X68.5677 Y67.9876 I4.183 J-6.5778
G1 X75.5732
G1 Y69.1056
G1 X46.2339
G2 X47.2054 Y67.1169 I-15.9518 J-9.025
G2 X47.2092 Y67.1078 I-7.1978 J-2.9927
G2 X47.7173 Y65.7265 I-16.8688 J-6.9887
G0 Z3.0
G0 X55.1123 Y34.2971
G0 Z-2.0
G1 F50.0 Z-3.35
G2 F120.0 X55.9632 Y32.6657 I-24.2649 J-13.6942
G2 X57.7465 Y34.2971 I12.6045 J-11.9883
G1 X55.1123
G1 F50.0 X53.0222 Y33.1175
G2 F120.0 X55.3071 Y27.6782 I-22.1748 J-12.5146
G2 X68.3732 Y35.6714 I13.2607 J-7.0008
G1 Y36.1981
G2 X63.8701 Y36.9517 I0.1945 J14.9939
G2 X61.1187 Y36.6971 I-2.7514 J14.7406
G1 X52.6521
G2 X50.4439 Y36.8606 I0.0 J14.9952
G2 X53.0222 Y33.1175 I-19.5966 J-16.2577
G1 F50.0 X50.932 Y31.9379
G2 F120.0 X53.9098 Y20.5903 I-20.0847 J-11.335
G2 X50.1102 Y7.8962 I-23.0623 J-0.0126
G1 X56.5534
G2 X55.9725 Y11.6772 I12.0143 J3.7809
G1 Y20.6775
G2 X68.5677 Y33.2727 I12.5952 J0.0
G1 X70.7732
G1 Y38.5969
G1 X68.5677
G2 X64.0372 Y39.4399 I0.0 J12.5952
G2 X61.1187 Y39.0971 I-2.9185 J12.2524
G1 X52.6521
G2 X44.625 Y41.9864 I0.0 J12.5952
G2 X42.5168 Y40.5027 I-14.3455 J18.144
G2 X47.1438 Y36.9217 I-11.6899 J-19.884
G2 X50.932 Y31.9379 I-16.2964 J-16.3188
G1 F50.0 X48.8419 Y30.7583
G2 F120.0 X51.5098 Y20.5903 I-17.9946 J-10.1554
G2 X45.4471 Y5.9565 I-20.6623 J-0.0126
G2 X44.9725 Y5.4962 I-14.6201 J14.6037
G1 X60.4598
G2 X58.3725 Y11.6772 I8.1079 J6.1809
G1 Y20.6775
G2 X68.5677 Y30.8727 I10.1952 J0.0
G1 X73.1732
G1 Y40.9969
G1 X68.5677
G2 X64.2076 Y41.9762 I0.0 J10.1952
G2 X61.1187 Y41.4971 I-3.0888 J9.716
G1 X52.6521
G2 X44.7335 Y45.2706 I0.0 J10.1952
G2 X38.237 Y40.9885 I-14.454 J14.8598
G2 X38.2244 Y40.9833 I-3.9136 J9.4141
G2 X36.718 Y40.427 I-7.9071 J19.0923
G2 X45.447 Y35.2244 I-5.8911 J-19.8082
G2 X48.8419 Y30.7583 I-14.5996 J-14.6215
G0 Z3.0
G0 X14.4483 Y40.1397
G0 Z-2.0
G1 F50.0 Z-3.35
G2 F120.0 X12.2778 Y42.0769 I15.8434 J19.9354
G2 X9.4732 Y45.4035 I17.9934 J18.0157
G1 Y35.1386
G2 X9.8559 Y35.1079 I-1.0065 J-14.9614
G2 X12.781 Y38.6118 I20.9808 J-14.5423
G2 X14.4483 Y40.1397 I18.0196 J-17.9898
G1 F50.0 X15.9896 Y38.3
G2 F120.0 X18.6006 Y40.1934 I14.8109 J-17.6781
G2 X13.9747 Y43.7741 I11.6911 J19.8817
G2 X7.2089 Y60.1052 I16.2965 J16.3185
G2 X7.5923 Y64.3056 I23.0624 J0.0126
G1 X7.0732
G1 Y32.7724
G1 X8.4667
G2 X11.031 Y32.5086 I0.0 J-12.5952
G2 X14.4789 Y36.9156 I19.8057 J-11.943
G2 X15.9896 Y38.3 I16.3216 J-16.2937
G1 F50.0 X17.5309 Y36.4604
G2 F120.0 X24.4005 Y40.2683 I13.2696 J-15.8384
G2 X15.6716 Y45.4714 I5.8912 J19.8068
G2 X9.6089 Y60.1052 I14.5996 J14.6213
G2 X10.6872 Y66.7056 I20.6624 J0.0126
G1 X4.6732
G1 Y30.3724
G1 X8.4667
G2 X12.2105 Y29.6602 I0.0 J-10.1952
G2 X16.1769 Y35.2195 I18.6262 J-9.0945
G2 X17.5309 Y36.4604 I14.6236 J-14.5975
G1 F50.0 X19.0722 Y34.6207
G2 F120.0 X30.8147 Y38.8844 I11.7283 J-13.9987
G2 X43.7501 Y33.5272 I0.0122 J-18.2657
G2 X49.1098 Y20.5903 I-12.9027 J-12.9243
G2 X43.7502 Y7.6537 I-18.2623 J-0.0126
G2 X36.1747 Y3.0962 I-12.9232 J12.9065
G1 X75.5732
G1 Y3.882
G1 X68.5677
G2 X60.7725 Y11.6772 I0.0 J7.7952
G1 Y20.6775
G2 X68.5677 Y28.4727 I7.7952 J0.0
G1 X75.5732
G1 Y43.3969
G1 X68.5677
G2 X64.3847 Y44.6142 I0.0 J7.7952
G2 X61.1187 Y43.8971 I-3.266 J7.078
G1 X52.6521
G2 X45.1839 Y49.458 I0.0 J7.7952
G2 X43.2369 Y47.1652 I-14.8456 J10.634
G2 X37.3157 Y43.2047 I-12.9574 J12.9652
G2 X37.3061 Y43.2007 I-2.9923 J7.198
G2 X30.3044 Y41.8107 I-6.9888 J16.875
G2 X17.3685 Y47.1686 I-0.0127 J18.2644
G2 X12.0089 Y60.1052 I12.9027 J12.9241
G2 X14.3737 Y69.1056 I18.2624 J0.0126
G1 X2.2732
G1 Y27.9724
G1 X8.4667
G2 X13.4015 Y26.2116 I0.0 J-7.7952
G2 X13.9095 Y27.5929 I17.3769 J-5.6073
G2 X13.9133 Y27.602 I7.2016 J-2.9836
G2 X17.8749 Y33.5234 I16.9234 J-7.0364
G2 X19.0722 Y34.6207 I12.9256 J-12.9014
G0 Z3.0
G0 X16.3852 Y5.7557
G0 Z-2.0
G1 F50.0 Z-3.35
G2 F120.0 X16.1676 Y5.4962 I-7.9186 J6.4217
G1 X16.6568
G2 X16.3852 Y5.7557 I14.1824 J15.1192
G1 F50.0 X18.0586 Y7.4761
G2 F120.0 X17.8819 Y7.6503 I12.7806 J13.1394
G2 X15.9348 Y9.9431 I12.8986 J12.9268
G2 X8.4667 Y4.3822 I-7.4681 J2.2343
G1 X2.2732
G1 Y3.0962
G1 X25.4536
G2 X23.8126 Y3.6858 I5.3478 J17.4645
G2 X23.803 Y3.6898 I2.9827 J7.202
G2 X18.0586 Y7.4761 I7.0362 J16.9257
G1 F50.0 X19.732 Y9.1964
G2 F120.0 X19.5778 Y9.3486 I11.1072 J11.419
G2 X14.9191 Y20.5901 I11.2027 J11.2286
G2 X16.1268 Y26.6743 I15.8592 J0.0141
G2 X16.1294 Y26.6806 I4.9844 J-2.065
G2 X19.5729 Y31.8273 I14.7073 J-6.115
G2 X30.8146 Y36.4844 I11.2276 J-11.2053
G2 X42.0533 Y31.8299 I0.0123 J-15.8657
G2 X46.7098 Y20.5903 I-11.2059 J-11.227
G2 X42.0533 Y9.3509 I-15.8623 J-0.0126
G2 X30.8144 Y4.6958 I-11.2263 J11.2093
G2 X24.731 Y5.9031 I-0.013 J15.8649
G2 X24.7243 Y5.9059 I2.0644 J4.9846
G2 X19.732 Y9.1964 I6.115 J14.7096
G1 F50.0 X21.4021 Y10.9134
G2 F120.0 X21.2703 Y11.0434 I9.4372 J9.7021
G2 X17.3143 Y20.5902 I9.5102 J9.5337
G2 X18.3396 Y25.7575 I13.464 J0.014
G2 X18.341 Y25.761 I2.7716 J-1.1482
G2 X21.2675 Y30.1345 I12.4957 J-5.1954
G2 X30.8145 Y34.0892 I9.533 J-9.5125
G2 X40.3598 Y30.136 I0.0125 J-13.4705
G2 X44.3146 Y20.5903 I-9.5125 J-9.5331
G2 X40.3598 Y11.0447 I-13.4671 J-0.0126
G2 X30.8143 Y7.091 I-9.5328 J9.5155
G2 X25.6474 Y8.1161 I-0.0129 J13.4697
G2 X25.6437 Y8.1176 I1.1479 J2.7717
G2 X21.4021 Y10.9134 I5.1955 J12.4979
G0 Z3.0
G0 X13.8363 Y11.6527
G0 Z-1.35
G1 F50.0 Z-3.35
G2 F120.0 X8.4667 Y6.7822 I-5.3696 J0.5247
G1 X0.0
G2 X-0.1268 Y6.7837 I0.0 J5.3952
G1 Y0.6962
G1 X77.9732
G1 Y6.282
G1 X68.5677
G2 X63.1725 Y11.6772 I0.0 J5.3952
G1 Y20.6775
G2 X68.5677 Y26.0727 I5.3952 J0.0
G1 X77.9732
G1 Y45.7969
G1 X68.5677
G2 X64.5822 Y47.5556 I0.0 J5.3952
G2 X61.1187 Y46.2971 I-3.4635 J4.1367
G1 X52.6521
G2 X47.2569 Y51.6923 I0.0 J5.3952
G1 Y59.6921
G2 X52.6521 Y65.0873 I5.3952 J0.0
G1 X61.1187
G2 X64.5822 Y63.8288 I0.0 J-5.3952
G2 X68.5677 Y65.5876 I3.9855 J-3.6365
G1 X77.9732
G1 Y71.5056
G1 X41.3804
G2 X41.5459 Y71.3422 I-11.0621 J-11.3687
G2 X44.9894 Y66.1955 I-11.2638 J-11.2616
G2 X44.992 Y66.1892 I-4.9818 J-2.0713
G2 X46.1996 Y60.105 I-14.6516 J-6.0701
G2 X41.541 Y48.8635 I-15.8613 J-0.013
G2 X36.3944 Y45.4208 I-11.2615 J11.2669
G2 X36.3878 Y45.418 I-2.071 J4.9819
G2 X30.3044 Y44.2107 I-6.0704 J14.6576
G2 X19.0654 Y48.8658 I-0.0127 J15.8644
G2 X14.4089 Y60.1052 I11.2058 J11.2268
G2 X19.0655 Y71.3448 I15.8624 J0.0126
G2 X19.2284 Y71.5056 I11.2263 J-11.2111
G1 X-0.1268
G1 Y25.5709
G2 X0.0 Y25.5724 I0.1268 J-5.3937
G1 X8.4667
G2 X13.8619 Y20.1772 I0.0 J-5.3952
G1 Y12.1774
G2 X13.8363 Y11.6527 I-5.3952 J0.0
G1 F50.0 X11.4524 Y11.8856
G2 F120.0 X8.4667 Y9.1774 I-2.9858 J0.2918
G1 X0.0
G2 X-2.5268 Y10.5602 I0.0 J3.0
G1 Y-1.7038
G1 X80.3732
G1 Y9.2815
G2 X78.5675 Y8.6772 I-1.8057 J2.3957
G1 X68.5677
G2 X65.5677 Y11.6772 I0.0 J3.0
G1 Y20.6775
G2 X68.5677 Y23.6775 I3.0 J0.0
G1 X78.5675
G2 X80.3732 Y23.0732 I0.0 J-3.0
G1 Y48.7964
G2 X78.5675 Y48.1921 I-1.8057 J2.3957
G1 X68.5677
G2 X65.5677 Y51.1921 I0.0 J3.0
G1 Y60.1924
G2 X68.5677 Y63.1924 I3.0 J0.0
G1 X78.5675
G2 X80.3732 Y62.5881 I0.0 J-3.0
G1 Y73.9056
G1 X-2.5268
G1 Y21.7944
G2 X0.0 Y23.1772 I2.5268 J-1.6172
G1 X8.4667
G2 X11.4667 Y20.1772 I0.0 J-3.0
G1 Y12.1774
G2 X11.4524 Y11.8856 I-3.0 J0.0
( Pocket2 )
S1000
G0 Z3.0
G0 X30.2047 Y60.0985
G0 Z1.0
G1 F50.0 Z-1.0
G3 F120.0 X30.2293 Y60.0391 I0.0838 J-0.0001
G2 X30.2386 Y60.0298 I-3.8139 J-3.8229
G3 X30.2974 Y60.0054 I0.0587 J0.0585
G2 X30.3124 I0.0067 J-5.4
G3 X30.37 Y60.0293 I0.0001 J0.0811
G2 X30.3807 Y60.04 I3.8234 J-3.8134
G3 X30.4045 Y60.0975 I-0.0572 J0.0574
G2 Y60.1118 I5.4 J0.0073
G3 X30.3807 Y60.1693 I-0.081 J0.0001
G2 X30.3704 Y60.1795 I3.8125 J3.8243
G3 X30.3116 Y60.2039 I-0.0588 J-0.0586
G2 X30.2984 I-0.0075 J5.4
G3 X30.238 Y60.1789 I-0.0001 J-0.0852
G2 X30.228 Y60.1689 I-3.8224 J3.8144
G3 X30.2047 Y60.1126 I0.056 J-0.0562
G2 Y60.0985 I-5.4 J-0.0078
G1 F50.0 X27.8047 Y60.1013
G3 F120.0 X28.5343 Y58.34 I2.4838 J-0.0029
G2 X28.5394 Y58.3349 I-2.1188 J-2.1238
G3 X30.3004 Y57.6055 I1.7579 J1.7535
G2 X30.3087 Y57.6054 I0.0037 J-3.0
G3 X32.0692 Y58.3344 I0.0038 J2.4811
G2 X32.0752 Y58.3404 I2.1241 J-2.1185
G3 X32.8045 Y60.1008 I-1.7517 J1.757
G2 Y60.1087 I3.0 J0.0041
G3 X32.0752 Y61.8689 I-2.481 J0.0032
G2 X32.0694 Y61.8746 I2.118 J2.1246
G3 X30.3082 Y62.6039 I-1.7578 J-1.7537
G2 X30.3009 I-0.0041 J3.0
G3 X28.5392 Y61.8742 I-0.0026 J-2.4852
G2 X28.5336 Y61.8686 I-2.1236 J2.1191
G3 X27.8047 Y60.1092 I1.7504 J-1.7559
G2 Y60.1013 I-3.0 J-0.0043
G1 F50.0 X30.2047 Y60.0985
G1 Z-2.0
G3 F120.0 X30.2293 Y60.0391 I0.0838 J-0.0001
G2 X30.2386 Y60.0298 I-3.8139 J-3.8229
G3 X30.2974 Y60.0054 I0.0587 J0.0585
G2 X30.3124 I0.0067 J-5.4
G3 X30.37 Y60.0293 I0.0001 J0.0811
G2 X30.3807 Y60.04 I3.8234 J-3.8134
G3 X30.4045 Y60.0975 I-0.0572 J0.0574
G2 Y60.1118 I5.4 J0.0073
G3 X30.3807 Y60.1693 I-0.081 J0.0001
G2 X30.3704 Y60.1795 I3.8125 J3.8243
G3 X30.3116 Y60.2039 I-0.0588 J-0.0586
G2 X30.2984 I-0.0075 J5.4
G3 X30.238 Y60.1789 I-0.0001 J-0.0852
G2 X30.228 Y60.1689 I-3.8224 J3.8144
G3 X30.2047 Y60.1126 I0.056 J-0.0562
G2 Y60.0985 I-5.4 J-0.0078
G1 F50.0 X27.8047 Y60.1013
G3 F120.0 X28.5343 Y58.34 I2.4838 J-0.0029
G2 X28.5394 Y58.3349 I-2.1188 J-2.1238
G3 X30.3004 Y57.6055 I1.7579 J1.7535
G2 X30.3087 Y57.6054 I0.0037 J-3.0
G3 X32.0692 Y58.3344 I0.0038 J2.4811
G2 X32.0752 Y58.3404 I2.1241 J-2.1185
G3 X32.8045 Y60.1008 I-1.7517 J1.757
G2 Y60.1087 I3.0 J0.0041
G3 X32.0752 Y61.8689 I-2.481 J0.0032
G2 X32.0694 Y61.8746 I2.118 J2.1246
G3 X30.3082 Y62.6039 I-1.7578 J-1.7537
G2 X30.3009 I-0.0041 J3.0
G3 X28.5392 Y61.8742 I-0.0026 J-2.4852
G2 X28.5336 Y61.8686 I-2.1236 J2.1191
G3 X27.8047 Y60.1092 I1.7504 J-1.7559
G2 Y60.1013 I-3.0 J-0.0043
G1 F50.0 X30.2047 Y60.0985
G1 Z-3.0
G3 F120.0 X30.2293 Y60.0391 I0.0838 J-0.0001
G2 X30.2386 Y60.0298 I-3.8139 J-3.8229
G3 X30.2974 Y60.0054 I0.0587 J0.0585
G2 X30.3124 I0.0067 J-5.4
G3 X30.37 Y60.0293 I0.0001 J0.0811
G2 X30.3807 Y60.04 I3.8234 J-3.8134
G3 X30.4045 Y60.0975 I-0.0572 J0.0574
G2 Y60.1118 I5.4 J0.0073
G3 X30.3807 Y60.1693 I-0.081 J0.0001
G2 X30.3704 Y60.1795 I3.8125 J3.8243
G3 X30.3116 Y60.2039 I-0.0588 J-0.0586
G2 X30.2984 I-0.0075 J5.4
G3 X30.238 Y60.1789 I-0.0001 J-0.0852
G2 X30.228 Y60.1689 I-3.8224 J3.8144
G3 X30.2047 Y60.1126 I0.056 J-0.0562
G2 Y60.0985 I-5.4 J-0.0078
G1 F50.0 X27.8047 Y60.1013
G3 F120.0 X28.5343 Y58.34 I2.4838 J-0.0029
G2 X28.5394 Y58.3349 I-2.1188 J-2.1238
G3 X30.3004 Y57.6055 I1.7579 J1.7535
G2 X30.3087 Y57.6054 I0.0037 J-3.0
G3 X32.0692 Y58.3344 I0.0038 J2.4811
G2 X32.0752 Y58.3404 I2.1241 J-2.1185
G3 X32.8045 Y60.1008 I-1.7517 J1.757
G2 Y60.1087 I3.0 J0.0041
G3 X32.0752 Y61.8689 I-2.481 J0.0032
G2 X32.0694 Y61.8746 I2.118 J2.1246
G3 X30.3082 Y62.6039 I-1.7578 J-1.7537
G2 X30.3009 I-0.0041 J3.0
G3 X28.5392 Y61.8742 I-0.0026 J-2.4852
G2 X28.5336 Y61.8686 I-2.1236 J2.1191
G3 X27.8047 Y60.1092 I1.7504 J-1.7559
G2 Y60.1013 I-3.0 J-0.0043
G1 F50.0 X30.2047 Y60.0985
G1 Z-4.0
G3 F120.0 X30.2293 Y60.0391 I0.0838 J-0.0001
G2 X30.2386 Y60.0298 I-3.8139 J-3.8229
G3 X30.2974 Y60.0054 I0.0587 J0.0585
G2 X30.3124 I0.0067 J-5.4
G3 X30.37 Y60.0293 I0.0001 J0.0811
G2 X30.3807 Y60.04 I3.8234 J-3.8134
G3 X30.4045 Y60.0975 I-0.0572 J0.0574
G2 Y60.1118 I5.4 J0.0073
G3 X30.3807 Y60.1693 I-0.081 J0.0001
G2 X30.3704 Y60.1795 I3.8125 J3.8243
G3 X30.3116 Y60.2039 I-0.0588 J-0.0586
G2 X30.2984 I-0.0075 J5.4
G3 X30.238 Y60.1789 I-0.0001 J-0.0852
G2 X30.228 Y60.1689 I-3.8224 J3.8144
G3 X30.2047 Y60.1126 I0.056 J-0.0562
G2 Y60.0985 I-5.4 J-0.0078
G1 F50.0 X27.8047 Y60.1013
G3 F120.0 X28.5343 Y58.34 I2.4838 J-0.0029
G2 X28.5394 Y58.3349 I-2.1188 J-2.1238
G3 X30.3004 Y57.6055 I1.7579 J1.7535
G2 X30.3087 Y57.6054 I0.0037 J-3.0
G3 X32.0692 Y58.3344 I0.0038 J2.4811
G2 X32.0752 Y58.3404 I2.1241 J-2.1185
G3 X32.8045 Y60.1008 I-1.7517 J1.757
G2 Y60.1087 I3.0 J0.0041
G3 X32.0752 Y61.8689 I-2.481 J0.0032
G2 X32.0694 Y61.8746 I2.118 J2.1246
G3 X30.3082 Y62.6039 I-1.7578 J-1.7537
G2 X30.3009 I-0.0041 J3.0
G3 X28.5392 Y61.8742 I-0.0026 J-2.4852
G2 X28.5336 Y61.8686 I-2.1236 J2.1191
G3 X27.8047 Y60.1092 I1.7504 J-1.7559
G2 Y60.1013 I-3.0 J-0.0043
G1 F50.0 X30.2047 Y60.0985
G1 Z-5.0
G3 F120.0 X30.2293 Y60.0391 I0.0838 J-0.0001
G2 X30.2386 Y60.0298 I-3.8139 J-3.8229
G3 X30.2974 Y60.0054 I0.0587 J0.0585
G2 X30.3124 I0.0067 J-5.4
G3 X30.37 Y60.0293 I0.0001 J0.0811
G2 X30.3807 Y60.04 I3.8234 J-3.8134
G3 X30.4045 Y60.0975 I-0.0572 J0.0574
G2 Y60.1118 I5.4 J0.0073
G3 X30.3807 Y60.1693 I-0.081 J0.0001
G2 X30.3704 Y60.1795 I3.8125 J3.8243
G3 X30.3116 Y60.2039 I-0.0588 J-0.0586
G2 X30.2984 I-0.0075 J5.4
G3 X30.238 Y60.1789 I-0.0001 J-0.0852
G2 X30.228 Y60.1689 I-3.8224 J3.8144
G3 X30.2047 Y60.1126 I0.056 J-0.0562
G2 Y60.0985 I-5.4 J-0.0078
G1 F50.0 X27.8047 Y60.1013
G3 F120.0 X28.5343 Y58.34 I2.4838 J-0.0029
G2 X28.5394 Y58.3349 I-2.1188 J-2.1238
G3 X30.3004 Y57.6055 I1.7579 J1.7535
G2 X30.3087 Y57.6054 I0.0037 J-3.0
G3 X32.0692 Y58.3344 I0.0038 J2.4811
G2 X32.0752 Y58.3404 I2.1241 J-2.1185
G3 X32.8045 Y60.1008 I-1.7517 J1.757
G2 Y60.1087 I3.0 J0.0041
G3 X32.0752 Y61.8689 I-2.481 J0.0032
G2 X32.0694 Y61.8746 I2.118 J2.1246
G3 X30.3082 Y62.6039 I-1.7578 J-1.7537
G2 X30.3009 I-0.0041 J3.0
G3 X28.5392 Y61.8742 I-0.0026 J-2.4852
G2 X28.5336 Y61.8686 I-2.1236 J2.1191
G3 X27.8047 Y60.1092 I1.7504 J-1.7559
G2 Y60.1013 I-3.0 J-0.0043
G1 F50.0 X30.2047 Y60.0985
G1 Z-6.0
G3 F120.0 X30.2293 Y60.0391 I0.0838 J-0.0001
G2 X30.2386 Y60.0298 I-3.8139 J-3.8229
G3 X30.2974 Y60.0054 I0.0587 J0.0585
G2 X30.3124 I0.0067 J-5.4
G3 X30.37 Y60.0293 I0.0001 J0.0811
G2 X30.3807 Y60.04 I3.8234 J-3.8134
G3 X30.4045 Y60.0975 I-0.0572 J0.0574
G2 Y60.1118 I5.4 J0.0073
G3 X30.3807 Y60.1693 I-0.081 J0.0001
G2 X30.3704 Y60.1795 I3.8125 J3.8243
G3 X30.3116 Y60.2039 I-0.0588 J-0.0586
G2 X30.2984 I-0.0075 J5.4
G3 X30.238 Y60.1789 I-0.0001 J-0.0852
G2 X30.228 Y60.1689 I-3.8224 J3.8144
G3 X30.2047 Y60.1126 I0.056 J-0.0562
G2 Y60.0985 I-5.4 J-0.0078
G1 F50.0 X27.8047 Y60.1013
G3 F120.0 X28.5343 Y58.34 I2.4838 J-0.0029
G2 X28.5394 Y58.3349 I-2.1188 J-2.1238
G3 X30.3004 Y57.6055 I1.7579 J1.7535
G2 X30.3087 Y57.6054 I0.0037 J-3.0
G3 X32.0692 Y58.3344 I0.0038 J2.4811
G2 X32.0752 Y58.3404 I2.1241 J-2.1185
G3 X32.8045 Y60.1008 I-1.7517 J1.757
G2 Y60.1087 I3.0 J0.0041
G3 X32.0752 Y61.8689 I-2.481 J0.0032
G2 X32.0694 Y61.8746 I2.118 J2.1246
G3 X30.3082 Y62.6039 I-1.7578 J-1.7537
G2 X30.3009 I-0.0041 J3.0
G3 X28.5392 Y61.8742 I-0.0026 J-2.4852
G2 X28.5336 Y61.8686 I-2.1236 J2.1191
G3 X27.8047 Y60.1092 I1.7504 J-1.7559
G2 Y60.1013 I-3.0 J-0.0043
G1 F50.0 X30.2047 Y60.0985
G1 Z-6.5
G3 F120.0 X30.2293 Y60.0391 I0.0838 J-0.0001
G2 X30.2386 Y60.0298 I-3.8139 J-3.8229
G3 X30.2974 Y60.0054 I0.0587 J0.0585
G2 X30.3124 I0.0067 J-5.4
G3 X30.37 Y60.0293 I0.0001 J0.0811
G2 X30.3807 Y60.04 I3.8234 J-3.8134
G3 X30.4045 Y60.0975 I-0.0572 J0.0574
G2 Y60.1118 I5.4 J0.0073
G3 X30.3807 Y60.1693 I-0.081 J0.0001
G2 X30.3704 Y60.1795 I3.8125 J3.8243
G3 X30.3116 Y60.2039 I-0.0588 J-0.0586
G2 X30.2984 I-0.0075 J5.4
G3 X30.238 Y60.1789 I-0.0001 J-0.0852
G2 X30.228 Y60.1689 I-3.8224 J3.8144
G3 X30.2047 Y60.1126 I0.056 J-0.0562
G2 Y60.0985 I-5.4 J-0.0078
G1 F50.0 X27.8047 Y60.1013
G3 F120.0 X28.5343 Y58.34 I2.4838 J-0.0029
G2 X28.5394 Y58.3349 I-2.1188 J-2.1238
G3 X30.3004 Y57.6055 I1.7579 J1.7535
G2 X30.3087 Y57.6054 I0.0037 J-3.0
G3 X32.0692 Y58.3344 I0.0038 J2.4811
G2 X32.0752 Y58.3404 I2.1241 J-2.1185
G3 X32.8045 Y60.1008 I-1.7517 J1.757
G2 Y60.1087 I3.0 J0.0041
G3 X32.0752 Y61.8689 I-2.481 J0.0032
G2 X32.0694 Y61.8746 I2.118 J2.1246
G3 X30.3082 Y62.6039 I-1.7578 J-1.7537
G2 X30.3009 I-0.0041 J3.0
G3 X28.5392 Y61.8742 I-0.0026 J-2.4852
G2 X28.5336 Y61.8686 I-2.1236 J2.1191
G3 X27.8047 Y60.1092 I1.7504 J-1.7559
G2 Y60.1013 I-3.0 J-0.0043
G0 Z3.0
G0 X30.8008 Y20.6888
G0 Z1.0
G1 F50.0 Z-1.0
G3 F120.0 X30.7483 Y20.6646 I0.0063 J-0.0828
G2 X30.738 Y20.6544 I-3.8228 J3.814
G3 X30.7142 Y20.5969 I0.0572 J-0.0574
G2 Y20.5826 I-5.4 J-0.0069
G3 X30.738 Y20.5251 I0.0811 J-0.0001
G2 X30.7488 Y20.5144 I-3.8126 J-3.8241
G3 X30.8063 Y20.4905 I0.0574 J0.0573
G2 X30.8214 I0.0083 J-5.4
G3 X30.8802 Y20.5149 I0.0001 J0.0829
G2 X30.8894 Y20.5242 I3.8232 J-3.8136
G3 X30.9141 Y20.5836 I-0.0592 J0.0594
G2 Y20.5977 I5.4 J0.0063
G3 X30.8908 Y20.654 I-0.0793 J0.0001
G2 X30.8807 Y20.664 I3.8124 J3.8244
G3 X30.8203 Y20.689 I-0.0603 J-0.0602
G2 X30.8072 I-0.0057 J5.4
G3 X30.8008 Y20.6888 I-0.0001 J-0.083
G1 F50.0 X30.6189 Y23.0819
G3 F120.0 X29.0493 Y22.3597 I0.1882 J-2.4759
G2 X29.0436 Y22.354 I-2.1238 J2.1189
G3 X28.3142 Y20.5938 I1.7516 J-1.757
G2 Y20.5859 I-3.0 J-0.0039
G3 X29.0435 Y18.8255 I2.4811 J-0.0034
G2 X29.0495 Y18.8195 I-2.1181 J-2.1245
G3 X30.81 Y18.0905 I1.7567 J1.7521
G2 X30.8184 I0.0046 J-3.0
G3 X32.5793 Y18.82 I0.0031 J2.4829
G2 X32.5845 Y18.8251 I2.124 J-2.1187
G3 X33.3141 Y20.5864 I-1.7543 J1.7584
G2 Y20.5943 I3.0 J0.0035
G3 X32.5851 Y22.3537 I-2.4793 J0.0036
G2 X32.5796 Y22.3593 I2.118 J2.1246
G3 X30.8178 Y23.089 I-1.7592 J-1.7555
G2 X30.8105 I-0.0031 J3.0
G3 X30.6189 Y23.0819 I-0.0034 J-2.483
G1 F50.0 X30.8008 Y20.6888
G1 Z-2.0
G3 F120.0 X30.7483 Y20.6646 I0.0063 J-0.0828
G2 X30.738 Y20.6544 I-3.8228 J3.814
G3 X30.7142 Y20.5969 I0.0572 J-0.0574
G2 Y20.5826 I-5.4 J-0.0069
G3 X30.738 Y20.5251 I0.0811 J-0.0001
G2 X30.7488 Y20.5144 I-3.8126 J-3.8241
G3 X30.8063 Y20.4905 I0.0574 J0.0573
G2 X30.8214 I0.0083 J-5.4
G3 X30.8802 Y20.5149 I0.0001 J0.0829
G2 X30.8894 Y20.5242 I3.8232 J-3.8136
G3 X30.9141 Y20.5836 I-0.0592 J0.0594
G2 Y20.5977 I5.4 J0.0063
G3 X30.8908 Y20.654 I-0.0793 J0.0001
G2 X30.8807 Y20.664 I3.8124 J3.8244
G3 X30.8203 Y20.689 I-0.0603 J-0.0602
G2 X30.8072 I-0.0057 J5.4
G3 X30.8008 Y20.6888 I-0.0001 J-0.083
G1 F50.0 X30.6189 Y23.0819
G3 F120.0 X29.0493 Y22.3597 I0.1882 J-2.4759
G2 X29.0436 Y22.354 I-2.1238 J2.1189
G3 X28.3142 Y20.5938 I1.7516 J-1.757
G2 Y20.5859 I-3.0 J-0.0039
G3 X29.0435 Y18.8255 I2.4811 J-0.0034
G2 X29.0495 Y18.8195 I-2.1181 J-2.1245
G3 X30.81 Y18.0905 I1.7567 J1.7521
G2 X30.8184 I0.0046 J-3.0
G3 X32.5793 Y18.82 I0.0031 J2.4829
G2 X32.5845 Y18.8251 I2.124 J-2.1187
G3 X33.3141 Y20.5864 I-1.7543 J1.7584
G2 Y20.5943 I3.0 J0.0035
G3 X32.5851 Y22.3537 I-2.4793 J0.0036
G2 X32.5796 Y22.3593 I2.118 J2.1246
G3 X30.8178 Y23.089 I-1.7592 J-1.7555
G2 X30.8105 I-0.0031 J3.0
G3 X30.6189 Y23.0819 I-0.0034 J-2.483
G1 F50.0 X30.8008 Y20.6888
G1 Z-3.0
G3 F120.0 X30.7483 Y20.6646 I0.0063 J-0.0828
G2 X30.738 Y20.6544 I-3.8228 J3.814
G3 X30.7142 Y20.5969 I0.0572 J-0.0574
G2 Y20.5826 I-5.4 J-0.0069
G3 X30.738 Y20.5251 I0.0811 J-0.0001
G2 X30.7488 Y20.5144 I-3.8126 J-3.8241
G3 X30.8063 Y20.4905 I0.0574 J0.0573
G2 X30.8214 I0.0083 J-5.4
G3 X30.8802 Y20.5149 I0.0001 J0.0829
G2 X30.8894 Y20.5242 I3.8232 J-3.8136
G3 X30.9141 Y20.5836 I-0.0592 J0.0594
G2 Y20.5977 I5.4 J0.0063
G3 X30.8908 Y20.654 I-0.0793 J0.0001
G2 X30.8807 Y20.664 I3.8124 J3.8244
G3 X30.8203 Y20.689 I-0.0603 J-0.0602
G2 X30.8072 I-0.0057 J5.4
G3 X30.8008 Y20.6888 I-0.0001 J-0.083
G1 F50.0 X30.6189 Y23.0819
G3 F120.0 X29.0493 Y22.3597 I0.1882 J-2.4759
G2 X29.0436 Y22.354 I-2.1238 J2.1189
G3 X28.3142 Y20.5938 I1.7516 J-1.757
G2 Y20.5859 I-3.0 J-0.0039
G3 X29.0435 Y18.8255 I2.4811 J-0.0034
G2 X29.0495 Y18.8195 I-2.1181 J-2.1245
G3 X30.81 Y18.0905 I1.7567 J1.7521
G2 X30.8184 I0.0046 J-3.0
G3 X32.5793 Y18.82 I0.0031 J2.4829
G2 X32.5845 Y18.8251 I2.124 J-2.1187
G3 X33.3141 Y20.5864 I-1.7543 J1.7584
G2 Y20.5943 I3.0 J0.0035
G3 X32.5851 Y22.3537 I-2.4793 J0.0036
G2 X32.5796 Y22.3593 I2.118 J2.1246
G3 X30.8178 Y23.089 I-1.7592 J-1.7555
G2 X30.8105 I-0.0031 J3.0
G3 X30.6189 Y23.0819 I-0.0034 J-2.483
G1 F50.0 X30.8008 Y20.6888
G1 Z-4.0
G3 F120.0 X30.7483 Y20.6646 I0.0063 J-0.0828
G2 X30.738 Y20.6544 I-3.8228 J3.814
G3 X30.7142 Y20.5969 I0.0572 J-0.0574
G2 Y20.5826 I-5.4 J-0.0069
G3 X30.738 Y20.5251 I0.0811 J-0.0001
G2 X30.7488 Y20.5144 I-3.8126 J-3.8241
G3 X30.8063 Y20.4905 I0.0574 J0.0573
G2 X30.8214 I0.0083 J-5.4
G3 X30.8802 Y20.5149 I0.0001 J0.0829
G2 X30.8894 Y20.5242 I3.8232 J-3.8136
G3 X30.9141 Y20.5836 I-0.0592 J0.0594
G2 Y20.5977 I5.4 J0.0063
G3 X30.8908 Y20.654 I-0.0793 J0.0001
G2 X30.8807 Y20.664 I3.8124 J3.8244
G3 X30.8203 Y20.689 I-0.0603 J-0.0602
G2 X30.8072 I-0.0057 J5.4
G3 X30.8008 Y20.6888 I-0.0001 J-0.083
G1 F50.0 X30.6189 Y23.0819
G3 F120.0 X29.0493 Y22.3597 I0.1882 J-2.4759
G2 X29.0436 Y22.354 I-2.1238 J2.1189
G3 X28.3142 Y20.5938 I1.7516 J-1.757
G2 Y20.5859 I-3.0 J-0.0039
G3 X29.0435 Y18.8255 I2.4811 J-0.0034
G2 X29.0495 Y18.8195 I-2.1181 J-2.1245
G3 X30.81 Y18.0905 I1.7567 J1.7521
G2 X30.8184 I0.0046 J-3.0
G3 X32.5793 Y18.82 I0.0031 J2.4829
G2 X32.5845 Y18.8251 I2.124 J-2.1187
G3 X33.3141 Y20.5864 I-1.7543 J1.7584
G2 Y20.5943 I3.0 J0.0035
G3 X32.5851 Y22.3537 I-2.4793 J0.0036
G2 X32.5796 Y22.3593 I2.118 J2.1246
G3 X30.8178 Y23.089 I-1.7592 J-1.7555
G2 X30.8105 I-0.0031 J3.0
G3 X30.6189 Y23.0819 I-0.0034 J-2.483
G1 F50.0 X30.8008 Y20.6888
G1 Z-5.0
G3 F120.0 X30.7483 Y20.6646 I0.0063 J-0.0828
G2 X30.738 Y20.6544 I-3.8228 J3.814
G3 X30.7142 Y20.5969 I0.0572 J-0.0574
G2 Y20.5826 I-5.4 J-0.0069
G3 X30.738 Y20.5251 I0.0811 J-0.0001
G2 X30.7488 Y20.5144 I-3.8126 J-3.8241
G3 X30.8063 Y20.4905 I0.0574 J0.0573
G2 X30.8214 I0.0083 J-5.4
G3 X30.8802 Y20.5149 I0.0001 J0.0829
G2 X30.8894 Y20.5242 I3.8232 J-3.8136
G3 X30.9141 Y20.5836 I-0.0592 J0.0594
G2 Y20.5977 I5.4 J0.0063
G3 X30.8908 Y20.654 I-0.0793 J0.0001
G2 X30.8807 Y20.664 I3.8124 J3.8244
G3 X30.8203 Y20.689 I-0.0603 J-0.0602
G2 X30.8072 I-0.0057 J5.4
G3 X30.8008 Y20.6888 I-0.0001 J-0.083
G1 F50.0 X30.6189 Y23.0819
G3 F120.0 X29.0493 Y22.3597 I0.1882 J-2.4759
G2 X29.0436 Y22.354 I-2.1238 J2.1189
G3 X28.3142 Y20.5938 I1.7516 J-1.757
G2 Y20.5859 I-3.0 J-0.0039
G3 X29.0435 Y18.8255 I2.4811 J-0.0034
G2 X29.0495 Y18.8195 I-2.1181 J-2.1245
G3 X30.81 Y18.0905 I1.7567 J1.7521
G2 X30.8184 I0.0046 J-3.0
G3 X32.5793 Y18.82 I0.0031 J2.4829
G2 X32.5845 Y18.8251 I2.124 J-2.1187
G3 X33.3141 Y20.5864 I-1.7543 J1.7584
G2 Y20.5943 I3.0 J0.0035
G3 X32.5851 Y22.3537 I-2.4793 J0.0036
G2 X32.5796 Y22.3593 I2.118 J2.1246
G3 X30.8178 Y23.089 I-1.7592 J-1.7555
G2 X30.8105 I-0.0031 J3.0
G3 X30.6189 Y23.0819 I-0.0034 J-2.483
G1 F50.0 X30.8008 Y20.6888
G1 Z-6.0
G3 F120.0 X30.7483 Y20.6646 I0.0063 J-0.0828
G2 X30.738 Y20.6544 I-3.8228 J3.814
G3 X30.7142 Y20.5969 I0.0572 J-0.0574
G2 Y20.5826 I-5.4 J-0.0069
G3 X30.738 Y20.5251 I0.0811 J-0.0001
G2 X30.7488 Y20.5144 I-3.8126 J-3.8241
G3 X30.8063 Y20.4905 I0.0574 J0.0573
G2 X30.8214 I0.0083 J-5.4
G3 X30.8802 Y20.5149 I0.0001 J0.0829
G2 X30.8894 Y20.5242 I3.8232 J-3.8136
G3 X30.9141 Y20.5836 I-0.0592 J0.0594
G2 Y20.5977 I5.4 J0.0063
G3 X30.8908 Y20.654 I-0.0793 J0.0001
G2 X30.8807 Y20.664 I3.8124 J3.8244
G3 X30.8203 Y20.689 I-0.0603 J-0.0602
G2 X30.8072 I-0.0057 J5.4
G3 X30.8008 Y20.6888 I-0.0001 J-0.083
G1 F50.0 X30.6189 Y23.0819
G3 F120.0 X29.0493 Y22.3597 I0.1882 J-2.4759
G2 X29.0436 Y22.354 I-2.1238 J2.1189
G3 X28.3142 Y20.5938 I1.7516 J-1.757
G2 Y20.5859 I-3.0 J-0.0039
G3 X29.0435 Y18.8255 I2.4811 J-0.0034
G2 X29.0495 Y18.8195 I-2.1181 J-2.1245
G3 X30.81 Y18.0905 I1.7567 J1.7521
G2 X30.8184 I0.0046 J-3.0
G3 X32.5793 Y18.82 I0.0031 J2.4829
G2 X32.5845 Y18.8251 I2.124 J-2.1187
G3 X33.3141 Y20.5864 I-1.7543 J1.7584
G2 Y20.5943 I3.0 J0.0035
G3 X32.5851 Y22.3537 I-2.4793 J0.0036
G2 X32.5796 Y22.3593 I2.118 J2.1246
G3 X30.8178 Y23.089 I-1.7592 J-1.7555
G2 X30.8105 I-0.0031 J3.0
G3 X30.6189 Y23.0819 I-0.0034 J-2.483
G1 F50.0 X30.8008 Y20.6888
G1 Z-6.5
G3 F120.0 X30.7483 Y20.6646 I0.0063 J-0.0828
G2 X30.738 Y20.6544 I-3.8228 J3.814
G3 X30.7142 Y20.5969 I0.0572 J-0.0574
G2 Y20.5826 I-5.4 J-0.0069
G3 X30.738 Y20.5251 I0.0811 J-0.0001
G2 X30.7488 Y20.5144 I-3.8126 J-3.8241
G3 X30.8063 Y20.4905 I0.0574 J0.0573
G2 X30.8214 I0.0083 J-5.4
G3 X30.8802 Y20.5149 I0.0001 J0.0829
G2 X30.8894 Y20.5242 I3.8232 J-3.8136
G3 X30.9141 Y20.5836 I-0.0592 J0.0594
G2 Y20.5977 I5.4 J0.0063
G3 X30.8908 Y20.654 I-0.0793 J0.0001
G2 X30.8807 Y20.664 I3.8124 J3.8244
G3 X30.8203 Y20.689 I-0.0603 J-0.0602
G2 X30.8072 I-0.0057 J5.4
G3 X30.8008 Y20.6888 I-0.0001 J-0.083
G1 F50.0 X30.6189 Y23.0819
G3 F120.0 X29.0493 Y22.3597 I0.1882 J-2.4759
G2 X29.0436 Y22.354 I-2.1238 J2.1189
G3 X28.3142 Y20.5938 I1.7516 J-1.757
G2 Y20.5859 I-3.0 J-0.0039
G3 X29.0435 Y18.8255 I2.4811 J-0.0034
G2 X29.0495 Y18.8195 I-2.1181 J-2.1245
G3 X30.81 Y18.0905 I1.7567 J1.7521
G2 X30.8184 I0.0046 J-3.0
G3 X32.5793 Y18.82 I0.0031 J2.4829
G2 X32.5845 Y18.8251 I2.124 J-2.1187
G3 X33.3141 Y20.5864 I-1.7543 J1.7584
G2 Y20.5943 I3.0 J0.0035
G3 X32.5851 Y22.3537 I-2.4793 J0.0036
G2 X32.5796 Y22.3593 I2.118 J2.1246
G3 X30.8178 Y23.089 I-1.7592 J-1.7555
G2 X30.8105 I-0.0031 J3.0
G3 X30.6189 Y23.0819 I-0.0034 J-2.483
( Profile1 )
S1000
G0 Z3.0
G0 X25.7045 Y60.1015
G0 Z1.0
G1 F50.0 Z-1.0
G3 F120.0 X27.0494 Y56.8547 I4.5789 J-0.0052
G2 X27.0549 Y56.8492 I-2.0835 J-2.0884
G3 X30.3001 Y55.5049 I3.2385 J3.2289
G2 X30.3078 I0.0043 J-2.95
G3 X33.5546 Y56.8498 I0.0052 J4.5789
G2 X33.5601 Y56.8553 I2.0884 J-2.0835
G3 X34.9044 Y60.1005 I-3.2289 J3.2385
G2 Y60.1085 I2.95 J0.0043
G3 X33.5597 Y63.3543 I-4.5761 J0.0057
G2 X33.5543 Y63.3597 I2.0832 J2.0888
G3 X30.3083 Y64.7041 I-3.2401 J-3.2321
G2 X30.3005 I-0.0038 J2.95
G3 X27.0546 Y63.3597 I-0.0061 J-4.5762
G2 X27.0489 Y63.3541 I-2.0886 J2.0834
G3 X25.7045 Y60.1089 I3.2295 J-3.239
G2 Y60.1015 I-2.95 J-0.004
G1 F50.0 Z-2.0
G3 F120.0 X27.0494 Y56.8547 I4.5789 J-0.0052
G2 X27.0549 Y56.8492 I-2.0835 J-2.0884
G3 X30.3001 Y55.5049 I3.2385 J3.2289
G2 X30.3078 I0.0043 J-2.95
G3 X33.5546 Y56.8498 I0.0052 J4.5789
G2 X33.5601 Y56.8553 I2.0884 J-2.0835
G3 X34.9044 Y60.1005 I-3.2289 J3.2385
G2 Y60.1085 I2.95 J0.0043
G3 X33.5597 Y63.3543 I-4.5761 J0.0057
G2 X33.5543 Y63.3597 I2.0832 J2.0888
G3 X30.3083 Y64.7041 I-3.2401 J-3.2321
G2 X30.3005 I-0.0038 J2.95
G3 X27.0546 Y63.3597 I-0.0061 J-4.5762
G2 X27.0489 Y63.3541 I-2.0886 J2.0834
G3 X25.7045 Y60.1089 I3.2295 J-3.239
G2 Y60.1015 I-2.95 J-0.004
G1 F50.0 Z-3.0
G3 F120.0 X27.0494 Y56.8547 I4.5789 J-0.0052
G2 X27.0549 Y56.8492 I-2.0835 J-2.0884
G3 X30.3001 Y55.5049 I3.2385 J3.2289
G2 X30.3078 I0.0043 J-2.95
G3 X33.5546 Y56.8498 I0.0052 J4.5789
G2 X33.5601 Y56.8553 I2.0884 J-2.0835
G3 X34.9044 Y60.1005 I-3.2289 J3.2385
G2 Y60.1085 I2.95 J0.0043
G3 X33.5597 Y63.3543 I-4.5761 J0.0057
G2 X33.5543 Y63.3597 I2.0832 J2.0888
G3 X30.3083 Y64.7041 I-3.2401 J-3.2321
G2 X30.3005 I-0.0038 J2.95
G3 X27.0546 Y63.3597 I-0.0061 J-4.5762
G2 X27.0489 Y63.3541 I-2.0886 J2.0834
G3 X25.7045 Y60.1089 I3.2295 J-3.239
G2 Y60.1015 I-2.95 J-0.004
G1 F50.0 Z-4.0
G3 F120.0 X27.0494 Y56.8547 I4.5789 J-0.0052
G2 X27.0549 Y56.8492 I-2.0835 J-2.0884
G3 X30.3001 Y55.5049 I3.2385 J3.2289
G2 X30.3078 I0.0043 J-2.95
G3 X33.5546 Y56.8498 I0.0052 J4.5789
G2 X33.5601 Y56.8553 I2.0884 J-2.0835
G3 X34.9044 Y60.1005 I-3.2289 J3.2385
G2 Y60.1085 I2.95 J0.0043
G3 X33.5597 Y63.3543 I-4.5761 J0.0057
G2 X33.5543 Y63.3597 I2.0832 J2.0888
G3 X30.3083 Y64.7041 I-3.2401 J-3.2321
G2 X30.3005 I-0.0038 J2.95
G3 X27.0546 Y63.3597 I-0.0061 J-4.5762
G2 X27.0489 Y63.3541 I-2.0886 J2.0834
G3 X25.7045 Y60.1089 I3.2295 J-3.239
G2 Y60.1015 I-2.95 J-0.004
G1 F50.0 Z-5.0
G3 F120.0 X27.0494 Y56.8547 I4.5789 J-0.0052
G2 X27.0549 Y56.8492 I-2.0835 J-2.0884
G3 X30.3001 Y55.5049 I3.2385 J3.2289
G2 X30.3078 I0.0043 J-2.95
G3 X33.5546 Y56.8498 I0.0052 J4.5789
G2 X33.5601 Y56.8553 I2.0884 J-2.0835
G3 X34.9044 Y60.1005 I-3.2289 J3.2385
G2 Y60.1085 I2.95 J0.0043
G3 X33.5597 Y63.3543 I-4.5761 J0.0057
G2 X33.5543 Y63.3597 I2.0832 J2.0888
G3 X30.3083 Y64.7041 I-3.2401 J-3.2321
G2 X30.3005 I-0.0038 J2.95
G3 X27.0546 Y63.3597 I-0.0061 J-4.5762
G2 X27.0489 Y63.3541 I-2.0886 J2.0834
G3 X25.7045 Y60.1089 I3.2295 J-3.239
G2 Y60.1015 I-2.95 J-0.004
G1 F50.0 Z-5.35
G3 F120.0 X27.0494 Y56.8547 I4.5789 J-0.0052
G2 X27.0549 Y56.8492 I-2.0835 J-2.0884
G3 X30.3001 Y55.5049 I3.2385 J3.2289
G2 X30.3078 I0.0043 J-2.95
G3 X33.5546 Y56.8498 I0.0052 J4.5789
G2 X33.5601 Y56.8553 I2.0884 J-2.0835
G3 X34.9044 Y60.1005 I-3.2289 J3.2385
G2 Y60.1085 I2.95 J0.0043
G3 X33.5597 Y63.3543 I-4.5761 J0.0057
G2 X33.5543 Y63.3597 I2.0832 J2.0888
G3 X30.3083 Y64.7041 I-3.2401 J-3.2321
G2 X30.3005 I-0.0038 J2.95
G3 X27.0546 Y63.3597 I-0.0061 J-4.5762
G2 X27.0489 Y63.3541 I-2.0886 J2.0834
G3 X25.7045 Y60.1089 I3.2295 J-3.239
G2 Y60.1015 I-2.95 J-0.004
G0 Z3.0
G0 X30.2183 Y25.1515
G0 Z1.0
G1 F50.0 Z-1.0
G3 F120.0 X27.5644 Y23.8448 I0.5862 J-4.5389
G2 X27.559 Y23.8394 I-2.0885 J2.0834
G3 X26.2144 Y20.5936 I3.2314 J-3.2401
G2 Y20.5856 I-2.95 J-0.0037
G3 X27.5586 Y17.3404 I4.5732 J-0.0067
G2 X27.5641 Y17.3349 I-2.0829 J-2.0891
G3 X30.8109 Y15.99 I3.2415 J3.234
G2 X30.8186 I0.0034 J-2.95
G3 X34.0638 Y17.3343 I0.0067 J4.5732
G2 X34.0693 Y17.3398 I2.0891 J-2.0829
G3 X35.4142 Y20.5866 I-3.234 J3.2415
G2 Y20.594 I2.95 J0.0034
G3 X34.0698 Y23.8392 I-4.5739 J0.0062
G2 X34.0642 Y23.8448 I2.0829 J2.089
G3 X30.8182 Y25.1892 I-3.2399 J-3.2318
G2 X30.8105 I-0.0039 J2.95
G3 X30.2183 Y25.1515 I-0.006 J-4.5766
G1 F50.0 Z-2.0
G3 F120.0 X27.5644 Y23.8448 I0.5862 J-4.5389
G2 X27.559 Y23.8394 I-2.0885 J2.0834
G3 X26.2144 Y20.5936 I3.2314 J-3.2401
G2 Y20.5856 I-2.95 J-0.0037
G3 X27.5586 Y17.3404 I4.5732 J-0.0067
G2 X27.5641 Y17.3349 I-2.0829 J-2.0891
G3 X30.8109 Y15.99 I3.2415 J3.234
G2 X30.8186 I0.0034 J-2.95
G3 X34.0638 Y17.3343 I0.0067 J4.5732
G2 X34.0693 Y17.3398 I2.0891 J-2.0829
G3 X35.4142 Y20.5866 I-3.234 J3.2415
G2 Y20.594 I2.95 J0.0034
G3 X34.0698 Y23.8392 I-4.5739 J0.0062
G2 X34.0642 Y23.8448 I2.0829 J2.089
G3 X30.8182 Y25.1892 I-3.2399 J-3.2318
G2 X30.8105 I-0.0039 J2.95
G3 X30.2183 Y25.1515 I-0.006 J-4.5766
G1 F50.0 Z-3.0
G3 F120.0 X27.5644 Y23.8448 I0.5862 J-4.5389
G2 X27.559 Y23.8394 I-2.0885 J2.0834
G3 X26.2144 Y20.5936 I3.2314 J-3.2401
G2 Y20.5856 I-2.95 J-0.0037
G3 X27.5586 Y17.3404 I4.5732 J-0.0067
G2 X27.5641 Y17.3349 I-2.0829 J-2.0891
G3 X30.8109 Y15.99 I3.2415 J3.234
G2 X30.8186 I0.0034 J-2.95
G3 X34.0638 Y17.3343 I0.0067 J4.5732
G2 X34.0693 Y17.3398 I2.0891 J-2.0829
G3 X35.4142 Y20.5866 I-3.234 J3.2415
G2 Y20.594 I2.95 J0.0034
G3 X34.0698 Y23.8392 I-4.5739 J0.0062
G2 X34.0642 Y23.8448 I2.0829 J2.089
G3 X30.8182 Y25.1892 I-3.2399 J-3.2318
G2 X30.8105 I-0.0039 J2.95
G3 X30.2183 Y25.1515 I-0.006 J-4.5766
G1 F50.0 Z-4.0
G3 F120.0 X27.5644 Y23.8448 I0.5862 J-4.5389
G2 X27.559 Y23.8394 I-2.0885 J2.0834
G3 X26.2144 Y20.5936 I3.2314 J-3.2401
G2 Y20.5856 I-2.95 J-0.0037
G3 X27.5586 Y17.3404 I4.5732 J-0.0067
G2 X27.5641 Y17.3349 I-2.0829 J-2.0891
G3 X30.8109 Y15.99 I3.2415 J3.234
G2 X30.8186 I0.0034 J-2.95
G3 X34.0638 Y17.3343 I0.0067 J4.5732
G2 X34.0693 Y17.3398 I2.0891 J-2.0829
G3 X35.4142 Y20.5866 I-3.234 J3.2415
G2 Y20.594 I2.95 J0.0034
G3 X34.0698 Y23.8392 I-4.5739 J0.0062
G2 X34.0642 Y23.8448 I2.0829 J2.089
G3 X30.8182 Y25.1892 I-3.2399 J-3.2318
G2 X30.8105 I-0.0039 J2.95
G3 X30.2183 Y25.1515 I-0.006 J-4.5766
G1 F50.0 Z-5.0
G3 F120.0 X27.5644 Y23.8448 I0.5862 J-4.5389
G2 X27.559 Y23.8394 I-2.0885 J2.0834
G3 X26.2144 Y20.5936 I3.2314 J-3.2401
G2 Y20.5856 I-2.95 J-0.0037
G3 X27.5586 Y17.3404 I4.5732 J-0.0067
G2 X27.5641 Y17.3349 I-2.0829 J-2.0891
G3 X30.8109 Y15.99 I3.2415 J3.234
G2 X30.8186 I0.0034 J-2.95
G3 X34.0638 Y17.3343 I0.0067 J4.5732
G2 X34.0693 Y17.3398 I2.0891 J-2.0829
G3 X35.4142 Y20.5866 I-3.234 J3.2415
G2 Y20.594 I2.95 J0.0034
G3 X34.0698 Y23.8392 I-4.5739 J0.0062
G2 X34.0642 Y23.8448 I2.0829 J2.089
G3 X30.8182 Y25.1892 I-3.2399 J-3.2318
G2 X30.8105 I-0.0039 J2.95
G3 X30.2183 Y25.1515 I-0.006 J-4.5766
G1 F50.0 Z-5.35
G3 F120.0 X27.5644 Y23.8448 I0.5862 J-4.5389
G2 X27.559 Y23.8394 I-2.0885 J2.0834
G3 X26.2144 Y20.5936 I3.2314 J-3.2401
G2 Y20.5856 I-2.95 J-0.0037
G3 X27.5586 Y17.3404 I4.5732 J-0.0067
G2 X27.5641 Y17.3349 I-2.0829 J-2.0891
G3 X30.8109 Y15.99 I3.2415 J3.234
G2 X30.8186 I0.0034 J-2.95
G3 X34.0638 Y17.3343 I0.0067 J4.5732
G2 X34.0693 Y17.3398 I2.0891 J-2.0829
G3 X35.4142 Y20.5866 I-3.234 J3.2415
G2 Y20.594 I2.95 J0.0034
G3 X34.0698 Y23.8392 I-4.5739 J0.0062
G2 X34.0642 Y23.8448 I2.0829 J2.089
G3 X30.8182 Y25.1892 I-3.2399 J-3.2318
G2 X30.8105 I-0.0039 J2.95
G3 X30.2183 Y25.1515 I-0.006 J-4.5766
( Profile2 )
S1000
G0 Z3.0
G0 X22.8041 Y60.1016
G0 Z1.05
G1 F50.0 Z-0.35
G3 F120.0 X24.9984 Y54.8053 I7.4671 J-0.009
G2 X25.0039 Y54.7999 I-2.1184 J-2.1242
G3 X30.3008 Y52.6059 I5.2878 J5.2752
G2 X30.3081 I0.0037 J-3.0
G3 X33.1737 Y53.1736 I0.0092 J7.4697
G3 X35.6074 Y54.8024 I-2.8942 J6.9568
G2 X35.6103 Y54.8054 I2.1213 J-2.1213
G3 X37.8044 Y60.1014 I-5.272 J5.2867
G2 Y60.1092 I3.0 J0.0038
G3 X37.2368 Y62.9742 I-7.464 J0.0099
G3 X35.6078 Y65.4077 I-6.9547 J-2.8937
G2 X35.6049 Y65.4105 I2.121 J2.1216
G3 X30.3084 Y67.6041 I-5.2866 J-5.2737
G2 X30.3008 I-0.004 J3.0
G3 X25.0036 Y65.4103 I-0.009 J-7.4705
G2 X24.9984 Y65.4051 I-2.1236 J2.119
G3 X22.8041 Y60.1088 I5.273 J-5.2873
G2 Y60.1016 I-3.0 J-0.0036
G0 Z3.0
G0 X29.3182 Y27.9406
G0 Z1.05
G1 F50.0 Z-0.35
G3 F120.0 X25.5139 Y25.8956 I1.4824 J-7.3187
G2 X25.511 Y25.8927 I-2.1239 J2.1187
G3 X23.882 Y23.4593 I5.3257 J-5.3271
G3 X23.3143 Y20.5943 I6.8964 J-2.8551
G2 Y20.5865 I-3.0 J-0.004
G3 X25.5085 Y15.2905 I7.4661 J-0.0094
G2 X25.5114 Y15.2875 I-2.1184 J-2.1243
G3 X27.9451 Y13.6587 I5.3279 J5.3279
G3 X30.8106 Y13.091 I2.8563 J6.9021
G2 X30.818 I0.0037 J-3.0
G3 X36.1149 Y15.285 I0.0091 J7.4692
G2 X36.1203 Y15.2904 I2.1238 J-2.1188
G3 X38.3146 Y20.5867 I-5.2728 J5.2873
G2 Y20.5939 I3.0 J0.0036
G3 X36.1204 Y25.8902 I-7.4672 J0.009
G2 X36.1152 Y25.8954 I2.1184 J2.1242
G3 X30.8179 Y28.0892 I-5.2882 J-5.2766
G2 X30.8104 I-0.0036 J3.0
G3 X29.3182 Y27.9406 I-0.0098 J-7.4673
G0 Z3.0
M5
M30
