( Made using CamBam - http://www.cambam.co.uk )
( belt bearing housing2 9/15/2013 10:47:53 PM )
( T6 : 6.0 )
G21 G90 G64 G40
G0 Z3.0
( T6 : 6.0 )
T6 M6
( Profile3 )
G17
M3 S1000
G0 X-3.0 Y5.0
G0 Z1.0
G1 F50.0 Z-1.0
G1 F120.0 Y27.1475
G2 Y27.1494 I3.0 J0.0
G2 X-0.653 Y32.7997 I7.9869 J-0.0049
G2 X4.9995 Y35.1476 I5.654 J-5.6337
G2 X5.0 I0.0005 J-3.0
G1 X35.3048
G2 X35.3425 Y35.1473 I0.0 J-3.0
G1 X35.4791 Y35.1456
G2 X35.5534 Y35.1438 I-0.0377 J-2.9998
G1 X35.6899 Y35.1387
G2 X35.7456 Y35.1361 I-0.112 J-2.9979
G2 X36.1219 Y35.1084 I-0.6077 J-10.851
G2 X36.1515 Y35.1056 I-0.2716 J-2.9877
G2 X36.9348 Y34.994 I-0.9723 J-9.6326
G2 X36.95 Y34.9912 I-0.544 J-2.9503
G2 X38.4502 Y34.5844 I-1.8754 J-9.885
G2 X38.4578 Y34.5816 I-1.0065 J-2.8261
G2 X41.0916 Y33.2205 I-3.803 J-10.5875
G2 X41.103 Y33.2125 I-1.7165 J-2.4604
G2 X41.7459 Y32.7298 I-7.6558 J-10.8656
G2 X41.754 Y32.7233 I-1.873 J-2.3434
G2 X43.3702 Y31.1176 I-6.8541 J-8.5151
G2 X44.1586 Y30.0026 I-7.4319 J-6.0911
G2 X44.8766 Y28.5377 I-7.5753 J-4.6216
G2 X44.8791 Y28.5312 I-2.8038 J-1.0672
G1 X48.9267 Y17.8232
G3 X49.1597 Y17.3494 I2.6498 J1.0089
G2 X49.1619 Y17.346 I-2.5571 J-1.5688
G3 X49.5272 Y16.8404 I3.4693 J2.1221
G3 X50.5475 Y15.9224 I3.9916 J3.4107
G3 X50.9094 Y15.6929 I4.0843 J6.0399
G3 X51.8426 Y15.2689 I2.4963 J4.2547
G2 X51.8517 Y15.2658 I-0.9506 J-2.8454
G3 X52.3531 Y15.1357 I1.1565 J3.4252
G2 X52.3678 Y15.1329 I-0.5436 J-2.9503
G3 X52.8939 Y15.0826 I0.5362 J2.8312
G1 X56.1187
G2 X56.1206 I0.0 J-3.0
G2 X61.7709 Y12.7357 I-0.0049 J-7.9869
G2 X64.1187 Y7.0831 I-5.6337 J-5.654
G2 Y7.0826 I-3.0 J-0.0005
G1 Y5.0
G2 Y4.9982 I-3.0 J0.0
G2 X61.7718 Y-0.6521 I-7.9869 J0.0049
G2 X56.1192 Y-3.0 I-5.654 J5.6337
G2 X56.1187 I-0.0005 J3.0
G1 X5.0
G2 X4.9982 I0.0 J3.0
G2 X-0.6521 Y-0.653 I0.0049 J7.9869
G2 X-3.0 Y4.9995 I5.6337 J5.654
G2 Y5.0 I3.0 J0.0005
G1 F50.0 Z-2.0
G1 F120.0 Y27.1475
G2 Y27.1494 I3.0 J0.0
G2 X-0.653 Y32.7997 I7.9869 J-0.0049
G2 X4.9995 Y35.1476 I5.654 J-5.6337
G2 X5.0 I0.0005 J-3.0
G1 X35.3048
G2 X35.3425 Y35.1473 I0.0 J-3.0
G1 X35.4791 Y35.1456
G2 X35.5534 Y35.1438 I-0.0377 J-2.9998
G1 X35.6899 Y35.1387
G2 X35.7456 Y35.1361 I-0.112 J-2.9979
G2 X36.1219 Y35.1084 I-0.6077 J-10.851
G2 X36.1515 Y35.1056 I-0.2716 J-2.9877
G2 X36.9348 Y34.994 I-0.9723 J-9.6326
G2 X36.95 Y34.9912 I-0.544 J-2.9503
G2 X38.4502 Y34.5844 I-1.8754 J-9.885
G2 X38.4578 Y34.5816 I-1.0065 J-2.8261
G2 X41.0916 Y33.2205 I-3.803 J-10.5875
G2 X41.103 Y33.2125 I-1.7165 J-2.4604
G2 X41.7459 Y32.7298 I-7.6558 J-10.8656
G2 X41.754 Y32.7233 I-1.873 J-2.3434
G2 X43.3702 Y31.1176 I-6.8541 J-8.5151
G2 X44.1586 Y30.0026 I-7.4319 J-6.0911
G2 X44.8766 Y28.5377 I-7.5753 J-4.6216
G2 X44.8791 Y28.5312 I-2.8038 J-1.0672
G1 X48.9267 Y17.8232
G3 X49.1597 Y17.3494 I2.6498 J1.0089
G2 X49.1619 Y17.346 I-2.5571 J-1.5688
G3 X49.5272 Y16.8404 I3.4693 J2.1221
G3 X50.5475 Y15.9224 I3.9916 J3.4107
G3 X50.9094 Y15.6929 I4.0843 J6.0399
G3 X51.8426 Y15.2689 I2.4963 J4.2547
G2 X51.8517 Y15.2658 I-0.9506 J-2.8454
G3 X52.3531 Y15.1357 I1.1565 J3.4252
G2 X52.3678 Y15.1329 I-0.5436 J-2.9503
G3 X52.8939 Y15.0826 I0.5362 J2.8312
G1 X56.1187
G2 X56.1206 I0.0 J-3.0
G2 X61.7709 Y12.7357 I-0.0049 J-7.9869
G2 X64.1187 Y7.0831 I-5.6337 J-5.654
G2 Y7.0826 I-3.0 J-0.0005
G1 Y5.0
G2 Y4.9982 I-3.0 J0.0
G2 X61.7718 Y-0.6521 I-7.9869 J0.0049
G2 X56.1192 Y-3.0 I-5.654 J5.6337
G2 X56.1187 I-0.0005 J3.0
G1 X5.0
G2 X4.9982 I0.0 J3.0
G2 X-0.6521 Y-0.653 I0.0049 J7.9869
G2 X-3.0 Y4.9995 I5.6337 J5.654
G2 Y5.0 I3.0 J0.0005
G1 F50.0 Z-3.0
G1 F120.0 Y27.1475
G2 Y27.1494 I3.0 J0.0
G2 X-0.653 Y32.7997 I7.9869 J-0.0049
G2 X4.9995 Y35.1476 I5.654 J-5.6337
G2 X5.0 I0.0005 J-3.0
G1 X35.3048
G2 X35.3425 Y35.1473 I0.0 J-3.0
G1 X35.4791 Y35.1456
G2 X35.5534 Y35.1438 I-0.0377 J-2.9998
G1 X35.6899 Y35.1387
G2 X35.7456 Y35.1361 I-0.112 J-2.9979
G2 X36.1219 Y35.1084 I-0.6077 J-10.851
G2 X36.1515 Y35.1056 I-0.2716 J-2.9877
G2 X36.9348 Y34.994 I-0.9723 J-9.6326
G2 X36.95 Y34.9912 I-0.544 J-2.9503
G2 X38.4502 Y34.5844 I-1.8754 J-9.885
G2 X38.4578 Y34.5816 I-1.0065 J-2.8261
G2 X41.0916 Y33.2205 I-3.803 J-10.5875
G2 X41.103 Y33.2125 I-1.7165 J-2.4604
G2 X41.7459 Y32.7298 I-7.6558 J-10.8656
G2 X41.754 Y32.7233 I-1.873 J-2.3434
G2 X43.3702 Y31.1176 I-6.8541 J-8.5151
G2 X44.1586 Y30.0026 I-7.4319 J-6.0911
G2 X44.8766 Y28.5377 I-7.5753 J-4.6216
G2 X44.8791 Y28.5312 I-2.8038 J-1.0672
G1 X48.9267 Y17.8232
G3 X49.1597 Y17.3494 I2.6498 J1.0089
G2 X49.1619 Y17.346 I-2.5571 J-1.5688
G3 X49.5272 Y16.8404 I3.4693 J2.1221
G3 X50.5475 Y15.9224 I3.9916 J3.4107
G3 X50.9094 Y15.6929 I4.0843 J6.0399
G3 X51.8426 Y15.2689 I2.4963 J4.2547
G2 X51.8517 Y15.2658 I-0.9506 J-2.8454
G3 X52.3531 Y15.1357 I1.1565 J3.4252
G2 X52.3678 Y15.1329 I-0.5436 J-2.9503
G3 X52.8939 Y15.0826 I0.5362 J2.8312
G1 X56.1187
G2 X56.1206 I0.0 J-3.0
G2 X61.7709 Y12.7357 I-0.0049 J-7.9869
G2 X64.1187 Y7.0831 I-5.6337 J-5.654
G2 Y7.0826 I-3.0 J-0.0005
G1 Y5.0
G2 Y4.9982 I-3.0 J0.0
G2 X61.7718 Y-0.6521 I-7.9869 J0.0049
G2 X56.1192 Y-3.0 I-5.654 J5.6337
G2 X56.1187 I-0.0005 J3.0
G1 X5.0
G2 X4.9982 I0.0 J3.0
G2 X-0.6521 Y-0.653 I0.0049 J7.9869
G2 X-3.0 Y4.9995 I5.6337 J5.654
G2 Y5.0 I3.0 J0.0005
G1 F50.0 Z-4.0
G1 F120.0 Y27.1475
G2 Y27.1494 I3.0 J0.0
G2 X-0.653 Y32.7997 I7.9869 J-0.0049
G2 X4.9995 Y35.1476 I5.654 J-5.6337
G2 X5.0 I0.0005 J-3.0
G1 X35.3048
G2 X35.3425 Y35.1473 I0.0 J-3.0
G1 X35.4791 Y35.1456
G2 X35.5534 Y35.1438 I-0.0377 J-2.9998
G1 X35.6899 Y35.1387
G2 X35.7456 Y35.1361 I-0.112 J-2.9979
G2 X36.1219 Y35.1084 I-0.6077 J-10.851
G2 X36.1515 Y35.1056 I-0.2716 J-2.9877
G2 X36.9348 Y34.994 I-0.9723 J-9.6326
G2 X36.95 Y34.9912 I-0.544 J-2.9503
G2 X38.4502 Y34.5844 I-1.8754 J-9.885
G2 X38.4578 Y34.5816 I-1.0065 J-2.8261
G2 X41.0916 Y33.2205 I-3.803 J-10.5875
G2 X41.103 Y33.2125 I-1.7165 J-2.4604
G2 X41.7459 Y32.7298 I-7.6558 J-10.8656
G2 X41.754 Y32.7233 I-1.873 J-2.3434
G2 X43.3702 Y31.1176 I-6.8541 J-8.5151
G2 X44.1586 Y30.0026 I-7.4319 J-6.0911
G2 X44.8766 Y28.5377 I-7.5753 J-4.6216
G2 X44.8791 Y28.5312 I-2.8038 J-1.0672
G1 X48.9267 Y17.8232
G3 X49.1597 Y17.3494 I2.6498 J1.0089
G2 X49.1619 Y17.346 I-2.5571 J-1.5688
G3 X49.5272 Y16.8404 I3.4693 J2.1221
G3 X50.5475 Y15.9224 I3.9916 J3.4107
G3 X50.9094 Y15.6929 I4.0843 J6.0399
G3 X51.8426 Y15.2689 I2.4963 J4.2547
G2 X51.8517 Y15.2658 I-0.9506 J-2.8454
G3 X52.3531 Y15.1357 I1.1565 J3.4252
G2 X52.3678 Y15.1329 I-0.5436 J-2.9503
G3 X52.8939 Y15.0826 I0.5362 J2.8312
G1 X56.1187
G2 X56.1206 I0.0 J-3.0
G2 X61.7709 Y12.7357 I-0.0049 J-7.9869
G2 X64.1187 Y7.0831 I-5.6337 J-5.654
G2 Y7.0826 I-3.0 J-0.0005
G1 Y5.0
G2 Y4.9982 I-3.0 J0.0
G2 X61.7718 Y-0.6521 I-7.9869 J0.0049
G2 X56.1192 Y-3.0 I-5.654 J5.6337
G2 X56.1187 I-0.0005 J3.0
G1 X5.0
G2 X4.9982 I0.0 J3.0
G2 X-0.6521 Y-0.653 I0.0049 J7.9869
G2 X-3.0 Y4.9995 I5.6337 J5.654
G2 Y5.0 I3.0 J0.0005
G1 F50.0 Z-5.0
G1 F120.0 Y27.1475
G2 Y27.1494 I3.0 J0.0
G2 X-0.653 Y32.7997 I7.9869 J-0.0049
G2 X4.9995 Y35.1476 I5.654 J-5.6337
G2 X5.0 I0.0005 J-3.0
G1 X35.3048
G2 X35.3425 Y35.1473 I0.0 J-3.0
G1 X35.4791 Y35.1456
G2 X35.5534 Y35.1438 I-0.0377 J-2.9998
G1 X35.6899 Y35.1387
G2 X35.7456 Y35.1361 I-0.112 J-2.9979
G2 X36.1219 Y35.1084 I-0.6077 J-10.851
G2 X36.1515 Y35.1056 I-0.2716 J-2.9877
G2 X36.9348 Y34.994 I-0.9723 J-9.6326
G2 X36.95 Y34.9912 I-0.544 J-2.9503
G2 X38.4502 Y34.5844 I-1.8754 J-9.885
G2 X38.4578 Y34.5816 I-1.0065 J-2.8261
G2 X41.0916 Y33.2205 I-3.803 J-10.5875
G2 X41.103 Y33.2125 I-1.7165 J-2.4604
G2 X41.7459 Y32.7298 I-7.6558 J-10.8656
G2 X41.754 Y32.7233 I-1.873 J-2.3434
G2 X43.3702 Y31.1176 I-6.8541 J-8.5151
G2 X44.1586 Y30.0026 I-7.4319 J-6.0911
G2 X44.8766 Y28.5377 I-7.5753 J-4.6216
G2 X44.8791 Y28.5312 I-2.8038 J-1.0672
G1 X48.9267 Y17.8232
G3 X49.1597 Y17.3494 I2.6498 J1.0089
G2 X49.1619 Y17.346 I-2.5571 J-1.5688
G3 X49.5272 Y16.8404 I3.4693 J2.1221
G3 X50.5475 Y15.9224 I3.9916 J3.4107
G3 X50.9094 Y15.6929 I4.0843 J6.0399
G3 X51.8426 Y15.2689 I2.4963 J4.2547
G2 X51.8517 Y15.2658 I-0.9506 J-2.8454
G3 X52.3531 Y15.1357 I1.1565 J3.4252
G2 X52.3678 Y15.1329 I-0.5436 J-2.9503
G3 X52.8939 Y15.0826 I0.5362 J2.8312
G1 X56.1187
G2 X56.1206 I0.0 J-3.0
G2 X61.7709 Y12.7357 I-0.0049 J-7.9869
G2 X64.1187 Y7.0831 I-5.6337 J-5.654
G2 Y7.0826 I-3.0 J-0.0005
G1 Y5.0
G2 Y4.9982 I-3.0 J0.0
G2 X61.7718 Y-0.6521 I-7.9869 J0.0049
G2 X56.1192 Y-3.0 I-5.654 J5.6337
G2 X56.1187 I-0.0005 J3.0
G1 X5.0
G2 X4.9982 I0.0 J3.0
G2 X-0.6521 Y-0.653 I0.0049 J7.9869
G2 X-3.0 Y4.9995 I5.6337 J5.654
G2 Y5.0 I3.0 J0.0005
G1 F50.0 Z-6.0
G1 F120.0 Y27.1475
G2 Y27.1494 I3.0 J0.0
G2 X-0.653 Y32.7997 I7.9869 J-0.0049
G2 X4.9995 Y35.1476 I5.654 J-5.6337
G2 X5.0 I0.0005 J-3.0
G1 X35.3048
G2 X35.3425 Y35.1473 I0.0 J-3.0
G1 X35.4791 Y35.1456
G2 X35.5534 Y35.1438 I-0.0377 J-2.9998
G1 X35.6899 Y35.1387
G2 X35.7456 Y35.1361 I-0.112 J-2.9979
G2 X36.1219 Y35.1084 I-0.6077 J-10.851
G2 X36.1515 Y35.1056 I-0.2716 J-2.9877
G2 X36.9348 Y34.994 I-0.9723 J-9.6326
G2 X36.95 Y34.9912 I-0.544 J-2.9503
G2 X38.4502 Y34.5844 I-1.8754 J-9.885
G2 X38.4578 Y34.5816 I-1.0065 J-2.8261
G2 X41.0916 Y33.2205 I-3.803 J-10.5875
G2 X41.103 Y33.2125 I-1.7165 J-2.4604
G2 X41.7459 Y32.7298 I-7.6558 J-10.8656
G2 X41.754 Y32.7233 I-1.873 J-2.3434
G2 X43.3702 Y31.1176 I-6.8541 J-8.5151
G2 X44.1586 Y30.0026 I-7.4319 J-6.0911
G2 X44.8766 Y28.5377 I-7.5753 J-4.6216
G2 X44.8791 Y28.5312 I-2.8038 J-1.0672
G1 X48.9267 Y17.8232
G3 X49.1597 Y17.3494 I2.6498 J1.0089
G2 X49.1619 Y17.346 I-2.5571 J-1.5688
G3 X49.5272 Y16.8404 I3.4693 J2.1221
G3 X50.5475 Y15.9224 I3.9916 J3.4107
G3 X50.9094 Y15.6929 I4.0843 J6.0399
G3 X51.8426 Y15.2689 I2.4963 J4.2547
G2 X51.8517 Y15.2658 I-0.9506 J-2.8454
G3 X52.3531 Y15.1357 I1.1565 J3.4252
G2 X52.3678 Y15.1329 I-0.5436 J-2.9503
G3 X52.8939 Y15.0826 I0.5362 J2.8312
G1 X56.1187
G2 X56.1206 I0.0 J-3.0
G2 X61.7709 Y12.7357 I-0.0049 J-7.9869
G2 X64.1187 Y7.0831 I-5.6337 J-5.654
G2 Y7.0826 I-3.0 J-0.0005
G1 Y5.0
G2 Y4.9982 I-3.0 J0.0
G2 X61.7718 Y-0.6521 I-7.9869 J0.0049
G2 X56.1192 Y-3.0 I-5.654 J5.6337
G2 X56.1187 I-0.0005 J3.0
G1 X5.0
G2 X4.9982 I0.0 J3.0
G2 X-0.6521 Y-0.653 I0.0049 J7.9869
G2 X-3.0 Y4.9995 I5.6337 J5.654
G2 Y5.0 I3.0 J0.0005
G1 F50.0 Z-6.5
G1 F120.0 Y27.1475
G2 Y27.1494 I3.0 J0.0
G2 X-0.653 Y32.7997 I7.9869 J-0.0049
G2 X4.9995 Y35.1476 I5.654 J-5.6337
G2 X5.0 I0.0005 J-3.0
G1 X35.3048
G2 X35.3425 Y35.1473 I0.0 J-3.0
G1 X35.4791 Y35.1456
G2 X35.5534 Y35.1438 I-0.0377 J-2.9998
G1 X35.6899 Y35.1387
G2 X35.7456 Y35.1361 I-0.112 J-2.9979
G2 X36.1219 Y35.1084 I-0.6077 J-10.851
G2 X36.1515 Y35.1056 I-0.2716 J-2.9877
G2 X36.9348 Y34.994 I-0.9723 J-9.6326
G2 X36.95 Y34.9912 I-0.544 J-2.9503
G2 X38.4502 Y34.5844 I-1.8754 J-9.885
G2 X38.4578 Y34.5816 I-1.0065 J-2.8261
G2 X41.0916 Y33.2205 I-3.803 J-10.5875
G2 X41.103 Y33.2125 I-1.7165 J-2.4604
G2 X41.7459 Y32.7298 I-7.6558 J-10.8656
G2 X41.754 Y32.7233 I-1.873 J-2.3434
G2 X43.3702 Y31.1176 I-6.8541 J-8.5151
G2 X44.1586 Y30.0026 I-7.4319 J-6.0911
G2 X44.8766 Y28.5377 I-7.5753 J-4.6216
G2 X44.8791 Y28.5312 I-2.8038 J-1.0672
G1 X48.9267 Y17.8232
G3 X49.1597 Y17.3494 I2.6498 J1.0089
G2 X49.1619 Y17.346 I-2.5571 J-1.5688
G3 X49.5272 Y16.8404 I3.4693 J2.1221
G3 X50.5475 Y15.9224 I3.9916 J3.4107
G3 X50.9094 Y15.6929 I4.0843 J6.0399
G3 X51.8426 Y15.2689 I2.4963 J4.2547
G2 X51.8517 Y15.2658 I-0.9506 J-2.8454
G3 X52.3531 Y15.1357 I1.1565 J3.4252
G2 X52.3678 Y15.1329 I-0.5436 J-2.9503
G3 X52.8939 Y15.0826 I0.5362 J2.8312
G1 X56.1187
G2 X56.1206 I0.0 J-3.0
G2 X61.7709 Y12.7357 I-0.0049 J-7.9869
G2 X64.1187 Y7.0831 I-5.6337 J-5.654
G2 Y7.0826 I-3.0 J-0.0005
G1 Y5.0
G2 Y4.9982 I-3.0 J0.0
G2 X61.7718 Y-0.6521 I-7.9869 J0.0049
G2 X56.1192 Y-3.0 I-5.654 J5.6337
G2 X56.1187 I-0.0005 J3.0
G1 X5.0
G2 X4.9982 I0.0 J3.0
G2 X-0.6521 Y-0.653 I0.0049 J7.9869
G2 X-3.0 Y4.9995 I5.6337 J5.654
G2 Y5.0 I3.0 J0.0005
( Profile4 )
S1000
G0 Z3.0
G0 X64.1187 Y44.5144
G0 Z1.0
G1 F50.0 Z-1.0
G2 F120.0 X61.7709 Y38.8619 I-7.9816 J0.0014
G2 X56.1206 Y36.5149 I-5.6552 J5.6399
G2 X56.1187 I-0.0018 J3.0
G1 X5.0
G2 X4.9995 I0.0 J3.0
G2 X-0.653 Y38.8628 I0.0014 J7.9816
G2 X-3.0 Y44.5131 I5.6399 J5.6552
G2 Y44.5149 I3.0 J0.0018
G1 Y46.5975
G2 Y46.598 I3.0 J0.0
G2 X-0.6521 Y52.2506 I7.9816 J-0.0014
G2 X4.9982 Y54.5975 I5.6552 J-5.6399
G2 X5.0 I0.0018 J-3.0
G1 X8.2248
G3 X8.751 Y54.6478 I-0.01 J2.8815
G2 X8.7656 Y54.6506 I0.5582 J-2.9476
G3 X9.2671 Y54.7807 I-0.655 J3.5553
G2 X9.2762 Y54.7838 I0.9597 J-2.8424
G3 X10.2094 Y55.2078 I-1.5631 J4.6788
G3 X10.5712 Y55.4373 I-3.7225 J6.2694
G3 X11.5916 Y56.3553 I-2.9712 J4.3287
G3 X11.9569 Y56.8609 I-3.104 J2.6277
G2 X11.959 Y56.8643 I2.5592 J-1.5654
G3 X12.192 Y57.3381 I-2.4168 J1.4828
G1 X16.2397 Y68.0461
G2 X16.2421 Y68.0526 I2.8062 J-1.0607
G2 X16.9601 Y69.5175 I8.2934 J-3.1568
G2 X17.7486 Y70.6325 I8.2203 J-4.976
G2 X19.3647 Y72.2382 I8.4703 J-6.9095
G2 X19.3728 Y72.2447 I1.8811 J-2.337
G2 X20.0157 Y72.7274 I8.2987 J-10.3829
G2 X20.0271 Y72.7354 I1.7279 J-2.4524
G2 X22.6609 Y74.0965 I6.4368 J-9.2264
G2 X22.6686 Y74.0993 I1.0141 J-2.8234
G2 X24.1687 Y74.5061 I3.3756 J-9.4782
G2 X24.1839 Y74.5089 I0.5592 J-2.9474
G2 X24.9672 Y74.6205 I1.7555 J-9.5211
G2 X24.9969 Y74.6233 I0.3013 J-2.9848
G2 X25.3731 Y74.651 I0.9839 J-10.8234
G2 X25.4289 Y74.6536 I0.1677 J-2.9953
G1 X25.5654 Y74.6587
G2 X25.6396 Y74.6605 I0.112 J-2.9979
G1 X25.7762 Y74.6622
G2 X25.8139 Y74.6625 I0.0377 J-2.9998
G1 X56.1187
G2 X56.1192 I0.0 J-3.0
G2 X61.7718 Y72.3146 I-0.0014 J-7.9816
G2 X64.1187 Y66.6643 I-5.6399 J-5.6552
G2 Y66.6624 I-3.0 J-0.0018
G1 Y44.5149
G2 Y44.5144 I-3.0 J0.0
G1 F50.0 Z-2.0
G2 F120.0 X61.7709 Y38.8619 I-7.9816 J0.0014
G2 X56.1206 Y36.5149 I-5.6552 J5.6399
G2 X56.1187 I-0.0018 J3.0
G1 X5.0
G2 X4.9995 I0.0 J3.0
G2 X-0.653 Y38.8628 I0.0014 J7.9816
G2 X-3.0 Y44.5131 I5.6399 J5.6552
G2 Y44.5149 I3.0 J0.0018
G1 Y46.5975
G2 Y46.598 I3.0 J0.0
G2 X-0.6521 Y52.2506 I7.9816 J-0.0014
G2 X4.9982 Y54.5975 I5.6552 J-5.6399
G2 X5.0 I0.0018 J-3.0
G1 X8.2248
G3 X8.751 Y54.6478 I-0.01 J2.8815
G2 X8.7656 Y54.6506 I0.5582 J-2.9476
G3 X9.2671 Y54.7807 I-0.655 J3.5553
G2 X9.2762 Y54.7838 I0.9597 J-2.8424
G3 X10.2094 Y55.2078 I-1.5631 J4.6788
G3 X10.5712 Y55.4373 I-3.7225 J6.2694
G3 X11.5916 Y56.3553 I-2.9712 J4.3287
G3 X11.9569 Y56.8609 I-3.104 J2.6277
G2 X11.959 Y56.8643 I2.5592 J-1.5654
G3 X12.192 Y57.3381 I-2.4168 J1.4828
G1 X16.2397 Y68.0461
G2 X16.2421 Y68.0526 I2.8062 J-1.0607
G2 X16.9601 Y69.5175 I8.2934 J-3.1568
G2 X17.7486 Y70.6325 I8.2203 J-4.976
G2 X19.3647 Y72.2382 I8.4703 J-6.9095
G2 X19.3728 Y72.2447 I1.8811 J-2.337
G2 X20.0157 Y72.7274 I8.2987 J-10.3829
G2 X20.0271 Y72.7354 I1.7279 J-2.4524
G2 X22.6609 Y74.0965 I6.4368 J-9.2264
G2 X22.6686 Y74.0993 I1.0141 J-2.8234
G2 X24.1687 Y74.5061 I3.3756 J-9.4782
G2 X24.1839 Y74.5089 I0.5592 J-2.9474
G2 X24.9672 Y74.6205 I1.7555 J-9.5211
G2 X24.9969 Y74.6233 I0.3013 J-2.9848
G2 X25.3731 Y74.651 I0.9839 J-10.8234
G2 X25.4289 Y74.6536 I0.1677 J-2.9953
G1 X25.5654 Y74.6587
G2 X25.6396 Y74.6605 I0.112 J-2.9979
G1 X25.7762 Y74.6622
G2 X25.8139 Y74.6625 I0.0377 J-2.9998
G1 X56.1187
G2 X56.1192 I0.0 J-3.0
G2 X61.7718 Y72.3146 I-0.0014 J-7.9816
G2 X64.1187 Y66.6643 I-5.6399 J-5.6552
G2 Y66.6624 I-3.0 J-0.0018
G1 Y44.5149
G2 Y44.5144 I-3.0 J0.0
G1 F50.0 Z-3.0
G2 F120.0 X61.7709 Y38.8619 I-7.9816 J0.0014
G2 X56.1206 Y36.5149 I-5.6552 J5.6399
G2 X56.1187 I-0.0018 J3.0
G1 X5.0
G2 X4.9995 I0.0 J3.0
G2 X-0.653 Y38.8628 I0.0014 J7.9816
G2 X-3.0 Y44.5131 I5.6399 J5.6552
G2 Y44.5149 I3.0 J0.0018
G1 Y46.5975
G2 Y46.598 I3.0 J0.0
G2 X-0.6521 Y52.2506 I7.9816 J-0.0014
G2 X4.9982 Y54.5975 I5.6552 J-5.6399
G2 X5.0 I0.0018 J-3.0
G1 X8.2248
G3 X8.751 Y54.6478 I-0.01 J2.8815
G2 X8.7656 Y54.6506 I0.5582 J-2.9476
G3 X9.2671 Y54.7807 I-0.655 J3.5553
G2 X9.2762 Y54.7838 I0.9597 J-2.8424
G3 X10.2094 Y55.2078 I-1.5631 J4.6788
G3 X10.5712 Y55.4373 I-3.7225 J6.2694
G3 X11.5916 Y56.3553 I-2.9712 J4.3287
G3 X11.9569 Y56.8609 I-3.104 J2.6277
G2 X11.959 Y56.8643 I2.5592 J-1.5654
G3 X12.192 Y57.3381 I-2.4168 J1.4828
G1 X16.2397 Y68.0461
G2 X16.2421 Y68.0526 I2.8062 J-1.0607
G2 X16.9601 Y69.5175 I8.2934 J-3.1568
G2 X17.7486 Y70.6325 I8.2203 J-4.976
G2 X19.3647 Y72.2382 I8.4703 J-6.9095
G2 X19.3728 Y72.2447 I1.8811 J-2.337
G2 X20.0157 Y72.7274 I8.2987 J-10.3829
G2 X20.0271 Y72.7354 I1.7279 J-2.4524
G2 X22.6609 Y74.0965 I6.4368 J-9.2264
G2 X22.6686 Y74.0993 I1.0141 J-2.8234
G2 X24.1687 Y74.5061 I3.3756 J-9.4782
G2 X24.1839 Y74.5089 I0.5592 J-2.9474
G2 X24.9672 Y74.6205 I1.7555 J-9.5211
G2 X24.9969 Y74.6233 I0.3013 J-2.9848
G2 X25.3731 Y74.651 I0.9839 J-10.8234
G2 X25.4289 Y74.6536 I0.1677 J-2.9953
G1 X25.5654 Y74.6587
G2 X25.6396 Y74.6605 I0.112 J-2.9979
G1 X25.7762 Y74.6622
G2 X25.8139 Y74.6625 I0.0377 J-2.9998
G1 X56.1187
G2 X56.1192 I0.0 J-3.0
G2 X61.7718 Y72.3146 I-0.0014 J-7.9816
G2 X64.1187 Y66.6643 I-5.6399 J-5.6552
G2 Y66.6624 I-3.0 J-0.0018
G1 Y44.5149
G2 Y44.5144 I-3.0 J0.0
G1 F50.0 Z-4.0
G2 F120.0 X61.7709 Y38.8619 I-7.9816 J0.0014
G2 X56.1206 Y36.5149 I-5.6552 J5.6399
G2 X56.1187 I-0.0018 J3.0
G1 X5.0
G2 X4.9995 I0.0 J3.0
G2 X-0.653 Y38.8628 I0.0014 J7.9816
G2 X-3.0 Y44.5131 I5.6399 J5.6552
G2 Y44.5149 I3.0 J0.0018
G1 Y46.5975
G2 Y46.598 I3.0 J0.0
G2 X-0.6521 Y52.2506 I7.9816 J-0.0014
G2 X4.9982 Y54.5975 I5.6552 J-5.6399
G2 X5.0 I0.0018 J-3.0
G1 X8.2248
G3 X8.751 Y54.6478 I-0.01 J2.8815
G2 X8.7656 Y54.6506 I0.5582 J-2.9476
G3 X9.2671 Y54.7807 I-0.655 J3.5553
G2 X9.2762 Y54.7838 I0.9597 J-2.8424
G3 X10.2094 Y55.2078 I-1.5631 J4.6788
G3 X10.5712 Y55.4373 I-3.7225 J6.2694
G3 X11.5916 Y56.3553 I-2.9712 J4.3287
G3 X11.9569 Y56.8609 I-3.104 J2.6277
G2 X11.959 Y56.8643 I2.5592 J-1.5654
G3 X12.192 Y57.3381 I-2.4168 J1.4828
G1 X16.2397 Y68.0461
G2 X16.2421 Y68.0526 I2.8062 J-1.0607
G2 X16.9601 Y69.5175 I8.2934 J-3.1568
G2 X17.7486 Y70.6325 I8.2203 J-4.976
G2 X19.3647 Y72.2382 I8.4703 J-6.9095
G2 X19.3728 Y72.2447 I1.8811 J-2.337
G2 X20.0157 Y72.7274 I8.2987 J-10.3829
G2 X20.0271 Y72.7354 I1.7279 J-2.4524
G2 X22.6609 Y74.0965 I6.4368 J-9.2264
G2 X22.6686 Y74.0993 I1.0141 J-2.8234
G2 X24.1687 Y74.5061 I3.3756 J-9.4782
G2 X24.1839 Y74.5089 I0.5592 J-2.9474
G2 X24.9672 Y74.6205 I1.7555 J-9.5211
G2 X24.9969 Y74.6233 I0.3013 J-2.9848
G2 X25.3731 Y74.651 I0.9839 J-10.8234
G2 X25.4289 Y74.6536 I0.1677 J-2.9953
G1 X25.5654 Y74.6587
G2 X25.6396 Y74.6605 I0.112 J-2.9979
G1 X25.7762 Y74.6622
G2 X25.8139 Y74.6625 I0.0377 J-2.9998
G1 X56.1187
G2 X56.1192 I0.0 J-3.0
G2 X61.7718 Y72.3146 I-0.0014 J-7.9816
G2 X64.1187 Y66.6643 I-5.6399 J-5.6552
G2 Y66.6624 I-3.0 J-0.0018
G1 Y44.5149
G2 Y44.5144 I-3.0 J0.0
G1 F50.0 Z-5.0
G2 F120.0 X61.7709 Y38.8619 I-7.9816 J0.0014
G2 X56.1206 Y36.5149 I-5.6552 J5.6399
G2 X56.1187 I-0.0018 J3.0
G1 X5.0
G2 X4.9995 I0.0 J3.0
G2 X-0.653 Y38.8628 I0.0014 J7.9816
G2 X-3.0 Y44.5131 I5.6399 J5.6552
G2 Y44.5149 I3.0 J0.0018
G1 Y46.5975
G2 Y46.598 I3.0 J0.0
G2 X-0.6521 Y52.2506 I7.9816 J-0.0014
G2 X4.9982 Y54.5975 I5.6552 J-5.6399
G2 X5.0 I0.0018 J-3.0
G1 X8.2248
G3 X8.751 Y54.6478 I-0.01 J2.8815
G2 X8.7656 Y54.6506 I0.5582 J-2.9476
G3 X9.2671 Y54.7807 I-0.655 J3.5553
G2 X9.2762 Y54.7838 I0.9597 J-2.8424
G3 X10.2094 Y55.2078 I-1.5631 J4.6788
G3 X10.5712 Y55.4373 I-3.7225 J6.2694
G3 X11.5916 Y56.3553 I-2.9712 J4.3287
G3 X11.9569 Y56.8609 I-3.104 J2.6277
G2 X11.959 Y56.8643 I2.5592 J-1.5654
G3 X12.192 Y57.3381 I-2.4168 J1.4828
G1 X16.2397 Y68.0461
G2 X16.2421 Y68.0526 I2.8062 J-1.0607
G2 X16.9601 Y69.5175 I8.2934 J-3.1568
G2 X17.7486 Y70.6325 I8.2203 J-4.976
G2 X19.3647 Y72.2382 I8.4703 J-6.9095
G2 X19.3728 Y72.2447 I1.8811 J-2.337
G2 X20.0157 Y72.7274 I8.2987 J-10.3829
G2 X20.0271 Y72.7354 I1.7279 J-2.4524
G2 X22.6609 Y74.0965 I6.4368 J-9.2264
G2 X22.6686 Y74.0993 I1.0141 J-2.8234
G2 X24.1687 Y74.5061 I3.3756 J-9.4782
G2 X24.1839 Y74.5089 I0.5592 J-2.9474
G2 X24.9672 Y74.6205 I1.7555 J-9.5211
G2 X24.9969 Y74.6233 I0.3013 J-2.9848
G2 X25.3731 Y74.651 I0.9839 J-10.8234
G2 X25.4289 Y74.6536 I0.1677 J-2.9953
G1 X25.5654 Y74.6587
G2 X25.6396 Y74.6605 I0.112 J-2.9979
G1 X25.7762 Y74.6622
G2 X25.8139 Y74.6625 I0.0377 J-2.9998
G1 X56.1187
G2 X56.1192 I0.0 J-3.0
G2 X61.7718 Y72.3146 I-0.0014 J-7.9816
G2 X64.1187 Y66.6643 I-5.6399 J-5.6552
G2 Y66.6624 I-3.0 J-0.0018
G1 Y44.5149
G2 Y44.5144 I-3.0 J0.0
G1 F50.0 Z-6.0
G2 F120.0 X61.7709 Y38.8619 I-7.9816 J0.0014
G2 X56.1206 Y36.5149 I-5.6552 J5.6399
G2 X56.1187 I-0.0018 J3.0
G1 X5.0
G2 X4.9995 I0.0 J3.0
G2 X-0.653 Y38.8628 I0.0014 J7.9816
G2 X-3.0 Y44.5131 I5.6399 J5.6552
G2 Y44.5149 I3.0 J0.0018
G1 Y46.5975
G2 Y46.598 I3.0 J0.0
G2 X-0.6521 Y52.2506 I7.9816 J-0.0014
G2 X4.9982 Y54.5975 I5.6552 J-5.6399
G2 X5.0 I0.0018 J-3.0
G1 X8.2248
G3 X8.751 Y54.6478 I-0.01 J2.8815
G2 X8.7656 Y54.6506 I0.5582 J-2.9476
G3 X9.2671 Y54.7807 I-0.655 J3.5553
G2 X9.2762 Y54.7838 I0.9597 J-2.8424
G3 X10.2094 Y55.2078 I-1.5631 J4.6788
G3 X10.5712 Y55.4373 I-3.7225 J6.2694
G3 X11.5916 Y56.3553 I-2.9712 J4.3287
G3 X11.9569 Y56.8609 I-3.104 J2.6277
G2 X11.959 Y56.8643 I2.5592 J-1.5654
G3 X12.192 Y57.3381 I-2.4168 J1.4828
G1 X16.2397 Y68.0461
G2 X16.2421 Y68.0526 I2.8062 J-1.0607
G2 X16.9601 Y69.5175 I8.2934 J-3.1568
G2 X17.7486 Y70.6325 I8.2203 J-4.976
G2 X19.3647 Y72.2382 I8.4703 J-6.9095
G2 X19.3728 Y72.2447 I1.8811 J-2.337
G2 X20.0157 Y72.7274 I8.2987 J-10.3829
G2 X20.0271 Y72.7354 I1.7279 J-2.4524
G2 X22.6609 Y74.0965 I6.4368 J-9.2264
G2 X22.6686 Y74.0993 I1.0141 J-2.8234
G2 X24.1687 Y74.5061 I3.3756 J-9.4782
G2 X24.1839 Y74.5089 I0.5592 J-2.9474
G2 X24.9672 Y74.6205 I1.7555 J-9.5211
G2 X24.9969 Y74.6233 I0.3013 J-2.9848
G2 X25.3731 Y74.651 I0.9839 J-10.8234
G2 X25.4289 Y74.6536 I0.1677 J-2.9953
G1 X25.5654 Y74.6587
G2 X25.6396 Y74.6605 I0.112 J-2.9979
G1 X25.7762 Y74.6622
G2 X25.8139 Y74.6625 I0.0377 J-2.9998
G1 X56.1187
G2 X56.1192 I0.0 J-3.0
G2 X61.7718 Y72.3146 I-0.0014 J-7.9816
G2 X64.1187 Y66.6643 I-5.6399 J-5.6552
G2 Y66.6624 I-3.0 J-0.0018
G1 Y44.5149
G2 Y44.5144 I-3.0 J0.0
G1 F50.0 Z-6.5
G2 F120.0 X61.7709 Y38.8619 I-7.9816 J0.0014
G2 X56.1206 Y36.5149 I-5.6552 J5.6399
G2 X56.1187 I-0.0018 J3.0
G1 X5.0
G2 X4.9995 I0.0 J3.0
G2 X-0.653 Y38.8628 I0.0014 J7.9816
G2 X-3.0 Y44.5131 I5.6399 J5.6552
G2 Y44.5149 I3.0 J0.0018
G1 Y46.5975
G2 Y46.598 I3.0 J0.0
G2 X-0.6521 Y52.2506 I7.9816 J-0.0014
G2 X4.9982 Y54.5975 I5.6552 J-5.6399
G2 X5.0 I0.0018 J-3.0
G1 X8.2248
G3 X8.751 Y54.6478 I-0.01 J2.8815
G2 X8.7656 Y54.6506 I0.5582 J-2.9476
G3 X9.2671 Y54.7807 I-0.655 J3.5553
G2 X9.2762 Y54.7838 I0.9597 J-2.8424
G3 X10.2094 Y55.2078 I-1.5631 J4.6788
G3 X10.5712 Y55.4373 I-3.7225 J6.2694
G3 X11.5916 Y56.3553 I-2.9712 J4.3287
G3 X11.9569 Y56.8609 I-3.104 J2.6277
G2 X11.959 Y56.8643 I2.5592 J-1.5654
G3 X12.192 Y57.3381 I-2.4168 J1.4828
G1 X16.2397 Y68.0461
G2 X16.2421 Y68.0526 I2.8062 J-1.0607
G2 X16.9601 Y69.5175 I8.2934 J-3.1568
G2 X17.7486 Y70.6325 I8.2203 J-4.976
G2 X19.3647 Y72.2382 I8.4703 J-6.9095
G2 X19.3728 Y72.2447 I1.8811 J-2.337
G2 X20.0157 Y72.7274 I8.2987 J-10.3829
G2 X20.0271 Y72.7354 I1.7279 J-2.4524
G2 X22.6609 Y74.0965 I6.4368 J-9.2264
G2 X22.6686 Y74.0993 I1.0141 J-2.8234
G2 X24.1687 Y74.5061 I3.3756 J-9.4782
G2 X24.1839 Y74.5089 I0.5592 J-2.9474
G2 X24.9672 Y74.6205 I1.7555 J-9.5211
G2 X24.9969 Y74.6233 I0.3013 J-2.9848
G2 X25.3731 Y74.651 I0.9839 J-10.8234
G2 X25.4289 Y74.6536 I0.1677 J-2.9953
G1 X25.5654 Y74.6587
G2 X25.6396 Y74.6605 I0.112 J-2.9979
G1 X25.7762 Y74.6622
G2 X25.8139 Y74.6625 I0.0377 J-2.9998
G1 X56.1187
G2 X56.1192 I0.0 J-3.0
G2 X61.7718 Y72.3146 I-0.0014 J-7.9816
G2 X64.1187 Y66.6643 I-5.6399 J-5.6552
G2 Y66.6624 I-3.0 J-0.0018
G1 Y44.5149
G2 Y44.5144 I-3.0 J0.0
( Profile5 )
S1000
G0 Z3.0
G0 X81.5675 Y45.6055
G0 Z1.0
G1 F50.0 Z-1.0
G2 F120.0 X79.2199 Y39.9532 I-7.9813 J0.0012
G2 X73.5691 Y37.606 I-5.6547 J5.6377
G2 X73.5666 I-0.0015 J3.0
G2 X67.9146 Y39.9539 I0.0026 J7.983
G2 X65.5677 Y45.6041 I5.6404 J5.6553
G2 Y45.606 I3.0 J0.0019
G1 Y65.6041
G1 Y65.6045
G2 X67.9153 Y71.2569 I7.9813 J-0.0012
G2 X73.5661 Y73.6041 I5.6547 J-5.6377
G2 X73.5686 I0.0015 J-3.0
G2 X79.2206 Y71.2562 I-0.0026 J-7.983
G2 X81.5675 Y65.606 I-5.6404 J-5.6553
G2 Y65.6041 I-3.0 J-0.0019
G1 Y45.606
G1 Y45.6055
G1 F50.0 Z-2.0
G2 F120.0 X79.2199 Y39.9532 I-7.9813 J0.0012
G2 X73.5691 Y37.606 I-5.6547 J5.6377
G2 X73.5666 I-0.0015 J3.0
G2 X67.9146 Y39.9539 I0.0026 J7.983
G2 X65.5677 Y45.6041 I5.6404 J5.6553
G2 Y45.606 I3.0 J0.0019
G1 Y65.6041
G1 Y65.6045
G2 X67.9153 Y71.2569 I7.9813 J-0.0012
G2 X73.5661 Y73.6041 I5.6547 J-5.6377
G2 X73.5686 I0.0015 J-3.0
G2 X79.2206 Y71.2562 I-0.0026 J-7.983
G2 X81.5675 Y65.606 I-5.6404 J-5.6553
G2 Y65.6041 I-3.0 J-0.0019
G1 Y45.606
G1 Y45.6055
G1 F50.0 Z-3.0
G2 F120.0 X79.2199 Y39.9532 I-7.9813 J0.0012
G2 X73.5691 Y37.606 I-5.6547 J5.6377
G2 X73.5666 I-0.0015 J3.0
G2 X67.9146 Y39.9539 I0.0026 J7.983
G2 X65.5677 Y45.6041 I5.6404 J5.6553
G2 Y45.606 I3.0 J0.0019
G1 Y65.6041
G1 Y65.6045
G2 X67.9153 Y71.2569 I7.9813 J-0.0012
G2 X73.5661 Y73.6041 I5.6547 J-5.6377
G2 X73.5686 I0.0015 J-3.0
G2 X79.2206 Y71.2562 I-0.0026 J-7.983
G2 X81.5675 Y65.606 I-5.6404 J-5.6553
G2 Y65.6041 I-3.0 J-0.0019
G1 Y45.606
G1 Y45.6055
G1 F50.0 Z-4.0
G2 F120.0 X79.2199 Y39.9532 I-7.9813 J0.0012
G2 X73.5691 Y37.606 I-5.6547 J5.6377
G2 X73.5666 I-0.0015 J3.0
G2 X67.9146 Y39.9539 I0.0026 J7.983
G2 X65.5677 Y45.6041 I5.6404 J5.6553
G2 Y45.606 I3.0 J0.0019
G1 Y65.6041
G1 Y65.6045
G2 X67.9153 Y71.2569 I7.9813 J-0.0012
G2 X73.5661 Y73.6041 I5.6547 J-5.6377
G2 X73.5686 I0.0015 J-3.0
G2 X79.2206 Y71.2562 I-0.0026 J-7.983
G2 X81.5675 Y65.606 I-5.6404 J-5.6553
G2 Y65.6041 I-3.0 J-0.0019
G1 Y45.606
G1 Y45.6055
G1 F50.0 Z-5.0
G2 F120.0 X79.2199 Y39.9532 I-7.9813 J0.0012
G2 X73.5691 Y37.606 I-5.6547 J5.6377
G2 X73.5666 I-0.0015 J3.0
G2 X67.9146 Y39.9539 I0.0026 J7.983
G2 X65.5677 Y45.6041 I5.6404 J5.6553
G2 Y45.606 I3.0 J0.0019
G1 Y65.6041
G1 Y65.6045
G2 X67.9153 Y71.2569 I7.9813 J-0.0012
G2 X73.5661 Y73.6041 I5.6547 J-5.6377
G2 X73.5686 I0.0015 J-3.0
G2 X79.2206 Y71.2562 I-0.0026 J-7.983
G2 X81.5675 Y65.606 I-5.6404 J-5.6553
G2 Y65.6041 I-3.0 J-0.0019
G1 Y45.606
G1 Y45.6055
G1 F50.0 Z-6.0
G2 F120.0 X79.2199 Y39.9532 I-7.9813 J0.0012
G2 X73.5691 Y37.606 I-5.6547 J5.6377
G2 X73.5666 I-0.0015 J3.0
G2 X67.9146 Y39.9539 I0.0026 J7.983
G2 X65.5677 Y45.6041 I5.6404 J5.6553
G2 Y45.606 I3.0 J0.0019
G1 Y65.6041
G1 Y65.6045
G2 X67.9153 Y71.2569 I7.9813 J-0.0012
G2 X73.5661 Y73.6041 I5.6547 J-5.6377
G2 X73.5686 I0.0015 J-3.0
G2 X79.2206 Y71.2562 I-0.0026 J-7.983
G2 X81.5675 Y65.606 I-5.6404 J-5.6553
G2 Y65.6041 I-3.0 J-0.0019
G1 Y45.606
G1 Y45.6055
G1 F50.0 Z-6.5
G2 F120.0 X79.2199 Y39.9532 I-7.9813 J0.0012
G2 X73.5691 Y37.606 I-5.6547 J5.6377
G2 X73.5666 I-0.0015 J3.0
G2 X67.9146 Y39.9539 I0.0026 J7.983
G2 X65.5677 Y45.6041 I5.6404 J5.6553
G2 Y45.606 I3.0 J0.0019
G1 Y65.6041
G1 Y65.6045
G2 X67.9153 Y71.2569 I7.9813 J-0.0012
G2 X73.5661 Y73.6041 I5.6547 J-5.6377
G2 X73.5686 I0.0015 J-3.0
G2 X79.2206 Y71.2562 I-0.0026 J-7.983
G2 X81.5675 Y65.606 I-5.6404 J-5.6553
G2 Y65.6041 I-3.0 J-0.0019
G1 Y45.606
G1 Y45.6055
( Profile6 )
S1000
G0 Z3.0
G0 Y6.0906
G0 Z1.0
G1 F50.0 Z-1.0
G2 F120.0 X79.2199 Y0.4383 I-7.9813 J0.0012
G2 X73.5691 Y-1.9089 I-5.6547 J5.6377
G2 X73.5666 I-0.0015 J3.0
G2 X67.9146 Y0.439 I0.0026 J7.983
G2 X65.5677 Y6.0892 I5.6404 J5.6553
G2 Y6.0911 I3.0 J0.0019
G1 Y26.0892
G1 Y26.0896
G2 X67.9153 Y31.742 I7.9813 J-0.0012
G2 X73.5661 Y34.0892 I5.6547 J-5.6377
G2 X73.5686 I0.0015 J-3.0
G2 X79.2206 Y31.7413 I-0.0026 J-7.983
G2 X81.5675 Y26.0911 I-5.6404 J-5.6553
G2 Y26.0892 I-3.0 J-0.0019
G1 Y6.0911
G1 Y6.0906
G1 F50.0 Z-2.0
G2 F120.0 X79.2199 Y0.4383 I-7.9813 J0.0012
G2 X73.5691 Y-1.9089 I-5.6547 J5.6377
G2 X73.5666 I-0.0015 J3.0
G2 X67.9146 Y0.439 I0.0026 J7.983
G2 X65.5677 Y6.0892 I5.6404 J5.6553
G2 Y6.0911 I3.0 J0.0019
G1 Y26.0892
G1 Y26.0896
G2 X67.9153 Y31.742 I7.9813 J-0.0012
G2 X73.5661 Y34.0892 I5.6547 J-5.6377
G2 X73.5686 I0.0015 J-3.0
G2 X79.2206 Y31.7413 I-0.0026 J-7.983
G2 X81.5675 Y26.0911 I-5.6404 J-5.6553
G2 Y26.0892 I-3.0 J-0.0019
G1 Y6.0911
G1 Y6.0906
G1 F50.0 Z-3.0
G2 F120.0 X79.2199 Y0.4383 I-7.9813 J0.0012
G2 X73.5691 Y-1.9089 I-5.6547 J5.6377
G2 X73.5666 I-0.0015 J3.0
G2 X67.9146 Y0.439 I0.0026 J7.983
G2 X65.5677 Y6.0892 I5.6404 J5.6553
G2 Y6.0911 I3.0 J0.0019
G1 Y26.0892
G1 Y26.0896
G2 X67.9153 Y31.742 I7.9813 J-0.0012
G2 X73.5661 Y34.0892 I5.6547 J-5.6377
G2 X73.5686 I0.0015 J-3.0
G2 X79.2206 Y31.7413 I-0.0026 J-7.983
G2 X81.5675 Y26.0911 I-5.6404 J-5.6553
G2 Y26.0892 I-3.0 J-0.0019
G1 Y6.0911
G1 Y6.0906
G1 F50.0 Z-4.0
G2 F120.0 X79.2199 Y0.4383 I-7.9813 J0.0012
G2 X73.5691 Y-1.9089 I-5.6547 J5.6377
G2 X73.5666 I-0.0015 J3.0
G2 X67.9146 Y0.439 I0.0026 J7.983
G2 X65.5677 Y6.0892 I5.6404 J5.6553
G2 Y6.0911 I3.0 J0.0019
G1 Y26.0892
G1 Y26.0896
G2 X67.9153 Y31.742 I7.9813 J-0.0012
G2 X73.5661 Y34.0892 I5.6547 J-5.6377
G2 X73.5686 I0.0015 J-3.0
G2 X79.2206 Y31.7413 I-0.0026 J-7.983
G2 X81.5675 Y26.0911 I-5.6404 J-5.6553
G2 Y26.0892 I-3.0 J-0.0019
G1 Y6.0911
G1 Y6.0906
G1 F50.0 Z-5.0
G2 F120.0 X79.2199 Y0.4383 I-7.9813 J0.0012
G2 X73.5691 Y-1.9089 I-5.6547 J5.6377
G2 X73.5666 I-0.0015 J3.0
G2 X67.9146 Y0.439 I0.0026 J7.983
G2 X65.5677 Y6.0892 I5.6404 J5.6553
G2 Y6.0911 I3.0 J0.0019
G1 Y26.0892
G1 Y26.0896
G2 X67.9153 Y31.742 I7.9813 J-0.0012
G2 X73.5661 Y34.0892 I5.6547 J-5.6377
G2 X73.5686 I0.0015 J-3.0
G2 X79.2206 Y31.7413 I-0.0026 J-7.983
G2 X81.5675 Y26.0911 I-5.6404 J-5.6553
G2 Y26.0892 I-3.0 J-0.0019
G1 Y6.0911
G1 Y6.0906
G1 F50.0 Z-6.0
G2 F120.0 X79.2199 Y0.4383 I-7.9813 J0.0012
G2 X73.5691 Y-1.9089 I-5.6547 J5.6377
G2 X73.5666 I-0.0015 J3.0
G2 X67.9146 Y0.439 I0.0026 J7.983
G2 X65.5677 Y6.0892 I5.6404 J5.6553
G2 Y6.0911 I3.0 J0.0019
G1 Y26.0892
G1 Y26.0896
G2 X67.9153 Y31.742 I7.9813 J-0.0012
G2 X73.5661 Y34.0892 I5.6547 J-5.6377
G2 X73.5686 I0.0015 J-3.0
G2 X79.2206 Y31.7413 I-0.0026 J-7.983
G2 X81.5675 Y26.0911 I-5.6404 J-5.6553
G2 Y26.0892 I-3.0 J-0.0019
G1 Y6.0911
G1 Y6.0906
G1 F50.0 Z-6.5
G2 F120.0 X79.2199 Y0.4383 I-7.9813 J0.0012
G2 X73.5691 Y-1.9089 I-5.6547 J5.6377
G2 X73.5666 I-0.0015 J3.0
G2 X67.9146 Y0.439 I0.0026 J7.983
G2 X65.5677 Y6.0892 I5.6404 J5.6553
G2 Y6.0911 I3.0 J0.0019
G1 Y26.0892
G1 Y26.0896
G2 X67.9153 Y31.742 I7.9813 J-0.0012
G2 X73.5661 Y34.0892 I5.6547 J-5.6377
G2 X73.5686 I0.0015 J-3.0
G2 X79.2206 Y31.7413 I-0.0026 J-7.983
G2 X81.5675 Y26.0911 I-5.6404 J-5.6553
G2 Y26.0892 I-3.0 J-0.0019
G1 Y6.0911
G1 Y6.0906
G0 Z3.0
M5
M30
