( Made using CamBam - http://www.cambam.co.uk )
( vertical slide mount 11/29/2012 11:51:39 AM )
( T4 : 4.0 )
G21 G90 G64 G40
G0 Z3.0
( T4 : 4.0 )
T4 M6
( Pocket1 )
G17
M3 S1000
G0 X49.9428 Y20.6998
G1 F40.0 Z-0.5
G1 F80.0 X93.8706
G1 Y21.8557
G1 X49.9428
G1 Y20.6998
G1 F40.0 X48.3428
G1 F80.0 Y19.2473
G3 X48.538 Y19.1636 I0.4687 J0.8229
G2 X48.5466 Y19.161 I-1.0395 J-3.4467
G3 X48.963 Y19.0998 I0.4113 J1.3515
G2 X48.9762 I0.0132 J-3.6
G1 X94.8373
G2 X94.8414 I0.0 J-3.6
G3 X95.2141 Y19.146 I0.0017 J1.5147
G2 X95.2212 Y19.1478 I0.8816 J-3.4904
G3 X95.4706 Y19.2472 I-0.2441 J0.9749
G1 Y23.3079
G3 X95.2696 Y23.3938 I-0.5195 J-0.9382
G3 X94.8416 Y23.4557 I-0.4262 J-1.4361
G2 X94.8373 I-0.0043 J3.6
G1 X48.9762
G2 X48.9699 I0.0 J3.6
G3 X48.6015 Y23.4101 I-0.0026 J-1.49
G2 X48.5909 Y23.4075 I-0.8838 J3.4898
G3 X48.3428 Y23.3084 I0.2408 J-0.9632
G1 Y20.6998
G1 F40.0 X46.7428
G1 F80.0 Y18.9681
G3 X46.83 Y18.5811 I0.9111 J0.0019
G3 X47.1435 Y18.1565 I1.2789 J0.6164
G2 X47.1475 Y18.1529 I-1.36 J-1.4665
G3 X47.4977 Y17.8882 I1.4508 J1.556
G3 X48.076 Y17.6317 I1.3138 J2.182
G2 X48.0808 Y17.6303 I-0.5775 J-1.9148
G3 X48.9689 Y17.4998 I0.8771 J2.8822
G2 X48.9762 I0.0073 J-2.0
G1 X94.8373
G2 X94.8396 I0.0 J-2.0
G3 X95.6059 Y17.5947 I0.0035 J3.1147
G2 X95.6099 Y17.5957 I0.4898 J-1.9391
G3 X96.2751 Y17.8641 I-0.6328 J2.527
G2 X96.2804 Y17.8671 I0.9966 J-1.734
G3 X96.626 Y18.116 I-1.0016 J1.7551
G2 X96.6348 Y18.1238 I1.3333 J-1.4907
G3 X96.9423 Y18.5003 I-0.9978 J1.1289
G2 X96.9437 Y18.5028 I1.7327 J-0.9989
G3 X97.0706 Y18.9705 I-0.8172 J0.4727
G1 Y23.5865
G3 X96.9832 Y23.9752 I-0.9219 J-0.0031
G3 X96.6694 Y24.3997 I-1.284 J-0.6208
G2 X96.6658 Y24.4031 I1.3606 J1.4659
G3 X96.3189 Y24.6656 I-1.4451 J-1.5493
G3 X95.7344 Y24.9248 I-1.3678 J-2.2959
G3 X94.8397 Y25.0557 I-0.891 J-2.9672
G2 X94.8373 I-0.0024 J2.0
G1 X48.9762
G2 X48.9727 I0.0 J2.0
G3 X48.2087 Y24.9612 I-0.0054 J-3.09
G2 X48.2028 Y24.9597 I-0.491 J1.9388
G3 X47.539 Y24.6918 I0.6289 J-2.5154
G2 X47.5327 Y24.6883 I-0.9972 J1.7337
G3 X47.1878 Y24.4398 I0.9975 J-1.7487
G2 X47.1782 Y24.4313 I-1.3336 J1.4905
G3 X46.8714 Y24.0557 I0.9937 J-1.1249
G2 X46.8692 Y24.0519 I-1.7329 J0.9985
G3 X46.7428 Y23.5858 I0.812 J-0.4703
G1 Y20.6998
G0 Z3.0
G0 X49.9428
G1 F40.0 Z-1.0
G1 F80.0 X93.8706
G1 Y21.8557
G1 X49.9428
G1 Y20.6998
G1 F40.0 X48.3428
G1 F80.0 Y19.2473
G3 X48.538 Y19.1636 I0.4687 J0.8229
G2 X48.5466 Y19.161 I-1.0395 J-3.4467
G3 X48.963 Y19.0998 I0.4113 J1.3515
G2 X48.9762 I0.0132 J-3.6
G1 X94.8373
G2 X94.8414 I0.0 J-3.6
G3 X95.2141 Y19.146 I0.0017 J1.5147
G2 X95.2212 Y19.1478 I0.8816 J-3.4904
G3 X95.4706 Y19.2472 I-0.2441 J0.9749
G1 Y23.3079
G3 X95.2696 Y23.3938 I-0.5195 J-0.9382
G3 X94.8416 Y23.4557 I-0.4262 J-1.4361
G2 X94.8373 I-0.0043 J3.6
G1 X48.9762
G2 X48.9699 I0.0 J3.6
G3 X48.6015 Y23.4101 I-0.0026 J-1.49
G2 X48.5909 Y23.4075 I-0.8838 J3.4898
G3 X48.3428 Y23.3084 I0.2408 J-0.9632
G1 Y20.6998
G1 F40.0 X46.7428
G1 F80.0 Y18.9681
G3 X46.83 Y18.5811 I0.9111 J0.0019
G3 X47.1435 Y18.1565 I1.2789 J0.6164
G2 X47.1475 Y18.1529 I-1.36 J-1.4665
G3 X47.4977 Y17.8882 I1.4508 J1.556
G3 X48.076 Y17.6317 I1.3138 J2.182
G2 X48.0808 Y17.6303 I-0.5775 J-1.9148
G3 X48.9689 Y17.4998 I0.8771 J2.8822
G2 X48.9762 I0.0073 J-2.0
G1 X94.8373
G2 X94.8396 I0.0 J-2.0
G3 X95.6059 Y17.5947 I0.0035 J3.1147
G2 X95.6099 Y17.5957 I0.4898 J-1.9391
G3 X96.2751 Y17.8641 I-0.6328 J2.527
G2 X96.2804 Y17.8671 I0.9966 J-1.734
G3 X96.626 Y18.116 I-1.0016 J1.7551
G2 X96.6348 Y18.1238 I1.3333 J-1.4907
G3 X96.9423 Y18.5003 I-0.9978 J1.1289
G2 X96.9437 Y18.5028 I1.7327 J-0.9989
G3 X97.0706 Y18.9705 I-0.8172 J0.4727
G1 Y23.5865
G3 X96.9832 Y23.9752 I-0.9219 J-0.0031
G3 X96.6694 Y24.3997 I-1.284 J-0.6208
G2 X96.6658 Y24.4031 I1.3606 J1.4659
G3 X96.3189 Y24.6656 I-1.4451 J-1.5493
G3 X95.7344 Y24.9248 I-1.3678 J-2.2959
G3 X94.8397 Y25.0557 I-0.891 J-2.9672
G2 X94.8373 I-0.0024 J2.0
G1 X48.9762
G2 X48.9727 I0.0 J2.0
G3 X48.2087 Y24.9612 I-0.0054 J-3.09
G2 X48.2028 Y24.9597 I-0.491 J1.9388
G3 X47.539 Y24.6918 I0.6289 J-2.5154
G2 X47.5327 Y24.6883 I-0.9972 J1.7337
G3 X47.1878 Y24.4398 I0.9975 J-1.7487
G2 X47.1782 Y24.4313 I-1.3336 J1.4905
G3 X46.8714 Y24.0557 I0.9937 J-1.1249
G2 X46.8692 Y24.0519 I-1.7329 J0.9985
G3 X46.7428 Y23.5858 I0.812 J-0.4703
G1 Y20.6998
G0 Z3.0
G0 X49.9428
G1 F40.0 Z-1.5
G1 F80.0 X93.8706
G1 Y21.8557
G1 X49.9428
G1 Y20.6998
G1 F40.0 X48.3428
G1 F80.0 Y19.2473
G3 X48.538 Y19.1636 I0.4687 J0.8229
G2 X48.5466 Y19.161 I-1.0395 J-3.4467
G3 X48.963 Y19.0998 I0.4113 J1.3515
G2 X48.9762 I0.0132 J-3.6
G1 X94.8373
G2 X94.8414 I0.0 J-3.6
G3 X95.2141 Y19.146 I0.0017 J1.5147
G2 X95.2212 Y19.1478 I0.8816 J-3.4904
G3 X95.4706 Y19.2472 I-0.2441 J0.9749
G1 Y23.3079
G3 X95.2696 Y23.3938 I-0.5195 J-0.9382
G3 X94.8416 Y23.4557 I-0.4262 J-1.4361
G2 X94.8373 I-0.0043 J3.6
G1 X48.9762
G2 X48.9699 I0.0 J3.6
G3 X48.6015 Y23.4101 I-0.0026 J-1.49
G2 X48.5909 Y23.4075 I-0.8838 J3.4898
G3 X48.3428 Y23.3084 I0.2408 J-0.9632
G1 Y20.6998
G1 F40.0 X46.7428
G1 F80.0 Y18.9681
G3 X46.83 Y18.5811 I0.9111 J0.0019
G3 X47.1435 Y18.1565 I1.2789 J0.6164
G2 X47.1475 Y18.1529 I-1.36 J-1.4665
G3 X47.4977 Y17.8882 I1.4508 J1.556
G3 X48.076 Y17.6317 I1.3138 J2.182
G2 X48.0808 Y17.6303 I-0.5775 J-1.9148
G3 X48.9689 Y17.4998 I0.8771 J2.8822
G2 X48.9762 I0.0073 J-2.0
G1 X94.8373
G2 X94.8396 I0.0 J-2.0
G3 X95.6059 Y17.5947 I0.0035 J3.1147
G2 X95.6099 Y17.5957 I0.4898 J-1.9391
G3 X96.2751 Y17.8641 I-0.6328 J2.527
G2 X96.2804 Y17.8671 I0.9966 J-1.734
G3 X96.626 Y18.116 I-1.0016 J1.7551
G2 X96.6348 Y18.1238 I1.3333 J-1.4907
G3 X96.9423 Y18.5003 I-0.9978 J1.1289
G2 X96.9437 Y18.5028 I1.7327 J-0.9989
G3 X97.0706 Y18.9705 I-0.8172 J0.4727
G1 Y23.5865
G3 X96.9832 Y23.9752 I-0.9219 J-0.0031
G3 X96.6694 Y24.3997 I-1.284 J-0.6208
G2 X96.6658 Y24.4031 I1.3606 J1.4659
G3 X96.3189 Y24.6656 I-1.4451 J-1.5493
G3 X95.7344 Y24.9248 I-1.3678 J-2.2959
G3 X94.8397 Y25.0557 I-0.891 J-2.9672
G2 X94.8373 I-0.0024 J2.0
G1 X48.9762
G2 X48.9727 I0.0 J2.0
G3 X48.2087 Y24.9612 I-0.0054 J-3.09
G2 X48.2028 Y24.9597 I-0.491 J1.9388
G3 X47.539 Y24.6918 I0.6289 J-2.5154
G2 X47.5327 Y24.6883 I-0.9972 J1.7337
G3 X47.1878 Y24.4398 I0.9975 J-1.7487
G2 X47.1782 Y24.4313 I-1.3336 J1.4905
G3 X46.8714 Y24.0557 I0.9937 J-1.1249
G2 X46.8692 Y24.0519 I-1.7329 J0.9985
G3 X46.7428 Y23.5858 I0.812 J-0.4703
G1 Y20.6998
G0 Z3.0
G0 X49.9428
G1 F40.0 Z-2.0
G1 F80.0 X93.8706
G1 Y21.8557
G1 X49.9428
G1 Y20.6998
G1 F40.0 X48.3428
G1 F80.0 Y19.2473
G3 X48.538 Y19.1636 I0.4687 J0.8229
G2 X48.5466 Y19.161 I-1.0395 J-3.4467
G3 X48.963 Y19.0998 I0.4113 J1.3515
G2 X48.9762 I0.0132 J-3.6
G1 X94.8373
G2 X94.8414 I0.0 J-3.6
G3 X95.2141 Y19.146 I0.0017 J1.5147
G2 X95.2212 Y19.1478 I0.8816 J-3.4904
G3 X95.4706 Y19.2472 I-0.2441 J0.9749
G1 Y23.3079
G3 X95.2696 Y23.3938 I-0.5195 J-0.9382
G3 X94.8416 Y23.4557 I-0.4262 J-1.4361
G2 X94.8373 I-0.0043 J3.6
G1 X48.9762
G2 X48.9699 I0.0 J3.6
G3 X48.6015 Y23.4101 I-0.0026 J-1.49
G2 X48.5909 Y23.4075 I-0.8838 J3.4898
G3 X48.3428 Y23.3084 I0.2408 J-0.9632
G1 Y20.6998
G1 F40.0 X46.7428
G1 F80.0 Y18.9681
G3 X46.83 Y18.5811 I0.9111 J0.0019
G3 X47.1435 Y18.1565 I1.2789 J0.6164
G2 X47.1475 Y18.1529 I-1.36 J-1.4665
G3 X47.4977 Y17.8882 I1.4508 J1.556
G3 X48.076 Y17.6317 I1.3138 J2.182
G2 X48.0808 Y17.6303 I-0.5775 J-1.9148
G3 X48.9689 Y17.4998 I0.8771 J2.8822
G2 X48.9762 I0.0073 J-2.0
G1 X94.8373
G2 X94.8396 I0.0 J-2.0
G3 X95.6059 Y17.5947 I0.0035 J3.1147
G2 X95.6099 Y17.5957 I0.4898 J-1.9391
G3 X96.2751 Y17.8641 I-0.6328 J2.527
G2 X96.2804 Y17.8671 I0.9966 J-1.734
G3 X96.626 Y18.116 I-1.0016 J1.7551
G2 X96.6348 Y18.1238 I1.3333 J-1.4907
G3 X96.9423 Y18.5003 I-0.9978 J1.1289
G2 X96.9437 Y18.5028 I1.7327 J-0.9989
G3 X97.0706 Y18.9705 I-0.8172 J0.4727
G1 Y23.5865
G3 X96.9832 Y23.9752 I-0.9219 J-0.0031
G3 X96.6694 Y24.3997 I-1.284 J-0.6208
G2 X96.6658 Y24.4031 I1.3606 J1.4659
G3 X96.3189 Y24.6656 I-1.4451 J-1.5493
G3 X95.7344 Y24.9248 I-1.3678 J-2.2959
G3 X94.8397 Y25.0557 I-0.891 J-2.9672
G2 X94.8373 I-0.0024 J2.0
G1 X48.9762
G2 X48.9727 I0.0 J2.0
G3 X48.2087 Y24.9612 I-0.0054 J-3.09
G2 X48.2028 Y24.9597 I-0.491 J1.9388
G3 X47.539 Y24.6918 I0.6289 J-2.5154
G2 X47.5327 Y24.6883 I-0.9972 J1.7337
G3 X47.1878 Y24.4398 I0.9975 J-1.7487
G2 X47.1782 Y24.4313 I-1.3336 J1.4905
G3 X46.8714 Y24.0557 I0.9937 J-1.1249
G2 X46.8692 Y24.0519 I-1.7329 J0.9985
G3 X46.7428 Y23.5858 I0.812 J-0.4703
G1 Y20.6998
G0 Z3.0
G0 X49.9428
G1 F40.0 Z-2.5
G1 F80.0 X93.8706
G1 Y21.8557
G1 X49.9428
G1 Y20.6998
G1 F40.0 X48.3428
G1 F80.0 Y19.2473
G3 X48.538 Y19.1636 I0.4687 J0.8229
G2 X48.5466 Y19.161 I-1.0395 J-3.4467
G3 X48.963 Y19.0998 I0.4113 J1.3515
G2 X48.9762 I0.0132 J-3.6
G1 X94.8373
G2 X94.8414 I0.0 J-3.6
G3 X95.2141 Y19.146 I0.0017 J1.5147
G2 X95.2212 Y19.1478 I0.8816 J-3.4904
G3 X95.4706 Y19.2472 I-0.2441 J0.9749
G1 Y23.3079
G3 X95.2696 Y23.3938 I-0.5195 J-0.9382
G3 X94.8416 Y23.4557 I-0.4262 J-1.4361
G2 X94.8373 I-0.0043 J3.6
G1 X48.9762
G2 X48.9699 I0.0 J3.6
G3 X48.6015 Y23.4101 I-0.0026 J-1.49
G2 X48.5909 Y23.4075 I-0.8838 J3.4898
G3 X48.3428 Y23.3084 I0.2408 J-0.9632
G1 Y20.6998
G1 F40.0 X46.7428
G1 F80.0 Y18.9681
G3 X46.83 Y18.5811 I0.9111 J0.0019
G3 X47.1435 Y18.1565 I1.2789 J0.6164
G2 X47.1475 Y18.1529 I-1.36 J-1.4665
G3 X47.4977 Y17.8882 I1.4508 J1.556
G3 X48.076 Y17.6317 I1.3138 J2.182
G2 X48.0808 Y17.6303 I-0.5775 J-1.9148
G3 X48.9689 Y17.4998 I0.8771 J2.8822
G2 X48.9762 I0.0073 J-2.0
G1 X94.8373
G2 X94.8396 I0.0 J-2.0
G3 X95.6059 Y17.5947 I0.0035 J3.1147
G2 X95.6099 Y17.5957 I0.4898 J-1.9391
G3 X96.2751 Y17.8641 I-0.6328 J2.527
G2 X96.2804 Y17.8671 I0.9966 J-1.734
G3 X96.626 Y18.116 I-1.0016 J1.7551
G2 X96.6348 Y18.1238 I1.3333 J-1.4907
G3 X96.9423 Y18.5003 I-0.9978 J1.1289
G2 X96.9437 Y18.5028 I1.7327 J-0.9989
G3 X97.0706 Y18.9705 I-0.8172 J0.4727
G1 Y23.5865
G3 X96.9832 Y23.9752 I-0.9219 J-0.0031
G3 X96.6694 Y24.3997 I-1.284 J-0.6208
G2 X96.6658 Y24.4031 I1.3606 J1.4659
G3 X96.3189 Y24.6656 I-1.4451 J-1.5493
G3 X95.7344 Y24.9248 I-1.3678 J-2.2959
G3 X94.8397 Y25.0557 I-0.891 J-2.9672
G2 X94.8373 I-0.0024 J2.0
G1 X48.9762
G2 X48.9727 I0.0 J2.0
G3 X48.2087 Y24.9612 I-0.0054 J-3.09
G2 X48.2028 Y24.9597 I-0.491 J1.9388
G3 X47.539 Y24.6918 I0.6289 J-2.5154
G2 X47.5327 Y24.6883 I-0.9972 J1.7337
G3 X47.1878 Y24.4398 I0.9975 J-1.7487
G2 X47.1782 Y24.4313 I-1.3336 J1.4905
G3 X46.8714 Y24.0557 I0.9937 J-1.1249
G2 X46.8692 Y24.0519 I-1.7329 J0.9985
G3 X46.7428 Y23.5858 I0.812 J-0.4703
G1 Y20.6998
G0 Z3.0
G0 X49.9428
G1 F40.0 Z-3.0
G1 F80.0 X93.8706
G1 Y21.8557
G1 X49.9428
G1 Y20.6998
G1 F40.0 X48.3428
G1 F80.0 Y19.2473
G3 X48.538 Y19.1636 I0.4687 J0.8229
G2 X48.5466 Y19.161 I-1.0395 J-3.4467
G3 X48.963 Y19.0998 I0.4113 J1.3515
G2 X48.9762 I0.0132 J-3.6
G1 X94.8373
G2 X94.8414 I0.0 J-3.6
G3 X95.2141 Y19.146 I0.0017 J1.5147
G2 X95.2212 Y19.1478 I0.8816 J-3.4904
G3 X95.4706 Y19.2472 I-0.2441 J0.9749
G1 Y23.3079
G3 X95.2696 Y23.3938 I-0.5195 J-0.9382
G3 X94.8416 Y23.4557 I-0.4262 J-1.4361
G2 X94.8373 I-0.0043 J3.6
G1 X48.9762
G2 X48.9699 I0.0 J3.6
G3 X48.6015 Y23.4101 I-0.0026 J-1.49
G2 X48.5909 Y23.4075 I-0.8838 J3.4898
G3 X48.3428 Y23.3084 I0.2408 J-0.9632
G1 Y20.6998
G1 F40.0 X46.7428
G1 F80.0 Y18.9681
G3 X46.83 Y18.5811 I0.9111 J0.0019
G3 X47.1435 Y18.1565 I1.2789 J0.6164
G2 X47.1475 Y18.1529 I-1.36 J-1.4665
G3 X47.4977 Y17.8882 I1.4508 J1.556
G3 X48.076 Y17.6317 I1.3138 J2.182
G2 X48.0808 Y17.6303 I-0.5775 J-1.9148
G3 X48.9689 Y17.4998 I0.8771 J2.8822
G2 X48.9762 I0.0073 J-2.0
G1 X94.8373
G2 X94.8396 I0.0 J-2.0
G3 X95.6059 Y17.5947 I0.0035 J3.1147
G2 X95.6099 Y17.5957 I0.4898 J-1.9391
G3 X96.2751 Y17.8641 I-0.6328 J2.527
G2 X96.2804 Y17.8671 I0.9966 J-1.734
G3 X96.626 Y18.116 I-1.0016 J1.7551
G2 X96.6348 Y18.1238 I1.3333 J-1.4907
G3 X96.9423 Y18.5003 I-0.9978 J1.1289
G2 X96.9437 Y18.5028 I1.7327 J-0.9989
G3 X97.0706 Y18.9705 I-0.8172 J0.4727
G1 Y23.5865
G3 X96.9832 Y23.9752 I-0.9219 J-0.0031
G3 X96.6694 Y24.3997 I-1.284 J-0.6208
G2 X96.6658 Y24.4031 I1.3606 J1.4659
G3 X96.3189 Y24.6656 I-1.4451 J-1.5493
G3 X95.7344 Y24.9248 I-1.3678 J-2.2959
G3 X94.8397 Y25.0557 I-0.891 J-2.9672
G2 X94.8373 I-0.0024 J2.0
G1 X48.9762
G2 X48.9727 I0.0 J2.0
G3 X48.2087 Y24.9612 I-0.0054 J-3.09
G2 X48.2028 Y24.9597 I-0.491 J1.9388
G3 X47.539 Y24.6918 I0.6289 J-2.5154
G2 X47.5327 Y24.6883 I-0.9972 J1.7337
G3 X47.1878 Y24.4398 I0.9975 J-1.7487
G2 X47.1782 Y24.4313 I-1.3336 J1.4905
G3 X46.8714 Y24.0557 I0.9937 J-1.1249
G2 X46.8692 Y24.0519 I-1.7329 J0.9985
G3 X46.7428 Y23.5858 I0.812 J-0.4703
G1 Y20.6998
G0 Z3.0
G0 X49.9428
G1 F40.0 Z-3.5
G1 F80.0 X93.8706
G1 Y21.8557
G1 X49.9428
G1 Y20.6998
G1 F40.0 X48.3428
G1 F80.0 Y19.2473
G3 X48.538 Y19.1636 I0.4687 J0.8229
G2 X48.5466 Y19.161 I-1.0395 J-3.4467
G3 X48.963 Y19.0998 I0.4113 J1.3515
G2 X48.9762 I0.0132 J-3.6
G1 X94.8373
G2 X94.8414 I0.0 J-3.6
G3 X95.2141 Y19.146 I0.0017 J1.5147
G2 X95.2212 Y19.1478 I0.8816 J-3.4904
G3 X95.4706 Y19.2472 I-0.2441 J0.9749
G1 Y23.3079
G3 X95.2696 Y23.3938 I-0.5195 J-0.9382
G3 X94.8416 Y23.4557 I-0.4262 J-1.4361
G2 X94.8373 I-0.0043 J3.6
G1 X48.9762
G2 X48.9699 I0.0 J3.6
G3 X48.6015 Y23.4101 I-0.0026 J-1.49
G2 X48.5909 Y23.4075 I-0.8838 J3.4898
G3 X48.3428 Y23.3084 I0.2408 J-0.9632
G1 Y20.6998
G1 F40.0 X46.7428
G1 F80.0 Y18.9681
G3 X46.83 Y18.5811 I0.9111 J0.0019
G3 X47.1435 Y18.1565 I1.2789 J0.6164
G2 X47.1475 Y18.1529 I-1.36 J-1.4665
G3 X47.4977 Y17.8882 I1.4508 J1.556
G3 X48.076 Y17.6317 I1.3138 J2.182
G2 X48.0808 Y17.6303 I-0.5775 J-1.9148
G3 X48.9689 Y17.4998 I0.8771 J2.8822
G2 X48.9762 I0.0073 J-2.0
G1 X94.8373
G2 X94.8396 I0.0 J-2.0
G3 X95.6059 Y17.5947 I0.0035 J3.1147
G2 X95.6099 Y17.5957 I0.4898 J-1.9391
G3 X96.2751 Y17.8641 I-0.6328 J2.527
G2 X96.2804 Y17.8671 I0.9966 J-1.734
G3 X96.626 Y18.116 I-1.0016 J1.7551
G2 X96.6348 Y18.1238 I1.3333 J-1.4907
G3 X96.9423 Y18.5003 I-0.9978 J1.1289
G2 X96.9437 Y18.5028 I1.7327 J-0.9989
G3 X97.0706 Y18.9705 I-0.8172 J0.4727
G1 Y23.5865
G3 X96.9832 Y23.9752 I-0.9219 J-0.0031
G3 X96.6694 Y24.3997 I-1.284 J-0.6208
G2 X96.6658 Y24.4031 I1.3606 J1.4659
G3 X96.3189 Y24.6656 I-1.4451 J-1.5493
G3 X95.7344 Y24.9248 I-1.3678 J-2.2959
G3 X94.8397 Y25.0557 I-0.891 J-2.9672
G2 X94.8373 I-0.0024 J2.0
G1 X48.9762
G2 X48.9727 I0.0 J2.0
G3 X48.2087 Y24.9612 I-0.0054 J-3.09
G2 X48.2028 Y24.9597 I-0.491 J1.9388
G3 X47.539 Y24.6918 I0.6289 J-2.5154
G2 X47.5327 Y24.6883 I-0.9972 J1.7337
G3 X47.1878 Y24.4398 I0.9975 J-1.7487
G2 X47.1782 Y24.4313 I-1.3336 J1.4905
G3 X46.8714 Y24.0557 I0.9937 J-1.1249
G2 X46.8692 Y24.0519 I-1.7329 J0.9985
G3 X46.7428 Y23.5858 I0.812 J-0.4703
G1 Y20.6998
G0 Z3.0
G0 X49.9428
G1 F40.0 Z-4.0
G1 F80.0 X93.8706
G1 Y21.8557
G1 X49.9428
G1 Y20.6998
G1 F40.0 X48.3428
G1 F80.0 Y19.2473
G3 X48.538 Y19.1636 I0.4687 J0.8229
G2 X48.5466 Y19.161 I-1.0395 J-3.4467
G3 X48.963 Y19.0998 I0.4113 J1.3515
G2 X48.9762 I0.0132 J-3.6
G1 X94.8373
G2 X94.8414 I0.0 J-3.6
G3 X95.2141 Y19.146 I0.0017 J1.5147
G2 X95.2212 Y19.1478 I0.8816 J-3.4904
G3 X95.4706 Y19.2472 I-0.2441 J0.9749
G1 Y23.3079
G3 X95.2696 Y23.3938 I-0.5195 J-0.9382
G3 X94.8416 Y23.4557 I-0.4262 J-1.4361
G2 X94.8373 I-0.0043 J3.6
G1 X48.9762
G2 X48.9699 I0.0 J3.6
G3 X48.6015 Y23.4101 I-0.0026 J-1.49
G2 X48.5909 Y23.4075 I-0.8838 J3.4898
G3 X48.3428 Y23.3084 I0.2408 J-0.9632
G1 Y20.6998
G1 F40.0 X46.7428
G1 F80.0 Y18.9681
G3 X46.83 Y18.5811 I0.9111 J0.0019
G3 X47.1435 Y18.1565 I1.2789 J0.6164
G2 X47.1475 Y18.1529 I-1.36 J-1.4665
G3 X47.4977 Y17.8882 I1.4508 J1.556
G3 X48.076 Y17.6317 I1.3138 J2.182
G2 X48.0808 Y17.6303 I-0.5775 J-1.9148
G3 X48.9689 Y17.4998 I0.8771 J2.8822
G2 X48.9762 I0.0073 J-2.0
G1 X94.8373
G2 X94.8396 I0.0 J-2.0
G3 X95.6059 Y17.5947 I0.0035 J3.1147
G2 X95.6099 Y17.5957 I0.4898 J-1.9391
G3 X96.2751 Y17.8641 I-0.6328 J2.527
G2 X96.2804 Y17.8671 I0.9966 J-1.734
G3 X96.626 Y18.116 I-1.0016 J1.7551
G2 X96.6348 Y18.1238 I1.3333 J-1.4907
G3 X96.9423 Y18.5003 I-0.9978 J1.1289
G2 X96.9437 Y18.5028 I1.7327 J-0.9989
G3 X97.0706 Y18.9705 I-0.8172 J0.4727
G1 Y23.5865
G3 X96.9832 Y23.9752 I-0.9219 J-0.0031
G3 X96.6694 Y24.3997 I-1.284 J-0.6208
G2 X96.6658 Y24.4031 I1.3606 J1.4659
G3 X96.3189 Y24.6656 I-1.4451 J-1.5493
G3 X95.7344 Y24.9248 I-1.3678 J-2.2959
G3 X94.8397 Y25.0557 I-0.891 J-2.9672
G2 X94.8373 I-0.0024 J2.0
G1 X48.9762
G2 X48.9727 I0.0 J2.0
G3 X48.2087 Y24.9612 I-0.0054 J-3.09
G2 X48.2028 Y24.9597 I-0.491 J1.9388
G3 X47.539 Y24.6918 I0.6289 J-2.5154
G2 X47.5327 Y24.6883 I-0.9972 J1.7337
G3 X47.1878 Y24.4398 I0.9975 J-1.7487
G2 X47.1782 Y24.4313 I-1.3336 J1.4905
G3 X46.8714 Y24.0557 I0.9937 J-1.1249
G2 X46.8692 Y24.0519 I-1.7329 J0.9985
G3 X46.7428 Y23.5858 I0.812 J-0.4703
G1 Y20.6998
G0 Z3.0
G0 X26.3167 Y20.2557
G1 F40.0 Z-0.5
G1 F80.0 X21.9977
G1 Y19.7446
G1 X26.3167
G1 Y20.2557
G1 F40.0 X27.9167
G1 F80.0 Y21.8557
G1 X20.3977
G1 Y18.1446
G1 X27.9167
G1 Y20.2557
G1 F40.0 X29.5167
G1 F80.0 Y22.8224
G2 Y22.8267 I3.6 J0.0
G3 X29.3343 Y23.2671 I-0.621 J0.0008
G2 X29.3282 Y23.2732 I2.5425 J2.5487
G3 X28.8876 Y23.4557 I-0.4399 J-0.4388
G2 X28.8833 I-0.0043 J3.6
G1 X19.431
G2 X19.4264 I0.0 J3.6
G3 X18.9867 Y23.2736 I-0.0008 J-0.6198
G2 X18.9799 Y23.2668 I-2.549 J2.5421
G3 X18.7977 Y22.827 I0.4379 J-0.439
G2 Y22.8224 I-3.6 J-0.0046
G1 Y17.1779
G2 Y17.1727 I-3.6 J0.0
G3 X18.9795 Y16.7338 I0.6184 J-0.0009
G2 X18.9868 Y16.7265 I-2.5419 J-2.5493
G3 X19.426 Y16.5446 I0.4383 J0.4371
G2 X19.431 I0.0051 J-3.6
G1 X28.8833
G2 X28.8883 I0.0 J-3.6
G3 X29.3279 Y16.7267 I0.0009 J0.6196
G2 X29.3344 Y16.7332 I2.549 J-2.5422
G3 X29.5167 Y17.1732 I-0.438 J0.4392
G2 Y17.1779 I3.6 J0.0047
G1 Y20.2557
G1 F40.0 X31.1167
G1 F80.0 Y22.8224
G2 Y22.8248 I2.0 J0.0
G3 X30.4643 Y24.3999 I-2.221 J0.0027
G2 X30.4609 Y24.4033 I1.4125 J1.4159
G3 X28.8857 Y25.0557 I-1.5726 J-1.5689
G2 X28.8833 I-0.0024 J2.0
G1 X19.431
G2 X19.4284 I0.0 J2.0
G3 X17.8538 Y24.4034 I-0.0029 J-2.2198
G2 X17.85 Y24.3997 I-1.4161 J1.4123
G3 X17.1977 Y22.8249 I1.5677 J-1.5719
G2 Y22.8224 I-2.0 J-0.0025
G1 Y17.1779
G2 Y17.175 I-2.0 J0.0
G3 X17.8497 Y15.6008 I2.2184 J-0.0033
G2 X17.8538 Y15.5967 I-1.4121 J-1.4163
G3 X19.4282 Y14.9446 I1.5713 J1.5669
G2 X19.431 I0.0028 J-2.0
G1 X28.8833
G2 X28.8861 I0.0 J-2.0
G3 X30.4607 Y15.5968 I0.0031 J2.2196
G2 X30.4644 Y15.6004 I1.4161 J-1.4123
G3 X31.1167 Y17.1753 I-1.568 J1.5719
G2 Y17.1779 I2.0 J0.0026
G1 Y20.2557
G0 Z3.0
G0 X26.3167
G1 F40.0 Z-1.0
G1 F80.0 X21.9977
G1 Y19.7446
G1 X26.3167
G1 Y20.2557
G1 F40.0 X27.9167
G1 F80.0 Y21.8557
G1 X20.3977
G1 Y18.1446
G1 X27.9167
G1 Y20.2557
G1 F40.0 X29.5167
G1 F80.0 Y22.8224
G2 Y22.8267 I3.6 J0.0
G3 X29.3343 Y23.2671 I-0.621 J0.0008
G2 X29.3282 Y23.2732 I2.5425 J2.5487
G3 X28.8876 Y23.4557 I-0.4399 J-0.4388
G2 X28.8833 I-0.0043 J3.6
G1 X19.431
G2 X19.4264 I0.0 J3.6
G3 X18.9867 Y23.2736 I-0.0008 J-0.6198
G2 X18.9799 Y23.2668 I-2.549 J2.5421
G3 X18.7977 Y22.827 I0.4379 J-0.439
G2 Y22.8224 I-3.6 J-0.0046
G1 Y17.1779
G2 Y17.1727 I-3.6 J0.0
G3 X18.9795 Y16.7338 I0.6184 J-0.0009
G2 X18.9868 Y16.7265 I-2.5419 J-2.5493
G3 X19.426 Y16.5446 I0.4383 J0.4371
G2 X19.431 I0.0051 J-3.6
G1 X28.8833
G2 X28.8883 I0.0 J-3.6
G3 X29.3279 Y16.7267 I0.0009 J0.6196
G2 X29.3344 Y16.7332 I2.549 J-2.5422
G3 X29.5167 Y17.1732 I-0.438 J0.4392
G2 Y17.1779 I3.6 J0.0047
G1 Y20.2557
G1 F40.0 X31.1167
G1 F80.0 Y22.8224
G2 Y22.8248 I2.0 J0.0
G3 X30.4643 Y24.3999 I-2.221 J0.0027
G2 X30.4609 Y24.4033 I1.4125 J1.4159
G3 X28.8857 Y25.0557 I-1.5726 J-1.5689
G2 X28.8833 I-0.0024 J2.0
G1 X19.431
G2 X19.4284 I0.0 J2.0
G3 X17.8538 Y24.4034 I-0.0029 J-2.2198
G2 X17.85 Y24.3997 I-1.4161 J1.4123
G3 X17.1977 Y22.8249 I1.5677 J-1.5719
G2 Y22.8224 I-2.0 J-0.0025
G1 Y17.1779
G2 Y17.175 I-2.0 J0.0
G3 X17.8497 Y15.6008 I2.2184 J-0.0033
G2 X17.8538 Y15.5967 I-1.4121 J-1.4163
G3 X19.4282 Y14.9446 I1.5713 J1.5669
G2 X19.431 I0.0028 J-2.0
G1 X28.8833
G2 X28.8861 I0.0 J-2.0
G3 X30.4607 Y15.5968 I0.0031 J2.2196
G2 X30.4644 Y15.6004 I1.4161 J-1.4123
G3 X31.1167 Y17.1753 I-1.568 J1.5719
G2 Y17.1779 I2.0 J0.0026
G1 Y20.2557
G0 Z3.0
G0 X26.3167
G1 F40.0 Z-1.5
G1 F80.0 X21.9977
G1 Y19.7446
G1 X26.3167
G1 Y20.2557
G1 F40.0 X27.9167
G1 F80.0 Y21.8557
G1 X20.3977
G1 Y18.1446
G1 X27.9167
G1 Y20.2557
G1 F40.0 X29.5167
G1 F80.0 Y22.8224
G2 Y22.8267 I3.6 J0.0
G3 X29.3343 Y23.2671 I-0.621 J0.0008
G2 X29.3282 Y23.2732 I2.5425 J2.5487
G3 X28.8876 Y23.4557 I-0.4399 J-0.4388
G2 X28.8833 I-0.0043 J3.6
G1 X19.431
G2 X19.4264 I0.0 J3.6
G3 X18.9867 Y23.2736 I-0.0008 J-0.6198
G2 X18.9799 Y23.2668 I-2.549 J2.5421
G3 X18.7977 Y22.827 I0.4379 J-0.439
G2 Y22.8224 I-3.6 J-0.0046
G1 Y17.1779
G2 Y17.1727 I-3.6 J0.0
G3 X18.9795 Y16.7338 I0.6184 J-0.0009
G2 X18.9868 Y16.7265 I-2.5419 J-2.5493
G3 X19.426 Y16.5446 I0.4383 J0.4371
G2 X19.431 I0.0051 J-3.6
G1 X28.8833
G2 X28.8883 I0.0 J-3.6
G3 X29.3279 Y16.7267 I0.0009 J0.6196
G2 X29.3344 Y16.7332 I2.549 J-2.5422
G3 X29.5167 Y17.1732 I-0.438 J0.4392
G2 Y17.1779 I3.6 J0.0047
G1 Y20.2557
G1 F40.0 X31.1167
G1 F80.0 Y22.8224
G2 Y22.8248 I2.0 J0.0
G3 X30.4643 Y24.3999 I-2.221 J0.0027
G2 X30.4609 Y24.4033 I1.4125 J1.4159
G3 X28.8857 Y25.0557 I-1.5726 J-1.5689
G2 X28.8833 I-0.0024 J2.0
G1 X19.431
G2 X19.4284 I0.0 J2.0
G3 X17.8538 Y24.4034 I-0.0029 J-2.2198
G2 X17.85 Y24.3997 I-1.4161 J1.4123
G3 X17.1977 Y22.8249 I1.5677 J-1.5719
G2 Y22.8224 I-2.0 J-0.0025
G1 Y17.1779
G2 Y17.175 I-2.0 J0.0
G3 X17.8497 Y15.6008 I2.2184 J-0.0033
G2 X17.8538 Y15.5967 I-1.4121 J-1.4163
G3 X19.4282 Y14.9446 I1.5713 J1.5669
G2 X19.431 I0.0028 J-2.0
G1 X28.8833
G2 X28.8861 I0.0 J-2.0
G3 X30.4607 Y15.5968 I0.0031 J2.2196
G2 X30.4644 Y15.6004 I1.4161 J-1.4123
G3 X31.1167 Y17.1753 I-1.568 J1.5719
G2 Y17.1779 I2.0 J0.0026
G1 Y20.2557
G0 Z3.0
G0 X26.3167
G1 F40.0 Z-2.0
G1 F80.0 X21.9977
G1 Y19.7446
G1 X26.3167
G1 Y20.2557
G1 F40.0 X27.9167
G1 F80.0 Y21.8557
G1 X20.3977
G1 Y18.1446
G1 X27.9167
G1 Y20.2557
G1 F40.0 X29.5167
G1 F80.0 Y22.8224
G2 Y22.8267 I3.6 J0.0
G3 X29.3343 Y23.2671 I-0.621 J0.0008
G2 X29.3282 Y23.2732 I2.5425 J2.5487
G3 X28.8876 Y23.4557 I-0.4399 J-0.4388
G2 X28.8833 I-0.0043 J3.6
G1 X19.431
G2 X19.4264 I0.0 J3.6
G3 X18.9867 Y23.2736 I-0.0008 J-0.6198
G2 X18.9799 Y23.2668 I-2.549 J2.5421
G3 X18.7977 Y22.827 I0.4379 J-0.439
G2 Y22.8224 I-3.6 J-0.0046
G1 Y17.1779
G2 Y17.1727 I-3.6 J0.0
G3 X18.9795 Y16.7338 I0.6184 J-0.0009
G2 X18.9868 Y16.7265 I-2.5419 J-2.5493
G3 X19.426 Y16.5446 I0.4383 J0.4371
G2 X19.431 I0.0051 J-3.6
G1 X28.8833
G2 X28.8883 I0.0 J-3.6
G3 X29.3279 Y16.7267 I0.0009 J0.6196
G2 X29.3344 Y16.7332 I2.549 J-2.5422
G3 X29.5167 Y17.1732 I-0.438 J0.4392
G2 Y17.1779 I3.6 J0.0047
G1 Y20.2557
G1 F40.0 X31.1167
G1 F80.0 Y22.8224
G2 Y22.8248 I2.0 J0.0
G3 X30.4643 Y24.3999 I-2.221 J0.0027
G2 X30.4609 Y24.4033 I1.4125 J1.4159
G3 X28.8857 Y25.0557 I-1.5726 J-1.5689
G2 X28.8833 I-0.0024 J2.0
G1 X19.431
G2 X19.4284 I0.0 J2.0
G3 X17.8538 Y24.4034 I-0.0029 J-2.2198
G2 X17.85 Y24.3997 I-1.4161 J1.4123
G3 X17.1977 Y22.8249 I1.5677 J-1.5719
G2 Y22.8224 I-2.0 J-0.0025
G1 Y17.1779
G2 Y17.175 I-2.0 J0.0
G3 X17.8497 Y15.6008 I2.2184 J-0.0033
G2 X17.8538 Y15.5967 I-1.4121 J-1.4163
G3 X19.4282 Y14.9446 I1.5713 J1.5669
G2 X19.431 I0.0028 J-2.0
G1 X28.8833
G2 X28.8861 I0.0 J-2.0
G3 X30.4607 Y15.5968 I0.0031 J2.2196
G2 X30.4644 Y15.6004 I1.4161 J-1.4123
G3 X31.1167 Y17.1753 I-1.568 J1.5719
G2 Y17.1779 I2.0 J0.0026
G1 Y20.2557
G0 Z3.0
G0 X26.3167
G1 F40.0 Z-2.5
G1 F80.0 X21.9977
G1 Y19.7446
G1 X26.3167
G1 Y20.2557
G1 F40.0 X27.9167
G1 F80.0 Y21.8557
G1 X20.3977
G1 Y18.1446
G1 X27.9167
G1 Y20.2557
G1 F40.0 X29.5167
G1 F80.0 Y22.8224
G2 Y22.8267 I3.6 J0.0
G3 X29.3343 Y23.2671 I-0.621 J0.0008
G2 X29.3282 Y23.2732 I2.5425 J2.5487
G3 X28.8876 Y23.4557 I-0.4399 J-0.4388
G2 X28.8833 I-0.0043 J3.6
G1 X19.431
G2 X19.4264 I0.0 J3.6
G3 X18.9867 Y23.2736 I-0.0008 J-0.6198
G2 X18.9799 Y23.2668 I-2.549 J2.5421
G3 X18.7977 Y22.827 I0.4379 J-0.439
G2 Y22.8224 I-3.6 J-0.0046
G1 Y17.1779
G2 Y17.1727 I-3.6 J0.0
G3 X18.9795 Y16.7338 I0.6184 J-0.0009
G2 X18.9868 Y16.7265 I-2.5419 J-2.5493
G3 X19.426 Y16.5446 I0.4383 J0.4371
G2 X19.431 I0.0051 J-3.6
G1 X28.8833
G2 X28.8883 I0.0 J-3.6
G3 X29.3279 Y16.7267 I0.0009 J0.6196
G2 X29.3344 Y16.7332 I2.549 J-2.5422
G3 X29.5167 Y17.1732 I-0.438 J0.4392
G2 Y17.1779 I3.6 J0.0047
G1 Y20.2557
G1 F40.0 X31.1167
G1 F80.0 Y22.8224
G2 Y22.8248 I2.0 J0.0
G3 X30.4643 Y24.3999 I-2.221 J0.0027
G2 X30.4609 Y24.4033 I1.4125 J1.4159
G3 X28.8857 Y25.0557 I-1.5726 J-1.5689
G2 X28.8833 I-0.0024 J2.0
G1 X19.431
G2 X19.4284 I0.0 J2.0
G3 X17.8538 Y24.4034 I-0.0029 J-2.2198
G2 X17.85 Y24.3997 I-1.4161 J1.4123
G3 X17.1977 Y22.8249 I1.5677 J-1.5719
G2 Y22.8224 I-2.0 J-0.0025
G1 Y17.1779
G2 Y17.175 I-2.0 J0.0
G3 X17.8497 Y15.6008 I2.2184 J-0.0033
G2 X17.8538 Y15.5967 I-1.4121 J-1.4163
G3 X19.4282 Y14.9446 I1.5713 J1.5669
G2 X19.431 I0.0028 J-2.0
G1 X28.8833
G2 X28.8861 I0.0 J-2.0
G3 X30.4607 Y15.5968 I0.0031 J2.2196
G2 X30.4644 Y15.6004 I1.4161 J-1.4123
G3 X31.1167 Y17.1753 I-1.568 J1.5719
G2 Y17.1779 I2.0 J0.0026
G1 Y20.2557
G0 Z3.0
G0 X26.3167
G1 F40.0 Z-3.0
G1 F80.0 X21.9977
G1 Y19.7446
G1 X26.3167
G1 Y20.2557
G1 F40.0 X27.9167
G1 F80.0 Y21.8557
G1 X20.3977
G1 Y18.1446
G1 X27.9167
G1 Y20.2557
G1 F40.0 X29.5167
G1 F80.0 Y22.8224
G2 Y22.8267 I3.6 J0.0
G3 X29.3343 Y23.2671 I-0.621 J0.0008
G2 X29.3282 Y23.2732 I2.5425 J2.5487
G3 X28.8876 Y23.4557 I-0.4399 J-0.4388
G2 X28.8833 I-0.0043 J3.6
G1 X19.431
G2 X19.4264 I0.0 J3.6
G3 X18.9867 Y23.2736 I-0.0008 J-0.6198
G2 X18.9799 Y23.2668 I-2.549 J2.5421
G3 X18.7977 Y22.827 I0.4379 J-0.439
G2 Y22.8224 I-3.6 J-0.0046
G1 Y17.1779
G2 Y17.1727 I-3.6 J0.0
G3 X18.9795 Y16.7338 I0.6184 J-0.0009
G2 X18.9868 Y16.7265 I-2.5419 J-2.5493
G3 X19.426 Y16.5446 I0.4383 J0.4371
G2 X19.431 I0.0051 J-3.6
G1 X28.8833
G2 X28.8883 I0.0 J-3.6
G3 X29.3279 Y16.7267 I0.0009 J0.6196
G2 X29.3344 Y16.7332 I2.549 J-2.5422
G3 X29.5167 Y17.1732 I-0.438 J0.4392
G2 Y17.1779 I3.6 J0.0047
G1 Y20.2557
G1 F40.0 X31.1167
G1 F80.0 Y22.8224
G2 Y22.8248 I2.0 J0.0
G3 X30.4643 Y24.3999 I-2.221 J0.0027
G2 X30.4609 Y24.4033 I1.4125 J1.4159
G3 X28.8857 Y25.0557 I-1.5726 J-1.5689
G2 X28.8833 I-0.0024 J2.0
G1 X19.431
G2 X19.4284 I0.0 J2.0
G3 X17.8538 Y24.4034 I-0.0029 J-2.2198
G2 X17.85 Y24.3997 I-1.4161 J1.4123
G3 X17.1977 Y22.8249 I1.5677 J-1.5719
G2 Y22.8224 I-2.0 J-0.0025
G1 Y17.1779
G2 Y17.175 I-2.0 J0.0
G3 X17.8497 Y15.6008 I2.2184 J-0.0033
G2 X17.8538 Y15.5967 I-1.4121 J-1.4163
G3 X19.4282 Y14.9446 I1.5713 J1.5669
G2 X19.431 I0.0028 J-2.0
G1 X28.8833
G2 X28.8861 I0.0 J-2.0
G3 X30.4607 Y15.5968 I0.0031 J2.2196
G2 X30.4644 Y15.6004 I1.4161 J-1.4123
G3 X31.1167 Y17.1753 I-1.568 J1.5719
G2 Y17.1779 I2.0 J0.0026
G1 Y20.2557
G0 Z3.0
G0 X26.3167
G1 F40.0 Z-3.5
G1 F80.0 X21.9977
G1 Y19.7446
G1 X26.3167
G1 Y20.2557
G1 F40.0 X27.9167
G1 F80.0 Y21.8557
G1 X20.3977
G1 Y18.1446
G1 X27.9167
G1 Y20.2557
G1 F40.0 X29.5167
G1 F80.0 Y22.8224
G2 Y22.8267 I3.6 J0.0
G3 X29.3343 Y23.2671 I-0.621 J0.0008
G2 X29.3282 Y23.2732 I2.5425 J2.5487
G3 X28.8876 Y23.4557 I-0.4399 J-0.4388
G2 X28.8833 I-0.0043 J3.6
G1 X19.431
G2 X19.4264 I0.0 J3.6
G3 X18.9867 Y23.2736 I-0.0008 J-0.6198
G2 X18.9799 Y23.2668 I-2.549 J2.5421
G3 X18.7977 Y22.827 I0.4379 J-0.439
G2 Y22.8224 I-3.6 J-0.0046
G1 Y17.1779
G2 Y17.1727 I-3.6 J0.0
G3 X18.9795 Y16.7338 I0.6184 J-0.0009
G2 X18.9868 Y16.7265 I-2.5419 J-2.5493
G3 X19.426 Y16.5446 I0.4383 J0.4371
G2 X19.431 I0.0051 J-3.6
G1 X28.8833
G2 X28.8883 I0.0 J-3.6
G3 X29.3279 Y16.7267 I0.0009 J0.6196
G2 X29.3344 Y16.7332 I2.549 J-2.5422
G3 X29.5167 Y17.1732 I-0.438 J0.4392
G2 Y17.1779 I3.6 J0.0047
G1 Y20.2557
G1 F40.0 X31.1167
G1 F80.0 Y22.8224
G2 Y22.8248 I2.0 J0.0
G3 X30.4643 Y24.3999 I-2.221 J0.0027
G2 X30.4609 Y24.4033 I1.4125 J1.4159
G3 X28.8857 Y25.0557 I-1.5726 J-1.5689
G2 X28.8833 I-0.0024 J2.0
G1 X19.431
G2 X19.4284 I0.0 J2.0
G3 X17.8538 Y24.4034 I-0.0029 J-2.2198
G2 X17.85 Y24.3997 I-1.4161 J1.4123
G3 X17.1977 Y22.8249 I1.5677 J-1.5719
G2 Y22.8224 I-2.0 J-0.0025
G1 Y17.1779
G2 Y17.175 I-2.0 J0.0
G3 X17.8497 Y15.6008 I2.2184 J-0.0033
G2 X17.8538 Y15.5967 I-1.4121 J-1.4163
G3 X19.4282 Y14.9446 I1.5713 J1.5669
G2 X19.431 I0.0028 J-2.0
G1 X28.8833
G2 X28.8861 I0.0 J-2.0
G3 X30.4607 Y15.5968 I0.0031 J2.2196
G2 X30.4644 Y15.6004 I1.4161 J-1.4123
G3 X31.1167 Y17.1753 I-1.568 J1.5719
G2 Y17.1779 I2.0 J0.0026
G1 Y20.2557
G0 Z3.0
G0 X26.3167
G1 F40.0 Z-4.0
G1 F80.0 X21.9977
G1 Y19.7446
G1 X26.3167
G1 Y20.2557
G1 F40.0 X27.9167
G1 F80.0 Y21.8557
G1 X20.3977
G1 Y18.1446
G1 X27.9167
G1 Y20.2557
G1 F40.0 X29.5167
G1 F80.0 Y22.8224
G2 Y22.8267 I3.6 J0.0
G3 X29.3343 Y23.2671 I-0.621 J0.0008
G2 X29.3282 Y23.2732 I2.5425 J2.5487
G3 X28.8876 Y23.4557 I-0.4399 J-0.4388
G2 X28.8833 I-0.0043 J3.6
G1 X19.431
G2 X19.4264 I0.0 J3.6
G3 X18.9867 Y23.2736 I-0.0008 J-0.6198
G2 X18.9799 Y23.2668 I-2.549 J2.5421
G3 X18.7977 Y22.827 I0.4379 J-0.439
G2 Y22.8224 I-3.6 J-0.0046
G1 Y17.1779
G2 Y17.1727 I-3.6 J0.0
G3 X18.9795 Y16.7338 I0.6184 J-0.0009
G2 X18.9868 Y16.7265 I-2.5419 J-2.5493
G3 X19.426 Y16.5446 I0.4383 J0.4371
G2 X19.431 I0.0051 J-3.6
G1 X28.8833
G2 X28.8883 I0.0 J-3.6
G3 X29.3279 Y16.7267 I0.0009 J0.6196
G2 X29.3344 Y16.7332 I2.549 J-2.5422
G3 X29.5167 Y17.1732 I-0.438 J0.4392
G2 Y17.1779 I3.6 J0.0047
G1 Y20.2557
G1 F40.0 X31.1167
G1 F80.0 Y22.8224
G2 Y22.8248 I2.0 J0.0
G3 X30.4643 Y24.3999 I-2.221 J0.0027
G2 X30.4609 Y24.4033 I1.4125 J1.4159
G3 X28.8857 Y25.0557 I-1.5726 J-1.5689
G2 X28.8833 I-0.0024 J2.0
G1 X19.431
G2 X19.4284 I0.0 J2.0
G3 X17.8538 Y24.4034 I-0.0029 J-2.2198
G2 X17.85 Y24.3997 I-1.4161 J1.4123
G3 X17.1977 Y22.8249 I1.5677 J-1.5719
G2 Y22.8224 I-2.0 J-0.0025
G1 Y17.1779
G2 Y17.175 I-2.0 J0.0
G3 X17.8497 Y15.6008 I2.2184 J-0.0033
G2 X17.8538 Y15.5967 I-1.4121 J-1.4163
G3 X19.4282 Y14.9446 I1.5713 J1.5669
G2 X19.431 I0.0028 J-2.0
G1 X28.8833
G2 X28.8861 I0.0 J-2.0
G3 X30.4607 Y15.5968 I0.0031 J2.2196
G2 X30.4644 Y15.6004 I1.4161 J-1.4123
G3 X31.1167 Y17.1753 I-1.568 J1.5719
G2 Y17.1779 I2.0 J0.0026
G1 Y20.2557
G0 Z3.0
M5
M30
