( Made using CamBam - http://www.cambam.co.uk )
( vertical slide mount 11/29/2012 11:51:55 AM )
( T4 : 4.0 )
G21 G90 G64 G40
G0 Z3.0
( T4 : 4.0 )
T4 M6
( Cutout )
G17
M3 S1000
G0 X115.1166 Y9.0
G1 F40.0 Z-0.5
G1 F80.0 Y0.0
G2 X113.1166 Y-2.0 I-2.0 J0.0
G1 X33.1167
G2 X31.1167 Y0.0 I0.0 J2.0
G1 Y7.0
G1 X30.8222
G1 X30.1167
G1 X0.0
G2 X-2.0 Y9.0 I0.0 J2.0
G1 Y15.7999
G2 X0.0 Y17.7999 I2.0 J0.0
G1 X7.6163
G1 Y22.2001
G1 X0.0
G2 X-2.0 Y24.2001 I0.0 J2.0
G1 Y31.0
G2 X0.0 Y33.0 I2.0 J0.0
G1 X30.1167
G1 X30.8222
G1 X113.1166
G2 X115.1166 Y31.0 I0.0 J-2.0
G1 Y9.0
G1 F40.0 Z-1.0
G1 F80.0 Y0.0
G2 X113.1166 Y-2.0 I-2.0 J0.0
G1 X33.1167
G2 X31.1167 Y0.0 I0.0 J2.0
G1 Y7.0
G1 X30.8222
G1 X30.1167
G1 X0.0
G2 X-2.0 Y9.0 I0.0 J2.0
G1 Y15.7999
G2 X0.0 Y17.7999 I2.0 J0.0
G1 X7.6163
G1 Y22.2001
G1 X0.0
G2 X-2.0 Y24.2001 I0.0 J2.0
G1 Y31.0
G2 X0.0 Y33.0 I2.0 J0.0
G1 X30.1167
G1 X30.8222
G1 X113.1166
G2 X115.1166 Y31.0 I0.0 J-2.0
G1 Y9.0
G1 F40.0 Z-1.5
G1 F80.0 Y0.0
G2 X113.1166 Y-2.0 I-2.0 J0.0
G1 X33.1167
G2 X31.1167 Y0.0 I0.0 J2.0
G1 Y7.0
G1 X30.8222
G1 X30.1167
G1 X0.0
G2 X-2.0 Y9.0 I0.0 J2.0
G1 Y15.7999
G2 X0.0 Y17.7999 I2.0 J0.0
G1 X7.6163
G1 Y22.2001
G1 X0.0
G2 X-2.0 Y24.2001 I0.0 J2.0
G1 Y31.0
G2 X0.0 Y33.0 I2.0 J0.0
G1 X30.1167
G1 X30.8222
G1 X113.1166
G2 X115.1166 Y31.0 I0.0 J-2.0
G1 Y9.0
G1 F40.0 Z-2.0
G1 F80.0 Y0.0
G2 X113.1166 Y-2.0 I-2.0 J0.0
G1 X33.1167
G2 X31.1167 Y0.0 I0.0 J2.0
G1 Y7.0
G1 X30.8222
G1 X30.1167
G1 X0.0
G2 X-2.0 Y9.0 I0.0 J2.0
G1 Y15.7999
G2 X0.0 Y17.7999 I2.0 J0.0
G1 X7.6163
G1 Y22.2001
G1 X0.0
G2 X-2.0 Y24.2001 I0.0 J2.0
G1 Y31.0
G2 X0.0 Y33.0 I2.0 J0.0
G1 X30.1167
G1 X30.8222
G1 X113.1166
G2 X115.1166 Y31.0 I0.0 J-2.0
G1 Y9.0
G1 F40.0 Z-2.5
G1 F80.0 Y0.0
G2 X113.1166 Y-2.0 I-2.0 J0.0
G1 X33.1167
G2 X31.1167 Y0.0 I0.0 J2.0
G1 Y7.0
G1 X30.8222
G1 X30.1167
G1 X0.0
G2 X-2.0 Y9.0 I0.0 J2.0
G1 Y15.7999
G2 X0.0 Y17.7999 I2.0 J0.0
G1 X7.6163
G1 Y22.2001
G1 X0.0
G2 X-2.0 Y24.2001 I0.0 J2.0
G1 Y31.0
G2 X0.0 Y33.0 I2.0 J0.0
G1 X30.1167
G1 X30.8222
G1 X113.1166
G2 X115.1166 Y31.0 I0.0 J-2.0
G1 Y9.0
G1 F40.0 Z-3.0
G1 F80.0 Y0.0
G2 X113.1166 Y-2.0 I-2.0 J0.0
G1 X33.1167
G2 X31.1167 Y0.0 I0.0 J2.0
G1 Y7.0
G1 X30.8222
G1 X30.1167
G1 X0.0
G2 X-2.0 Y9.0 I0.0 J2.0
G1 Y15.7999
G2 X0.0 Y17.7999 I2.0 J0.0
G1 X7.6163
G1 Y22.2001
G1 X0.0
G2 X-2.0 Y24.2001 I0.0 J2.0
G1 Y31.0
G2 X0.0 Y33.0 I2.0 J0.0
G1 X30.1167
G1 X30.8222
G1 X113.1166
G2 X115.1166 Y31.0 I0.0 J-2.0
G1 Y9.0
G1 F40.0 Z-3.5
G1 F80.0 Y0.0
G2 X113.1166 Y-2.0 I-2.0 J0.0
G1 X33.1167
G2 X31.1167 Y0.0 I0.0 J2.0
G1 Y7.0
G1 X30.8222
G1 X30.1167
G1 X0.0
G2 X-2.0 Y9.0 I0.0 J2.0
G1 Y15.7999
G2 X0.0 Y17.7999 I2.0 J0.0
G1 X7.6163
G1 Y22.2001
G1 X0.0
G2 X-2.0 Y24.2001 I0.0 J2.0
G1 Y31.0
G2 X0.0 Y33.0 I2.0 J0.0
G1 X30.1167
G1 X30.8222
G1 X113.1166
G2 X115.1166 Y31.0 I0.0 J-2.0
G1 Y9.0
G1 F40.0 Z-4.0
G1 F80.0 Y0.0
G2 X113.1166 Y-2.0 I-2.0 J0.0
G1 X33.1167
G2 X31.1167 Y0.0 I0.0 J2.0
G1 Y7.0
G1 X30.8222
G1 X30.1167
G1 X0.0
G2 X-2.0 Y9.0 I0.0 J2.0
G1 Y15.7999
G2 X0.0 Y17.7999 I2.0 J0.0
G1 X7.6163
G1 Y22.2001
G1 X0.0
G2 X-2.0 Y24.2001 I0.0 J2.0
G1 Y31.0
G2 X0.0 Y33.0 I2.0 J0.0
G1 X30.1167
G1 X30.8222
G1 X113.1166
G2 X115.1166 Y31.0 I0.0 J-2.0
G1 Y9.0
G1 F40.0 Z-4.5
G1 F80.0 Y0.0
G2 X113.1166 Y-2.0 I-2.0 J0.0
G1 X33.1167
G2 X31.1167 Y0.0 I0.0 J2.0
G1 Y7.0
G1 X30.8222
G1 X30.1167
G1 X0.0
G2 X-2.0 Y9.0 I0.0 J2.0
G1 Y15.7999
G2 X0.0 Y17.7999 I2.0 J0.0
G1 X7.6163
G1 Y22.2001
G1 X0.0
G2 X-2.0 Y24.2001 I0.0 J2.0
G1 Y31.0
G2 X0.0 Y33.0 I2.0 J0.0
G1 X30.1167
G1 X30.8222
G1 X113.1166
G2 X115.1166 Y31.0 I0.0 J-2.0
G1 Y9.0
G1 F40.0 Z-5.0
G1 F80.0 Y0.0
G2 X113.1166 Y-2.0 I-2.0 J0.0
G1 X33.1167
G2 X31.1167 Y0.0 I0.0 J2.0
G1 Y7.0
G1 X30.8222
G1 X30.1167
G1 X0.0
G2 X-2.0 Y9.0 I0.0 J2.0
G1 Y15.7999
G2 X0.0 Y17.7999 I2.0 J0.0
G1 X7.6163
G1 Y22.2001
G1 X0.0
G2 X-2.0 Y24.2001 I0.0 J2.0
G1 Y31.0
G2 X0.0 Y33.0 I2.0 J0.0
G1 X30.1167
G1 X30.8222
G1 X113.1166
G2 X115.1166 Y31.0 I0.0 J-2.0
G1 Y9.0
G1 F40.0 Z-5.5
G1 F80.0 Y0.0
G2 X113.1166 Y-2.0 I-2.0 J0.0
G1 X33.1167
G2 X31.1167 Y0.0 I0.0 J2.0
G1 Y7.0
G1 X30.8222
G1 X30.1167
G1 X0.0
G2 X-2.0 Y9.0 I0.0 J2.0
G1 Y15.7999
G2 X0.0 Y17.7999 I2.0 J0.0
G1 X7.6163
G1 Y22.2001
G1 X0.0
G2 X-2.0 Y24.2001 I0.0 J2.0
G1 Y31.0
G2 X0.0 Y33.0 I2.0 J0.0
G1 X30.1167
G1 X30.8222
G1 X113.1166
G2 X115.1166 Y31.0 I0.0 J-2.0
G1 Y9.0
G1 F40.0 Z-6.0
G1 F80.0 Y0.0
G2 X113.1166 Y-2.0 I-2.0 J0.0
G1 X33.1167
G2 X31.1167 Y0.0 I0.0 J2.0
G1 Y7.0
G1 X30.8222
G1 X30.1167
G1 X0.0
G2 X-2.0 Y9.0 I0.0 J2.0
G1 Y15.7999
G2 X0.0 Y17.7999 I2.0 J0.0
G1 X7.6163
G1 Y22.2001
G1 X0.0
G2 X-2.0 Y24.2001 I0.0 J2.0
G1 Y31.0
G2 X0.0 Y33.0 I2.0 J0.0
G1 X30.1167
G1 X30.8222
G1 X113.1166
G2 X115.1166 Y31.0 I0.0 J-2.0
G1 Y9.0
G1 F40.0 Z-6.5
G1 F80.0 Y0.0
G2 X113.1166 Y-2.0 I-2.0 J0.0
G1 X33.1167
G2 X31.1167 Y0.0 I0.0 J2.0
G1 Y7.0
G1 X30.8222
G1 X30.1167
G1 X0.0
G2 X-2.0 Y9.0 I0.0 J2.0
G1 Y15.7999
G2 X0.0 Y17.7999 I2.0 J0.0
G1 X7.6163
G1 Y22.2001
G1 X0.0
G2 X-2.0 Y24.2001 I0.0 J2.0
G1 Y31.0
G2 X0.0 Y33.0 I2.0 J0.0
G1 X30.1167
G1 X30.8222
G1 X113.1166
G2 X115.1166 Y31.0 I0.0 J-2.0
G1 Y9.0
G0 Z3.0
M5
M30
