( Made using CamBam - http://www.cambam.co.uk )
( belt mount - 4mm 9/29/2013 12:39:31 PM )
( T0 : 0.0 )
G21 G90 G64 G40
G0 Z3.0
( T0 : 0.0 )
T0 M6
( Ball nose cutter )
G17
M3 S1000
G0 X4.6905 Y0.9098
G0 Z1.0
G1 F50.0 Z-0.5
G1 X18.2724
G0 Z3.0
G0 X4.6905
G0 Z0.5
G1 Z-1.0
G1 X18.2724
G0 Z3.0
G0 X4.6905
G0 Z0.0
G1 Z-1.5
G1 X18.2724
G0 Z3.0
G0 X4.6905 Y3.9098
G0 Z1.0
G1 Z-0.5
G1 X18.2724
G0 Z3.0
G0 X4.6905
G0 Z0.5
G1 Z-1.0
G1 X18.2724
G0 Z3.0
G0 X4.6905
G0 Z0.0
G1 Z-1.5
G1 X18.2724
G0 Z3.0
G0 X4.6905 Y6.9098
G0 Z1.0
G1 Z-0.5
G1 X18.2724
G0 Z3.0
G0 X4.6905
G0 Z0.5
G1 Z-1.0
G1 X18.2724
G0 Z3.0
G0 X4.6905
G0 Z0.0
G1 Z-1.5
G1 X18.2724
G0 Z3.0
G0 X4.6905 Y9.9098
G0 Z1.0
G1 Z-0.5
G1 X18.2724
G0 Z3.0
G0 X4.6905
G0 Z0.5
G1 Z-1.0
G1 X18.2724
G0 Z3.0
G0 X4.6905
G0 Z0.0
G1 Z-1.5
G1 X18.2724
G0 Z3.0
G0 X4.6905 Y12.9098
G0 Z1.0
G1 Z-0.5
G1 X18.2724
G0 Z3.0
G0 X4.6905
G0 Z0.5
G1 Z-1.0
G1 X18.2724
G0 Z3.0
G0 X4.6905
G0 Z0.0
G1 Z-1.5
G1 X18.2724
G0 Z3.0
G0 X4.6905 Y15.9098
G0 Z1.0
G1 Z-0.5
G1 X18.2724
G0 Z3.0
G0 X4.6905
G0 Z0.5
G1 Z-1.0
G1 X18.2724
G0 Z3.0
G0 X4.6905
G0 Z0.0
G1 Z-1.5
G1 X18.2724
G0 Z3.0
G0 X4.6905 Y18.9098
G0 Z1.0
G1 Z-0.5
G1 X18.2724
G0 Z3.0
G0 X4.6905
G0 Z0.5
G1 Z-1.0
G1 X18.2724
G0 Z3.0
G0 X4.6905
G0 Z0.0
G1 Z-1.5
G1 X18.2724
G0 Z3.0
G0 X4.6905 Y21.9098
G0 Z1.0
G1 Z-0.5
G1 X18.2724
G0 Z3.0
G0 X4.6905
G0 Z0.5
G1 Z-1.0
G1 X18.2724
G0 Z3.0
G0 X4.6905
G0 Z0.0
G1 Z-1.5
G1 X18.2724
G0 Z3.0
G0 X4.6905 Y24.9098
G0 Z1.0
G1 Z-0.5
G1 X18.2724
G0 Z3.0
G0 X4.6905
G0 Z0.5
G1 Z-1.0
G1 X18.2724
G0 Z3.0
G0 X4.6905
G0 Z0.0
G1 Z-1.5
G1 X18.2724
G0 Z3.0
G0 X4.6905 Y27.9098
G0 Z1.0
G1 Z-0.5
G1 X18.2724
G0 Z3.0
G0 X4.6905
G0 Z0.5
G1 Z-1.0
G1 X18.2724
G0 Z3.0
G0 X4.6905
G0 Z0.0
G1 Z-1.5
G1 X18.2724
G0 Z3.0
G0 X4.6905 Y30.9097
G0 Z1.0
G1 Z-0.5
G1 X18.2724
G0 Z3.0
G0 X4.6905
G0 Z0.5
G1 Z-1.0
G1 X18.2724
G0 Z3.0
G0 X4.6905
G0 Z0.0
G1 Z-1.5
G1 X18.2724
G0 Z3.0
G0 X4.6905 Y33.9097
G0 Z1.0
G1 Z-0.5
G1 X18.2724
G0 Z3.0
G0 X4.6905
G0 Z0.5
G1 Z-1.0
G1 X18.2724
G0 Z3.0
G0 X4.6905
G0 Z0.0
G1 Z-1.5
G1 X18.2724
G0 Z3.0
M5
M30
