( Made using CamBam - http://www.cambam.co.uk )
( belt mount - 4mm 9/29/2013 12:39:47 PM )
( T4 : 4.0 )
G21 G90 G64 G40
G0 Z3.0
( T4 : 4.0 )
T4 M6
( Cutout )
G17
M3 S1000
G0 X24.966 Y1.9988
G0 Z1.0
G1 F50.0 Z-1.0
G2 F120.0 X23.7933 Y-0.8262 I-3.9951 J0.0026
G2 X20.9664 Y-2.0 I-2.8273 J2.8183
G1 X20.9662
G1 X1.9999
G2 X1.9985 I0.0 J2.0
G2 X-0.8265 Y-0.827 I0.0027 J3.9948
G2 X-2.0 Y1.9998 I2.819 J2.8273
G1 Y2.0001
G1 Y33.0001
G2 Y33.0013 I2.0 J0.0
G2 X-0.8273 Y35.8263 I3.9951 J-0.0026
G2 X1.9997 Y37.0001 I2.8273 J-2.8183
G1 X1.9999
G1 X20.9662
G2 X20.9675 I0.0 J-2.0
G2 X23.7925 Y35.8271 I-0.0027 J-3.9948
G2 X24.966 Y33.0003 I-2.819 J-2.8273
G1 Y33.0001
G1 Y2.0001
G2 Y1.9988 I-2.0 J0.0
G1 F50.0 Z-2.0
G2 F120.0 X23.7933 Y-0.8262 I-3.9951 J0.0026
G2 X20.9664 Y-2.0 I-2.8273 J2.8183
G1 X20.9662
G1 X1.9999
G2 X1.9985 I0.0 J2.0
G2 X-0.8265 Y-0.827 I0.0027 J3.9948
G2 X-2.0 Y1.9998 I2.819 J2.8273
G1 Y2.0001
G1 Y33.0001
G2 Y33.0013 I2.0 J0.0
G2 X-0.8273 Y35.8263 I3.9951 J-0.0026
G2 X1.9997 Y37.0001 I2.8273 J-2.8183
G1 X1.9999
G1 X20.9662
G2 X20.9675 I0.0 J-2.0
G2 X23.7925 Y35.8271 I-0.0027 J-3.9948
G2 X24.966 Y33.0003 I-2.819 J-2.8273
G1 Y33.0001
G1 Y2.0001
G2 Y1.9988 I-2.0 J0.0
G1 F50.0 Z-3.0
G2 F120.0 X23.7933 Y-0.8262 I-3.9951 J0.0026
G2 X20.9664 Y-2.0 I-2.8273 J2.8183
G1 X20.9662
G1 X1.9999
G2 X1.9985 I0.0 J2.0
G2 X-0.8265 Y-0.827 I0.0027 J3.9948
G2 X-2.0 Y1.9998 I2.819 J2.8273
G1 Y2.0001
G1 Y33.0001
G2 Y33.0013 I2.0 J0.0
G2 X-0.8273 Y35.8263 I3.9951 J-0.0026
G2 X1.9997 Y37.0001 I2.8273 J-2.8183
G1 X1.9999
G1 X20.9662
G2 X20.9675 I0.0 J-2.0
G2 X23.7925 Y35.8271 I-0.0027 J-3.9948
G2 X24.966 Y33.0003 I-2.819 J-2.8273
G1 Y33.0001
G1 Y2.0001
G2 Y1.9988 I-2.0 J0.0
G1 F50.0 Z-4.0
G2 F120.0 X23.7933 Y-0.8262 I-3.9951 J0.0026
G2 X20.9664 Y-2.0 I-2.8273 J2.8183
G1 X20.9662
G1 X1.9999
G2 X1.9985 I0.0 J2.0
G2 X-0.8265 Y-0.827 I0.0027 J3.9948
G2 X-2.0 Y1.9998 I2.819 J2.8273
G1 Y2.0001
G1 Y33.0001
G2 Y33.0013 I2.0 J0.0
G2 X-0.8273 Y35.8263 I3.9951 J-0.0026
G2 X1.9997 Y37.0001 I2.8273 J-2.8183
G1 X1.9999
G1 X20.9662
G2 X20.9675 I0.0 J-2.0
G2 X23.7925 Y35.8271 I-0.0027 J-3.9948
G2 X24.966 Y33.0003 I-2.819 J-2.8273
G1 Y33.0001
G1 Y2.0001
G2 Y1.9988 I-2.0 J0.0
G1 F50.0 Z-4.5
G2 F120.0 X23.7933 Y-0.8262 I-3.9951 J0.0026
G2 X20.9664 Y-2.0 I-2.8273 J2.8183
G1 X20.9662
G1 X1.9999
G2 X1.9985 I0.0 J2.0
G2 X-0.8265 Y-0.827 I0.0027 J3.9948
G2 X-2.0 Y1.9998 I2.819 J2.8273
G1 Y2.0001
G1 Y33.0001
G2 Y33.0013 I2.0 J0.0
G2 X-0.8273 Y35.8263 I3.9951 J-0.0026
G2 X1.9997 Y37.0001 I2.8273 J-2.8183
G1 X1.9999
G1 X20.9662
G2 X20.9675 I0.0 J-2.0
G2 X23.7925 Y35.8271 I-0.0027 J-3.9948
G2 X24.966 Y33.0003 I-2.819 J-2.8273
G1 Y33.0001
G1 Y2.0001
G2 Y1.9988 I-2.0 J0.0
G0 Z3.0
M5
M30
