( Made using CamBam - http://www.cambam.co.uk )
( pcb mounts 12/1/2012 12:13:22 PM )
( T0 : 2.7 )
( T3 : 3.0 )
G21 G90 G64 G40
G0 Z3.0
( T0 : 2.7 )
T0 M6
( Pocket1 )
G17
M3 S1000
G0 X6.9624 Y5.0044
G1 F30.0 Z-0.5
G3 F60.0 X6.8221 Y5.3432 I-0.4776 J0.0006
G2 X6.815 Y5.3503 I2.4787 J2.4852
G3 X6.4778 Y5.49 I-0.3365 J-0.3355
G2 X6.468 I-0.0055 J3.51
G3 X6.129 Y5.3495 I-0.0006 J-0.478
G2 X6.1224 Y5.3429 I-2.485 J2.4788
G3 X5.9824 Y5.0049 I0.3365 J-0.3374
G2 Y4.9963 I-3.51 J-0.0048
G3 X6.1233 Y4.6561 I0.4799 J-0.0005
G2 X6.1293 Y4.6501 I-2.4794 J-2.4845
G3 X6.4676 Y4.5099 I0.3376 J0.3367
G2 X6.4761 I0.0047 J-3.51
G3 X6.8161 Y4.6508 I0.0005 J0.4795
G2 X6.8227 Y4.6573 I2.4847 J-2.4792
G3 X6.9624 Y4.9947 I-0.3356 J0.3367
G2 Y5.0044 I3.51 J0.0054
G1 F30.0 X8.0424 Y5.0031
G3 F60.0 X7.5847 Y6.1079 I-1.5576 J0.002
G2 X7.5798 Y6.1128 I1.716 J1.7205
G3 X6.4761 Y6.57 I-1.1013 J-1.098
G2 X6.4693 I-0.0038 J2.43
G3 X5.3644 Y6.1123 I-0.0019 J-1.558
G2 X5.3598 Y6.1077 I-1.7204 J1.7161
G3 X4.9024 Y5.0034 I1.0991 J-1.1022
G2 Y4.9975 I-2.43 J-0.0033
G3 X5.3604 Y3.8917 I1.5599 J-0.0017
G2 X5.3646 Y3.8875 I-1.7165 J-1.72
G3 X6.469 Y3.4299 I1.1024 J1.0993
G2 X6.475 I0.0033 J-2.43
G3 X7.5806 Y3.8879 I0.0017 J1.5595
G2 X7.5852 Y3.8925 I1.7202 J-1.7164
G3 X8.0424 Y4.9963 I-1.0981 J1.1015
G2 Y5.0031 I2.43 J0.0037
G1 F30.0 X9.1224 Y5.0017
G3 F60.0 X8.3474 Y6.8726 I-2.6376 J0.0033
G2 X8.3447 Y6.8753 I0.9533 J0.9559
G3 X6.4744 Y7.65 I-1.8662 J-1.8605
G2 X6.4707 I-0.0021 J1.35
G3 X4.5998 Y6.875 I-0.0032 J-2.638
G2 X4.5972 Y6.8724 I-0.9558 J0.9534
G3 X3.8224 Y5.0019 I1.8617 J-1.8669
G2 Y4.9986 I-1.35 J-0.0019
G3 X4.5975 Y3.1272 I2.6399 J-0.0028
G2 X4.5998 Y3.1249 I-0.9536 J-0.9556
G3 X6.4705 Y2.3499 I1.8671 J1.8619
G2 X6.4738 I0.0018 J-1.35
G3 X8.3451 Y3.1251 I0.0029 J2.6395
G2 X8.3477 Y3.1276 I0.9556 J-0.9535
G3 X9.1224 Y4.998 I-1.8606 J1.8664
G2 Y5.0017 I1.35 J0.0021
G0 Z3.0
G0 X6.9624 Y5.0044
G1 F30.0 Z-1.0
G3 F60.0 X6.8221 Y5.3432 I-0.4776 J0.0006
G2 X6.815 Y5.3503 I2.4787 J2.4852
G3 X6.4778 Y5.49 I-0.3365 J-0.3355
G2 X6.468 I-0.0055 J3.51
G3 X6.129 Y5.3495 I-0.0006 J-0.478
G2 X6.1224 Y5.3429 I-2.485 J2.4788
G3 X5.9824 Y5.0049 I0.3365 J-0.3374
G2 Y4.9963 I-3.51 J-0.0048
G3 X6.1233 Y4.6561 I0.4799 J-0.0005
G2 X6.1293 Y4.6501 I-2.4794 J-2.4845
G3 X6.4676 Y4.5099 I0.3376 J0.3367
G2 X6.4761 I0.0047 J-3.51
G3 X6.8161 Y4.6508 I0.0005 J0.4795
G2 X6.8227 Y4.6573 I2.4847 J-2.4792
G3 X6.9624 Y4.9947 I-0.3356 J0.3367
G2 Y5.0044 I3.51 J0.0054
G1 F30.0 X8.0424 Y5.0031
G3 F60.0 X7.5847 Y6.1079 I-1.5576 J0.002
G2 X7.5798 Y6.1128 I1.716 J1.7205
G3 X6.4761 Y6.57 I-1.1013 J-1.098
G2 X6.4693 I-0.0038 J2.43
G3 X5.3644 Y6.1123 I-0.0019 J-1.558
G2 X5.3598 Y6.1077 I-1.7204 J1.7161
G3 X4.9024 Y5.0034 I1.0991 J-1.1022
G2 Y4.9975 I-2.43 J-0.0033
G3 X5.3604 Y3.8917 I1.5599 J-0.0017
G2 X5.3646 Y3.8875 I-1.7165 J-1.72
G3 X6.469 Y3.4299 I1.1024 J1.0993
G2 X6.475 I0.0033 J-2.43
G3 X7.5806 Y3.8879 I0.0017 J1.5595
G2 X7.5852 Y3.8925 I1.7202 J-1.7164
G3 X8.0424 Y4.9963 I-1.0981 J1.1015
G2 Y5.0031 I2.43 J0.0037
G1 F30.0 X9.1224 Y5.0017
G3 F60.0 X8.3474 Y6.8726 I-2.6376 J0.0033
G2 X8.3447 Y6.8753 I0.9533 J0.9559
G3 X6.4744 Y7.65 I-1.8662 J-1.8605
G2 X6.4707 I-0.0021 J1.35
G3 X4.5998 Y6.875 I-0.0032 J-2.638
G2 X4.5972 Y6.8724 I-0.9558 J0.9534
G3 X3.8224 Y5.0019 I1.8617 J-1.8669
G2 Y4.9986 I-1.35 J-0.0019
G3 X4.5975 Y3.1272 I2.6399 J-0.0028
G2 X4.5998 Y3.1249 I-0.9536 J-0.9556
G3 X6.4705 Y2.3499 I1.8671 J1.8619
G2 X6.4738 I0.0018 J-1.35
G3 X8.3451 Y3.1251 I0.0029 J2.6395
G2 X8.3477 Y3.1276 I0.9556 J-0.9535
G3 X9.1224 Y4.998 I-1.8606 J1.8664
G2 Y5.0017 I1.35 J0.0021
G0 Z3.0
G0 X22.8716 Y5.0054
G1 F30.0 Z-0.5
G3 F60.0 Y5.0049 I0.4765 J0.0001
G2 Y4.9963 I-3.51 J-0.0048
G3 X23.0125 Y4.6561 I0.4799 J-0.0005
G2 X23.0186 Y4.6501 I-2.4794 J-2.4845
G3 X23.3568 Y4.5099 I0.3376 J0.3367
G2 X23.3654 I0.0047 J-3.51
G3 X23.7053 Y4.6508 I0.0005 J0.4795
G2 X23.7119 Y4.6573 I2.4847 J-2.4792
G3 X23.8516 Y4.9947 I-0.3356 J0.3367
G2 Y5.0044 I3.51 J0.0054
G3 X23.7113 Y5.3432 I-0.4776 J0.0006
G2 X23.7042 Y5.3503 I2.4787 J2.4852
G3 X23.367 Y5.49 I-0.3365 J-0.3355
G2 X23.3573 I-0.0055 J3.51
G3 X23.0182 Y5.3495 I-0.0006 J-0.478
G2 X23.0117 Y5.3429 I-2.485 J2.4788
G3 X22.8716 Y5.0054 I0.3365 J-0.3374
G1 F30.0 X21.7916 Y5.0051
G3 F60.0 Y5.0034 I1.5565 J0.0004
G2 Y4.9975 I-2.43 J-0.0033
G3 X22.2496 Y3.8917 I1.5599 J-0.0017
G2 X22.2538 Y3.8875 I-1.7165 J-1.72
G3 X23.3583 Y3.4299 I1.1024 J1.0993
G2 X23.3642 I0.0033 J-2.43
G3 X24.4699 Y3.8879 I0.0017 J1.5595
G2 X24.4744 Y3.8925 I1.7202 J-1.7164
G3 X24.9316 Y4.9963 I-1.0981 J1.1015
G2 Y5.0031 I2.43 J0.0037
G3 X24.474 Y6.1079 I-1.5576 J0.002
G2 X24.4691 Y6.1128 I1.716 J1.7205
G3 X23.3653 Y6.57 I-1.1013 J-1.098
G2 X23.3586 I-0.0038 J2.43
G3 X22.2536 Y6.1123 I-0.0019 J-1.558
G2 X22.2491 Y6.1077 I-1.7204 J1.7161
G3 X21.7916 Y5.0051 I1.0991 J-1.1022
G1 F30.0 X20.7116 Y5.0048
G3 F60.0 Y5.0019 I2.6365 J0.0007
G2 Y4.9986 I-1.35 J-0.0019
G3 X21.4867 Y3.1272 I2.6399 J-0.0028
G2 X21.4891 Y3.1249 I-0.9536 J-0.9556
G3 X23.3597 Y2.3499 I1.8671 J1.8619
G2 X23.363 I0.0018 J-1.35
G3 X25.2344 Y3.1251 I0.0029 J2.6395
G2 X25.2369 Y3.1276 I0.9556 J-0.9535
G3 X26.0116 Y4.998 I-1.8606 J1.8664
G2 Y5.0017 I1.35 J0.0021
G3 X25.2366 Y6.8726 I-2.6376 J0.0033
G2 X25.2339 Y6.8753 I0.9533 J0.9559
G3 X23.3636 Y7.65 I-1.8662 J-1.8605
G2 X23.3599 I-0.0021 J1.35
G3 X21.489 Y6.875 I-0.0032 J-2.638
G2 X21.4865 Y6.8724 I-0.9558 J0.9534
G3 X20.7116 Y5.0048 I1.8617 J-1.8669
G0 Z3.0
G0 X22.8716 Y5.0054
G1 F30.0 Z-1.0
G3 F60.0 Y5.0049 I0.4765 J0.0001
G2 Y4.9963 I-3.51 J-0.0048
G3 X23.0125 Y4.6561 I0.4799 J-0.0005
G2 X23.0186 Y4.6501 I-2.4794 J-2.4845
G3 X23.3568 Y4.5099 I0.3376 J0.3367
G2 X23.3654 I0.0047 J-3.51
G3 X23.7053 Y4.6508 I0.0005 J0.4795
G2 X23.7119 Y4.6573 I2.4847 J-2.4792
G3 X23.8516 Y4.9947 I-0.3356 J0.3367
G2 Y5.0044 I3.51 J0.0054
G3 X23.7113 Y5.3432 I-0.4776 J0.0006
G2 X23.7042 Y5.3503 I2.4787 J2.4852
G3 X23.367 Y5.49 I-0.3365 J-0.3355
G2 X23.3573 I-0.0055 J3.51
G3 X23.0182 Y5.3495 I-0.0006 J-0.478
G2 X23.0117 Y5.3429 I-2.485 J2.4788
G3 X22.8716 Y5.0054 I0.3365 J-0.3374
G1 F30.0 X21.7916 Y5.0051
G3 F60.0 Y5.0034 I1.5565 J0.0004
G2 Y4.9975 I-2.43 J-0.0033
G3 X22.2496 Y3.8917 I1.5599 J-0.0017
G2 X22.2538 Y3.8875 I-1.7165 J-1.72
G3 X23.3583 Y3.4299 I1.1024 J1.0993
G2 X23.3642 I0.0033 J-2.43
G3 X24.4699 Y3.8879 I0.0017 J1.5595
G2 X24.4744 Y3.8925 I1.7202 J-1.7164
G3 X24.9316 Y4.9963 I-1.0981 J1.1015
G2 Y5.0031 I2.43 J0.0037
G3 X24.474 Y6.1079 I-1.5576 J0.002
G2 X24.4691 Y6.1128 I1.716 J1.7205
G3 X23.3653 Y6.57 I-1.1013 J-1.098
G2 X23.3586 I-0.0038 J2.43
G3 X22.2536 Y6.1123 I-0.0019 J-1.558
G2 X22.2491 Y6.1077 I-1.7204 J1.7161
G3 X21.7916 Y5.0051 I1.0991 J-1.1022
G1 F30.0 X20.7116 Y5.0048
G3 F60.0 Y5.0019 I2.6365 J0.0007
G2 Y4.9986 I-1.35 J-0.0019
G3 X21.4867 Y3.1272 I2.6399 J-0.0028
G2 X21.4891 Y3.1249 I-0.9536 J-0.9556
G3 X23.3597 Y2.3499 I1.8671 J1.8619
G2 X23.363 I0.0018 J-1.35
G3 X25.2344 Y3.1251 I0.0029 J2.6395
G2 X25.2369 Y3.1276 I0.9556 J-0.9535
G3 X26.0116 Y4.998 I-1.8606 J1.8664
G2 Y5.0017 I1.35 J0.0021
G3 X25.2366 Y6.8726 I-2.6376 J0.0033
G2 X25.2339 Y6.8753 I0.9533 J0.9559
G3 X23.3636 Y7.65 I-1.8662 J-1.8605
G2 X23.3599 I-0.0021 J1.35
G3 X21.489 Y6.875 I-0.0032 J-2.638
G2 X21.4865 Y6.8724 I-0.9558 J0.9534
G3 X20.7116 Y5.0048 I1.8617 J-1.8669
G0 Z3.0
G0 X39.7608 Y5.0055
G1 F30.0 Z-0.5
G3 F60.0 Y5.0049 I0.4765 J0.0
G2 Y4.9963 I-3.51 J-0.0048
G3 X39.9017 Y4.6561 I0.4799 J-0.0005
G2 X39.9078 Y4.6501 I-2.4794 J-2.4845
G3 X40.2461 Y4.5099 I0.3376 J0.3367
G2 X40.2546 I0.0047 J-3.51
G3 X40.5946 Y4.6508 I0.0005 J0.4795
G2 X40.6011 Y4.6573 I2.4847 J-2.4792
G3 X40.7409 Y4.9947 I-0.3356 J0.3367
G2 Y5.0044 I3.51 J0.0054
G3 X40.6005 Y5.3432 I-0.4776 J0.0006
G2 X40.5935 Y5.3503 I2.4787 J2.4852
G3 X40.2562 Y5.49 I-0.3365 J-0.3355
G2 X40.2465 I-0.0055 J3.51
G3 X39.9075 Y5.3495 I-0.0006 J-0.478
G2 X39.9009 Y5.3429 I-2.485 J2.4788
G3 X39.7608 Y5.0055 I0.3365 J-0.3374
G1 F30.0 X38.6808
G3 F60.0 Y5.0034 I1.5565 J0.0001
G2 Y4.9975 I-2.43 J-0.0033
G3 X39.1389 Y3.8917 I1.5599 J-0.0017
G2 X39.1431 Y3.8875 I-1.7165 J-1.72
G3 X40.2475 Y3.4299 I1.1024 J1.0993
G2 X40.2534 I0.0033 J-2.43
G3 X41.3591 Y3.8879 I0.0017 J1.5595
G2 X41.3636 Y3.8925 I1.7202 J-1.7164
G3 X41.8209 Y4.9963 I-1.0981 J1.1015
G2 Y5.0031 I2.43 J0.0037
G3 X41.3632 Y6.1079 I-1.5576 J0.002
G2 X41.3583 Y6.1128 I1.716 J1.7205
G3 X40.2546 Y6.57 I-1.1013 J-1.098
G2 X40.2478 I-0.0038 J2.43
G3 X39.1429 Y6.1123 I-0.0019 J-1.558
G2 X39.1383 Y6.1077 I-1.7204 J1.7161
G3 X38.6808 Y5.0055 I1.0991 J-1.1022
G1 F30.0 X37.6008 Y5.0054
G3 F60.0 Y5.0019 I2.6365 J0.0001
G2 Y4.9986 I-1.35 J-0.0019
G3 X38.376 Y3.1272 I2.6399 J-0.0028
G2 X38.3783 Y3.1249 I-0.9536 J-0.9556
G3 X40.249 Y2.3499 I1.8671 J1.8619
G2 X40.2523 I0.0018 J-1.35
G3 X42.1236 Y3.1251 I0.0029 J2.6395
G2 X42.1261 Y3.1276 I0.9556 J-0.9535
G3 X42.9009 Y4.998 I-1.8606 J1.8664
G2 Y5.0017 I1.35 J0.0021
G3 X42.1259 Y6.8726 I-2.6376 J0.0033
G2 X42.1231 Y6.8753 I0.9533 J0.9559
G3 X40.2529 Y7.65 I-1.8662 J-1.8605
G2 X40.2491 I-0.0021 J1.35
G3 X38.3782 Y6.875 I-0.0032 J-2.638
G2 X38.3757 Y6.8724 I-0.9558 J0.9534
G3 X37.6008 Y5.0054 I1.8617 J-1.8669
G0 Z3.0
G0 X39.7608 Y5.0055
G1 F30.0 Z-1.0
G3 F60.0 Y5.0049 I0.4765 J0.0
G2 Y4.9963 I-3.51 J-0.0048
G3 X39.9017 Y4.6561 I0.4799 J-0.0005
G2 X39.9078 Y4.6501 I-2.4794 J-2.4845
G3 X40.2461 Y4.5099 I0.3376 J0.3367
G2 X40.2546 I0.0047 J-3.51
G3 X40.5946 Y4.6508 I0.0005 J0.4795
G2 X40.6011 Y4.6573 I2.4847 J-2.4792
G3 X40.7409 Y4.9947 I-0.3356 J0.3367
G2 Y5.0044 I3.51 J0.0054
G3 X40.6005 Y5.3432 I-0.4776 J0.0006
G2 X40.5935 Y5.3503 I2.4787 J2.4852
G3 X40.2562 Y5.49 I-0.3365 J-0.3355
G2 X40.2465 I-0.0055 J3.51
G3 X39.9075 Y5.3495 I-0.0006 J-0.478
G2 X39.9009 Y5.3429 I-2.485 J2.4788
G3 X39.7608 Y5.0055 I0.3365 J-0.3374
G1 F30.0 X38.6808
G3 F60.0 Y5.0034 I1.5565 J0.0001
G2 Y4.9975 I-2.43 J-0.0033
G3 X39.1389 Y3.8917 I1.5599 J-0.0017
G2 X39.1431 Y3.8875 I-1.7165 J-1.72
G3 X40.2475 Y3.4299 I1.1024 J1.0993
G2 X40.2534 I0.0033 J-2.43
G3 X41.3591 Y3.8879 I0.0017 J1.5595
G2 X41.3636 Y3.8925 I1.7202 J-1.7164
G3 X41.8209 Y4.9963 I-1.0981 J1.1015
G2 Y5.0031 I2.43 J0.0037
G3 X41.3632 Y6.1079 I-1.5576 J0.002
G2 X41.3583 Y6.1128 I1.716 J1.7205
G3 X40.2546 Y6.57 I-1.1013 J-1.098
G2 X40.2478 I-0.0038 J2.43
G3 X39.1429 Y6.1123 I-0.0019 J-1.558
G2 X39.1383 Y6.1077 I-1.7204 J1.7161
G3 X38.6808 Y5.0055 I1.0991 J-1.1022
G1 F30.0 X37.6008 Y5.0054
G3 F60.0 Y5.0019 I2.6365 J0.0001
G2 Y4.9986 I-1.35 J-0.0019
G3 X38.376 Y3.1272 I2.6399 J-0.0028
G2 X38.3783 Y3.1249 I-0.9536 J-0.9556
G3 X40.249 Y2.3499 I1.8671 J1.8619
G2 X40.2523 I0.0018 J-1.35
G3 X42.1236 Y3.1251 I0.0029 J2.6395
G2 X42.1261 Y3.1276 I0.9556 J-0.9535
G3 X42.9009 Y4.998 I-1.8606 J1.8664
G2 Y5.0017 I1.35 J0.0021
G3 X42.1259 Y6.8726 I-2.6376 J0.0033
G2 X42.1231 Y6.8753 I0.9533 J0.9559
G3 X40.2529 Y7.65 I-1.8662 J-1.8605
G2 X40.2491 I-0.0021 J1.35
G3 X38.3782 Y6.875 I-0.0032 J-2.638
G2 X38.3757 Y6.8724 I-0.9558 J0.9534
G3 X37.6008 Y5.0054 I1.8617 J-1.8669
G0 Z3.0
G0 X56.6501 Y5.0055
G1 F30.0 Z-0.5
G3 F60.0 Y5.0049 I0.4765 J0.0
G2 Y4.9963 I-3.51 J-0.0048
G3 X56.791 Y4.6561 I0.4799 J-0.0005
G2 X56.7971 Y4.6501 I-2.4794 J-2.4845
G3 X57.1353 Y4.5099 I0.3376 J0.3367
G2 X57.1439 I0.0047 J-3.51
G3 X57.4838 Y4.6508 I0.0005 J0.4795
G2 X57.4904 Y4.6573 I2.4847 J-2.4792
G3 X57.6301 Y4.9947 I-0.3356 J0.3367
G2 Y5.0044 I3.51 J0.0054
G3 X57.4898 Y5.3432 I-0.4776 J0.0006
G2 X57.4827 Y5.3503 I2.4787 J2.4852
G3 X57.1455 Y5.49 I-0.3365 J-0.3355
G2 X57.1357 I-0.0055 J3.51
G3 X56.7967 Y5.3495 I-0.0006 J-0.478
G2 X56.7901 Y5.3429 I-2.485 J2.4788
G3 X56.6501 Y5.0055 I0.3365 J-0.3374
G1 F30.0 X55.5701
G3 F60.0 Y5.0034 I1.5565 J0.0
G2 Y4.9975 I-2.43 J-0.0033
G3 X56.0281 Y3.8917 I1.5599 J-0.0017
G2 X56.0323 Y3.8875 I-1.7165 J-1.72
G3 X57.1367 Y3.4299 I1.1024 J1.0993
G2 X57.1427 I0.0033 J-2.43
G3 X58.2483 Y3.8879 I0.0017 J1.5595
G2 X58.2529 Y3.8925 I1.7202 J-1.7164
G3 X58.7101 Y4.9963 I-1.0981 J1.1015
G2 Y5.0031 I2.43 J0.0037
G3 X58.2524 Y6.1079 I-1.5576 J0.002
G2 X58.2475 Y6.1128 I1.716 J1.7205
G3 X57.1438 Y6.57 I-1.1013 J-1.098
G2 X57.137 I-0.0038 J2.43
G3 X56.0321 Y6.1123 I-0.0019 J-1.558
G2 X56.0275 Y6.1077 I-1.7204 J1.7161
G3 X55.5701 Y5.0055 I1.0991 J-1.1022
G1 F30.0 X54.4901
G3 F60.0 Y5.0019 I2.6365 J0.0
G2 Y4.9986 I-1.35 J-0.0019
G3 X55.2652 Y3.1272 I2.6399 J-0.0028
G2 X55.2675 Y3.1249 I-0.9536 J-0.9556
G3 X57.1382 Y2.3499 I1.8671 J1.8619
G2 X57.1415 I0.0018 J-1.35
G3 X59.0128 Y3.1251 I0.0029 J2.6395
G2 X59.0154 Y3.1276 I0.9556 J-0.9535
G3 X59.7901 Y4.998 I-1.8606 J1.8664
G2 Y5.0017 I1.35 J0.0021
G3 X59.0151 Y6.8726 I-2.6376 J0.0033
G2 X59.0124 Y6.8753 I0.9533 J0.9559
G3 X57.1421 Y7.65 I-1.8662 J-1.8605
G2 X57.1384 I-0.0021 J1.35
G3 X55.2675 Y6.875 I-0.0032 J-2.638
G2 X55.2649 Y6.8724 I-0.9558 J0.9534
G3 X54.4901 Y5.0055 I1.8617 J-1.8669
G0 Z3.0
G0 X56.6501
G1 F30.0 Z-1.0
G3 F60.0 Y5.0049 I0.4765 J0.0
G2 Y4.9963 I-3.51 J-0.0048
G3 X56.791 Y4.6561 I0.4799 J-0.0005
G2 X56.7971 Y4.6501 I-2.4794 J-2.4845
G3 X57.1353 Y4.5099 I0.3376 J0.3367
G2 X57.1439 I0.0047 J-3.51
G3 X57.4838 Y4.6508 I0.0005 J0.4795
G2 X57.4904 Y4.6573 I2.4847 J-2.4792
G3 X57.6301 Y4.9947 I-0.3356 J0.3367
G2 Y5.0044 I3.51 J0.0054
G3 X57.4898 Y5.3432 I-0.4776 J0.0006
G2 X57.4827 Y5.3503 I2.4787 J2.4852
G3 X57.1455 Y5.49 I-0.3365 J-0.3355
G2 X57.1357 I-0.0055 J3.51
G3 X56.7967 Y5.3495 I-0.0006 J-0.478
G2 X56.7901 Y5.3429 I-2.485 J2.4788
G3 X56.6501 Y5.0055 I0.3365 J-0.3374
G1 F30.0 X55.5701
G3 F60.0 Y5.0034 I1.5565 J0.0
G2 Y4.9975 I-2.43 J-0.0033
G3 X56.0281 Y3.8917 I1.5599 J-0.0017
G2 X56.0323 Y3.8875 I-1.7165 J-1.72
G3 X57.1367 Y3.4299 I1.1024 J1.0993
G2 X57.1427 I0.0033 J-2.43
G3 X58.2483 Y3.8879 I0.0017 J1.5595
G2 X58.2529 Y3.8925 I1.7202 J-1.7164
G3 X58.7101 Y4.9963 I-1.0981 J1.1015
G2 Y5.0031 I2.43 J0.0037
G3 X58.2524 Y6.1079 I-1.5576 J0.002
G2 X58.2475 Y6.1128 I1.716 J1.7205
G3 X57.1438 Y6.57 I-1.1013 J-1.098
G2 X57.137 I-0.0038 J2.43
G3 X56.0321 Y6.1123 I-0.0019 J-1.558
G2 X56.0275 Y6.1077 I-1.7204 J1.7161
G3 X55.5701 Y5.0055 I1.0991 J-1.1022
G1 F30.0 X54.4901
G3 F60.0 Y5.0019 I2.6365 J0.0
G2 Y4.9986 I-1.35 J-0.0019
G3 X55.2652 Y3.1272 I2.6399 J-0.0028
G2 X55.2675 Y3.1249 I-0.9536 J-0.9556
G3 X57.1382 Y2.3499 I1.8671 J1.8619
G2 X57.1415 I0.0018 J-1.35
G3 X59.0128 Y3.1251 I0.0029 J2.6395
G2 X59.0154 Y3.1276 I0.9556 J-0.9535
G3 X59.7901 Y4.998 I-1.8606 J1.8664
G2 Y5.0017 I1.35 J0.0021
G3 X59.0151 Y6.8726 I-2.6376 J0.0033
G2 X59.0124 Y6.8753 I0.9533 J0.9559
G3 X57.1421 Y7.65 I-1.8662 J-1.8605
G2 X57.1384 I-0.0021 J1.35
G3 X55.2675 Y6.875 I-0.0032 J-2.638
G2 X55.2649 Y6.8724 I-0.9558 J0.9534
G3 X54.4901 Y5.0055 I1.8617 J-1.8669
( Pocket2 )
G0 Z3.0
( T3 : 3.0 )
T3 M6
M3 S1000
G0 X6.442 Y12.764
G1 F30.0 Z-0.5
G2 F60.0 X7.9063 Y12.6271 I-0.0015 J-7.9142
G3 X7.4674 Y13.306 I-8.9844 J-5.3268
G2 X7.4671 Y13.3064 I2.209 J1.5525
G3 X7.2507 Y13.5975 I-5.508 J-3.8694
G2 X7.243 Y13.6072 I2.1225 J1.6688
G3 X6.8588 Y14.0465 I-4.0395 J-3.1462
G2 X6.8503 Y14.0551 I1.9275 J1.8907
G3 X6.6091 Y14.2733 I-1.8164 J-1.7659
G2 X6.5929 Y14.2862 I1.6787 J2.1147
G3 X6.5338 Y14.3307 I-0.7005 J-0.8687
G2 X6.5046 Y14.3515 I1.5519 J2.2095
G3 X6.4403 Y14.3933 I-0.4484 J-0.6207
G3 X6.4255 Y14.384 I0.3001 J-0.4936
G3 X6.3053 Y14.2996 I1.3395 J-2.0368
G3 X6.0556 Y14.0801 I1.9562 J-2.4765
G1 X5.9587 Y13.9819
G2 X5.9533 Y13.9764 I-1.9221 J1.8962
G3 X5.9424 Y13.9648 I0.2179 J-0.2162
G2 X5.9199 Y13.94 I-2.013 J1.7994
G3 X5.6508 Y13.6241 I4.2252 J-3.8722
G3 X5.1539 Y12.9188 I6.4868 J-5.0982
G3 X4.9767 Y12.6284 I11.8881 J-7.4522
G2 X6.442 Y12.764 I1.4564 J-7.7563
G1 F30.0 X6.4418 Y11.564
G2 F60.0 X10.3054 Y10.34 I-0.0013 J-6.7142
G3 X10.0821 Y10.9043 I-20.7887 J-7.9019
G2 X10.081 Y10.9069 I1.3871 J0.571
G3 X9.322 Y12.5484 I-18.8493 J-7.7195
G1 X9.2445 Y12.6947
G1 X9.0804 Y12.9929
G3 X8.4491 Y13.996 I-10.1585 J-5.6926
G2 X8.449 Y13.9962 I1.2272 J0.8625
G3 X8.194 Y14.3392 I-6.4899 J-4.5592
G2 X8.1898 Y14.3446 I1.1792 J0.9271
G3 X7.7154 Y14.8868 I-4.9862 J-3.8836
G2 X7.7107 Y14.8916 I1.0708 J1.0504
G3 X7.3552 Y15.2131 I-2.6768 J-2.6024
G2 X7.3462 Y15.2203 I0.9326 J1.1748
G3 X7.2236 Y15.3127 I-1.4538 J-1.8028
G2 X7.2073 Y15.3242 I0.8622 J1.2275
G3 X6.7667 Y15.5636 I-1.1511 J-1.5934
G2 X6.7661 Y15.5639 I0.5422 J1.3986
G3 X6.4402 Y15.6266 I-0.335 J-0.8629
G3 X6.1365 Y15.5716 I0.009 J-0.9165
G2 X6.1354 Y15.5712 I-0.5117 J1.41
G3 X5.7684 Y15.3881 I0.605 J-1.6716
G3 X5.5737 Y15.2509 I1.9966 J-3.0409
G3 X5.2084 Y14.93 I2.6877 J-3.4278
G1 X5.1045 Y14.8246
G2 X5.1015 Y14.8216 I-1.0678 J1.0534
G3 X5.0477 Y14.7646 I1.0698 J-1.0613
G2 X5.0353 Y14.7508 I-1.1183 J0.9997
G3 X4.7085 Y14.3672 I5.1099 J-4.683
G3 X4.1376 Y13.557 I7.4291 J-5.8412
G3 X3.26 Y11.95 I12.9044 J-8.0903
G2 X3.2569 Y11.9433 I-1.3573 J0.6385
G3 X2.6981 Y10.6558 I18.029 J-8.5895
G2 X2.6964 Y10.6515 I-1.3961 J0.5485
G3 X2.5754 Y10.3402 I23.2537 J-9.2189
G2 X2.7252 Y10.4427 I3.8761 J-5.5001
G2 X6.4413 Y11.564 I3.708 J-5.5706
G2 X6.4418 I-0.0007 J-6.7142
G1 F30.0 X6.442 Y12.764
G1 Z-1.0
G2 F60.0 X7.9063 Y12.6271 I-0.0015 J-7.9142
G3 X7.4674 Y13.306 I-8.9844 J-5.3268
G2 X7.4671 Y13.3064 I2.209 J1.5525
G3 X7.2507 Y13.5975 I-5.508 J-3.8694
G2 X7.243 Y13.6072 I2.1225 J1.6688
G3 X6.8588 Y14.0465 I-4.0395 J-3.1462
G2 X6.8503 Y14.0551 I1.9275 J1.8907
G3 X6.6091 Y14.2733 I-1.8164 J-1.7659
G2 X6.5929 Y14.2862 I1.6787 J2.1147
G3 X6.5338 Y14.3307 I-0.7005 J-0.8687
G2 X6.5046 Y14.3515 I1.5519 J2.2095
G3 X6.4403 Y14.3933 I-0.4484 J-0.6207
G3 X6.4255 Y14.384 I0.3001 J-0.4936
G3 X6.3053 Y14.2996 I1.3395 J-2.0368
G3 X6.0556 Y14.0801 I1.9562 J-2.4765
G1 X5.9587 Y13.9819
G2 X5.9533 Y13.9764 I-1.9221 J1.8962
G3 X5.9424 Y13.9648 I0.2179 J-0.2162
G2 X5.9199 Y13.94 I-2.013 J1.7994
G3 X5.6508 Y13.6241 I4.2252 J-3.8722
G3 X5.1539 Y12.9188 I6.4868 J-5.0982
G3 X4.9767 Y12.6284 I11.8881 J-7.4522
G2 X6.442 Y12.764 I1.4564 J-7.7563
G1 F30.0 X6.4418 Y11.564
G2 F60.0 X10.3054 Y10.34 I-0.0013 J-6.7142
G3 X10.0821 Y10.9043 I-20.7887 J-7.9019
G2 X10.081 Y10.9069 I1.3871 J0.571
G3 X9.322 Y12.5484 I-18.8493 J-7.7195
G1 X9.2445 Y12.6947
G1 X9.0804 Y12.9929
G3 X8.4491 Y13.996 I-10.1585 J-5.6926
G2 X8.449 Y13.9962 I1.2272 J0.8625
G3 X8.194 Y14.3392 I-6.4899 J-4.5592
G2 X8.1898 Y14.3446 I1.1792 J0.9271
G3 X7.7154 Y14.8868 I-4.9862 J-3.8836
G2 X7.7107 Y14.8916 I1.0708 J1.0504
G3 X7.3552 Y15.2131 I-2.6768 J-2.6024
G2 X7.3462 Y15.2203 I0.9326 J1.1748
G3 X7.2236 Y15.3127 I-1.4538 J-1.8028
G2 X7.2073 Y15.3242 I0.8622 J1.2275
G3 X6.7667 Y15.5636 I-1.1511 J-1.5934
G2 X6.7661 Y15.5639 I0.5422 J1.3986
G3 X6.4402 Y15.6266 I-0.335 J-0.8629
G3 X6.1365 Y15.5716 I0.009 J-0.9165
G2 X6.1354 Y15.5712 I-0.5117 J1.41
G3 X5.7684 Y15.3881 I0.605 J-1.6716
G3 X5.5737 Y15.2509 I1.9966 J-3.0409
G3 X5.2084 Y14.93 I2.6877 J-3.4278
G1 X5.1045 Y14.8246
G2 X5.1015 Y14.8216 I-1.0678 J1.0534
G3 X5.0477 Y14.7646 I1.0698 J-1.0613
G2 X5.0353 Y14.7508 I-1.1183 J0.9997
G3 X4.7085 Y14.3672 I5.1099 J-4.683
G3 X4.1376 Y13.557 I7.4291 J-5.8412
G3 X3.26 Y11.95 I12.9044 J-8.0903
G2 X3.2569 Y11.9433 I-1.3573 J0.6385
G3 X2.6981 Y10.6558 I18.029 J-8.5895
G2 X2.6964 Y10.6515 I-1.3961 J0.5485
G3 X2.5754 Y10.3402 I23.2537 J-9.2189
G2 X2.7252 Y10.4427 I3.8761 J-5.5001
G2 X6.4413 Y11.564 I3.708 J-5.5706
G2 X6.4418 I-0.0007 J-6.7142
G1 F30.0 X6.442 Y12.764
G1 Z-1.4
G2 F60.0 X7.9063 Y12.6271 I-0.0015 J-7.9142
G3 X7.4674 Y13.306 I-8.9844 J-5.3268
G2 X7.4671 Y13.3064 I2.209 J1.5525
G3 X7.2507 Y13.5975 I-5.508 J-3.8694
G2 X7.243 Y13.6072 I2.1225 J1.6688
G3 X6.8588 Y14.0465 I-4.0395 J-3.1462
G2 X6.8503 Y14.0551 I1.9275 J1.8907
G3 X6.6091 Y14.2733 I-1.8164 J-1.7659
G2 X6.5929 Y14.2862 I1.6787 J2.1147
G3 X6.5338 Y14.3307 I-0.7005 J-0.8687
G2 X6.5046 Y14.3515 I1.5519 J2.2095
G3 X6.4403 Y14.3933 I-0.4484 J-0.6207
G3 X6.4255 Y14.384 I0.3001 J-0.4936
G3 X6.3053 Y14.2996 I1.3395 J-2.0368
G3 X6.0556 Y14.0801 I1.9562 J-2.4765
G1 X5.9587 Y13.9819
G2 X5.9533 Y13.9764 I-1.9221 J1.8962
G3 X5.9424 Y13.9648 I0.2179 J-0.2162
G2 X5.9199 Y13.94 I-2.013 J1.7994
G3 X5.6508 Y13.6241 I4.2252 J-3.8722
G3 X5.1539 Y12.9188 I6.4868 J-5.0982
G3 X4.9767 Y12.6284 I11.8881 J-7.4522
G2 X6.442 Y12.764 I1.4564 J-7.7563
G1 F30.0 X6.4418 Y11.564
G2 F60.0 X10.3054 Y10.34 I-0.0013 J-6.7142
G3 X10.0821 Y10.9043 I-20.7887 J-7.9019
G2 X10.081 Y10.9069 I1.3871 J0.571
G3 X9.322 Y12.5484 I-18.8493 J-7.7195
G1 X9.2445 Y12.6947
G1 X9.0804 Y12.9929
G3 X8.4491 Y13.996 I-10.1585 J-5.6926
G2 X8.449 Y13.9962 I1.2272 J0.8625
G3 X8.194 Y14.3392 I-6.4899 J-4.5592
G2 X8.1898 Y14.3446 I1.1792 J0.9271
G3 X7.7154 Y14.8868 I-4.9862 J-3.8836
G2 X7.7107 Y14.8916 I1.0708 J1.0504
G3 X7.3552 Y15.2131 I-2.6768 J-2.6024
G2 X7.3462 Y15.2203 I0.9326 J1.1748
G3 X7.2236 Y15.3127 I-1.4538 J-1.8028
G2 X7.2073 Y15.3242 I0.8622 J1.2275
G3 X6.7667 Y15.5636 I-1.1511 J-1.5934
G2 X6.7661 Y15.5639 I0.5422 J1.3986
G3 X6.4402 Y15.6266 I-0.335 J-0.8629
G3 X6.1365 Y15.5716 I0.009 J-0.9165
G2 X6.1354 Y15.5712 I-0.5117 J1.41
G3 X5.7684 Y15.3881 I0.605 J-1.6716
G3 X5.5737 Y15.2509 I1.9966 J-3.0409
G3 X5.2084 Y14.93 I2.6877 J-3.4278
G1 X5.1045 Y14.8246
G2 X5.1015 Y14.8216 I-1.0678 J1.0534
G3 X5.0477 Y14.7646 I1.0698 J-1.0613
G2 X5.0353 Y14.7508 I-1.1183 J0.9997
G3 X4.7085 Y14.3672 I5.1099 J-4.683
G3 X4.1376 Y13.557 I7.4291 J-5.8412
G3 X3.26 Y11.95 I12.9044 J-8.0903
G2 X3.2569 Y11.9433 I-1.3573 J0.6385
G3 X2.6981 Y10.6558 I18.029 J-8.5895
G2 X2.6964 Y10.6515 I-1.3961 J0.5485
G3 X2.5754 Y10.3402 I23.2537 J-9.2189
G2 X2.7252 Y10.4427 I3.8761 J-5.5001
G2 X6.4413 Y11.564 I3.708 J-5.5706
G2 X6.4418 I-0.0007 J-6.7142
G0 Z3.0
G0 X21.866 Y12.6284
G1 F30.0 Z-0.5
G2 F60.0 X23.3313 Y12.764 I1.4564 J-7.7563
G2 X24.7955 Y12.6271 I-0.0015 J-7.9142
G3 X24.3566 Y13.306 I-8.9844 J-5.3268
G2 X24.3563 Y13.3064 I2.209 J1.5525
G3 X24.1399 Y13.5975 I-5.508 J-3.8694
G2 X24.1323 Y13.6072 I2.1225 J1.6688
G3 X23.748 Y14.0465 I-4.0395 J-3.1462
G2 X23.7396 Y14.0551 I1.9275 J1.8907
G3 X23.4983 Y14.2733 I-1.8164 J-1.7659
G2 X23.4822 Y14.2862 I1.6787 J2.1147
G3 X23.4231 Y14.3307 I-0.7005 J-0.8687
G2 X23.3938 Y14.3515 I1.5519 J2.2095
G3 X23.3295 Y14.3933 I-0.4484 J-0.6207
G3 X23.3148 Y14.384 I0.3001 J-0.4936
G3 X23.1945 Y14.2996 I1.3395 J-2.0368
G3 X22.9449 Y14.0801 I1.9562 J-2.4765
G1 X22.848 Y13.9819
G2 X22.8426 Y13.9764 I-1.9221 J1.8962
G3 X22.8316 Y13.9648 I0.2179 J-0.2162
G2 X22.8092 Y13.94 I-2.013 J1.7994
G3 X22.5401 Y13.6241 I4.2252 J-3.8722
G3 X22.0431 Y12.9188 I6.4868 J-5.0982
G3 X21.866 Y12.6284 I11.8881 J-7.4522
G1 F30.0 X22.0874 Y11.449
G2 F60.0 X23.3305 Y11.564 I1.235 J-6.5769
G2 X27.1947 Y10.34 I-0.0007 J-6.7142
G3 X26.9713 Y10.9043 I-20.7887 J-7.9019
G2 X26.9703 Y10.9069 I1.3871 J0.571
G3 X26.2112 Y12.5484 I-18.8493 J-7.7195
G1 X26.1338 Y12.6947
G1 X25.9697 Y12.9929
G3 X25.3384 Y13.996 I-10.1585 J-5.6926
G2 X25.3382 Y13.9962 I1.2272 J0.8625
G3 X25.0832 Y14.3392 I-6.4899 J-4.5592
G2 X25.079 Y14.3446 I1.1792 J0.9271
G3 X24.6047 Y14.8868 I-4.9862 J-3.8836
G2 X24.6 Y14.8916 I1.0708 J1.0504
G3 X24.2444 Y15.2131 I-2.6768 J-2.6024
G2 X24.2355 Y15.2203 I0.9326 J1.1748
G3 X24.1128 Y15.3127 I-1.4538 J-1.8028
G2 X24.0966 Y15.3242 I0.8622 J1.2275
G3 X23.656 Y15.5636 I-1.1511 J-1.5934
G2 X23.6553 Y15.5639 I0.5422 J1.3986
G3 X23.3294 Y15.6266 I-0.335 J-0.8629
G3 X23.0258 Y15.5716 I0.009 J-0.9165
G2 X23.0246 Y15.5712 I-0.5117 J1.41
G3 X22.6576 Y15.3881 I0.605 J-1.6716
G3 X22.463 Y15.2509 I1.9966 J-3.0409
G3 X22.0977 Y14.93 I2.6877 J-3.4278
G1 X21.9937 Y14.8246
G2 X21.9907 Y14.8216 I-1.0678 J1.0534
G3 X21.937 Y14.7646 I1.0698 J-1.0613
G2 X21.9245 Y14.7508 I-1.1183 J0.9997
G3 X21.5978 Y14.3672 I5.1099 J-4.683
G3 X21.0269 Y13.557 I7.4291 J-5.8412
G3 X20.1493 Y11.95 I12.9044 J-8.0903
G2 X20.1461 Y11.9433 I-1.3573 J0.6385
G3 X19.5874 Y10.6558 I18.029 J-8.5895
G2 X19.5856 Y10.6515 I-1.3961 J0.5485
G3 X19.4646 Y10.3402 I23.2537 J-9.2189
G2 X19.6144 Y10.4427 I3.8761 J-5.5001
G2 X22.0874 Y11.449 I3.708 J-5.5706
G1 F30.0 X21.866 Y12.6284
G1 Z-1.0
G2 F60.0 X23.3313 Y12.764 I1.4564 J-7.7563
G2 X24.7955 Y12.6271 I-0.0015 J-7.9142
G3 X24.3566 Y13.306 I-8.9844 J-5.3268
G2 X24.3563 Y13.3064 I2.209 J1.5525
G3 X24.1399 Y13.5975 I-5.508 J-3.8694
G2 X24.1323 Y13.6072 I2.1225 J1.6688
G3 X23.748 Y14.0465 I-4.0395 J-3.1462
G2 X23.7396 Y14.0551 I1.9275 J1.8907
G3 X23.4983 Y14.2733 I-1.8164 J-1.7659
G2 X23.4822 Y14.2862 I1.6787 J2.1147
G3 X23.4231 Y14.3307 I-0.7005 J-0.8687
G2 X23.3938 Y14.3515 I1.5519 J2.2095
G3 X23.3295 Y14.3933 I-0.4484 J-0.6207
G3 X23.3148 Y14.384 I0.3001 J-0.4936
G3 X23.1945 Y14.2996 I1.3395 J-2.0368
G3 X22.9449 Y14.0801 I1.9562 J-2.4765
G1 X22.848 Y13.9819
G2 X22.8426 Y13.9764 I-1.9221 J1.8962
G3 X22.8316 Y13.9648 I0.2179 J-0.2162
G2 X22.8092 Y13.94 I-2.013 J1.7994
G3 X22.5401 Y13.6241 I4.2252 J-3.8722
G3 X22.0431 Y12.9188 I6.4868 J-5.0982
G3 X21.866 Y12.6284 I11.8881 J-7.4522
G1 F30.0 X22.0874 Y11.449
G2 F60.0 X23.3305 Y11.564 I1.235 J-6.5769
G2 X27.1947 Y10.34 I-0.0007 J-6.7142
G3 X26.9713 Y10.9043 I-20.7887 J-7.9019
G2 X26.9703 Y10.9069 I1.3871 J0.571
G3 X26.2112 Y12.5484 I-18.8493 J-7.7195
G1 X26.1338 Y12.6947
G1 X25.9697 Y12.9929
G3 X25.3384 Y13.996 I-10.1585 J-5.6926
G2 X25.3382 Y13.9962 I1.2272 J0.8625
G3 X25.0832 Y14.3392 I-6.4899 J-4.5592
G2 X25.079 Y14.3446 I1.1792 J0.9271
G3 X24.6047 Y14.8868 I-4.9862 J-3.8836
G2 X24.6 Y14.8916 I1.0708 J1.0504
G3 X24.2444 Y15.2131 I-2.6768 J-2.6024
G2 X24.2355 Y15.2203 I0.9326 J1.1748
G3 X24.1128 Y15.3127 I-1.4538 J-1.8028
G2 X24.0966 Y15.3242 I0.8622 J1.2275
G3 X23.656 Y15.5636 I-1.1511 J-1.5934
G2 X23.6553 Y15.5639 I0.5422 J1.3986
G3 X23.3294 Y15.6266 I-0.335 J-0.8629
G3 X23.0258 Y15.5716 I0.009 J-0.9165
G2 X23.0246 Y15.5712 I-0.5117 J1.41
G3 X22.6576 Y15.3881 I0.605 J-1.6716
G3 X22.463 Y15.2509 I1.9966 J-3.0409
G3 X22.0977 Y14.93 I2.6877 J-3.4278
G1 X21.9937 Y14.8246
G2 X21.9907 Y14.8216 I-1.0678 J1.0534
G3 X21.937 Y14.7646 I1.0698 J-1.0613
G2 X21.9245 Y14.7508 I-1.1183 J0.9997
G3 X21.5978 Y14.3672 I5.1099 J-4.683
G3 X21.0269 Y13.557 I7.4291 J-5.8412
G3 X20.1493 Y11.95 I12.9044 J-8.0903
G2 X20.1461 Y11.9433 I-1.3573 J0.6385
G3 X19.5874 Y10.6558 I18.029 J-8.5895
G2 X19.5856 Y10.6515 I-1.3961 J0.5485
G3 X19.4646 Y10.3402 I23.2537 J-9.2189
G2 X19.6144 Y10.4427 I3.8761 J-5.5001
G2 X22.0874 Y11.449 I3.708 J-5.5706
G1 F30.0 X21.866 Y12.6284
G1 Z-1.4
G2 F60.0 X23.3313 Y12.764 I1.4564 J-7.7563
G2 X24.7955 Y12.6271 I-0.0015 J-7.9142
G3 X24.3566 Y13.306 I-8.9844 J-5.3268
G2 X24.3563 Y13.3064 I2.209 J1.5525
G3 X24.1399 Y13.5975 I-5.508 J-3.8694
G2 X24.1323 Y13.6072 I2.1225 J1.6688
G3 X23.748 Y14.0465 I-4.0395 J-3.1462
G2 X23.7396 Y14.0551 I1.9275 J1.8907
G3 X23.4983 Y14.2733 I-1.8164 J-1.7659
G2 X23.4822 Y14.2862 I1.6787 J2.1147
G3 X23.4231 Y14.3307 I-0.7005 J-0.8687
G2 X23.3938 Y14.3515 I1.5519 J2.2095
G3 X23.3295 Y14.3933 I-0.4484 J-0.6207
G3 X23.3148 Y14.384 I0.3001 J-0.4936
G3 X23.1945 Y14.2996 I1.3395 J-2.0368
G3 X22.9449 Y14.0801 I1.9562 J-2.4765
G1 X22.848 Y13.9819
G2 X22.8426 Y13.9764 I-1.9221 J1.8962
G3 X22.8316 Y13.9648 I0.2179 J-0.2162
G2 X22.8092 Y13.94 I-2.013 J1.7994
G3 X22.5401 Y13.6241 I4.2252 J-3.8722
G3 X22.0431 Y12.9188 I6.4868 J-5.0982
G3 X21.866 Y12.6284 I11.8881 J-7.4522
G1 F30.0 X22.0874 Y11.449
G2 F60.0 X23.3305 Y11.564 I1.235 J-6.5769
G2 X27.1947 Y10.34 I-0.0007 J-6.7142
G3 X26.9713 Y10.9043 I-20.7887 J-7.9019
G2 X26.9703 Y10.9069 I1.3871 J0.571
G3 X26.2112 Y12.5484 I-18.8493 J-7.7195
G1 X26.1338 Y12.6947
G1 X25.9697 Y12.9929
G3 X25.3384 Y13.996 I-10.1585 J-5.6926
G2 X25.3382 Y13.9962 I1.2272 J0.8625
G3 X25.0832 Y14.3392 I-6.4899 J-4.5592
G2 X25.079 Y14.3446 I1.1792 J0.9271
G3 X24.6047 Y14.8868 I-4.9862 J-3.8836
G2 X24.6 Y14.8916 I1.0708 J1.0504
G3 X24.2444 Y15.2131 I-2.6768 J-2.6024
G2 X24.2355 Y15.2203 I0.9326 J1.1748
G3 X24.1128 Y15.3127 I-1.4538 J-1.8028
G2 X24.0966 Y15.3242 I0.8622 J1.2275
G3 X23.656 Y15.5636 I-1.1511 J-1.5934
G2 X23.6553 Y15.5639 I0.5422 J1.3986
G3 X23.3294 Y15.6266 I-0.335 J-0.8629
G3 X23.0258 Y15.5716 I0.009 J-0.9165
G2 X23.0246 Y15.5712 I-0.5117 J1.41
G3 X22.6576 Y15.3881 I0.605 J-1.6716
G3 X22.463 Y15.2509 I1.9966 J-3.0409
G3 X22.0977 Y14.93 I2.6877 J-3.4278
G1 X21.9937 Y14.8246
G2 X21.9907 Y14.8216 I-1.0678 J1.0534
G3 X21.937 Y14.7646 I1.0698 J-1.0613
G2 X21.9245 Y14.7508 I-1.1183 J0.9997
G3 X21.5978 Y14.3672 I5.1099 J-4.683
G3 X21.0269 Y13.557 I7.4291 J-5.8412
G3 X20.1493 Y11.95 I12.9044 J-8.0903
G2 X20.1461 Y11.9433 I-1.3573 J0.6385
G3 X19.5874 Y10.6558 I18.029 J-8.5895
G2 X19.5856 Y10.6515 I-1.3961 J0.5485
G3 X19.4646 Y10.3402 I23.2537 J-9.2189
G2 X19.6144 Y10.4427 I3.8761 J-5.5001
G2 X22.0874 Y11.449 I3.708 J-5.5706
G0 Z3.0
G0 X38.7552 Y12.6284
G1 F30.0 Z-0.5
G2 F60.0 X40.2205 Y12.764 I1.4564 J-7.7563
G2 X41.6847 Y12.6271 I-0.0015 J-7.9142
G3 X41.2458 Y13.306 I-8.9844 J-5.3268
G2 X41.2455 Y13.3064 I2.209 J1.5525
G3 X41.0291 Y13.5975 I-5.508 J-3.8694
G2 X41.0215 Y13.6072 I2.1225 J1.6688
G3 X40.6372 Y14.0465 I-4.0395 J-3.1462
G2 X40.6288 Y14.0551 I1.9275 J1.8907
G3 X40.3875 Y14.2733 I-1.8164 J-1.7659
G2 X40.3714 Y14.2862 I1.6787 J2.1147
G3 X40.3123 Y14.3307 I-0.7005 J-0.8687
G2 X40.2831 Y14.3515 I1.5519 J2.2095
G3 X40.2187 Y14.3933 I-0.4484 J-0.6207
G3 X40.204 Y14.384 I0.3001 J-0.4936
G3 X40.0838 Y14.2996 I1.3395 J-2.0368
G3 X39.8341 Y14.0801 I1.9562 J-2.4765
G1 X39.7372 Y13.9819
G2 X39.7318 Y13.9764 I-1.9221 J1.8962
G3 X39.7209 Y13.9648 I0.2179 J-0.2162
G2 X39.6984 Y13.94 I-2.013 J1.7994
G3 X39.4293 Y13.6241 I4.2252 J-3.8722
G3 X38.9324 Y12.9188 I6.4868 J-5.0982
G3 X38.7552 Y12.6284 I11.8881 J-7.4522
G1 F30.0 X38.9767 Y11.449
G2 F60.0 X40.2197 Y11.564 I1.235 J-6.5769
G2 X44.0839 Y10.34 I-0.0007 J-6.7142
G3 X43.8606 Y10.9043 I-20.7887 J-7.9019
G2 X43.8595 Y10.9069 I1.3871 J0.571
G3 X43.1005 Y12.5484 I-18.8493 J-7.7195
G1 X43.023 Y12.6947
G1 X42.8589 Y12.9929
G3 X42.2276 Y13.996 I-10.1585 J-5.6926
G2 X42.2275 Y13.9962 I1.2272 J0.8625
G3 X41.9725 Y14.3392 I-6.4899 J-4.5592
G2 X41.9682 Y14.3446 I1.1792 J0.9271
G3 X41.4939 Y14.8868 I-4.9862 J-3.8836
G2 X41.4892 Y14.8916 I1.0708 J1.0504
G3 X41.1336 Y15.2131 I-2.6768 J-2.6024
G2 X41.1247 Y15.2203 I0.9326 J1.1748
G3 X41.002 Y15.3127 I-1.4538 J-1.8028
G2 X40.9858 Y15.3242 I0.8622 J1.2275
G3 X40.5452 Y15.5636 I-1.1511 J-1.5934
G2 X40.5446 Y15.5639 I0.5422 J1.3986
G3 X40.2187 Y15.6266 I-0.335 J-0.8629
G3 X39.915 Y15.5716 I0.009 J-0.9165
G2 X39.9138 Y15.5712 I-0.5117 J1.41
G3 X39.5469 Y15.3881 I0.605 J-1.6716
G3 X39.3522 Y15.2509 I1.9966 J-3.0409
G3 X38.9869 Y14.93 I2.6877 J-3.4278
G1 X38.8829 Y14.8246
G2 X38.8799 Y14.8216 I-1.0678 J1.0534
G3 X38.8262 Y14.7646 I1.0698 J-1.0613
G2 X38.8137 Y14.7508 I-1.1183 J0.9997
G3 X38.487 Y14.3672 I5.1099 J-4.683
G3 X37.9161 Y13.557 I7.4291 J-5.8412
G3 X37.0385 Y11.95 I12.9044 J-8.0903
G2 X37.0354 Y11.9433 I-1.3573 J0.6385
G3 X36.4766 Y10.6558 I18.029 J-8.5895
G2 X36.4749 Y10.6515 I-1.3961 J0.5485
G3 X36.3539 Y10.3402 I23.2537 J-9.2189
G2 X36.5036 Y10.4427 I3.8761 J-5.5001
G2 X38.9767 Y11.449 I3.708 J-5.5706
G1 F30.0 X38.7552 Y12.6284
G1 Z-1.0
G2 F60.0 X40.2205 Y12.764 I1.4564 J-7.7563
G2 X41.6847 Y12.6271 I-0.0015 J-7.9142
G3 X41.2458 Y13.306 I-8.9844 J-5.3268
G2 X41.2455 Y13.3064 I2.209 J1.5525
G3 X41.0291 Y13.5975 I-5.508 J-3.8694
G2 X41.0215 Y13.6072 I2.1225 J1.6688
G3 X40.6372 Y14.0465 I-4.0395 J-3.1462
G2 X40.6288 Y14.0551 I1.9275 J1.8907
G3 X40.3875 Y14.2733 I-1.8164 J-1.7659
G2 X40.3714 Y14.2862 I1.6787 J2.1147
G3 X40.3123 Y14.3307 I-0.7005 J-0.8687
G2 X40.2831 Y14.3515 I1.5519 J2.2095
G3 X40.2187 Y14.3933 I-0.4484 J-0.6207
G3 X40.204 Y14.384 I0.3001 J-0.4936
G3 X40.0838 Y14.2996 I1.3395 J-2.0368
G3 X39.8341 Y14.0801 I1.9562 J-2.4765
G1 X39.7372 Y13.9819
G2 X39.7318 Y13.9764 I-1.9221 J1.8962
G3 X39.7209 Y13.9648 I0.2179 J-0.2162
G2 X39.6984 Y13.94 I-2.013 J1.7994
G3 X39.4293 Y13.6241 I4.2252 J-3.8722
G3 X38.9324 Y12.9188 I6.4868 J-5.0982
G3 X38.7552 Y12.6284 I11.8881 J-7.4522
G1 F30.0 X38.9767 Y11.449
G2 F60.0 X40.2197 Y11.564 I1.235 J-6.5769
G2 X44.0839 Y10.34 I-0.0007 J-6.7142
G3 X43.8606 Y10.9043 I-20.7887 J-7.9019
G2 X43.8595 Y10.9069 I1.3871 J0.571
G3 X43.1005 Y12.5484 I-18.8493 J-7.7195
G1 X43.023 Y12.6947
G1 X42.8589 Y12.9929
G3 X42.2276 Y13.996 I-10.1585 J-5.6926
G2 X42.2275 Y13.9962 I1.2272 J0.8625
G3 X41.9725 Y14.3392 I-6.4899 J-4.5592
G2 X41.9682 Y14.3446 I1.1792 J0.9271
G3 X41.4939 Y14.8868 I-4.9862 J-3.8836
G2 X41.4892 Y14.8916 I1.0708 J1.0504
G3 X41.1336 Y15.2131 I-2.6768 J-2.6024
G2 X41.1247 Y15.2203 I0.9326 J1.1748
G3 X41.002 Y15.3127 I-1.4538 J-1.8028
G2 X40.9858 Y15.3242 I0.8622 J1.2275
G3 X40.5452 Y15.5636 I-1.1511 J-1.5934
G2 X40.5446 Y15.5639 I0.5422 J1.3986
G3 X40.2187 Y15.6266 I-0.335 J-0.8629
G3 X39.915 Y15.5716 I0.009 J-0.9165
G2 X39.9138 Y15.5712 I-0.5117 J1.41
G3 X39.5469 Y15.3881 I0.605 J-1.6716
G3 X39.3522 Y15.2509 I1.9966 J-3.0409
G3 X38.9869 Y14.93 I2.6877 J-3.4278
G1 X38.8829 Y14.8246
G2 X38.8799 Y14.8216 I-1.0678 J1.0534
G3 X38.8262 Y14.7646 I1.0698 J-1.0613
G2 X38.8137 Y14.7508 I-1.1183 J0.9997
G3 X38.487 Y14.3672 I5.1099 J-4.683
G3 X37.9161 Y13.557 I7.4291 J-5.8412
G3 X37.0385 Y11.95 I12.9044 J-8.0903
G2 X37.0354 Y11.9433 I-1.3573 J0.6385
G3 X36.4766 Y10.6558 I18.029 J-8.5895
G2 X36.4749 Y10.6515 I-1.3961 J0.5485
G3 X36.3539 Y10.3402 I23.2537 J-9.2189
G2 X36.5036 Y10.4427 I3.8761 J-5.5001
G2 X38.9767 Y11.449 I3.708 J-5.5706
G1 F30.0 X38.7552 Y12.6284
G1 Z-1.4
G2 F60.0 X40.2205 Y12.764 I1.4564 J-7.7563
G2 X41.6847 Y12.6271 I-0.0015 J-7.9142
G3 X41.2458 Y13.306 I-8.9844 J-5.3268
G2 X41.2455 Y13.3064 I2.209 J1.5525
G3 X41.0291 Y13.5975 I-5.508 J-3.8694
G2 X41.0215 Y13.6072 I2.1225 J1.6688
G3 X40.6372 Y14.0465 I-4.0395 J-3.1462
G2 X40.6288 Y14.0551 I1.9275 J1.8907
G3 X40.3875 Y14.2733 I-1.8164 J-1.7659
G2 X40.3714 Y14.2862 I1.6787 J2.1147
G3 X40.3123 Y14.3307 I-0.7005 J-0.8687
G2 X40.2831 Y14.3515 I1.5519 J2.2095
G3 X40.2187 Y14.3933 I-0.4484 J-0.6207
G3 X40.204 Y14.384 I0.3001 J-0.4936
G3 X40.0838 Y14.2996 I1.3395 J-2.0368
G3 X39.8341 Y14.0801 I1.9562 J-2.4765
G1 X39.7372 Y13.9819
G2 X39.7318 Y13.9764 I-1.9221 J1.8962
G3 X39.7209 Y13.9648 I0.2179 J-0.2162
G2 X39.6984 Y13.94 I-2.013 J1.7994
G3 X39.4293 Y13.6241 I4.2252 J-3.8722
G3 X38.9324 Y12.9188 I6.4868 J-5.0982
G3 X38.7552 Y12.6284 I11.8881 J-7.4522
G1 F30.0 X38.9767 Y11.449
G2 F60.0 X40.2197 Y11.564 I1.235 J-6.5769
G2 X44.0839 Y10.34 I-0.0007 J-6.7142
G3 X43.8606 Y10.9043 I-20.7887 J-7.9019
G2 X43.8595 Y10.9069 I1.3871 J0.571
G3 X43.1005 Y12.5484 I-18.8493 J-7.7195
G1 X43.023 Y12.6947
G1 X42.8589 Y12.9929
G3 X42.2276 Y13.996 I-10.1585 J-5.6926
G2 X42.2275 Y13.9962 I1.2272 J0.8625
G3 X41.9725 Y14.3392 I-6.4899 J-4.5592
G2 X41.9682 Y14.3446 I1.1792 J0.9271
G3 X41.4939 Y14.8868 I-4.9862 J-3.8836
G2 X41.4892 Y14.8916 I1.0708 J1.0504
G3 X41.1336 Y15.2131 I-2.6768 J-2.6024
G2 X41.1247 Y15.2203 I0.9326 J1.1748
G3 X41.002 Y15.3127 I-1.4538 J-1.8028
G2 X40.9858 Y15.3242 I0.8622 J1.2275
G3 X40.5452 Y15.5636 I-1.1511 J-1.5934
G2 X40.5446 Y15.5639 I0.5422 J1.3986
G3 X40.2187 Y15.6266 I-0.335 J-0.8629
G3 X39.915 Y15.5716 I0.009 J-0.9165
G2 X39.9138 Y15.5712 I-0.5117 J1.41
G3 X39.5469 Y15.3881 I0.605 J-1.6716
G3 X39.3522 Y15.2509 I1.9966 J-3.0409
G3 X38.9869 Y14.93 I2.6877 J-3.4278
G1 X38.8829 Y14.8246
G2 X38.8799 Y14.8216 I-1.0678 J1.0534
G3 X38.8262 Y14.7646 I1.0698 J-1.0613
G2 X38.8137 Y14.7508 I-1.1183 J0.9997
G3 X38.487 Y14.3672 I5.1099 J-4.683
G3 X37.9161 Y13.557 I7.4291 J-5.8412
G3 X37.0385 Y11.95 I12.9044 J-8.0903
G2 X37.0354 Y11.9433 I-1.3573 J0.6385
G3 X36.4766 Y10.6558 I18.029 J-8.5895
G2 X36.4749 Y10.6515 I-1.3961 J0.5485
G3 X36.3539 Y10.3402 I23.2537 J-9.2189
G2 X36.5036 Y10.4427 I3.8761 J-5.5001
G2 X38.9767 Y11.449 I3.708 J-5.5706
G0 Z3.0
G0 X55.6444 Y12.6284
G1 F30.0 Z-0.5
G2 F60.0 X57.1098 Y12.764 I1.4564 J-7.7563
G2 X58.574 Y12.6271 I-0.0015 J-7.9142
G3 X58.1351 Y13.306 I-8.9844 J-5.3268
G2 X58.1348 Y13.3064 I2.209 J1.5525
G3 X57.9184 Y13.5975 I-5.508 J-3.8694
G2 X57.9108 Y13.6072 I2.1225 J1.6688
G3 X57.5265 Y14.0465 I-4.0395 J-3.1462
G2 X57.5181 Y14.0551 I1.9275 J1.8907
G3 X57.2768 Y14.2733 I-1.8164 J-1.7659
G2 X57.2606 Y14.2862 I1.6787 J2.1147
G3 X57.2015 Y14.3307 I-0.7005 J-0.8687
G2 X57.1723 Y14.3515 I1.5519 J2.2095
G3 X57.108 Y14.3933 I-0.4484 J-0.6207
G3 X57.0933 Y14.384 I0.3001 J-0.4936
G3 X56.973 Y14.2996 I1.3395 J-2.0368
G3 X56.7233 Y14.0801 I1.9562 J-2.4765
G1 X56.6264 Y13.9819
G2 X56.621 Y13.9764 I-1.9221 J1.8962
G3 X56.6101 Y13.9648 I0.2179 J-0.2162
G2 X56.5877 Y13.94 I-2.013 J1.7994
G3 X56.3185 Y13.6241 I4.2252 J-3.8722
G3 X55.8216 Y12.9188 I6.4868 J-5.0982
G3 X55.6444 Y12.6284 I11.8881 J-7.4522
G1 F30.0 X55.8659 Y11.449
G2 F60.0 X57.109 Y11.564 I1.235 J-6.5769
G2 X60.9731 Y10.34 I-0.0007 J-6.7142
G3 X60.7498 Y10.9043 I-20.7887 J-7.9019
G2 X60.7487 Y10.9069 I1.3871 J0.571
G3 X59.9897 Y12.5484 I-18.8493 J-7.7195
G1 X59.9122 Y12.6947
G1 X59.7481 Y12.9929
G3 X59.1169 Y13.996 I-10.1585 J-5.6926
G2 X59.1167 Y13.9962 I1.2272 J0.8625
G3 X58.8617 Y14.3392 I-6.4899 J-4.5592
G2 X58.8575 Y14.3446 I1.1792 J0.9271
G3 X58.3831 Y14.8868 I-4.9862 J-3.8836
G2 X58.3785 Y14.8916 I1.0708 J1.0504
G3 X58.0229 Y15.2131 I-2.6768 J-2.6024
G2 X58.0139 Y15.2203 I0.9326 J1.1748
G3 X57.8913 Y15.3127 I-1.4538 J-1.8028
G2 X57.875 Y15.3242 I0.8622 J1.2275
G3 X57.4344 Y15.5636 I-1.1511 J-1.5934
G2 X57.4338 Y15.5639 I0.5422 J1.3986
G3 X57.1079 Y15.6266 I-0.335 J-0.8629
G3 X56.8042 Y15.5716 I0.009 J-0.9165
G2 X56.8031 Y15.5712 I-0.5117 J1.41
G3 X56.4361 Y15.3881 I0.605 J-1.6716
G3 X56.2414 Y15.2509 I1.9966 J-3.0409
G3 X55.8761 Y14.93 I2.6877 J-3.4278
G1 X55.7722 Y14.8246
G2 X55.7692 Y14.8216 I-1.0678 J1.0534
G3 X55.7154 Y14.7646 I1.0698 J-1.0613
G2 X55.703 Y14.7508 I-1.1183 J0.9997
G3 X55.3763 Y14.3672 I5.1099 J-4.683
G3 X54.8053 Y13.557 I7.4291 J-5.8412
G3 X53.9278 Y11.95 I12.9044 J-8.0903
G2 X53.9246 Y11.9433 I-1.3573 J0.6385
G3 X53.3658 Y10.6558 I18.029 J-8.5895
G2 X53.3641 Y10.6515 I-1.3961 J0.5485
G3 X53.2431 Y10.3402 I23.2537 J-9.2189
G2 X53.3929 Y10.4427 I3.8761 J-5.5001
G2 X55.8659 Y11.449 I3.708 J-5.5706
G1 F30.0 X55.6444 Y12.6284
G1 Z-1.0
G2 F60.0 X57.1098 Y12.764 I1.4564 J-7.7563
G2 X58.574 Y12.6271 I-0.0015 J-7.9142
G3 X58.1351 Y13.306 I-8.9844 J-5.3268
G2 X58.1348 Y13.3064 I2.209 J1.5525
G3 X57.9184 Y13.5975 I-5.508 J-3.8694
G2 X57.9108 Y13.6072 I2.1225 J1.6688
G3 X57.5265 Y14.0465 I-4.0395 J-3.1462
G2 X57.5181 Y14.0551 I1.9275 J1.8907
G3 X57.2768 Y14.2733 I-1.8164 J-1.7659
G2 X57.2606 Y14.2862 I1.6787 J2.1147
G3 X57.2015 Y14.3307 I-0.7005 J-0.8687
G2 X57.1723 Y14.3515 I1.5519 J2.2095
G3 X57.108 Y14.3933 I-0.4484 J-0.6207
G3 X57.0933 Y14.384 I0.3001 J-0.4936
G3 X56.973 Y14.2996 I1.3395 J-2.0368
G3 X56.7233 Y14.0801 I1.9562 J-2.4765
G1 X56.6264 Y13.9819
G2 X56.621 Y13.9764 I-1.9221 J1.8962
G3 X56.6101 Y13.9648 I0.2179 J-0.2162
G2 X56.5877 Y13.94 I-2.013 J1.7994
G3 X56.3185 Y13.6241 I4.2252 J-3.8722
G3 X55.8216 Y12.9188 I6.4868 J-5.0982
G3 X55.6444 Y12.6284 I11.8881 J-7.4522
G1 F30.0 X55.8659 Y11.449
G2 F60.0 X57.109 Y11.564 I1.235 J-6.5769
G2 X60.9731 Y10.34 I-0.0007 J-6.7142
G3 X60.7498 Y10.9043 I-20.7887 J-7.9019
G2 X60.7487 Y10.9069 I1.3871 J0.571
G3 X59.9897 Y12.5484 I-18.8493 J-7.7195
G1 X59.9122 Y12.6947
G1 X59.7481 Y12.9929
G3 X59.1169 Y13.996 I-10.1585 J-5.6926
G2 X59.1167 Y13.9962 I1.2272 J0.8625
G3 X58.8617 Y14.3392 I-6.4899 J-4.5592
G2 X58.8575 Y14.3446 I1.1792 J0.9271
G3 X58.3831 Y14.8868 I-4.9862 J-3.8836
G2 X58.3785 Y14.8916 I1.0708 J1.0504
G3 X58.0229 Y15.2131 I-2.6768 J-2.6024
G2 X58.0139 Y15.2203 I0.9326 J1.1748
G3 X57.8913 Y15.3127 I-1.4538 J-1.8028
G2 X57.875 Y15.3242 I0.8622 J1.2275
G3 X57.4344 Y15.5636 I-1.1511 J-1.5934
G2 X57.4338 Y15.5639 I0.5422 J1.3986
G3 X57.1079 Y15.6266 I-0.335 J-0.8629
G3 X56.8042 Y15.5716 I0.009 J-0.9165
G2 X56.8031 Y15.5712 I-0.5117 J1.41
G3 X56.4361 Y15.3881 I0.605 J-1.6716
G3 X56.2414 Y15.2509 I1.9966 J-3.0409
G3 X55.8761 Y14.93 I2.6877 J-3.4278
G1 X55.7722 Y14.8246
G2 X55.7692 Y14.8216 I-1.0678 J1.0534
G3 X55.7154 Y14.7646 I1.0698 J-1.0613
G2 X55.703 Y14.7508 I-1.1183 J0.9997
G3 X55.3763 Y14.3672 I5.1099 J-4.683
G3 X54.8053 Y13.557 I7.4291 J-5.8412
G3 X53.9278 Y11.95 I12.9044 J-8.0903
G2 X53.9246 Y11.9433 I-1.3573 J0.6385
G3 X53.3658 Y10.6558 I18.029 J-8.5895
G2 X53.3641 Y10.6515 I-1.3961 J0.5485
G3 X53.2431 Y10.3402 I23.2537 J-9.2189
G2 X53.3929 Y10.4427 I3.8761 J-5.5001
G2 X55.8659 Y11.449 I3.708 J-5.5706
G1 F30.0 X55.6444 Y12.6284
G1 Z-1.4
G2 F60.0 X57.1098 Y12.764 I1.4564 J-7.7563
G2 X58.574 Y12.6271 I-0.0015 J-7.9142
G3 X58.1351 Y13.306 I-8.9844 J-5.3268
G2 X58.1348 Y13.3064 I2.209 J1.5525
G3 X57.9184 Y13.5975 I-5.508 J-3.8694
G2 X57.9108 Y13.6072 I2.1225 J1.6688
G3 X57.5265 Y14.0465 I-4.0395 J-3.1462
G2 X57.5181 Y14.0551 I1.9275 J1.8907
G3 X57.2768 Y14.2733 I-1.8164 J-1.7659
G2 X57.2606 Y14.2862 I1.6787 J2.1147
G3 X57.2015 Y14.3307 I-0.7005 J-0.8687
G2 X57.1723 Y14.3515 I1.5519 J2.2095
G3 X57.108 Y14.3933 I-0.4484 J-0.6207
G3 X57.0933 Y14.384 I0.3001 J-0.4936
G3 X56.973 Y14.2996 I1.3395 J-2.0368
G3 X56.7233 Y14.0801 I1.9562 J-2.4765
G1 X56.6264 Y13.9819
G2 X56.621 Y13.9764 I-1.9221 J1.8962
G3 X56.6101 Y13.9648 I0.2179 J-0.2162
G2 X56.5877 Y13.94 I-2.013 J1.7994
G3 X56.3185 Y13.6241 I4.2252 J-3.8722
G3 X55.8216 Y12.9188 I6.4868 J-5.0982
G3 X55.6444 Y12.6284 I11.8881 J-7.4522
G1 F30.0 X55.8659 Y11.449
G2 F60.0 X57.109 Y11.564 I1.235 J-6.5769
G2 X60.9731 Y10.34 I-0.0007 J-6.7142
G3 X60.7498 Y10.9043 I-20.7887 J-7.9019
G2 X60.7487 Y10.9069 I1.3871 J0.571
G3 X59.9897 Y12.5484 I-18.8493 J-7.7195
G1 X59.9122 Y12.6947
G1 X59.7481 Y12.9929
G3 X59.1169 Y13.996 I-10.1585 J-5.6926
G2 X59.1167 Y13.9962 I1.2272 J0.8625
G3 X58.8617 Y14.3392 I-6.4899 J-4.5592
G2 X58.8575 Y14.3446 I1.1792 J0.9271
G3 X58.3831 Y14.8868 I-4.9862 J-3.8836
G2 X58.3785 Y14.8916 I1.0708 J1.0504
G3 X58.0229 Y15.2131 I-2.6768 J-2.6024
G2 X58.0139 Y15.2203 I0.9326 J1.1748
G3 X57.8913 Y15.3127 I-1.4538 J-1.8028
G2 X57.875 Y15.3242 I0.8622 J1.2275
G3 X57.4344 Y15.5636 I-1.1511 J-1.5934
G2 X57.4338 Y15.5639 I0.5422 J1.3986
G3 X57.1079 Y15.6266 I-0.335 J-0.8629
G3 X56.8042 Y15.5716 I0.009 J-0.9165
G2 X56.8031 Y15.5712 I-0.5117 J1.41
G3 X56.4361 Y15.3881 I0.605 J-1.6716
G3 X56.2414 Y15.2509 I1.9966 J-3.0409
G3 X55.8761 Y14.93 I2.6877 J-3.4278
G1 X55.7722 Y14.8246
G2 X55.7692 Y14.8216 I-1.0678 J1.0534
G3 X55.7154 Y14.7646 I1.0698 J-1.0613
G2 X55.703 Y14.7508 I-1.1183 J0.9997
G3 X55.3763 Y14.3672 I5.1099 J-4.683
G3 X54.8053 Y13.557 I7.4291 J-5.8412
G3 X53.9278 Y11.95 I12.9044 J-8.0903
G2 X53.9246 Y11.9433 I-1.3573 J0.6385
G3 X53.3658 Y10.6558 I18.029 J-8.5895
G2 X53.3641 Y10.6515 I-1.3961 J0.5485
G3 X53.2431 Y10.3402 I23.2537 J-9.2189
G2 X53.3929 Y10.4427 I3.8761 J-5.5001
G2 X55.8659 Y11.449 I3.708 J-5.5706
( Profile1 )
S1000
G0 Z3.0
G0 X12.9723 Y5.0023
G1 F30.0 Z-0.5
G2 F60.0 X11.0683 Y0.4036 I-6.4816 J-0.0099
G2 X6.4725 Y-1.5 I-4.5905 J4.5833
G2 X1.8759 Y0.4041 I-0.0071 J6.483
G2 X-0.0276 Y5.0016 I4.5837 J4.5906
G2 X-0.0275 Y5.0093 I1.5 J-0.0016
G2 X0.019 Y5.8552 I8.6906 J-0.0539
G2 X0.0192 Y5.8576 I1.4919 J-0.1553
G2 X0.0611 Y6.2163 I16.5712 J-1.7517
G2 X0.062 Y6.2233 I1.4879 J-0.19
G2 X0.1735 Y6.9276 I13.9814 J-1.8518
G2 X0.1756 Y6.9391 I1.4752 J-0.2719
G1 X0.2322 Y7.2329
G2 X0.2358 Y7.251 I1.473 J-0.2834
G2 X0.8834 Y9.6613 I20.3556 J-4.1774
G2 X1.5627 Y11.4299 I18.7205 J-6.1759
G2 X2.2152 Y12.7478 I14.0633 J-6.1413
G2 X2.4964 Y13.2276 I10.3313 J-5.7353
G2 X2.5873 Y13.3721 I2.6518 J-1.5662
G2 X2.7031 Y13.5499 I23.8052 J-15.3782
G2 X2.7192 Y13.5738 I1.2538 J-0.8234
G1 X2.8328 Y13.7399
G2 X2.8372 Y13.7463 I1.2378 J-0.8473
G2 X3.4058 Y14.4739 I6.5644 J-4.5433
G2 X3.9299 Y15.0068 I4.4662 J-3.8685
G2 X4.4073 Y15.3887 I3.1706 J-3.4748
G2 X5.3015 Y15.8679 I2.3428 J-3.2971
G2 X6.4673 Y16.086 I1.1768 J-3.0659
G2 X6.4876 Y16.0859 I0.005 J-1.5
G2 X7.8038 Y15.8029 I-0.0342 J-3.3614
G2 X8.7046 Y15.2655 I-1.6839 J-3.8461
G2 X9.3377 Y14.6933 I-3.3382 J-4.3302
G2 X9.8238 Y14.1299 I-4.9556 J-4.7667
G2 X10.5457 Y13.067 I-8.2575 J-6.3845
G2 X10.5476 Y13.0638 I-1.2904 J-0.7648
G2 X11.0564 Y12.1262 I-13.0474 J-7.6886
G2 X11.4463 Y11.2823 I-13.6508 J-6.8185
G2 X12.0146 Y9.8004 I-18.5484 J-7.9625
G2 X12.6537 Y7.5139 I-20.3017 J-6.9077
G2 X12.6539 Y7.5132 I-1.4648 J-0.3232
G2 X12.7737 Y6.9146 I-15.5587 J-3.4247
G1 Y6.9144
G2 X12.9093 Y6.0082 I-15.202 J-2.7378
G2 X12.9723 Y5.0057 I-8.4513 J-1.0347
G2 Y5.0023 I-1.5 J-0.0057
G1 F30.0 Z-1.0
G2 F60.0 X11.0683 Y0.4036 I-6.4816 J-0.0099
G2 X6.4725 Y-1.5 I-4.5905 J4.5833
G2 X1.8759 Y0.4041 I-0.0071 J6.483
G2 X-0.0276 Y5.0016 I4.5837 J4.5906
G2 X-0.0275 Y5.0093 I1.5 J-0.0016
G2 X0.019 Y5.8552 I8.6906 J-0.0539
G2 X0.0192 Y5.8576 I1.4919 J-0.1553
G2 X0.0611 Y6.2163 I16.5712 J-1.7517
G2 X0.062 Y6.2233 I1.4879 J-0.19
G2 X0.1735 Y6.9276 I13.9814 J-1.8518
G2 X0.1756 Y6.9391 I1.4752 J-0.2719
G1 X0.2322 Y7.2329
G2 X0.2358 Y7.251 I1.473 J-0.2834
G2 X0.8834 Y9.6613 I20.3556 J-4.1774
G2 X1.5627 Y11.4299 I18.7205 J-6.1759
G2 X2.2152 Y12.7478 I14.0633 J-6.1413
G2 X2.4964 Y13.2276 I10.3313 J-5.7353
G2 X2.5873 Y13.3721 I2.6518 J-1.5662
G2 X2.7031 Y13.5499 I23.8052 J-15.3782
G2 X2.7192 Y13.5738 I1.2538 J-0.8234
G1 X2.8328 Y13.7399
G2 X2.8372 Y13.7463 I1.2378 J-0.8473
G2 X3.4058 Y14.4739 I6.5644 J-4.5433
G2 X3.9299 Y15.0068 I4.4662 J-3.8685
G2 X4.4073 Y15.3887 I3.1706 J-3.4748
G2 X5.3015 Y15.8679 I2.3428 J-3.2971
G2 X6.4673 Y16.086 I1.1768 J-3.0659
G2 X6.4876 Y16.0859 I0.005 J-1.5
G2 X7.8038 Y15.8029 I-0.0342 J-3.3614
G2 X8.7046 Y15.2655 I-1.6839 J-3.8461
G2 X9.3377 Y14.6933 I-3.3382 J-4.3302
G2 X9.8238 Y14.1299 I-4.9556 J-4.7667
G2 X10.5457 Y13.067 I-8.2575 J-6.3845
G2 X10.5476 Y13.0638 I-1.2904 J-0.7648
G2 X11.0564 Y12.1262 I-13.0474 J-7.6886
G2 X11.4463 Y11.2823 I-13.6508 J-6.8185
G2 X12.0146 Y9.8004 I-18.5484 J-7.9625
G2 X12.6537 Y7.5139 I-20.3017 J-6.9077
G2 X12.6539 Y7.5132 I-1.4648 J-0.3232
G2 X12.7737 Y6.9146 I-15.5587 J-3.4247
G1 Y6.9144
G2 X12.9093 Y6.0082 I-15.202 J-2.7378
G2 X12.9723 Y5.0057 I-8.4513 J-1.0347
G2 Y5.0023 I-1.5 J-0.0057
G1 F30.0 Z-1.5
G2 F60.0 X11.0683 Y0.4036 I-6.4816 J-0.0099
G2 X6.4725 Y-1.5 I-4.5905 J4.5833
G2 X1.8759 Y0.4041 I-0.0071 J6.483
G2 X-0.0276 Y5.0016 I4.5837 J4.5906
G2 X-0.0275 Y5.0093 I1.5 J-0.0016
G2 X0.019 Y5.8552 I8.6906 J-0.0539
G2 X0.0192 Y5.8576 I1.4919 J-0.1553
G2 X0.0611 Y6.2163 I16.5712 J-1.7517
G2 X0.062 Y6.2233 I1.4879 J-0.19
G2 X0.1735 Y6.9276 I13.9814 J-1.8518
G2 X0.1756 Y6.9391 I1.4752 J-0.2719
G1 X0.2322 Y7.2329
G2 X0.2358 Y7.251 I1.473 J-0.2834
G2 X0.8834 Y9.6613 I20.3556 J-4.1774
G2 X1.5627 Y11.4299 I18.7205 J-6.1759
G2 X2.2152 Y12.7478 I14.0633 J-6.1413
G2 X2.4964 Y13.2276 I10.3313 J-5.7353
G2 X2.5873 Y13.3721 I2.6518 J-1.5662
G2 X2.7031 Y13.5499 I23.8052 J-15.3782
G2 X2.7192 Y13.5738 I1.2538 J-0.8234
G1 X2.8328 Y13.7399
G2 X2.8372 Y13.7463 I1.2378 J-0.8473
G2 X3.4058 Y14.4739 I6.5644 J-4.5433
G2 X3.9299 Y15.0068 I4.4662 J-3.8685
G2 X4.4073 Y15.3887 I3.1706 J-3.4748
G2 X5.3015 Y15.8679 I2.3428 J-3.2971
G2 X6.4673 Y16.086 I1.1768 J-3.0659
G2 X6.4876 Y16.0859 I0.005 J-1.5
G2 X7.8038 Y15.8029 I-0.0342 J-3.3614
G2 X8.7046 Y15.2655 I-1.6839 J-3.8461
G2 X9.3377 Y14.6933 I-3.3382 J-4.3302
G2 X9.8238 Y14.1299 I-4.9556 J-4.7667
G2 X10.5457 Y13.067 I-8.2575 J-6.3845
G2 X10.5476 Y13.0638 I-1.2904 J-0.7648
G2 X11.0564 Y12.1262 I-13.0474 J-7.6886
G2 X11.4463 Y11.2823 I-13.6508 J-6.8185
G2 X12.0146 Y9.8004 I-18.5484 J-7.9625
G2 X12.6537 Y7.5139 I-20.3017 J-6.9077
G2 X12.6539 Y7.5132 I-1.4648 J-0.3232
G2 X12.7737 Y6.9146 I-15.5587 J-3.4247
G1 Y6.9144
G2 X12.9093 Y6.0082 I-15.202 J-2.7378
G2 X12.9723 Y5.0057 I-8.4513 J-1.0347
G2 Y5.0023 I-1.5 J-0.0057
G1 F30.0 Z-2.0
G2 F60.0 X11.0683 Y0.4036 I-6.4816 J-0.0099
G2 X6.4725 Y-1.5 I-4.5905 J4.5833
G2 X1.8759 Y0.4041 I-0.0071 J6.483
G2 X-0.0276 Y5.0016 I4.5837 J4.5906
G2 X-0.0275 Y5.0093 I1.5 J-0.0016
G2 X0.019 Y5.8552 I8.6906 J-0.0539
G2 X0.0192 Y5.8576 I1.4919 J-0.1553
G2 X0.0611 Y6.2163 I16.5712 J-1.7517
G2 X0.062 Y6.2233 I1.4879 J-0.19
G2 X0.1735 Y6.9276 I13.9814 J-1.8518
G2 X0.1756 Y6.9391 I1.4752 J-0.2719
G1 X0.2322 Y7.2329
G2 X0.2358 Y7.251 I1.473 J-0.2834
G2 X0.8834 Y9.6613 I20.3556 J-4.1774
G2 X1.5627 Y11.4299 I18.7205 J-6.1759
G2 X2.2152 Y12.7478 I14.0633 J-6.1413
G2 X2.4964 Y13.2276 I10.3313 J-5.7353
G2 X2.5873 Y13.3721 I2.6518 J-1.5662
G2 X2.7031 Y13.5499 I23.8052 J-15.3782
G2 X2.7192 Y13.5738 I1.2538 J-0.8234
G1 X2.8328 Y13.7399
G2 X2.8372 Y13.7463 I1.2378 J-0.8473
G2 X3.4058 Y14.4739 I6.5644 J-4.5433
G2 X3.9299 Y15.0068 I4.4662 J-3.8685
G2 X4.4073 Y15.3887 I3.1706 J-3.4748
G2 X5.3015 Y15.8679 I2.3428 J-3.2971
G2 X6.4673 Y16.086 I1.1768 J-3.0659
G2 X6.4876 Y16.0859 I0.005 J-1.5
G2 X7.8038 Y15.8029 I-0.0342 J-3.3614
G2 X8.7046 Y15.2655 I-1.6839 J-3.8461
G2 X9.3377 Y14.6933 I-3.3382 J-4.3302
G2 X9.8238 Y14.1299 I-4.9556 J-4.7667
G2 X10.5457 Y13.067 I-8.2575 J-6.3845
G2 X10.5476 Y13.0638 I-1.2904 J-0.7648
G2 X11.0564 Y12.1262 I-13.0474 J-7.6886
G2 X11.4463 Y11.2823 I-13.6508 J-6.8185
G2 X12.0146 Y9.8004 I-18.5484 J-7.9625
G2 X12.6537 Y7.5139 I-20.3017 J-6.9077
G2 X12.6539 Y7.5132 I-1.4648 J-0.3232
G2 X12.7737 Y6.9146 I-15.5587 J-3.4247
G1 Y6.9144
G2 X12.9093 Y6.0082 I-15.202 J-2.7378
G2 X12.9723 Y5.0057 I-8.4513 J-1.0347
G2 Y5.0023 I-1.5 J-0.0057
G1 F30.0 Z-2.5
G2 F60.0 X11.0683 Y0.4036 I-6.4816 J-0.0099
G2 X6.4725 Y-1.5 I-4.5905 J4.5833
G2 X1.8759 Y0.4041 I-0.0071 J6.483
G2 X-0.0276 Y5.0016 I4.5837 J4.5906
G2 X-0.0275 Y5.0093 I1.5 J-0.0016
G2 X0.019 Y5.8552 I8.6906 J-0.0539
G2 X0.0192 Y5.8576 I1.4919 J-0.1553
G2 X0.0611 Y6.2163 I16.5712 J-1.7517
G2 X0.062 Y6.2233 I1.4879 J-0.19
G2 X0.1735 Y6.9276 I13.9814 J-1.8518
G2 X0.1756 Y6.9391 I1.4752 J-0.2719
G1 X0.2322 Y7.2329
G2 X0.2358 Y7.251 I1.473 J-0.2834
G2 X0.8834 Y9.6613 I20.3556 J-4.1774
G2 X1.5627 Y11.4299 I18.7205 J-6.1759
G2 X2.2152 Y12.7478 I14.0633 J-6.1413
G2 X2.4964 Y13.2276 I10.3313 J-5.7353
G2 X2.5873 Y13.3721 I2.6518 J-1.5662
G2 X2.7031 Y13.5499 I23.8052 J-15.3782
G2 X2.7192 Y13.5738 I1.2538 J-0.8234
G1 X2.8328 Y13.7399
G2 X2.8372 Y13.7463 I1.2378 J-0.8473
G2 X3.4058 Y14.4739 I6.5644 J-4.5433
G2 X3.9299 Y15.0068 I4.4662 J-3.8685
G2 X4.4073 Y15.3887 I3.1706 J-3.4748
G2 X5.3015 Y15.8679 I2.3428 J-3.2971
G2 X6.4673 Y16.086 I1.1768 J-3.0659
G2 X6.4876 Y16.0859 I0.005 J-1.5
G2 X7.8038 Y15.8029 I-0.0342 J-3.3614
G2 X8.7046 Y15.2655 I-1.6839 J-3.8461
G2 X9.3377 Y14.6933 I-3.3382 J-4.3302
G2 X9.8238 Y14.1299 I-4.9556 J-4.7667
G2 X10.5457 Y13.067 I-8.2575 J-6.3845
G2 X10.5476 Y13.0638 I-1.2904 J-0.7648
G2 X11.0564 Y12.1262 I-13.0474 J-7.6886
G2 X11.4463 Y11.2823 I-13.6508 J-6.8185
G2 X12.0146 Y9.8004 I-18.5484 J-7.9625
G2 X12.6537 Y7.5139 I-20.3017 J-6.9077
G2 X12.6539 Y7.5132 I-1.4648 J-0.3232
G2 X12.7737 Y6.9146 I-15.5587 J-3.4247
G1 Y6.9144
G2 X12.9093 Y6.0082 I-15.202 J-2.7378
G2 X12.9723 Y5.0057 I-8.4513 J-1.0347
G2 Y5.0023 I-1.5 J-0.0057
G1 F30.0 Z-3.0
G2 F60.0 X11.0683 Y0.4036 I-6.4816 J-0.0099
G2 X6.4725 Y-1.5 I-4.5905 J4.5833
G2 X1.8759 Y0.4041 I-0.0071 J6.483
G2 X-0.0276 Y5.0016 I4.5837 J4.5906
G2 X-0.0275 Y5.0093 I1.5 J-0.0016
G2 X0.019 Y5.8552 I8.6906 J-0.0539
G2 X0.0192 Y5.8576 I1.4919 J-0.1553
G2 X0.0611 Y6.2163 I16.5712 J-1.7517
G2 X0.062 Y6.2233 I1.4879 J-0.19
G2 X0.1735 Y6.9276 I13.9814 J-1.8518
G2 X0.1756 Y6.9391 I1.4752 J-0.2719
G1 X0.2322 Y7.2329
G2 X0.2358 Y7.251 I1.473 J-0.2834
G2 X0.8834 Y9.6613 I20.3556 J-4.1774
G2 X1.5627 Y11.4299 I18.7205 J-6.1759
G2 X2.2152 Y12.7478 I14.0633 J-6.1413
G2 X2.4964 Y13.2276 I10.3313 J-5.7353
G2 X2.5873 Y13.3721 I2.6518 J-1.5662
G2 X2.7031 Y13.5499 I23.8052 J-15.3782
G2 X2.7192 Y13.5738 I1.2538 J-0.8234
G1 X2.8328 Y13.7399
G2 X2.8372 Y13.7463 I1.2378 J-0.8473
G2 X3.4058 Y14.4739 I6.5644 J-4.5433
G2 X3.9299 Y15.0068 I4.4662 J-3.8685
G2 X4.4073 Y15.3887 I3.1706 J-3.4748
G2 X5.3015 Y15.8679 I2.3428 J-3.2971
G2 X6.4673 Y16.086 I1.1768 J-3.0659
G2 X6.4876 Y16.0859 I0.005 J-1.5
G2 X7.8038 Y15.8029 I-0.0342 J-3.3614
G2 X8.7046 Y15.2655 I-1.6839 J-3.8461
G2 X9.3377 Y14.6933 I-3.3382 J-4.3302
G2 X9.8238 Y14.1299 I-4.9556 J-4.7667
G2 X10.5457 Y13.067 I-8.2575 J-6.3845
G2 X10.5476 Y13.0638 I-1.2904 J-0.7648
G2 X11.0564 Y12.1262 I-13.0474 J-7.6886
G2 X11.4463 Y11.2823 I-13.6508 J-6.8185
G2 X12.0146 Y9.8004 I-18.5484 J-7.9625
G2 X12.6537 Y7.5139 I-20.3017 J-6.9077
G2 X12.6539 Y7.5132 I-1.4648 J-0.3232
G2 X12.7737 Y6.9146 I-15.5587 J-3.4247
G1 Y6.9144
G2 X12.9093 Y6.0082 I-15.202 J-2.7378
G2 X12.9723 Y5.0057 I-8.4513 J-1.0347
G2 Y5.0023 I-1.5 J-0.0057
G1 F30.0 Z-3.5
G2 F60.0 X11.0683 Y0.4036 I-6.4816 J-0.0099
G2 X6.4725 Y-1.5 I-4.5905 J4.5833
G2 X1.8759 Y0.4041 I-0.0071 J6.483
G2 X-0.0276 Y5.0016 I4.5837 J4.5906
G2 X-0.0275 Y5.0093 I1.5 J-0.0016
G2 X0.019 Y5.8552 I8.6906 J-0.0539
G2 X0.0192 Y5.8576 I1.4919 J-0.1553
G2 X0.0611 Y6.2163 I16.5712 J-1.7517
G2 X0.062 Y6.2233 I1.4879 J-0.19
G2 X0.1735 Y6.9276 I13.9814 J-1.8518
G2 X0.1756 Y6.9391 I1.4752 J-0.2719
G1 X0.2322 Y7.2329
G2 X0.2358 Y7.251 I1.473 J-0.2834
G2 X0.8834 Y9.6613 I20.3556 J-4.1774
G2 X1.5627 Y11.4299 I18.7205 J-6.1759
G2 X2.2152 Y12.7478 I14.0633 J-6.1413
G2 X2.4964 Y13.2276 I10.3313 J-5.7353
G2 X2.5873 Y13.3721 I2.6518 J-1.5662
G2 X2.7031 Y13.5499 I23.8052 J-15.3782
G2 X2.7192 Y13.5738 I1.2538 J-0.8234
G1 X2.8328 Y13.7399
G2 X2.8372 Y13.7463 I1.2378 J-0.8473
G2 X3.4058 Y14.4739 I6.5644 J-4.5433
G2 X3.9299 Y15.0068 I4.4662 J-3.8685
G2 X4.4073 Y15.3887 I3.1706 J-3.4748
G2 X5.3015 Y15.8679 I2.3428 J-3.2971
G2 X6.4673 Y16.086 I1.1768 J-3.0659
G2 X6.4876 Y16.0859 I0.005 J-1.5
G2 X7.8038 Y15.8029 I-0.0342 J-3.3614
G2 X8.7046 Y15.2655 I-1.6839 J-3.8461
G2 X9.3377 Y14.6933 I-3.3382 J-4.3302
G2 X9.8238 Y14.1299 I-4.9556 J-4.7667
G2 X10.5457 Y13.067 I-8.2575 J-6.3845
G2 X10.5476 Y13.0638 I-1.2904 J-0.7648
G2 X11.0564 Y12.1262 I-13.0474 J-7.6886
G2 X11.4463 Y11.2823 I-13.6508 J-6.8185
G2 X12.0146 Y9.8004 I-18.5484 J-7.9625
G2 X12.6537 Y7.5139 I-20.3017 J-6.9077
G2 X12.6539 Y7.5132 I-1.4648 J-0.3232
G2 X12.7737 Y6.9146 I-15.5587 J-3.4247
G1 Y6.9144
G2 X12.9093 Y6.0082 I-15.202 J-2.7378
G2 X12.9723 Y5.0057 I-8.4513 J-1.0347
G2 Y5.0023 I-1.5 J-0.0057
G0 Z3.0
G0 X16.8617 Y4.9995
G1 F30.0 Z-0.5
G2 F60.0 Y5.0016 I6.4873 J-0.0047
G2 Y5.0093 I1.5 J-0.0016
G2 X16.9082 Y5.8552 I8.6906 J-0.0539
G2 X16.9085 Y5.8576 I1.4919 J-0.1553
G2 X16.9503 Y6.2163 I16.5712 J-1.7517
G2 X16.9512 Y6.2233 I1.4879 J-0.19
G2 X17.0627 Y6.9276 I13.9814 J-1.8518
G2 X17.0649 Y6.9391 I1.4752 J-0.2719
G1 X17.1214 Y7.2329
G2 X17.125 Y7.251 I1.473 J-0.2834
G2 X17.7727 Y9.6613 I20.3556 J-4.1774
G2 X18.452 Y11.4299 I18.7205 J-6.1759
G2 X19.1044 Y12.7478 I14.0633 J-6.1413
G2 X19.3857 Y13.2276 I10.3313 J-5.7353
G2 X19.4765 Y13.3721 I2.6518 J-1.5662
G2 X19.5924 Y13.5499 I23.8052 J-15.3782
G2 X19.6084 Y13.5738 I1.2538 J-0.8234
G1 X19.7221 Y13.7399
G2 X19.7265 Y13.7463 I1.2378 J-0.8473
G2 X20.295 Y14.4739 I6.5644 J-4.5433
G2 X20.8191 Y15.0068 I4.4662 J-3.8685
G2 X21.2966 Y15.3887 I3.1706 J-3.4748
G2 X22.1907 Y15.8679 I2.3428 J-3.2971
G2 X23.3565 Y16.086 I1.1768 J-3.0659
G2 X23.3768 Y16.0859 I0.005 J-1.5
G2 X24.693 Y15.8029 I-0.0342 J-3.3614
G2 X25.5938 Y15.2655 I-1.6839 J-3.8461
G2 X26.227 Y14.6933 I-3.3382 J-4.3302
G2 X26.713 Y14.1299 I-4.9556 J-4.7667
G2 X27.4349 Y13.067 I-8.2575 J-6.3845
G2 X27.4368 Y13.0638 I-1.2904 J-0.7648
G2 X27.9457 Y12.1262 I-13.0474 J-7.6886
G2 X28.3355 Y11.2823 I-13.6508 J-6.8185
G2 X28.9038 Y9.8004 I-18.5484 J-7.9625
G2 X29.5429 Y7.5139 I-20.3017 J-6.9077
G2 X29.5431 Y7.5132 I-1.4648 J-0.3232
G2 X29.6629 Y6.9146 I-15.5587 J-3.4247
G1 Y6.9144
G2 X29.7985 Y6.0082 I-15.202 J-2.7378
G2 X29.8616 Y5.0057 I-8.4513 J-1.0347
G2 Y5.0023 I-1.5 J-0.0057
G2 X27.9575 Y0.4036 I-6.4816 J-0.0099
G2 X23.3618 Y-1.5 I-4.5905 J4.5833
G2 X18.7652 Y0.4041 I-0.0071 J6.483
G2 X16.8617 Y4.9995 I4.5837 J4.5906
G1 F30.0 Z-1.0
G2 F60.0 Y5.0016 I6.4873 J-0.0047
G2 Y5.0093 I1.5 J-0.0016
G2 X16.9082 Y5.8552 I8.6906 J-0.0539
G2 X16.9085 Y5.8576 I1.4919 J-0.1553
G2 X16.9503 Y6.2163 I16.5712 J-1.7517
G2 X16.9512 Y6.2233 I1.4879 J-0.19
G2 X17.0627 Y6.9276 I13.9814 J-1.8518
G2 X17.0649 Y6.9391 I1.4752 J-0.2719
G1 X17.1214 Y7.2329
G2 X17.125 Y7.251 I1.473 J-0.2834
G2 X17.7727 Y9.6613 I20.3556 J-4.1774
G2 X18.452 Y11.4299 I18.7205 J-6.1759
G2 X19.1044 Y12.7478 I14.0633 J-6.1413
G2 X19.3857 Y13.2276 I10.3313 J-5.7353
G2 X19.4765 Y13.3721 I2.6518 J-1.5662
G2 X19.5924 Y13.5499 I23.8052 J-15.3782
G2 X19.6084 Y13.5738 I1.2538 J-0.8234
G1 X19.7221 Y13.7399
G2 X19.7265 Y13.7463 I1.2378 J-0.8473
G2 X20.295 Y14.4739 I6.5644 J-4.5433
G2 X20.8191 Y15.0068 I4.4662 J-3.8685
G2 X21.2966 Y15.3887 I3.1706 J-3.4748
G2 X22.1907 Y15.8679 I2.3428 J-3.2971
G2 X23.3565 Y16.086 I1.1768 J-3.0659
G2 X23.3768 Y16.0859 I0.005 J-1.5
G2 X24.693 Y15.8029 I-0.0342 J-3.3614
G2 X25.5938 Y15.2655 I-1.6839 J-3.8461
G2 X26.227 Y14.6933 I-3.3382 J-4.3302
G2 X26.713 Y14.1299 I-4.9556 J-4.7667
G2 X27.4349 Y13.067 I-8.2575 J-6.3845
G2 X27.4368 Y13.0638 I-1.2904 J-0.7648
G2 X27.9457 Y12.1262 I-13.0474 J-7.6886
G2 X28.3355 Y11.2823 I-13.6508 J-6.8185
G2 X28.9038 Y9.8004 I-18.5484 J-7.9625
G2 X29.5429 Y7.5139 I-20.3017 J-6.9077
G2 X29.5431 Y7.5132 I-1.4648 J-0.3232
G2 X29.6629 Y6.9146 I-15.5587 J-3.4247
G1 Y6.9144
G2 X29.7985 Y6.0082 I-15.202 J-2.7378
G2 X29.8616 Y5.0057 I-8.4513 J-1.0347
G2 Y5.0023 I-1.5 J-0.0057
G2 X27.9575 Y0.4036 I-6.4816 J-0.0099
G2 X23.3618 Y-1.5 I-4.5905 J4.5833
G2 X18.7652 Y0.4041 I-0.0071 J6.483
G2 X16.8617 Y4.9995 I4.5837 J4.5906
G1 F30.0 Z-1.5
G2 F60.0 Y5.0016 I6.4873 J-0.0047
G2 Y5.0093 I1.5 J-0.0016
G2 X16.9082 Y5.8552 I8.6906 J-0.0539
G2 X16.9085 Y5.8576 I1.4919 J-0.1553
G2 X16.9503 Y6.2163 I16.5712 J-1.7517
G2 X16.9512 Y6.2233 I1.4879 J-0.19
G2 X17.0627 Y6.9276 I13.9814 J-1.8518
G2 X17.0649 Y6.9391 I1.4752 J-0.2719
G1 X17.1214 Y7.2329
G2 X17.125 Y7.251 I1.473 J-0.2834
G2 X17.7727 Y9.6613 I20.3556 J-4.1774
G2 X18.452 Y11.4299 I18.7205 J-6.1759
G2 X19.1044 Y12.7478 I14.0633 J-6.1413
G2 X19.3857 Y13.2276 I10.3313 J-5.7353
G2 X19.4765 Y13.3721 I2.6518 J-1.5662
G2 X19.5924 Y13.5499 I23.8052 J-15.3782
G2 X19.6084 Y13.5738 I1.2538 J-0.8234
G1 X19.7221 Y13.7399
G2 X19.7265 Y13.7463 I1.2378 J-0.8473
G2 X20.295 Y14.4739 I6.5644 J-4.5433
G2 X20.8191 Y15.0068 I4.4662 J-3.8685
G2 X21.2966 Y15.3887 I3.1706 J-3.4748
G2 X22.1907 Y15.8679 I2.3428 J-3.2971
G2 X23.3565 Y16.086 I1.1768 J-3.0659
G2 X23.3768 Y16.0859 I0.005 J-1.5
G2 X24.693 Y15.8029 I-0.0342 J-3.3614
G2 X25.5938 Y15.2655 I-1.6839 J-3.8461
G2 X26.227 Y14.6933 I-3.3382 J-4.3302
G2 X26.713 Y14.1299 I-4.9556 J-4.7667
G2 X27.4349 Y13.067 I-8.2575 J-6.3845
G2 X27.4368 Y13.0638 I-1.2904 J-0.7648
G2 X27.9457 Y12.1262 I-13.0474 J-7.6886
G2 X28.3355 Y11.2823 I-13.6508 J-6.8185
G2 X28.9038 Y9.8004 I-18.5484 J-7.9625
G2 X29.5429 Y7.5139 I-20.3017 J-6.9077
G2 X29.5431 Y7.5132 I-1.4648 J-0.3232
G2 X29.6629 Y6.9146 I-15.5587 J-3.4247
G1 Y6.9144
G2 X29.7985 Y6.0082 I-15.202 J-2.7378
G2 X29.8616 Y5.0057 I-8.4513 J-1.0347
G2 Y5.0023 I-1.5 J-0.0057
G2 X27.9575 Y0.4036 I-6.4816 J-0.0099
G2 X23.3618 Y-1.5 I-4.5905 J4.5833
G2 X18.7652 Y0.4041 I-0.0071 J6.483
G2 X16.8617 Y4.9995 I4.5837 J4.5906
G1 F30.0 Z-2.0
G2 F60.0 Y5.0016 I6.4873 J-0.0047
G2 Y5.0093 I1.5 J-0.0016
G2 X16.9082 Y5.8552 I8.6906 J-0.0539
G2 X16.9085 Y5.8576 I1.4919 J-0.1553
G2 X16.9503 Y6.2163 I16.5712 J-1.7517
G2 X16.9512 Y6.2233 I1.4879 J-0.19
G2 X17.0627 Y6.9276 I13.9814 J-1.8518
G2 X17.0649 Y6.9391 I1.4752 J-0.2719
G1 X17.1214 Y7.2329
G2 X17.125 Y7.251 I1.473 J-0.2834
G2 X17.7727 Y9.6613 I20.3556 J-4.1774
G2 X18.452 Y11.4299 I18.7205 J-6.1759
G2 X19.1044 Y12.7478 I14.0633 J-6.1413
G2 X19.3857 Y13.2276 I10.3313 J-5.7353
G2 X19.4765 Y13.3721 I2.6518 J-1.5662
G2 X19.5924 Y13.5499 I23.8052 J-15.3782
G2 X19.6084 Y13.5738 I1.2538 J-0.8234
G1 X19.7221 Y13.7399
G2 X19.7265 Y13.7463 I1.2378 J-0.8473
G2 X20.295 Y14.4739 I6.5644 J-4.5433
G2 X20.8191 Y15.0068 I4.4662 J-3.8685
G2 X21.2966 Y15.3887 I3.1706 J-3.4748
G2 X22.1907 Y15.8679 I2.3428 J-3.2971
G2 X23.3565 Y16.086 I1.1768 J-3.0659
G2 X23.3768 Y16.0859 I0.005 J-1.5
G2 X24.693 Y15.8029 I-0.0342 J-3.3614
G2 X25.5938 Y15.2655 I-1.6839 J-3.8461
G2 X26.227 Y14.6933 I-3.3382 J-4.3302
G2 X26.713 Y14.1299 I-4.9556 J-4.7667
G2 X27.4349 Y13.067 I-8.2575 J-6.3845
G2 X27.4368 Y13.0638 I-1.2904 J-0.7648
G2 X27.9457 Y12.1262 I-13.0474 J-7.6886
G2 X28.3355 Y11.2823 I-13.6508 J-6.8185
G2 X28.9038 Y9.8004 I-18.5484 J-7.9625
G2 X29.5429 Y7.5139 I-20.3017 J-6.9077
G2 X29.5431 Y7.5132 I-1.4648 J-0.3232
G2 X29.6629 Y6.9146 I-15.5587 J-3.4247
G1 Y6.9144
G2 X29.7985 Y6.0082 I-15.202 J-2.7378
G2 X29.8616 Y5.0057 I-8.4513 J-1.0347
G2 Y5.0023 I-1.5 J-0.0057
G2 X27.9575 Y0.4036 I-6.4816 J-0.0099
G2 X23.3618 Y-1.5 I-4.5905 J4.5833
G2 X18.7652 Y0.4041 I-0.0071 J6.483
G2 X16.8617 Y4.9995 I4.5837 J4.5906
G1 F30.0 Z-2.5
G2 F60.0 Y5.0016 I6.4873 J-0.0047
G2 Y5.0093 I1.5 J-0.0016
G2 X16.9082 Y5.8552 I8.6906 J-0.0539
G2 X16.9085 Y5.8576 I1.4919 J-0.1553
G2 X16.9503 Y6.2163 I16.5712 J-1.7517
G2 X16.9512 Y6.2233 I1.4879 J-0.19
G2 X17.0627 Y6.9276 I13.9814 J-1.8518
G2 X17.0649 Y6.9391 I1.4752 J-0.2719
G1 X17.1214 Y7.2329
G2 X17.125 Y7.251 I1.473 J-0.2834
G2 X17.7727 Y9.6613 I20.3556 J-4.1774
G2 X18.452 Y11.4299 I18.7205 J-6.1759
G2 X19.1044 Y12.7478 I14.0633 J-6.1413
G2 X19.3857 Y13.2276 I10.3313 J-5.7353
G2 X19.4765 Y13.3721 I2.6518 J-1.5662
G2 X19.5924 Y13.5499 I23.8052 J-15.3782
G2 X19.6084 Y13.5738 I1.2538 J-0.8234
G1 X19.7221 Y13.7399
G2 X19.7265 Y13.7463 I1.2378 J-0.8473
G2 X20.295 Y14.4739 I6.5644 J-4.5433
G2 X20.8191 Y15.0068 I4.4662 J-3.8685
G2 X21.2966 Y15.3887 I3.1706 J-3.4748
G2 X22.1907 Y15.8679 I2.3428 J-3.2971
G2 X23.3565 Y16.086 I1.1768 J-3.0659
G2 X23.3768 Y16.0859 I0.005 J-1.5
G2 X24.693 Y15.8029 I-0.0342 J-3.3614
G2 X25.5938 Y15.2655 I-1.6839 J-3.8461
G2 X26.227 Y14.6933 I-3.3382 J-4.3302
G2 X26.713 Y14.1299 I-4.9556 J-4.7667
G2 X27.4349 Y13.067 I-8.2575 J-6.3845
G2 X27.4368 Y13.0638 I-1.2904 J-0.7648
G2 X27.9457 Y12.1262 I-13.0474 J-7.6886
G2 X28.3355 Y11.2823 I-13.6508 J-6.8185
G2 X28.9038 Y9.8004 I-18.5484 J-7.9625
G2 X29.5429 Y7.5139 I-20.3017 J-6.9077
G2 X29.5431 Y7.5132 I-1.4648 J-0.3232
G2 X29.6629 Y6.9146 I-15.5587 J-3.4247
G1 Y6.9144
G2 X29.7985 Y6.0082 I-15.202 J-2.7378
G2 X29.8616 Y5.0057 I-8.4513 J-1.0347
G2 Y5.0023 I-1.5 J-0.0057
G2 X27.9575 Y0.4036 I-6.4816 J-0.0099
G2 X23.3618 Y-1.5 I-4.5905 J4.5833
G2 X18.7652 Y0.4041 I-0.0071 J6.483
G2 X16.8617 Y4.9995 I4.5837 J4.5906
G1 F30.0 Z-3.0
G2 F60.0 Y5.0016 I6.4873 J-0.0047
G2 Y5.0093 I1.5 J-0.0016
G2 X16.9082 Y5.8552 I8.6906 J-0.0539
G2 X16.9085 Y5.8576 I1.4919 J-0.1553
G2 X16.9503 Y6.2163 I16.5712 J-1.7517
G2 X16.9512 Y6.2233 I1.4879 J-0.19
G2 X17.0627 Y6.9276 I13.9814 J-1.8518
G2 X17.0649 Y6.9391 I1.4752 J-0.2719
G1 X17.1214 Y7.2329
G2 X17.125 Y7.251 I1.473 J-0.2834
G2 X17.7727 Y9.6613 I20.3556 J-4.1774
G2 X18.452 Y11.4299 I18.7205 J-6.1759
G2 X19.1044 Y12.7478 I14.0633 J-6.1413
G2 X19.3857 Y13.2276 I10.3313 J-5.7353
G2 X19.4765 Y13.3721 I2.6518 J-1.5662
G2 X19.5924 Y13.5499 I23.8052 J-15.3782
G2 X19.6084 Y13.5738 I1.2538 J-0.8234
G1 X19.7221 Y13.7399
G2 X19.7265 Y13.7463 I1.2378 J-0.8473
G2 X20.295 Y14.4739 I6.5644 J-4.5433
G2 X20.8191 Y15.0068 I4.4662 J-3.8685
G2 X21.2966 Y15.3887 I3.1706 J-3.4748
G2 X22.1907 Y15.8679 I2.3428 J-3.2971
G2 X23.3565 Y16.086 I1.1768 J-3.0659
G2 X23.3768 Y16.0859 I0.005 J-1.5
G2 X24.693 Y15.8029 I-0.0342 J-3.3614
G2 X25.5938 Y15.2655 I-1.6839 J-3.8461
G2 X26.227 Y14.6933 I-3.3382 J-4.3302
G2 X26.713 Y14.1299 I-4.9556 J-4.7667
G2 X27.4349 Y13.067 I-8.2575 J-6.3845
G2 X27.4368 Y13.0638 I-1.2904 J-0.7648
G2 X27.9457 Y12.1262 I-13.0474 J-7.6886
G2 X28.3355 Y11.2823 I-13.6508 J-6.8185
G2 X28.9038 Y9.8004 I-18.5484 J-7.9625
G2 X29.5429 Y7.5139 I-20.3017 J-6.9077
G2 X29.5431 Y7.5132 I-1.4648 J-0.3232
G2 X29.6629 Y6.9146 I-15.5587 J-3.4247
G1 Y6.9144
G2 X29.7985 Y6.0082 I-15.202 J-2.7378
G2 X29.8616 Y5.0057 I-8.4513 J-1.0347
G2 Y5.0023 I-1.5 J-0.0057
G2 X27.9575 Y0.4036 I-6.4816 J-0.0099
G2 X23.3618 Y-1.5 I-4.5905 J4.5833
G2 X18.7652 Y0.4041 I-0.0071 J6.483
G2 X16.8617 Y4.9995 I4.5837 J4.5906
G1 F30.0 Z-3.5
G2 F60.0 Y5.0016 I6.4873 J-0.0047
G2 Y5.0093 I1.5 J-0.0016
G2 X16.9082 Y5.8552 I8.6906 J-0.0539
G2 X16.9085 Y5.8576 I1.4919 J-0.1553
G2 X16.9503 Y6.2163 I16.5712 J-1.7517
G2 X16.9512 Y6.2233 I1.4879 J-0.19
G2 X17.0627 Y6.9276 I13.9814 J-1.8518
G2 X17.0649 Y6.9391 I1.4752 J-0.2719
G1 X17.1214 Y7.2329
G2 X17.125 Y7.251 I1.473 J-0.2834
G2 X17.7727 Y9.6613 I20.3556 J-4.1774
G2 X18.452 Y11.4299 I18.7205 J-6.1759
G2 X19.1044 Y12.7478 I14.0633 J-6.1413
G2 X19.3857 Y13.2276 I10.3313 J-5.7353
G2 X19.4765 Y13.3721 I2.6518 J-1.5662
G2 X19.5924 Y13.5499 I23.8052 J-15.3782
G2 X19.6084 Y13.5738 I1.2538 J-0.8234
G1 X19.7221 Y13.7399
G2 X19.7265 Y13.7463 I1.2378 J-0.8473
G2 X20.295 Y14.4739 I6.5644 J-4.5433
G2 X20.8191 Y15.0068 I4.4662 J-3.8685
G2 X21.2966 Y15.3887 I3.1706 J-3.4748
G2 X22.1907 Y15.8679 I2.3428 J-3.2971
G2 X23.3565 Y16.086 I1.1768 J-3.0659
G2 X23.3768 Y16.0859 I0.005 J-1.5
G2 X24.693 Y15.8029 I-0.0342 J-3.3614
G2 X25.5938 Y15.2655 I-1.6839 J-3.8461
G2 X26.227 Y14.6933 I-3.3382 J-4.3302
G2 X26.713 Y14.1299 I-4.9556 J-4.7667
G2 X27.4349 Y13.067 I-8.2575 J-6.3845
G2 X27.4368 Y13.0638 I-1.2904 J-0.7648
G2 X27.9457 Y12.1262 I-13.0474 J-7.6886
G2 X28.3355 Y11.2823 I-13.6508 J-6.8185
G2 X28.9038 Y9.8004 I-18.5484 J-7.9625
G2 X29.5429 Y7.5139 I-20.3017 J-6.9077
G2 X29.5431 Y7.5132 I-1.4648 J-0.3232
G2 X29.6629 Y6.9146 I-15.5587 J-3.4247
G1 Y6.9144
G2 X29.7985 Y6.0082 I-15.202 J-2.7378
G2 X29.8616 Y5.0057 I-8.4513 J-1.0347
G2 Y5.0023 I-1.5 J-0.0057
G2 X27.9575 Y0.4036 I-6.4816 J-0.0099
G2 X23.3618 Y-1.5 I-4.5905 J4.5833
G2 X18.7652 Y0.4041 I-0.0071 J6.483
G2 X16.8617 Y4.9995 I4.5837 J4.5906
G0 Z3.0
G0 X33.7509 Y4.9961
G1 F30.0 Z-0.5
G2 F60.0 Y5.0016 I6.4873 J-0.0013
G2 Y5.0093 I1.5 J-0.0016
G2 X33.7975 Y5.8552 I8.6906 J-0.0539
G2 X33.7977 Y5.8576 I1.4919 J-0.1553
G2 X33.8396 Y6.2163 I16.5712 J-1.7517
G2 X33.8405 Y6.2233 I1.4879 J-0.19
G2 X33.952 Y6.9276 I13.9814 J-1.8518
G2 X33.9541 Y6.9391 I1.4752 J-0.2719
G1 X34.0106 Y7.2329
G2 X34.0143 Y7.251 I1.473 J-0.2834
G2 X34.6619 Y9.6613 I20.3556 J-4.1774
G2 X35.3412 Y11.4299 I18.7205 J-6.1759
G2 X35.9936 Y12.7478 I14.0633 J-6.1413
G2 X36.2749 Y13.2276 I10.3313 J-5.7353
G2 X36.3658 Y13.3721 I2.6518 J-1.5662
G2 X36.4816 Y13.5499 I23.8052 J-15.3782
G2 X36.4976 Y13.5738 I1.2538 J-0.8234
G1 X36.6113 Y13.7399
G2 X36.6157 Y13.7463 I1.2378 J-0.8473
G2 X37.1842 Y14.4739 I6.5644 J-4.5433
G2 X37.7083 Y15.0068 I4.4662 J-3.8685
G2 X38.1858 Y15.3887 I3.1706 J-3.4748
G2 X39.08 Y15.8679 I2.3428 J-3.2971
G2 X40.2457 Y16.086 I1.1768 J-3.0659
G2 X40.266 Y16.0859 I0.005 J-1.5
G2 X41.5822 Y15.8029 I-0.0342 J-3.3614
G2 X42.4831 Y15.2655 I-1.6839 J-3.8461
G2 X43.1162 Y14.6933 I-3.3382 J-4.3302
G2 X43.6023 Y14.1299 I-4.9556 J-4.7667
G2 X44.3241 Y13.067 I-8.2575 J-6.3845
G2 X44.326 Y13.0638 I-1.2904 J-0.7648
G2 X44.8349 Y12.1262 I-13.0474 J-7.6886
G2 X45.2248 Y11.2823 I-13.6508 J-6.8185
G2 X45.793 Y9.8004 I-18.5484 J-7.9625
G2 X46.4322 Y7.5139 I-20.3017 J-6.9077
G2 X46.4324 Y7.5132 I-1.4648 J-0.3232
G2 X46.5521 Y6.9146 I-15.5587 J-3.4247
G1 X46.5522 Y6.9144
G2 X46.6878 Y6.0082 I-15.202 J-2.7378
G2 X46.7508 Y5.0057 I-8.4513 J-1.0347
G2 Y5.0023 I-1.5 J-0.0057
G2 X44.8468 Y0.4036 I-6.4816 J-0.0099
G2 X40.251 Y-1.5 I-4.5905 J4.5833
G2 X35.6544 Y0.4041 I-0.0071 J6.483
G2 X33.7509 Y4.9961 I4.5837 J4.5906
G1 F30.0 Z-1.0
G2 F60.0 Y5.0016 I6.4873 J-0.0013
G2 Y5.0093 I1.5 J-0.0016
G2 X33.7975 Y5.8552 I8.6906 J-0.0539
G2 X33.7977 Y5.8576 I1.4919 J-0.1553
G2 X33.8396 Y6.2163 I16.5712 J-1.7517
G2 X33.8405 Y6.2233 I1.4879 J-0.19
G2 X33.952 Y6.9276 I13.9814 J-1.8518
G2 X33.9541 Y6.9391 I1.4752 J-0.2719
G1 X34.0106 Y7.2329
G2 X34.0143 Y7.251 I1.473 J-0.2834
G2 X34.6619 Y9.6613 I20.3556 J-4.1774
G2 X35.3412 Y11.4299 I18.7205 J-6.1759
G2 X35.9936 Y12.7478 I14.0633 J-6.1413
G2 X36.2749 Y13.2276 I10.3313 J-5.7353
G2 X36.3658 Y13.3721 I2.6518 J-1.5662
G2 X36.4816 Y13.5499 I23.8052 J-15.3782
G2 X36.4976 Y13.5738 I1.2538 J-0.8234
G1 X36.6113 Y13.7399
G2 X36.6157 Y13.7463 I1.2378 J-0.8473
G2 X37.1842 Y14.4739 I6.5644 J-4.5433
G2 X37.7083 Y15.0068 I4.4662 J-3.8685
G2 X38.1858 Y15.3887 I3.1706 J-3.4748
G2 X39.08 Y15.8679 I2.3428 J-3.2971
G2 X40.2457 Y16.086 I1.1768 J-3.0659
G2 X40.266 Y16.0859 I0.005 J-1.5
G2 X41.5822 Y15.8029 I-0.0342 J-3.3614
G2 X42.4831 Y15.2655 I-1.6839 J-3.8461
G2 X43.1162 Y14.6933 I-3.3382 J-4.3302
G2 X43.6023 Y14.1299 I-4.9556 J-4.7667
G2 X44.3241 Y13.067 I-8.2575 J-6.3845
G2 X44.326 Y13.0638 I-1.2904 J-0.7648
G2 X44.8349 Y12.1262 I-13.0474 J-7.6886
G2 X45.2248 Y11.2823 I-13.6508 J-6.8185
G2 X45.793 Y9.8004 I-18.5484 J-7.9625
G2 X46.4322 Y7.5139 I-20.3017 J-6.9077
G2 X46.4324 Y7.5132 I-1.4648 J-0.3232
G2 X46.5521 Y6.9146 I-15.5587 J-3.4247
G1 X46.5522 Y6.9144
G2 X46.6878 Y6.0082 I-15.202 J-2.7378
G2 X46.7508 Y5.0057 I-8.4513 J-1.0347
G2 Y5.0023 I-1.5 J-0.0057
G2 X44.8468 Y0.4036 I-6.4816 J-0.0099
G2 X40.251 Y-1.5 I-4.5905 J4.5833
G2 X35.6544 Y0.4041 I-0.0071 J6.483
G2 X33.7509 Y4.9961 I4.5837 J4.5906
G1 F30.0 Z-1.5
G2 F60.0 Y5.0016 I6.4873 J-0.0013
G2 Y5.0093 I1.5 J-0.0016
G2 X33.7975 Y5.8552 I8.6906 J-0.0539
G2 X33.7977 Y5.8576 I1.4919 J-0.1553
G2 X33.8396 Y6.2163 I16.5712 J-1.7517
G2 X33.8405 Y6.2233 I1.4879 J-0.19
G2 X33.952 Y6.9276 I13.9814 J-1.8518
G2 X33.9541 Y6.9391 I1.4752 J-0.2719
G1 X34.0106 Y7.2329
G2 X34.0143 Y7.251 I1.473 J-0.2834
G2 X34.6619 Y9.6613 I20.3556 J-4.1774
G2 X35.3412 Y11.4299 I18.7205 J-6.1759
G2 X35.9936 Y12.7478 I14.0633 J-6.1413
G2 X36.2749 Y13.2276 I10.3313 J-5.7353
G2 X36.3658 Y13.3721 I2.6518 J-1.5662
G2 X36.4816 Y13.5499 I23.8052 J-15.3782
G2 X36.4976 Y13.5738 I1.2538 J-0.8234
G1 X36.6113 Y13.7399
G2 X36.6157 Y13.7463 I1.2378 J-0.8473
G2 X37.1842 Y14.4739 I6.5644 J-4.5433
G2 X37.7083 Y15.0068 I4.4662 J-3.8685
G2 X38.1858 Y15.3887 I3.1706 J-3.4748
G2 X39.08 Y15.8679 I2.3428 J-3.2971
G2 X40.2457 Y16.086 I1.1768 J-3.0659
G2 X40.266 Y16.0859 I0.005 J-1.5
G2 X41.5822 Y15.8029 I-0.0342 J-3.3614
G2 X42.4831 Y15.2655 I-1.6839 J-3.8461
G2 X43.1162 Y14.6933 I-3.3382 J-4.3302
G2 X43.6023 Y14.1299 I-4.9556 J-4.7667
G2 X44.3241 Y13.067 I-8.2575 J-6.3845
G2 X44.326 Y13.0638 I-1.2904 J-0.7648
G2 X44.8349 Y12.1262 I-13.0474 J-7.6886
G2 X45.2248 Y11.2823 I-13.6508 J-6.8185
G2 X45.793 Y9.8004 I-18.5484 J-7.9625
G2 X46.4322 Y7.5139 I-20.3017 J-6.9077
G2 X46.4324 Y7.5132 I-1.4648 J-0.3232
G2 X46.5521 Y6.9146 I-15.5587 J-3.4247
G1 X46.5522 Y6.9144
G2 X46.6878 Y6.0082 I-15.202 J-2.7378
G2 X46.7508 Y5.0057 I-8.4513 J-1.0347
G2 Y5.0023 I-1.5 J-0.0057
G2 X44.8468 Y0.4036 I-6.4816 J-0.0099
G2 X40.251 Y-1.5 I-4.5905 J4.5833
G2 X35.6544 Y0.4041 I-0.0071 J6.483
G2 X33.7509 Y4.9961 I4.5837 J4.5906
G1 F30.0 Z-2.0
G2 F60.0 Y5.0016 I6.4873 J-0.0013
G2 Y5.0093 I1.5 J-0.0016
G2 X33.7975 Y5.8552 I8.6906 J-0.0539
G2 X33.7977 Y5.8576 I1.4919 J-0.1553
G2 X33.8396 Y6.2163 I16.5712 J-1.7517
G2 X33.8405 Y6.2233 I1.4879 J-0.19
G2 X33.952 Y6.9276 I13.9814 J-1.8518
G2 X33.9541 Y6.9391 I1.4752 J-0.2719
G1 X34.0106 Y7.2329
G2 X34.0143 Y7.251 I1.473 J-0.2834
G2 X34.6619 Y9.6613 I20.3556 J-4.1774
G2 X35.3412 Y11.4299 I18.7205 J-6.1759
G2 X35.9936 Y12.7478 I14.0633 J-6.1413
G2 X36.2749 Y13.2276 I10.3313 J-5.7353
G2 X36.3658 Y13.3721 I2.6518 J-1.5662
G2 X36.4816 Y13.5499 I23.8052 J-15.3782
G2 X36.4976 Y13.5738 I1.2538 J-0.8234
G1 X36.6113 Y13.7399
G2 X36.6157 Y13.7463 I1.2378 J-0.8473
G2 X37.1842 Y14.4739 I6.5644 J-4.5433
G2 X37.7083 Y15.0068 I4.4662 J-3.8685
G2 X38.1858 Y15.3887 I3.1706 J-3.4748
G2 X39.08 Y15.8679 I2.3428 J-3.2971
G2 X40.2457 Y16.086 I1.1768 J-3.0659
G2 X40.266 Y16.0859 I0.005 J-1.5
G2 X41.5822 Y15.8029 I-0.0342 J-3.3614
G2 X42.4831 Y15.2655 I-1.6839 J-3.8461
G2 X43.1162 Y14.6933 I-3.3382 J-4.3302
G2 X43.6023 Y14.1299 I-4.9556 J-4.7667
G2 X44.3241 Y13.067 I-8.2575 J-6.3845
G2 X44.326 Y13.0638 I-1.2904 J-0.7648
G2 X44.8349 Y12.1262 I-13.0474 J-7.6886
G2 X45.2248 Y11.2823 I-13.6508 J-6.8185
G2 X45.793 Y9.8004 I-18.5484 J-7.9625
G2 X46.4322 Y7.5139 I-20.3017 J-6.9077
G2 X46.4324 Y7.5132 I-1.4648 J-0.3232
G2 X46.5521 Y6.9146 I-15.5587 J-3.4247
G1 X46.5522 Y6.9144
G2 X46.6878 Y6.0082 I-15.202 J-2.7378
G2 X46.7508 Y5.0057 I-8.4513 J-1.0347
G2 Y5.0023 I-1.5 J-0.0057
G2 X44.8468 Y0.4036 I-6.4816 J-0.0099
G2 X40.251 Y-1.5 I-4.5905 J4.5833
G2 X35.6544 Y0.4041 I-0.0071 J6.483
G2 X33.7509 Y4.9961 I4.5837 J4.5906
G1 F30.0 Z-2.5
G2 F60.0 Y5.0016 I6.4873 J-0.0013
G2 Y5.0093 I1.5 J-0.0016
G2 X33.7975 Y5.8552 I8.6906 J-0.0539
G2 X33.7977 Y5.8576 I1.4919 J-0.1553
G2 X33.8396 Y6.2163 I16.5712 J-1.7517
G2 X33.8405 Y6.2233 I1.4879 J-0.19
G2 X33.952 Y6.9276 I13.9814 J-1.8518
G2 X33.9541 Y6.9391 I1.4752 J-0.2719
G1 X34.0106 Y7.2329
G2 X34.0143 Y7.251 I1.473 J-0.2834
G2 X34.6619 Y9.6613 I20.3556 J-4.1774
G2 X35.3412 Y11.4299 I18.7205 J-6.1759
G2 X35.9936 Y12.7478 I14.0633 J-6.1413
G2 X36.2749 Y13.2276 I10.3313 J-5.7353
G2 X36.3658 Y13.3721 I2.6518 J-1.5662
G2 X36.4816 Y13.5499 I23.8052 J-15.3782
G2 X36.4976 Y13.5738 I1.2538 J-0.8234
G1 X36.6113 Y13.7399
G2 X36.6157 Y13.7463 I1.2378 J-0.8473
G2 X37.1842 Y14.4739 I6.5644 J-4.5433
G2 X37.7083 Y15.0068 I4.4662 J-3.8685
G2 X38.1858 Y15.3887 I3.1706 J-3.4748
G2 X39.08 Y15.8679 I2.3428 J-3.2971
G2 X40.2457 Y16.086 I1.1768 J-3.0659
G2 X40.266 Y16.0859 I0.005 J-1.5
G2 X41.5822 Y15.8029 I-0.0342 J-3.3614
G2 X42.4831 Y15.2655 I-1.6839 J-3.8461
G2 X43.1162 Y14.6933 I-3.3382 J-4.3302
G2 X43.6023 Y14.1299 I-4.9556 J-4.7667
G2 X44.3241 Y13.067 I-8.2575 J-6.3845
G2 X44.326 Y13.0638 I-1.2904 J-0.7648
G2 X44.8349 Y12.1262 I-13.0474 J-7.6886
G2 X45.2248 Y11.2823 I-13.6508 J-6.8185
G2 X45.793 Y9.8004 I-18.5484 J-7.9625
G2 X46.4322 Y7.5139 I-20.3017 J-6.9077
G2 X46.4324 Y7.5132 I-1.4648 J-0.3232
G2 X46.5521 Y6.9146 I-15.5587 J-3.4247
G1 X46.5522 Y6.9144
G2 X46.6878 Y6.0082 I-15.202 J-2.7378
G2 X46.7508 Y5.0057 I-8.4513 J-1.0347
G2 Y5.0023 I-1.5 J-0.0057
G2 X44.8468 Y0.4036 I-6.4816 J-0.0099
G2 X40.251 Y-1.5 I-4.5905 J4.5833
G2 X35.6544 Y0.4041 I-0.0071 J6.483
G2 X33.7509 Y4.9961 I4.5837 J4.5906
G1 F30.0 Z-3.0
G2 F60.0 Y5.0016 I6.4873 J-0.0013
G2 Y5.0093 I1.5 J-0.0016
G2 X33.7975 Y5.8552 I8.6906 J-0.0539
G2 X33.7977 Y5.8576 I1.4919 J-0.1553
G2 X33.8396 Y6.2163 I16.5712 J-1.7517
G2 X33.8405 Y6.2233 I1.4879 J-0.19
G2 X33.952 Y6.9276 I13.9814 J-1.8518
G2 X33.9541 Y6.9391 I1.4752 J-0.2719
G1 X34.0106 Y7.2329
G2 X34.0143 Y7.251 I1.473 J-0.2834
G2 X34.6619 Y9.6613 I20.3556 J-4.1774
G2 X35.3412 Y11.4299 I18.7205 J-6.1759
G2 X35.9936 Y12.7478 I14.0633 J-6.1413
G2 X36.2749 Y13.2276 I10.3313 J-5.7353
G2 X36.3658 Y13.3721 I2.6518 J-1.5662
G2 X36.4816 Y13.5499 I23.8052 J-15.3782
G2 X36.4976 Y13.5738 I1.2538 J-0.8234
G1 X36.6113 Y13.7399
G2 X36.6157 Y13.7463 I1.2378 J-0.8473
G2 X37.1842 Y14.4739 I6.5644 J-4.5433
G2 X37.7083 Y15.0068 I4.4662 J-3.8685
G2 X38.1858 Y15.3887 I3.1706 J-3.4748
G2 X39.08 Y15.8679 I2.3428 J-3.2971
G2 X40.2457 Y16.086 I1.1768 J-3.0659
G2 X40.266 Y16.0859 I0.005 J-1.5
G2 X41.5822 Y15.8029 I-0.0342 J-3.3614
G2 X42.4831 Y15.2655 I-1.6839 J-3.8461
G2 X43.1162 Y14.6933 I-3.3382 J-4.3302
G2 X43.6023 Y14.1299 I-4.9556 J-4.7667
G2 X44.3241 Y13.067 I-8.2575 J-6.3845
G2 X44.326 Y13.0638 I-1.2904 J-0.7648
G2 X44.8349 Y12.1262 I-13.0474 J-7.6886
G2 X45.2248 Y11.2823 I-13.6508 J-6.8185
G2 X45.793 Y9.8004 I-18.5484 J-7.9625
G2 X46.4322 Y7.5139 I-20.3017 J-6.9077
G2 X46.4324 Y7.5132 I-1.4648 J-0.3232
G2 X46.5521 Y6.9146 I-15.5587 J-3.4247
G1 X46.5522 Y6.9144
G2 X46.6878 Y6.0082 I-15.202 J-2.7378
G2 X46.7508 Y5.0057 I-8.4513 J-1.0347
G2 Y5.0023 I-1.5 J-0.0057
G2 X44.8468 Y0.4036 I-6.4816 J-0.0099
G2 X40.251 Y-1.5 I-4.5905 J4.5833
G2 X35.6544 Y0.4041 I-0.0071 J6.483
G2 X33.7509 Y4.9961 I4.5837 J4.5906
G1 F30.0 Z-3.5
G2 F60.0 Y5.0016 I6.4873 J-0.0013
G2 Y5.0093 I1.5 J-0.0016
G2 X33.7975 Y5.8552 I8.6906 J-0.0539
G2 X33.7977 Y5.8576 I1.4919 J-0.1553
G2 X33.8396 Y6.2163 I16.5712 J-1.7517
G2 X33.8405 Y6.2233 I1.4879 J-0.19
G2 X33.952 Y6.9276 I13.9814 J-1.8518
G2 X33.9541 Y6.9391 I1.4752 J-0.2719
G1 X34.0106 Y7.2329
G2 X34.0143 Y7.251 I1.473 J-0.2834
G2 X34.6619 Y9.6613 I20.3556 J-4.1774
G2 X35.3412 Y11.4299 I18.7205 J-6.1759
G2 X35.9936 Y12.7478 I14.0633 J-6.1413
G2 X36.2749 Y13.2276 I10.3313 J-5.7353
G2 X36.3658 Y13.3721 I2.6518 J-1.5662
G2 X36.4816 Y13.5499 I23.8052 J-15.3782
G2 X36.4976 Y13.5738 I1.2538 J-0.8234
G1 X36.6113 Y13.7399
G2 X36.6157 Y13.7463 I1.2378 J-0.8473
G2 X37.1842 Y14.4739 I6.5644 J-4.5433
G2 X37.7083 Y15.0068 I4.4662 J-3.8685
G2 X38.1858 Y15.3887 I3.1706 J-3.4748
G2 X39.08 Y15.8679 I2.3428 J-3.2971
G2 X40.2457 Y16.086 I1.1768 J-3.0659
G2 X40.266 Y16.0859 I0.005 J-1.5
G2 X41.5822 Y15.8029 I-0.0342 J-3.3614
G2 X42.4831 Y15.2655 I-1.6839 J-3.8461
G2 X43.1162 Y14.6933 I-3.3382 J-4.3302
G2 X43.6023 Y14.1299 I-4.9556 J-4.7667
G2 X44.3241 Y13.067 I-8.2575 J-6.3845
G2 X44.326 Y13.0638 I-1.2904 J-0.7648
G2 X44.8349 Y12.1262 I-13.0474 J-7.6886
G2 X45.2248 Y11.2823 I-13.6508 J-6.8185
G2 X45.793 Y9.8004 I-18.5484 J-7.9625
G2 X46.4322 Y7.5139 I-20.3017 J-6.9077
G2 X46.4324 Y7.5132 I-1.4648 J-0.3232
G2 X46.5521 Y6.9146 I-15.5587 J-3.4247
G1 X46.5522 Y6.9144
G2 X46.6878 Y6.0082 I-15.202 J-2.7378
G2 X46.7508 Y5.0057 I-8.4513 J-1.0347
G2 Y5.0023 I-1.5 J-0.0057
G2 X44.8468 Y0.4036 I-6.4816 J-0.0099
G2 X40.251 Y-1.5 I-4.5905 J4.5833
G2 X35.6544 Y0.4041 I-0.0071 J6.483
G2 X33.7509 Y4.9961 I4.5837 J4.5906
G0 Z3.0
G0 X50.6401 Y4.9951
G1 F30.0 Z-0.5
G2 F60.0 Y5.0016 I6.4873 J-0.0004
G2 X50.6402 Y5.0093 I1.5 J-0.0016
G2 X50.6867 Y5.8552 I8.6906 J-0.0539
G2 X50.687 Y5.8576 I1.4919 J-0.1553
G2 X50.7288 Y6.2163 I16.5712 J-1.7517
G2 X50.7297 Y6.2233 I1.4879 J-0.19
G2 X50.8412 Y6.9276 I13.9814 J-1.8518
G2 X50.8434 Y6.9391 I1.4752 J-0.2719
G1 X50.8999 Y7.2329
G2 X50.9035 Y7.251 I1.473 J-0.2834
G2 X51.5511 Y9.6613 I20.3556 J-4.1774
G2 X52.2304 Y11.4299 I18.7205 J-6.1759
G2 X52.8829 Y12.7478 I14.0633 J-6.1413
G2 X53.1641 Y13.2276 I10.3313 J-5.7353
G2 X53.255 Y13.3721 I2.6518 J-1.5662
G2 X53.3708 Y13.5499 I23.8052 J-15.3782
G2 X53.3869 Y13.5738 I1.2538 J-0.8234
G1 X53.5005 Y13.7399
G2 X53.5049 Y13.7463 I1.2378 J-0.8473
G2 X54.0735 Y14.4739 I6.5644 J-4.5433
G2 X54.5976 Y15.0068 I4.4662 J-3.8685
G2 X55.075 Y15.3887 I3.1706 J-3.4748
G2 X55.9692 Y15.8679 I2.3428 J-3.2971
G2 X57.135 Y16.086 I1.1768 J-3.0659
G2 X57.1553 Y16.0859 I0.005 J-1.5
G2 X58.4715 Y15.8029 I-0.0342 J-3.3614
G2 X59.3723 Y15.2655 I-1.6839 J-3.8461
G2 X60.0054 Y14.6933 I-3.3382 J-4.3302
G2 X60.4915 Y14.1299 I-4.9556 J-4.7667
G2 X61.2134 Y13.067 I-8.2575 J-6.3845
G2 X61.2153 Y13.0638 I-1.2904 J-0.7648
G2 X61.7241 Y12.1262 I-13.0474 J-7.6886
G2 X62.114 Y11.2823 I-13.6508 J-6.8185
G2 X62.6823 Y9.8004 I-18.5484 J-7.9625
G2 X63.3214 Y7.5139 I-20.3017 J-6.9077
G2 X63.3216 Y7.5132 I-1.4648 J-0.3232
G2 X63.4414 Y6.9146 I-15.5587 J-3.4247
G1 Y6.9144
G2 X63.577 Y6.0082 I-15.202 J-2.7378
G2 X63.64 Y5.0057 I-8.4513 J-1.0347
G2 Y5.0023 I-1.5 J-0.0057
G2 X61.736 Y0.4036 I-6.4816 J-0.0099
G2 X57.1402 Y-1.5 I-4.5905 J4.5833
G2 X52.5436 Y0.4041 I-0.0071 J6.483
G2 X50.6401 Y4.9951 I4.5837 J4.5906
G1 F30.0 Z-1.0
G2 F60.0 Y5.0016 I6.4873 J-0.0004
G2 X50.6402 Y5.0093 I1.5 J-0.0016
G2 X50.6867 Y5.8552 I8.6906 J-0.0539
G2 X50.687 Y5.8576 I1.4919 J-0.1553
G2 X50.7288 Y6.2163 I16.5712 J-1.7517
G2 X50.7297 Y6.2233 I1.4879 J-0.19
G2 X50.8412 Y6.9276 I13.9814 J-1.8518
G2 X50.8434 Y6.9391 I1.4752 J-0.2719
G1 X50.8999 Y7.2329
G2 X50.9035 Y7.251 I1.473 J-0.2834
G2 X51.5511 Y9.6613 I20.3556 J-4.1774
G2 X52.2304 Y11.4299 I18.7205 J-6.1759
G2 X52.8829 Y12.7478 I14.0633 J-6.1413
G2 X53.1641 Y13.2276 I10.3313 J-5.7353
G2 X53.255 Y13.3721 I2.6518 J-1.5662
G2 X53.3708 Y13.5499 I23.8052 J-15.3782
G2 X53.3869 Y13.5738 I1.2538 J-0.8234
G1 X53.5005 Y13.7399
G2 X53.5049 Y13.7463 I1.2378 J-0.8473
G2 X54.0735 Y14.4739 I6.5644 J-4.5433
G2 X54.5976 Y15.0068 I4.4662 J-3.8685
G2 X55.075 Y15.3887 I3.1706 J-3.4748
G2 X55.9692 Y15.8679 I2.3428 J-3.2971
G2 X57.135 Y16.086 I1.1768 J-3.0659
G2 X57.1553 Y16.0859 I0.005 J-1.5
G2 X58.4715 Y15.8029 I-0.0342 J-3.3614
G2 X59.3723 Y15.2655 I-1.6839 J-3.8461
G2 X60.0054 Y14.6933 I-3.3382 J-4.3302
G2 X60.4915 Y14.1299 I-4.9556 J-4.7667
G2 X61.2134 Y13.067 I-8.2575 J-6.3845
G2 X61.2153 Y13.0638 I-1.2904 J-0.7648
G2 X61.7241 Y12.1262 I-13.0474 J-7.6886
G2 X62.114 Y11.2823 I-13.6508 J-6.8185
G2 X62.6823 Y9.8004 I-18.5484 J-7.9625
G2 X63.3214 Y7.5139 I-20.3017 J-6.9077
G2 X63.3216 Y7.5132 I-1.4648 J-0.3232
G2 X63.4414 Y6.9146 I-15.5587 J-3.4247
G1 Y6.9144
G2 X63.577 Y6.0082 I-15.202 J-2.7378
G2 X63.64 Y5.0057 I-8.4513 J-1.0347
G2 Y5.0023 I-1.5 J-0.0057
G2 X61.736 Y0.4036 I-6.4816 J-0.0099
G2 X57.1402 Y-1.5 I-4.5905 J4.5833
G2 X52.5436 Y0.4041 I-0.0071 J6.483
G2 X50.6401 Y4.9951 I4.5837 J4.5906
G1 F30.0 Z-1.5
G2 F60.0 Y5.0016 I6.4873 J-0.0004
G2 X50.6402 Y5.0093 I1.5 J-0.0016
G2 X50.6867 Y5.8552 I8.6906 J-0.0539
G2 X50.687 Y5.8576 I1.4919 J-0.1553
G2 X50.7288 Y6.2163 I16.5712 J-1.7517
G2 X50.7297 Y6.2233 I1.4879 J-0.19
G2 X50.8412 Y6.9276 I13.9814 J-1.8518
G2 X50.8434 Y6.9391 I1.4752 J-0.2719
G1 X50.8999 Y7.2329
G2 X50.9035 Y7.251 I1.473 J-0.2834
G2 X51.5511 Y9.6613 I20.3556 J-4.1774
G2 X52.2304 Y11.4299 I18.7205 J-6.1759
G2 X52.8829 Y12.7478 I14.0633 J-6.1413
G2 X53.1641 Y13.2276 I10.3313 J-5.7353
G2 X53.255 Y13.3721 I2.6518 J-1.5662
G2 X53.3708 Y13.5499 I23.8052 J-15.3782
G2 X53.3869 Y13.5738 I1.2538 J-0.8234
G1 X53.5005 Y13.7399
G2 X53.5049 Y13.7463 I1.2378 J-0.8473
G2 X54.0735 Y14.4739 I6.5644 J-4.5433
G2 X54.5976 Y15.0068 I4.4662 J-3.8685
G2 X55.075 Y15.3887 I3.1706 J-3.4748
G2 X55.9692 Y15.8679 I2.3428 J-3.2971
G2 X57.135 Y16.086 I1.1768 J-3.0659
G2 X57.1553 Y16.0859 I0.005 J-1.5
G2 X58.4715 Y15.8029 I-0.0342 J-3.3614
G2 X59.3723 Y15.2655 I-1.6839 J-3.8461
G2 X60.0054 Y14.6933 I-3.3382 J-4.3302
G2 X60.4915 Y14.1299 I-4.9556 J-4.7667
G2 X61.2134 Y13.067 I-8.2575 J-6.3845
G2 X61.2153 Y13.0638 I-1.2904 J-0.7648
G2 X61.7241 Y12.1262 I-13.0474 J-7.6886
G2 X62.114 Y11.2823 I-13.6508 J-6.8185
G2 X62.6823 Y9.8004 I-18.5484 J-7.9625
G2 X63.3214 Y7.5139 I-20.3017 J-6.9077
G2 X63.3216 Y7.5132 I-1.4648 J-0.3232
G2 X63.4414 Y6.9146 I-15.5587 J-3.4247
G1 Y6.9144
G2 X63.577 Y6.0082 I-15.202 J-2.7378
G2 X63.64 Y5.0057 I-8.4513 J-1.0347
G2 Y5.0023 I-1.5 J-0.0057
G2 X61.736 Y0.4036 I-6.4816 J-0.0099
G2 X57.1402 Y-1.5 I-4.5905 J4.5833
G2 X52.5436 Y0.4041 I-0.0071 J6.483
G2 X50.6401 Y4.9951 I4.5837 J4.5906
G1 F30.0 Z-2.0
G2 F60.0 Y5.0016 I6.4873 J-0.0004
G2 X50.6402 Y5.0093 I1.5 J-0.0016
G2 X50.6867 Y5.8552 I8.6906 J-0.0539
G2 X50.687 Y5.8576 I1.4919 J-0.1553
G2 X50.7288 Y6.2163 I16.5712 J-1.7517
G2 X50.7297 Y6.2233 I1.4879 J-0.19
G2 X50.8412 Y6.9276 I13.9814 J-1.8518
G2 X50.8434 Y6.9391 I1.4752 J-0.2719
G1 X50.8999 Y7.2329
G2 X50.9035 Y7.251 I1.473 J-0.2834
G2 X51.5511 Y9.6613 I20.3556 J-4.1774
G2 X52.2304 Y11.4299 I18.7205 J-6.1759
G2 X52.8829 Y12.7478 I14.0633 J-6.1413
G2 X53.1641 Y13.2276 I10.3313 J-5.7353
G2 X53.255 Y13.3721 I2.6518 J-1.5662
G2 X53.3708 Y13.5499 I23.8052 J-15.3782
G2 X53.3869 Y13.5738 I1.2538 J-0.8234
G1 X53.5005 Y13.7399
G2 X53.5049 Y13.7463 I1.2378 J-0.8473
G2 X54.0735 Y14.4739 I6.5644 J-4.5433
G2 X54.5976 Y15.0068 I4.4662 J-3.8685
G2 X55.075 Y15.3887 I3.1706 J-3.4748
G2 X55.9692 Y15.8679 I2.3428 J-3.2971
G2 X57.135 Y16.086 I1.1768 J-3.0659
G2 X57.1553 Y16.0859 I0.005 J-1.5
G2 X58.4715 Y15.8029 I-0.0342 J-3.3614
G2 X59.3723 Y15.2655 I-1.6839 J-3.8461
G2 X60.0054 Y14.6933 I-3.3382 J-4.3302
G2 X60.4915 Y14.1299 I-4.9556 J-4.7667
G2 X61.2134 Y13.067 I-8.2575 J-6.3845
G2 X61.2153 Y13.0638 I-1.2904 J-0.7648
G2 X61.7241 Y12.1262 I-13.0474 J-7.6886
G2 X62.114 Y11.2823 I-13.6508 J-6.8185
G2 X62.6823 Y9.8004 I-18.5484 J-7.9625
G2 X63.3214 Y7.5139 I-20.3017 J-6.9077
G2 X63.3216 Y7.5132 I-1.4648 J-0.3232
G2 X63.4414 Y6.9146 I-15.5587 J-3.4247
G1 Y6.9144
G2 X63.577 Y6.0082 I-15.202 J-2.7378
G2 X63.64 Y5.0057 I-8.4513 J-1.0347
G2 Y5.0023 I-1.5 J-0.0057
G2 X61.736 Y0.4036 I-6.4816 J-0.0099
G2 X57.1402 Y-1.5 I-4.5905 J4.5833
G2 X52.5436 Y0.4041 I-0.0071 J6.483
G2 X50.6401 Y4.9951 I4.5837 J4.5906
G1 F30.0 Z-2.5
G2 F60.0 Y5.0016 I6.4873 J-0.0004
G2 X50.6402 Y5.0093 I1.5 J-0.0016
G2 X50.6867 Y5.8552 I8.6906 J-0.0539
G2 X50.687 Y5.8576 I1.4919 J-0.1553
G2 X50.7288 Y6.2163 I16.5712 J-1.7517
G2 X50.7297 Y6.2233 I1.4879 J-0.19
G2 X50.8412 Y6.9276 I13.9814 J-1.8518
G2 X50.8434 Y6.9391 I1.4752 J-0.2719
G1 X50.8999 Y7.2329
G2 X50.9035 Y7.251 I1.473 J-0.2834
G2 X51.5511 Y9.6613 I20.3556 J-4.1774
G2 X52.2304 Y11.4299 I18.7205 J-6.1759
G2 X52.8829 Y12.7478 I14.0633 J-6.1413
G2 X53.1641 Y13.2276 I10.3313 J-5.7353
G2 X53.255 Y13.3721 I2.6518 J-1.5662
G2 X53.3708 Y13.5499 I23.8052 J-15.3782
G2 X53.3869 Y13.5738 I1.2538 J-0.8234
G1 X53.5005 Y13.7399
G2 X53.5049 Y13.7463 I1.2378 J-0.8473
G2 X54.0735 Y14.4739 I6.5644 J-4.5433
G2 X54.5976 Y15.0068 I4.4662 J-3.8685
G2 X55.075 Y15.3887 I3.1706 J-3.4748
G2 X55.9692 Y15.8679 I2.3428 J-3.2971
G2 X57.135 Y16.086 I1.1768 J-3.0659
G2 X57.1553 Y16.0859 I0.005 J-1.5
G2 X58.4715 Y15.8029 I-0.0342 J-3.3614
G2 X59.3723 Y15.2655 I-1.6839 J-3.8461
G2 X60.0054 Y14.6933 I-3.3382 J-4.3302
G2 X60.4915 Y14.1299 I-4.9556 J-4.7667
G2 X61.2134 Y13.067 I-8.2575 J-6.3845
G2 X61.2153 Y13.0638 I-1.2904 J-0.7648
G2 X61.7241 Y12.1262 I-13.0474 J-7.6886
G2 X62.114 Y11.2823 I-13.6508 J-6.8185
G2 X62.6823 Y9.8004 I-18.5484 J-7.9625
G2 X63.3214 Y7.5139 I-20.3017 J-6.9077
G2 X63.3216 Y7.5132 I-1.4648 J-0.3232
G2 X63.4414 Y6.9146 I-15.5587 J-3.4247
G1 Y6.9144
G2 X63.577 Y6.0082 I-15.202 J-2.7378
G2 X63.64 Y5.0057 I-8.4513 J-1.0347
G2 Y5.0023 I-1.5 J-0.0057
G2 X61.736 Y0.4036 I-6.4816 J-0.0099
G2 X57.1402 Y-1.5 I-4.5905 J4.5833
G2 X52.5436 Y0.4041 I-0.0071 J6.483
G2 X50.6401 Y4.9951 I4.5837 J4.5906
G1 F30.0 Z-3.0
G2 F60.0 Y5.0016 I6.4873 J-0.0004
G2 X50.6402 Y5.0093 I1.5 J-0.0016
G2 X50.6867 Y5.8552 I8.6906 J-0.0539
G2 X50.687 Y5.8576 I1.4919 J-0.1553
G2 X50.7288 Y6.2163 I16.5712 J-1.7517
G2 X50.7297 Y6.2233 I1.4879 J-0.19
G2 X50.8412 Y6.9276 I13.9814 J-1.8518
G2 X50.8434 Y6.9391 I1.4752 J-0.2719
G1 X50.8999 Y7.2329
G2 X50.9035 Y7.251 I1.473 J-0.2834
G2 X51.5511 Y9.6613 I20.3556 J-4.1774
G2 X52.2304 Y11.4299 I18.7205 J-6.1759
G2 X52.8829 Y12.7478 I14.0633 J-6.1413
G2 X53.1641 Y13.2276 I10.3313 J-5.7353
G2 X53.255 Y13.3721 I2.6518 J-1.5662
G2 X53.3708 Y13.5499 I23.8052 J-15.3782
G2 X53.3869 Y13.5738 I1.2538 J-0.8234
G1 X53.5005 Y13.7399
G2 X53.5049 Y13.7463 I1.2378 J-0.8473
G2 X54.0735 Y14.4739 I6.5644 J-4.5433
G2 X54.5976 Y15.0068 I4.4662 J-3.8685
G2 X55.075 Y15.3887 I3.1706 J-3.4748
G2 X55.9692 Y15.8679 I2.3428 J-3.2971
G2 X57.135 Y16.086 I1.1768 J-3.0659
G2 X57.1553 Y16.0859 I0.005 J-1.5
G2 X58.4715 Y15.8029 I-0.0342 J-3.3614
G2 X59.3723 Y15.2655 I-1.6839 J-3.8461
G2 X60.0054 Y14.6933 I-3.3382 J-4.3302
G2 X60.4915 Y14.1299 I-4.9556 J-4.7667
G2 X61.2134 Y13.067 I-8.2575 J-6.3845
G2 X61.2153 Y13.0638 I-1.2904 J-0.7648
G2 X61.7241 Y12.1262 I-13.0474 J-7.6886
G2 X62.114 Y11.2823 I-13.6508 J-6.8185
G2 X62.6823 Y9.8004 I-18.5484 J-7.9625
G2 X63.3214 Y7.5139 I-20.3017 J-6.9077
G2 X63.3216 Y7.5132 I-1.4648 J-0.3232
G2 X63.4414 Y6.9146 I-15.5587 J-3.4247
G1 Y6.9144
G2 X63.577 Y6.0082 I-15.202 J-2.7378
G2 X63.64 Y5.0057 I-8.4513 J-1.0347
G2 Y5.0023 I-1.5 J-0.0057
G2 X61.736 Y0.4036 I-6.4816 J-0.0099
G2 X57.1402 Y-1.5 I-4.5905 J4.5833
G2 X52.5436 Y0.4041 I-0.0071 J6.483
G2 X50.6401 Y4.9951 I4.5837 J4.5906
G1 F30.0 Z-3.5
G2 F60.0 Y5.0016 I6.4873 J-0.0004
G2 X50.6402 Y5.0093 I1.5 J-0.0016
G2 X50.6867 Y5.8552 I8.6906 J-0.0539
G2 X50.687 Y5.8576 I1.4919 J-0.1553
G2 X50.7288 Y6.2163 I16.5712 J-1.7517
G2 X50.7297 Y6.2233 I1.4879 J-0.19
G2 X50.8412 Y6.9276 I13.9814 J-1.8518
G2 X50.8434 Y6.9391 I1.4752 J-0.2719
G1 X50.8999 Y7.2329
G2 X50.9035 Y7.251 I1.473 J-0.2834
G2 X51.5511 Y9.6613 I20.3556 J-4.1774
G2 X52.2304 Y11.4299 I18.7205 J-6.1759
G2 X52.8829 Y12.7478 I14.0633 J-6.1413
G2 X53.1641 Y13.2276 I10.3313 J-5.7353
G2 X53.255 Y13.3721 I2.6518 J-1.5662
G2 X53.3708 Y13.5499 I23.8052 J-15.3782
G2 X53.3869 Y13.5738 I1.2538 J-0.8234
G1 X53.5005 Y13.7399
G2 X53.5049 Y13.7463 I1.2378 J-0.8473
G2 X54.0735 Y14.4739 I6.5644 J-4.5433
G2 X54.5976 Y15.0068 I4.4662 J-3.8685
G2 X55.075 Y15.3887 I3.1706 J-3.4748
G2 X55.9692 Y15.8679 I2.3428 J-3.2971
G2 X57.135 Y16.086 I1.1768 J-3.0659
G2 X57.1553 Y16.0859 I0.005 J-1.5
G2 X58.4715 Y15.8029 I-0.0342 J-3.3614
G2 X59.3723 Y15.2655 I-1.6839 J-3.8461
G2 X60.0054 Y14.6933 I-3.3382 J-4.3302
G2 X60.4915 Y14.1299 I-4.9556 J-4.7667
G2 X61.2134 Y13.067 I-8.2575 J-6.3845
G2 X61.2153 Y13.0638 I-1.2904 J-0.7648
G2 X61.7241 Y12.1262 I-13.0474 J-7.6886
G2 X62.114 Y11.2823 I-13.6508 J-6.8185
G2 X62.6823 Y9.8004 I-18.5484 J-7.9625
G2 X63.3214 Y7.5139 I-20.3017 J-6.9077
G2 X63.3216 Y7.5132 I-1.4648 J-0.3232
G2 X63.4414 Y6.9146 I-15.5587 J-3.4247
G1 Y6.9144
G2 X63.577 Y6.0082 I-15.202 J-2.7378
G2 X63.64 Y5.0057 I-8.4513 J-1.0347
G2 Y5.0023 I-1.5 J-0.0057
G2 X61.736 Y0.4036 I-6.4816 J-0.0099
G2 X57.1402 Y-1.5 I-4.5905 J4.5833
G2 X52.5436 Y0.4041 I-0.0071 J6.483
G2 X50.6401 Y4.9951 I4.5837 J4.5906
G0 Z3.0
M5
M30
