( Made using CamBam - http://www.cambam.co.uk )
( chip plates SOIC 10/26/2013 4:42:16 PM )
( T2 : 2.0 )
G21 G90 G91.1 G64 G40
G0 Z3.0
( T2 : 2.0 )
T2 M6
( 2mm Mill Pockets )
G17
M3 S1000
G0 X15.8 Y8.0495
G0 Z1.0
G1 F25.0 Z-0.5
G3 F50.0 X15.7002 Y8.1493 I-0.0998 J0.0
G2 X15.6997 I-0.0004 J1.0
G3 X15.6 Y8.0495 I0.0 J-0.0998
G2 Y8.0493 I-1.0 J-0.0002
G3 X15.7 Y7.9491 I0.1002 J0.0
G3 X15.8 Y8.0492 I-0.0001 J0.1001
G2 Y8.0495 I1.0 J0.0001
G1 F25.0 Z-1.0
G3 F50.0 X15.7002 Y8.1493 I-0.0998 J0.0
G2 X15.6997 I-0.0004 J1.0
G3 X15.6 Y8.0495 I0.0 J-0.0998
G2 Y8.0493 I-1.0 J-0.0002
G3 X15.7 Y7.9491 I0.1002 J0.0
G3 X15.8 Y8.0492 I-0.0001 J0.1001
G2 Y8.0495 I1.0 J0.0001
G1 F25.0 Z-1.5
G3 F50.0 X15.7002 Y8.1493 I-0.0998 J0.0
G2 X15.6997 I-0.0004 J1.0
G3 X15.6 Y8.0495 I0.0 J-0.0998
G2 Y8.0493 I-1.0 J-0.0002
G3 X15.7 Y7.9491 I0.1002 J0.0
G3 X15.8 Y8.0492 I-0.0001 J0.1001
G2 Y8.0495 I1.0 J0.0001
G1 F25.0 Z-2.0
G3 F50.0 X15.7002 Y8.1493 I-0.0998 J0.0
G2 X15.6997 I-0.0004 J1.0
G3 X15.6 Y8.0495 I0.0 J-0.0998
G2 Y8.0493 I-1.0 J-0.0002
G3 X15.7 Y7.9491 I0.1002 J0.0
G3 X15.8 Y8.0492 I-0.0001 J0.1001
G2 Y8.0495 I1.0 J0.0001
G1 F25.0 Z-2.5
G3 F50.0 X15.7002 Y8.1493 I-0.0998 J0.0
G2 X15.6997 I-0.0004 J1.0
G3 X15.6 Y8.0495 I0.0 J-0.0998
G2 Y8.0493 I-1.0 J-0.0002
G3 X15.7 Y7.9491 I0.1002 J0.0
G3 X15.8 Y8.0492 I-0.0001 J0.1001
G2 Y8.0495 I1.0 J0.0001
G1 F25.0 Z-3.0
G3 F50.0 X15.7002 Y8.1493 I-0.0998 J0.0
G2 X15.6997 I-0.0004 J1.0
G3 X15.6 Y8.0495 I0.0 J-0.0998
G2 Y8.0493 I-1.0 J-0.0002
G3 X15.7 Y7.9491 I0.1002 J0.0
G3 X15.8 Y8.0492 I-0.0001 J0.1001
G2 Y8.0495 I1.0 J0.0001
G0 Z3.0
G0 X9.4001
G0 Z1.0
G1 F25.0 Z-0.5
G3 F50.0 X9.3002 Y8.1493 I-0.0998 J0.0
G2 X9.2998 I-0.0004 J1.0
G3 X9.2 Y8.0495 I0.0 J-0.0998
G2 Y8.0493 I-1.0 J-0.0002
G3 X9.3001 Y7.9491 I0.1002 J0.0
G3 X9.4001 Y8.0492 I-0.0001 J0.1001
G2 Y8.0495 I1.0 J0.0001
G1 F25.0 Z-1.0
G3 F50.0 X9.3002 Y8.1493 I-0.0998 J0.0
G2 X9.2998 I-0.0004 J1.0
G3 X9.2 Y8.0495 I0.0 J-0.0998
G2 Y8.0493 I-1.0 J-0.0002
G3 X9.3001 Y7.9491 I0.1002 J0.0
G3 X9.4001 Y8.0492 I-0.0001 J0.1001
G2 Y8.0495 I1.0 J0.0001
G1 F25.0 Z-1.5
G3 F50.0 X9.3002 Y8.1493 I-0.0998 J0.0
G2 X9.2998 I-0.0004 J1.0
G3 X9.2 Y8.0495 I0.0 J-0.0998
G2 Y8.0493 I-1.0 J-0.0002
G3 X9.3001 Y7.9491 I0.1002 J0.0
G3 X9.4001 Y8.0492 I-0.0001 J0.1001
G2 Y8.0495 I1.0 J0.0001
G1 F25.0 Z-2.0
G3 F50.0 X9.3002 Y8.1493 I-0.0998 J0.0
G2 X9.2998 I-0.0004 J1.0
G3 X9.2 Y8.0495 I0.0 J-0.0998
G2 Y8.0493 I-1.0 J-0.0002
G3 X9.3001 Y7.9491 I0.1002 J0.0
G3 X9.4001 Y8.0492 I-0.0001 J0.1001
G2 Y8.0495 I1.0 J0.0001
G1 F25.0 Z-2.5
G3 F50.0 X9.3002 Y8.1493 I-0.0998 J0.0
G2 X9.2998 I-0.0004 J1.0
G3 X9.2 Y8.0495 I0.0 J-0.0998
G2 Y8.0493 I-1.0 J-0.0002
G3 X9.3001 Y7.9491 I0.1002 J0.0
G3 X9.4001 Y8.0492 I-0.0001 J0.1001
G2 Y8.0495 I1.0 J0.0001
G1 F25.0 Z-3.0
G3 F50.0 X9.3002 Y8.1493 I-0.0998 J0.0
G2 X9.2998 I-0.0004 J1.0
G3 X9.2 Y8.0495 I0.0 J-0.0998
G2 Y8.0493 I-1.0 J-0.0002
G3 X9.3001 Y7.9491 I0.1002 J0.0
G3 X9.4001 Y8.0492 I-0.0001 J0.1001
G2 Y8.0495 I1.0 J0.0001
G0 Z3.0
G0 X39.2513 Y7.4993
G0 Z1.0
G1 F25.0 Z-0.5
G3 F50.0 X39.2512 Y7.4974 I0.0998 J-0.0018
G2 Y7.4971 I-1.0 J-0.0002
G3 X39.3512 Y7.3972 I0.0999 J0.0
G3 X39.4513 Y7.4973 I0.0 J0.1001
G2 Y7.4974 I1.0 J0.0
G3 X39.3515 Y7.5972 I-0.0998 J0.0
G2 X39.351 I-0.0004 J1.0
G3 X39.2513 Y7.4993 I0.0 J-0.0998
G1 F25.0 Z-1.0
G3 F50.0 X39.2512 Y7.4974 I0.0998 J-0.0018
G2 Y7.4971 I-1.0 J-0.0002
G3 X39.3512 Y7.3972 I0.0999 J0.0
G3 X39.4513 Y7.4973 I0.0 J0.1001
G2 Y7.4974 I1.0 J0.0
G3 X39.3515 Y7.5972 I-0.0998 J0.0
G2 X39.351 I-0.0004 J1.0
G3 X39.2513 Y7.4993 I0.0 J-0.0998
G1 F25.0 Z-1.5
G3 F50.0 X39.2512 Y7.4974 I0.0998 J-0.0018
G2 Y7.4971 I-1.0 J-0.0002
G3 X39.3512 Y7.3972 I0.0999 J0.0
G3 X39.4513 Y7.4973 I0.0 J0.1001
G2 Y7.4974 I1.0 J0.0
G3 X39.3515 Y7.5972 I-0.0998 J0.0
G2 X39.351 I-0.0004 J1.0
G3 X39.2513 Y7.4993 I0.0 J-0.0998
G1 F25.0 Z-2.0
G3 F50.0 X39.2512 Y7.4974 I0.0998 J-0.0018
G2 Y7.4971 I-1.0 J-0.0002
G3 X39.3512 Y7.3972 I0.0999 J0.0
G3 X39.4513 Y7.4973 I0.0 J0.1001
G2 Y7.4974 I1.0 J0.0
G3 X39.3515 Y7.5972 I-0.0998 J0.0
G2 X39.351 I-0.0004 J1.0
G3 X39.2513 Y7.4993 I0.0 J-0.0998
G1 F25.0 Z-2.5
G3 F50.0 X39.2512 Y7.4974 I0.0998 J-0.0018
G2 Y7.4971 I-1.0 J-0.0002
G3 X39.3512 Y7.3972 I0.0999 J0.0
G3 X39.4513 Y7.4973 I0.0 J0.1001
G2 Y7.4974 I1.0 J0.0
G3 X39.3515 Y7.5972 I-0.0998 J0.0
G2 X39.351 I-0.0004 J1.0
G3 X39.2513 Y7.4993 I0.0 J-0.0998
G1 F25.0 Z-3.0
G3 F50.0 X39.2512 Y7.4974 I0.0998 J-0.0018
G2 Y7.4971 I-1.0 J-0.0002
G3 X39.3512 Y7.3972 I0.0999 J0.0
G3 X39.4513 Y7.4973 I0.0 J0.1001
G2 Y7.4974 I1.0 J0.0
G3 X39.3515 Y7.5972 I-0.0998 J0.0
G2 X39.351 I-0.0004 J1.0
G3 X39.2513 Y7.4993 I0.0 J-0.0998
G0 Z3.0
G0 X45.6515 Y7.4012
G0 Z1.0
G1 F25.0 Z-0.5
G3 F50.0 Y7.3996 I0.0998 J-0.0015
G2 Y7.3993 I-1.0 J-0.0002
G3 X45.7515 Y7.2994 I0.0999 J0.0
G3 X45.8516 Y7.3994 I0.0 J0.1001
G2 Y7.3996 I1.0 J0.0
G3 X45.7518 Y7.4994 I-0.0998 J0.0
G2 X45.7513 I-0.0004 J1.0
G3 X45.6515 Y7.4012 I0.0 J-0.0998
G1 F25.0 Z-1.0
G3 F50.0 Y7.3996 I0.0998 J-0.0015
G2 Y7.3993 I-1.0 J-0.0002
G3 X45.7515 Y7.2994 I0.0999 J0.0
G3 X45.8516 Y7.3994 I0.0 J0.1001
G2 Y7.3996 I1.0 J0.0
G3 X45.7518 Y7.4994 I-0.0998 J0.0
G2 X45.7513 I-0.0004 J1.0
G3 X45.6515 Y7.4012 I0.0 J-0.0998
G1 F25.0 Z-1.5
G3 F50.0 Y7.3996 I0.0998 J-0.0015
G2 Y7.3993 I-1.0 J-0.0002
G3 X45.7515 Y7.2994 I0.0999 J0.0
G3 X45.8516 Y7.3994 I0.0 J0.1001
G2 Y7.3996 I1.0 J0.0
G3 X45.7518 Y7.4994 I-0.0998 J0.0
G2 X45.7513 I-0.0004 J1.0
G3 X45.6515 Y7.4012 I0.0 J-0.0998
G1 F25.0 Z-2.0
G3 F50.0 Y7.3996 I0.0998 J-0.0015
G2 Y7.3993 I-1.0 J-0.0002
G3 X45.7515 Y7.2994 I0.0999 J0.0
G3 X45.8516 Y7.3994 I0.0 J0.1001
G2 Y7.3996 I1.0 J0.0
G3 X45.7518 Y7.4994 I-0.0998 J0.0
G2 X45.7513 I-0.0004 J1.0
G3 X45.6515 Y7.4012 I0.0 J-0.0998
G1 F25.0 Z-2.5
G3 F50.0 Y7.3996 I0.0998 J-0.0015
G2 Y7.3993 I-1.0 J-0.0002
G3 X45.7515 Y7.2994 I0.0999 J0.0
G3 X45.8516 Y7.3994 I0.0 J0.1001
G2 Y7.3996 I1.0 J0.0
G3 X45.7518 Y7.4994 I-0.0998 J0.0
G2 X45.7513 I-0.0004 J1.0
G3 X45.6515 Y7.4012 I0.0 J-0.0998
G1 F25.0 Z-3.0
G3 F50.0 Y7.3996 I0.0998 J-0.0015
G2 Y7.3993 I-1.0 J-0.0002
G3 X45.7515 Y7.2994 I0.0999 J0.0
G3 X45.8516 Y7.3994 I0.0 J0.1001
G2 Y7.3996 I1.0 J0.0
G3 X45.7518 Y7.4994 I-0.0998 J0.0
G2 X45.7513 I-0.0004 J1.0
G3 X45.6515 Y7.4012 I0.0 J-0.0998
G0 Z3.0
G0 X47.8437 Y36.3607
G0 Z1.0
G1 F25.0 Z-0.5
G3 F50.0 X47.8512 Y36.3605 I0.0075 J0.0996
G1 X47.8513
G3 X47.9514 Y36.4605 I0.0 J0.1001
G2 Y36.4607 I1.0 J0.0
G3 X47.8515 Y36.5605 I-0.0998 J0.0
G2 X47.8511 I-0.0004 J1.0
G3 X47.7513 Y36.4607 I0.0 J-0.0998
G2 Y36.4604 I-1.0 J-0.0002
G3 X47.8437 Y36.3607 I0.0999 J0.0
G1 F25.0 Z-1.0
G3 F50.0 X47.8512 Y36.3605 I0.0075 J0.0996
G1 X47.8513
G3 X47.9514 Y36.4605 I0.0 J0.1001
G2 Y36.4607 I1.0 J0.0
G3 X47.8515 Y36.5605 I-0.0998 J0.0
G2 X47.8511 I-0.0004 J1.0
G3 X47.7513 Y36.4607 I0.0 J-0.0998
G2 Y36.4604 I-1.0 J-0.0002
G3 X47.8437 Y36.3607 I0.0999 J0.0
G1 F25.0 Z-1.5
G3 F50.0 X47.8512 Y36.3605 I0.0075 J0.0996
G1 X47.8513
G3 X47.9514 Y36.4605 I0.0 J0.1001
G2 Y36.4607 I1.0 J0.0
G3 X47.8515 Y36.5605 I-0.0998 J0.0
G2 X47.8511 I-0.0004 J1.0
G3 X47.7513 Y36.4607 I0.0 J-0.0998
G2 Y36.4604 I-1.0 J-0.0002
G3 X47.8437 Y36.3607 I0.0999 J0.0
G1 F25.0 Z-2.0
G3 F50.0 X47.8512 Y36.3605 I0.0075 J0.0996
G1 X47.8513
G3 X47.9514 Y36.4605 I0.0 J0.1001
G2 Y36.4607 I1.0 J0.0
G3 X47.8515 Y36.5605 I-0.0998 J0.0
G2 X47.8511 I-0.0004 J1.0
G3 X47.7513 Y36.4607 I0.0 J-0.0998
G2 Y36.4604 I-1.0 J-0.0002
G3 X47.8437 Y36.3607 I0.0999 J0.0
G1 F25.0 Z-2.5
G3 F50.0 X47.8512 Y36.3605 I0.0075 J0.0996
G1 X47.8513
G3 X47.9514 Y36.4605 I0.0 J0.1001
G2 Y36.4607 I1.0 J0.0
G3 X47.8515 Y36.5605 I-0.0998 J0.0
G2 X47.8511 I-0.0004 J1.0
G3 X47.7513 Y36.4607 I0.0 J-0.0998
G2 Y36.4604 I-1.0 J-0.0002
G3 X47.8437 Y36.3607 I0.0999 J0.0
G1 F25.0 Z-3.0
G3 F50.0 X47.8512 Y36.3605 I0.0075 J0.0996
G1 X47.8513
G3 X47.9514 Y36.4605 I0.0 J0.1001
G2 Y36.4607 I1.0 J0.0
G3 X47.8515 Y36.5605 I-0.0998 J0.0
G2 X47.8511 I-0.0004 J1.0
G3 X47.7513 Y36.4607 I0.0 J-0.0998
G2 Y36.4604 I-1.0 J-0.0002
G3 X47.8437 Y36.3607 I0.0999 J0.0
G0 Z3.0
G0 X37.3511 Y36.4596
G0 Z1.0
G1 F25.0 Z-0.5
G3 F50.0 Y36.4605 I-0.1001 J0.0009
G2 Y36.4607 I1.0 J0.0
G3 X37.2513 Y36.5605 I-0.0998 J0.0
G2 X37.2509 I-0.0004 J1.0
G3 X37.1511 Y36.4607 I0.0 J-0.0998
G2 Y36.4604 I-1.0 J-0.0002
G3 X37.251 Y36.3605 I0.0999 J0.0
G1 X37.2511
G3 X37.3511 Y36.4596 I0.0 J0.1001
G1 F25.0 Z-1.0
G3 F50.0 Y36.4605 I-0.1001 J0.0009
G2 Y36.4607 I1.0 J0.0
G3 X37.2513 Y36.5605 I-0.0998 J0.0
G2 X37.2509 I-0.0004 J1.0
G3 X37.1511 Y36.4607 I0.0 J-0.0998
G2 Y36.4604 I-1.0 J-0.0002
G3 X37.251 Y36.3605 I0.0999 J0.0
G1 X37.2511
G3 X37.3511 Y36.4596 I0.0 J0.1001
G1 F25.0 Z-1.5
G3 F50.0 Y36.4605 I-0.1001 J0.0009
G2 Y36.4607 I1.0 J0.0
G3 X37.2513 Y36.5605 I-0.0998 J0.0
G2 X37.2509 I-0.0004 J1.0
G3 X37.1511 Y36.4607 I0.0 J-0.0998
G2 Y36.4604 I-1.0 J-0.0002
G3 X37.251 Y36.3605 I0.0999 J0.0
G1 X37.2511
G3 X37.3511 Y36.4596 I0.0 J0.1001
G1 F25.0 Z-2.0
G3 F50.0 Y36.4605 I-0.1001 J0.0009
G2 Y36.4607 I1.0 J0.0
G3 X37.2513 Y36.5605 I-0.0998 J0.0
G2 X37.2509 I-0.0004 J1.0
G3 X37.1511 Y36.4607 I0.0 J-0.0998
G2 Y36.4604 I-1.0 J-0.0002
G3 X37.251 Y36.3605 I0.0999 J0.0
G1 X37.2511
G3 X37.3511 Y36.4596 I0.0 J0.1001
G1 F25.0 Z-2.5
G3 F50.0 Y36.4605 I-0.1001 J0.0009
G2 Y36.4607 I1.0 J0.0
G3 X37.2513 Y36.5605 I-0.0998 J0.0
G2 X37.2509 I-0.0004 J1.0
G3 X37.1511 Y36.4607 I0.0 J-0.0998
G2 Y36.4604 I-1.0 J-0.0002
G3 X37.251 Y36.3605 I0.0999 J0.0
G1 X37.2511
G3 X37.3511 Y36.4596 I0.0 J0.1001
G1 F25.0 Z-3.0
G3 F50.0 Y36.4605 I-0.1001 J0.0009
G2 Y36.4607 I1.0 J0.0
G3 X37.2513 Y36.5605 I-0.0998 J0.0
G2 X37.2509 I-0.0004 J1.0
G3 X37.1511 Y36.4607 I0.0 J-0.0998
G2 Y36.4604 I-1.0 J-0.0002
G3 X37.251 Y36.3605 I0.0999 J0.0
G1 X37.2511
G3 X37.3511 Y36.4596 I0.0 J0.1001
G0 Z3.0
M5
M30
