( Made using CamBam - http://www.cambam.co.uk )
( chip plates SOIC 10/26/2013 4:42:10 PM )
( T3 : 3.0 )
G21 G90 G91.1 G64 G40
G0 Z3.0
( T3 : 3.0 )
T3 M6
( 3mm Mill Pockets )
G17
M3 S1000
G0 X12.4001 Y27.1002
G0 Z1.0
G1 F25.0 Z-0.5
G1 F80.0 Y25.1932
G1 X12.5001 Y24.1869
G1 X12.6001 Y25.1933
G1 Y27.1002
G1 X12.4001
G1 F25.0 X11.2001
G1 F80.0 Y25.1337
G1 X11.9868 Y17.217
G2 X12.0 Y16.95 I-2.6868 J-0.267
G1 Y10.75
G1 X13.0
G1 Y16.95
G2 X13.0132 Y17.2171 I2.7 J0.0
G1 X13.8001 Y25.1338
G1 Y28.3002
G1 X11.2001
G1 Y27.1002
G1 F25.0 X10.0001
G1 F80.0 Y25.0743
G1 X10.7927 Y17.0984
G2 X10.8 Y16.95 I-1.4926 J-0.1483
G1 Y9.55
G1 X14.2
G1 Y16.95
G2 X14.2073 Y17.0984 I1.5 J0.0
G1 X15.0001 Y25.0743
G1 Y29.5002
G1 X10.0001
G1 Y27.1002
G0 Z3.0
G0 X12.4001
G0 Z0.5
G1 F25.0 Z-1.0
G1 F80.0 Y25.1932
G1 X12.5001 Y24.1869
G1 X12.6001 Y25.1933
G1 Y27.1002
G1 X12.4001
G1 F25.0 X11.2001
G1 F80.0 Y25.1337
G1 X11.9868 Y17.217
G2 X12.0 Y16.95 I-2.6868 J-0.267
G1 Y10.75
G1 X13.0
G1 Y16.95
G2 X13.0132 Y17.2171 I2.7 J0.0
G1 X13.8001 Y25.1338
G1 Y28.3002
G1 X11.2001
G1 Y27.1002
G1 F25.0 X10.0001
G1 F80.0 Y25.0743
G1 X10.7927 Y17.0984
G2 X10.8 Y16.95 I-1.4926 J-0.1483
G1 Y9.55
G1 X14.2
G1 Y16.95
G2 X14.2073 Y17.0984 I1.5 J0.0
G1 X15.0001 Y25.0743
G1 Y29.5002
G1 X10.0001
G1 Y27.1002
G0 Z3.0
G0 X12.4001
G0 Z0.0
G1 F25.0 Z-1.5
G1 F80.0 Y25.1932
G1 X12.5001 Y24.1869
G1 X12.6001 Y25.1933
G1 Y27.1002
G1 X12.4001
G1 F25.0 X11.2001
G1 F80.0 Y25.1337
G1 X11.9868 Y17.217
G2 X12.0 Y16.95 I-2.6868 J-0.267
G1 Y10.75
G1 X13.0
G1 Y16.95
G2 X13.0132 Y17.2171 I2.7 J0.0
G1 X13.8001 Y25.1338
G1 Y28.3002
G1 X11.2001
G1 Y27.1002
G1 F25.0 X10.0001
G1 F80.0 Y25.0743
G1 X10.7927 Y17.0984
G2 X10.8 Y16.95 I-1.4926 J-0.1483
G1 Y9.55
G1 X14.2
G1 Y16.95
G2 X14.2073 Y17.0984 I1.5 J0.0
G1 X15.0001 Y25.0743
G1 Y29.5002
G1 X10.0001
G1 Y27.1002
G0 Z3.0
G0 X12.4001
G0 Z-0.5
G1 F25.0 Z-2.0
G1 F80.0 Y25.1932
G1 X12.5001 Y24.1869
G1 X12.6001 Y25.1933
G1 Y27.1002
G1 X12.4001
G1 F25.0 X11.2001
G1 F80.0 Y25.1337
G1 X11.9868 Y17.217
G2 X12.0 Y16.95 I-2.6868 J-0.267
G1 Y10.75
G1 X13.0
G1 Y16.95
G2 X13.0132 Y17.2171 I2.7 J0.0
G1 X13.8001 Y25.1338
G1 Y28.3002
G1 X11.2001
G1 Y27.1002
G1 F25.0 X10.0001
G1 F80.0 Y25.0743
G1 X10.7927 Y17.0984
G2 X10.8 Y16.95 I-1.4926 J-0.1483
G1 Y9.55
G1 X14.2
G1 Y16.95
G2 X14.2073 Y17.0984 I1.5 J0.0
G1 X15.0001 Y25.0743
G1 Y29.5002
G1 X10.0001
G1 Y27.1002
G0 Z3.0
G0 X12.4001
G0 Z-1.0
G1 F25.0 Z-2.5
G1 F80.0 Y25.1932
G1 X12.5001 Y24.1869
G1 X12.6001 Y25.1933
G1 Y27.1002
G1 X12.4001
G1 F25.0 X11.2001
G1 F80.0 Y25.1337
G1 X11.9868 Y17.217
G2 X12.0 Y16.95 I-2.6868 J-0.267
G1 Y10.75
G1 X13.0
G1 Y16.95
G2 X13.0132 Y17.2171 I2.7 J0.0
G1 X13.8001 Y25.1338
G1 Y28.3002
G1 X11.2001
G1 Y27.1002
G1 F25.0 X10.0001
G1 F80.0 Y25.0743
G1 X10.7927 Y17.0984
G2 X10.8 Y16.95 I-1.4926 J-0.1483
G1 Y9.55
G1 X14.2
G1 Y16.95
G2 X14.2073 Y17.0984 I1.5 J0.0
G1 X15.0001 Y25.0743
G1 Y29.5002
G1 X10.0001
G1 Y27.1002
G0 Z3.0
G0 X12.4001
G0 Z-1.5
G1 F25.0 Z-3.0
G1 F80.0 Y25.1932
G1 X12.5001 Y24.1869
G1 X12.6001 Y25.1933
G1 Y27.1002
G1 X12.4001
G1 F25.0 X11.2001
G1 F80.0 Y25.1337
G1 X11.9868 Y17.217
G2 X12.0 Y16.95 I-2.6868 J-0.267
G1 Y10.75
G1 X13.0
G1 Y16.95
G2 X13.0132 Y17.2171 I2.7 J0.0
G1 X13.8001 Y25.1338
G1 Y28.3002
G1 X11.2001
G1 Y27.1002
G1 F25.0 X10.0001
G1 F80.0 Y25.0743
G1 X10.7927 Y17.0984
G2 X10.8 Y16.95 I-1.4926 J-0.1483
G1 Y9.55
G1 X14.2
G1 Y16.95
G2 X14.2073 Y17.0984 I1.5 J0.0
G1 X15.0001 Y25.0743
G1 Y29.5002
G1 X10.0001
G1 Y27.1002
G0 Z3.0
G0 X42.4513
G0 Z1.0
G1 F25.0 Z-0.5
G1 F80.0 Y25.2093
G1 X42.5513 Y24.2841
G1 X42.6515 Y25.2109
G1 Y27.1002
G1 X42.4513
G1 F25.0 X41.2513
G1 F80.0 Y25.1446
G1 X42.0356 Y17.8902
G2 X42.0513 Y17.6 I-2.6844 J-0.2902
G1 Y10.1001
G1 X43.0516
G1 Y17.6
G2 X43.0672 Y17.8901 I2.7 J0.0
G1 X43.8515 Y25.1462
G1 Y28.3002
G1 X41.2513
G1 Y27.1002
G1 F25.0 X40.0513
G1 F80.0 Y25.0788
G2 X40.0535 Y25.06 I-1.4891 J-0.1801
G1 X40.8426 Y17.7612
G2 X40.8513 Y17.6 I-1.4913 J-0.1612
G1 Y8.9001
G1 X44.2516
G1 Y17.6
G2 X44.2602 Y17.7612 I1.5 J0.0
G1 X45.0492 Y25.0599
G2 X45.0515 Y25.0803 I1.4913 J-0.1612
G1 Y29.5002
G1 X40.0513
G1 Y27.1002
G0 Z3.0
G0 X42.4513
G0 Z0.5
G1 F25.0 Z-1.0
G1 F80.0 Y25.2093
G1 X42.5513 Y24.2841
G1 X42.6515 Y25.2109
G1 Y27.1002
G1 X42.4513
G1 F25.0 X41.2513
G1 F80.0 Y25.1446
G1 X42.0356 Y17.8902
G2 X42.0513 Y17.6 I-2.6844 J-0.2902
G1 Y10.1001
G1 X43.0516
G1 Y17.6
G2 X43.0672 Y17.8901 I2.7 J0.0
G1 X43.8515 Y25.1462
G1 Y28.3002
G1 X41.2513
G1 Y27.1002
G1 F25.0 X40.0513
G1 F80.0 Y25.0788
G2 X40.0535 Y25.06 I-1.4891 J-0.1801
G1 X40.8426 Y17.7612
G2 X40.8513 Y17.6 I-1.4913 J-0.1612
G1 Y8.9001
G1 X44.2516
G1 Y17.6
G2 X44.2602 Y17.7612 I1.5 J0.0
G1 X45.0492 Y25.0599
G2 X45.0515 Y25.0803 I1.4913 J-0.1612
G1 Y29.5002
G1 X40.0513
G1 Y27.1002
G0 Z3.0
G0 X42.4513
G0 Z0.0
G1 F25.0 Z-1.5
G1 F80.0 Y25.2093
G1 X42.5513 Y24.2841
G1 X42.6515 Y25.2109
G1 Y27.1002
G1 X42.4513
G1 F25.0 X41.2513
G1 F80.0 Y25.1446
G1 X42.0356 Y17.8902
G2 X42.0513 Y17.6 I-2.6844 J-0.2902
G1 Y10.1001
G1 X43.0516
G1 Y17.6
G2 X43.0672 Y17.8901 I2.7 J0.0
G1 X43.8515 Y25.1462
G1 Y28.3002
G1 X41.2513
G1 Y27.1002
G1 F25.0 X40.0513
G1 F80.0 Y25.0788
G2 X40.0535 Y25.06 I-1.4891 J-0.1801
G1 X40.8426 Y17.7612
G2 X40.8513 Y17.6 I-1.4913 J-0.1612
G1 Y8.9001
G1 X44.2516
G1 Y17.6
G2 X44.2602 Y17.7612 I1.5 J0.0
G1 X45.0492 Y25.0599
G2 X45.0515 Y25.0803 I1.4913 J-0.1612
G1 Y29.5002
G1 X40.0513
G1 Y27.1002
G0 Z3.0
G0 X42.4513
G0 Z-0.5
G1 F25.0 Z-2.0
G1 F80.0 Y25.2093
G1 X42.5513 Y24.2841
G1 X42.6515 Y25.2109
G1 Y27.1002
G1 X42.4513
G1 F25.0 X41.2513
G1 F80.0 Y25.1446
G1 X42.0356 Y17.8902
G2 X42.0513 Y17.6 I-2.6844 J-0.2902
G1 Y10.1001
G1 X43.0516
G1 Y17.6
G2 X43.0672 Y17.8901 I2.7 J0.0
G1 X43.8515 Y25.1462
G1 Y28.3002
G1 X41.2513
G1 Y27.1002
G1 F25.0 X40.0513
G1 F80.0 Y25.0788
G2 X40.0535 Y25.06 I-1.4891 J-0.1801
G1 X40.8426 Y17.7612
G2 X40.8513 Y17.6 I-1.4913 J-0.1612
G1 Y8.9001
G1 X44.2516
G1 Y17.6
G2 X44.2602 Y17.7612 I1.5 J0.0
G1 X45.0492 Y25.0599
G2 X45.0515 Y25.0803 I1.4913 J-0.1612
G1 Y29.5002
G1 X40.0513
G1 Y27.1002
G0 Z3.0
G0 X42.4513
G0 Z-1.0
G1 F25.0 Z-2.5
G1 F80.0 Y25.2093
G1 X42.5513 Y24.2841
G1 X42.6515 Y25.2109
G1 Y27.1002
G1 X42.4513
G1 F25.0 X41.2513
G1 F80.0 Y25.1446
G1 X42.0356 Y17.8902
G2 X42.0513 Y17.6 I-2.6844 J-0.2902
G1 Y10.1001
G1 X43.0516
G1 Y17.6
G2 X43.0672 Y17.8901 I2.7 J0.0
G1 X43.8515 Y25.1462
G1 Y28.3002
G1 X41.2513
G1 Y27.1002
G1 F25.0 X40.0513
G1 F80.0 Y25.0788
G2 X40.0535 Y25.06 I-1.4891 J-0.1801
G1 X40.8426 Y17.7612
G2 X40.8513 Y17.6 I-1.4913 J-0.1612
G1 Y8.9001
G1 X44.2516
G1 Y17.6
G2 X44.2602 Y17.7612 I1.5 J0.0
G1 X45.0492 Y25.0599
G2 X45.0515 Y25.0803 I1.4913 J-0.1612
G1 Y29.5002
G1 X40.0513
G1 Y27.1002
G0 Z3.0
G0 X42.4513
G0 Z-1.5
G1 F25.0 Z-3.0
G1 F80.0 Y25.2093
G1 X42.5513 Y24.2841
G1 X42.6515 Y25.2109
G1 Y27.1002
G1 X42.4513
G1 F25.0 X41.2513
G1 F80.0 Y25.1446
G1 X42.0356 Y17.8902
G2 X42.0513 Y17.6 I-2.6844 J-0.2902
G1 Y10.1001
G1 X43.0516
G1 Y17.6
G2 X43.0672 Y17.8901 I2.7 J0.0
G1 X43.8515 Y25.1462
G1 Y28.3002
G1 X41.2513
G1 Y27.1002
G1 F25.0 X40.0513
G1 F80.0 Y25.0788
G2 X40.0535 Y25.06 I-1.4891 J-0.1801
G1 X40.8426 Y17.7612
G2 X40.8513 Y17.6 I-1.4913 J-0.1612
G1 Y8.9001
G1 X44.2516
G1 Y17.6
G2 X44.2602 Y17.7612 I1.5 J0.0
G1 X45.0492 Y25.0599
G2 X45.0515 Y25.0803 I1.4913 J-0.1612
G1 Y29.5002
G1 X40.0513
G1 Y27.1002
G0 Z3.0
G0 X42.548 Y56.9742
G0 Z1.0
G1 F25.0 Z-0.5
G1 F80.0 X43.0462 Y58.4604
G1 X42.0081
G1 X42.548 Y56.9742
G1 F25.0 X41.984 Y56.7693
G1 F80.0 X42.0447 Y56.6023
G2 X42.3511 Y54.8611 I-4.7935 J-1.7412
G1 Y41.5612
G1 X42.7513
G1 Y54.8611
G2 X43.0158 Y56.4822 I5.1 J0.0
G1 X43.8802 Y59.0604
G1 X41.1518
G1 X41.984 Y56.7693
G1 F25.0 X40.8561 Y56.3596
G1 F80.0 X40.9168 Y56.1926
G2 X41.1511 Y54.8611 I-3.6657 J-1.3315
G1 Y40.3612
G1 X43.9513
G1 Y54.8611
G2 X44.1536 Y56.1007 I3.9 J0.0
G1 X45.5481 Y60.2604
G1 X39.4392
G1 X40.8561 Y56.3596
G1 F25.0 X39.7282 Y55.9499
G1 F80.0 X39.7889 Y55.7829
G2 X39.9511 Y54.8611 I-2.5378 J-0.9218
G1 Y39.1612
G1 X45.1513
G1 Y54.8611
G2 X45.2914 Y55.7193 I2.7 J0.0
G1 X47.2161 Y61.4604
G1 X37.7265
G1 X39.7282 Y55.9499
G1 F25.0 X38.6003 Y55.5402
G1 F80.0 X38.661 Y55.3732
G2 X38.7511 Y54.8611 I-1.4099 J-0.5121
G1 Y37.9612
G1 X46.3513
G1 Y54.8611
G2 X46.4291 Y55.3379 I1.5 J0.0
G1 X48.4632 Y61.4052
G1 Y62.6604
G1 X36.4629
G1 Y61.4244
G1 X38.6003 Y55.5402
G0 Z3.0
G0 X42.548 Y56.9742
G0 Z0.5
G1 F25.0 Z-1.0
G1 F80.0 X43.0462 Y58.4604
G1 X42.0081
G1 X42.548 Y56.9742
G1 F25.0 X41.984 Y56.7693
G1 F80.0 X42.0447 Y56.6023
G2 X42.3511 Y54.8611 I-4.7935 J-1.7412
G1 Y41.5612
G1 X42.7513
G1 Y54.8611
G2 X43.0158 Y56.4822 I5.1 J0.0
G1 X43.8802 Y59.0604
G1 X41.1518
G1 X41.984 Y56.7693
G1 F25.0 X40.8561 Y56.3596
G1 F80.0 X40.9168 Y56.1926
G2 X41.1511 Y54.8611 I-3.6657 J-1.3315
G1 Y40.3612
G1 X43.9513
G1 Y54.8611
G2 X44.1536 Y56.1007 I3.9 J0.0
G1 X45.5481 Y60.2604
G1 X39.4392
G1 X40.8561 Y56.3596
G1 F25.0 X39.7282 Y55.9499
G1 F80.0 X39.7889 Y55.7829
G2 X39.9511 Y54.8611 I-2.5378 J-0.9218
G1 Y39.1612
G1 X45.1513
G1 Y54.8611
G2 X45.2914 Y55.7193 I2.7 J0.0
G1 X47.2161 Y61.4604
G1 X37.7265
G1 X39.7282 Y55.9499
G1 F25.0 X38.6003 Y55.5402
G1 F80.0 X38.661 Y55.3732
G2 X38.7511 Y54.8611 I-1.4099 J-0.5121
G1 Y37.9612
G1 X46.3513
G1 Y54.8611
G2 X46.4291 Y55.3379 I1.5 J0.0
G1 X48.4632 Y61.4052
G1 Y62.6604
G1 X36.4629
G1 Y61.4244
G1 X38.6003 Y55.5402
G0 Z3.0
G0 X42.548 Y56.9742
G0 Z0.0
G1 F25.0 Z-1.5
G1 F80.0 X43.0462 Y58.4604
G1 X42.0081
G1 X42.548 Y56.9742
G1 F25.0 X41.984 Y56.7693
G1 F80.0 X42.0447 Y56.6023
G2 X42.3511 Y54.8611 I-4.7935 J-1.7412
G1 Y41.5612
G1 X42.7513
G1 Y54.8611
G2 X43.0158 Y56.4822 I5.1 J0.0
G1 X43.8802 Y59.0604
G1 X41.1518
G1 X41.984 Y56.7693
G1 F25.0 X40.8561 Y56.3596
G1 F80.0 X40.9168 Y56.1926
G2 X41.1511 Y54.8611 I-3.6657 J-1.3315
G1 Y40.3612
G1 X43.9513
G1 Y54.8611
G2 X44.1536 Y56.1007 I3.9 J0.0
G1 X45.5481 Y60.2604
G1 X39.4392
G1 X40.8561 Y56.3596
G1 F25.0 X39.7282 Y55.9499
G1 F80.0 X39.7889 Y55.7829
G2 X39.9511 Y54.8611 I-2.5378 J-0.9218
G1 Y39.1612
G1 X45.1513
G1 Y54.8611
G2 X45.2914 Y55.7193 I2.7 J0.0
G1 X47.2161 Y61.4604
G1 X37.7265
G1 X39.7282 Y55.9499
G1 F25.0 X38.6003 Y55.5402
G1 F80.0 X38.661 Y55.3732
G2 X38.7511 Y54.8611 I-1.4099 J-0.5121
G1 Y37.9612
G1 X46.3513
G1 Y54.8611
G2 X46.4291 Y55.3379 I1.5 J0.0
G1 X48.4632 Y61.4052
G1 Y62.6604
G1 X36.4629
G1 Y61.4244
G1 X38.6003 Y55.5402
G0 Z3.0
G0 X42.548 Y56.9742
G0 Z-0.5
G1 F25.0 Z-2.0
G1 F80.0 X43.0462 Y58.4604
G1 X42.0081
G1 X42.548 Y56.9742
G1 F25.0 X41.984 Y56.7693
G1 F80.0 X42.0447 Y56.6023
G2 X42.3511 Y54.8611 I-4.7935 J-1.7412
G1 Y41.5612
G1 X42.7513
G1 Y54.8611
G2 X43.0158 Y56.4822 I5.1 J0.0
G1 X43.8802 Y59.0604
G1 X41.1518
G1 X41.984 Y56.7693
G1 F25.0 X40.8561 Y56.3596
G1 F80.0 X40.9168 Y56.1926
G2 X41.1511 Y54.8611 I-3.6657 J-1.3315
G1 Y40.3612
G1 X43.9513
G1 Y54.8611
G2 X44.1536 Y56.1007 I3.9 J0.0
G1 X45.5481 Y60.2604
G1 X39.4392
G1 X40.8561 Y56.3596
G1 F25.0 X39.7282 Y55.9499
G1 F80.0 X39.7889 Y55.7829
G2 X39.9511 Y54.8611 I-2.5378 J-0.9218
G1 Y39.1612
G1 X45.1513
G1 Y54.8611
G2 X45.2914 Y55.7193 I2.7 J0.0
G1 X47.2161 Y61.4604
G1 X37.7265
G1 X39.7282 Y55.9499
G1 F25.0 X38.6003 Y55.5402
G1 F80.0 X38.661 Y55.3732
G2 X38.7511 Y54.8611 I-1.4099 J-0.5121
G1 Y37.9612
G1 X46.3513
G1 Y54.8611
G2 X46.4291 Y55.3379 I1.5 J0.0
G1 X48.4632 Y61.4052
G1 Y62.6604
G1 X36.4629
G1 Y61.4244
G1 X38.6003 Y55.5402
G0 Z3.0
G0 X42.548 Y56.9742
G0 Z-1.0
G1 F25.0 Z-2.5
G1 F80.0 X43.0462 Y58.4604
G1 X42.0081
G1 X42.548 Y56.9742
G1 F25.0 X41.984 Y56.7693
G1 F80.0 X42.0447 Y56.6023
G2 X42.3511 Y54.8611 I-4.7935 J-1.7412
G1 Y41.5612
G1 X42.7513
G1 Y54.8611
G2 X43.0158 Y56.4822 I5.1 J0.0
G1 X43.8802 Y59.0604
G1 X41.1518
G1 X41.984 Y56.7693
G1 F25.0 X40.8561 Y56.3596
G1 F80.0 X40.9168 Y56.1926
G2 X41.1511 Y54.8611 I-3.6657 J-1.3315
G1 Y40.3612
G1 X43.9513
G1 Y54.8611
G2 X44.1536 Y56.1007 I3.9 J0.0
G1 X45.5481 Y60.2604
G1 X39.4392
G1 X40.8561 Y56.3596
G1 F25.0 X39.7282 Y55.9499
G1 F80.0 X39.7889 Y55.7829
G2 X39.9511 Y54.8611 I-2.5378 J-0.9218
G1 Y39.1612
G1 X45.1513
G1 Y54.8611
G2 X45.2914 Y55.7193 I2.7 J0.0
G1 X47.2161 Y61.4604
G1 X37.7265
G1 X39.7282 Y55.9499
G1 F25.0 X38.6003 Y55.5402
G1 F80.0 X38.661 Y55.3732
G2 X38.7511 Y54.8611 I-1.4099 J-0.5121
G1 Y37.9612
G1 X46.3513
G1 Y54.8611
G2 X46.4291 Y55.3379 I1.5 J0.0
G1 X48.4632 Y61.4052
G1 Y62.6604
G1 X36.4629
G1 Y61.4244
G1 X38.6003 Y55.5402
G0 Z3.0
G0 X42.548 Y56.9742
G0 Z-1.5
G1 F25.0 Z-3.0
G1 F80.0 X43.0462 Y58.4604
G1 X42.0081
G1 X42.548 Y56.9742
G1 F25.0 X41.984 Y56.7693
G1 F80.0 X42.0447 Y56.6023
G2 X42.3511 Y54.8611 I-4.7935 J-1.7412
G1 Y41.5612
G1 X42.7513
G1 Y54.8611
G2 X43.0158 Y56.4822 I5.1 J0.0
G1 X43.8802 Y59.0604
G1 X41.1518
G1 X41.984 Y56.7693
G1 F25.0 X40.8561 Y56.3596
G1 F80.0 X40.9168 Y56.1926
G2 X41.1511 Y54.8611 I-3.6657 J-1.3315
G1 Y40.3612
G1 X43.9513
G1 Y54.8611
G2 X44.1536 Y56.1007 I3.9 J0.0
G1 X45.5481 Y60.2604
G1 X39.4392
G1 X40.8561 Y56.3596
G1 F25.0 X39.7282 Y55.9499
G1 F80.0 X39.7889 Y55.7829
G2 X39.9511 Y54.8611 I-2.5378 J-0.9218
G1 Y39.1612
G1 X45.1513
G1 Y54.8611
G2 X45.2914 Y55.7193 I2.7 J0.0
G1 X47.2161 Y61.4604
G1 X37.7265
G1 X39.7282 Y55.9499
G1 F25.0 X38.6003 Y55.5402
G1 F80.0 X38.661 Y55.3732
G2 X38.7511 Y54.8611 I-1.4099 J-0.5121
G1 Y37.9612
G1 X46.3513
G1 Y54.8611
G2 X46.4291 Y55.3379 I1.5 J0.0
G1 X48.4632 Y61.4052
G1 Y62.6604
G1 X36.4629
G1 Y61.4244
G1 X38.6003 Y55.5402
G0 Z3.0
M5
M30
