( Made using CamBam - http://www.cambam.co.uk )
( chip plates SOIC 10/26/2013 4:42:31 PM )
( T4 : 4.0 )
G21 G90 G91.1 G64 G40
G0 Z3.0
( T4 : 4.0 )
T4 M6
( Profile1 )
G17
M3 S1000
G0 X24.6097 Y29.8182
G0 Z1.0
G1 F25.0 Z-1.0
G2 F150.0 X27.0 Y26.506 I-1.1141 J-3.3227
G2 Y26.5 I-2.0 J-0.006
G1 Y1.5
G2 Y1.494 I-2.0 J0.0
G2 X23.506 Y-2.0 I-3.5045 J0.0105
G2 X23.5 I-0.006 J2.0
G1 X1.5
G2 X1.494 I0.0 J2.0
G2 X-2.0 Y1.494 I0.0105 J3.5045
G2 Y1.5 I2.0 J0.006
G1 Y26.5
G2 Y26.506 I2.0 J0.0
G2 X1.494 Y30.0 I3.5045 J-0.0105
G2 X1.5 I0.006 J-2.0
G1 X23.5
G2 X23.506 I0.0 J-2.0
G2 X24.6097 Y29.8182 I-0.0105 J-3.5045
G1 F25.0 Z-2.0
G2 F150.0 X27.0 Y26.506 I-1.1141 J-3.3227
G2 Y26.5 I-2.0 J-0.006
G1 Y1.5
G2 Y1.494 I-2.0 J0.0
G2 X23.506 Y-2.0 I-3.5045 J0.0105
G2 X23.5 I-0.006 J2.0
G1 X1.5
G2 X1.494 I0.0 J2.0
G2 X-2.0 Y1.494 I0.0105 J3.5045
G2 Y1.5 I2.0 J0.006
G1 Y26.5
G2 Y26.506 I2.0 J0.0
G2 X1.494 Y30.0 I3.5045 J-0.0105
G2 X1.5 I0.006 J-2.0
G1 X23.5
G2 X23.506 I0.0 J-2.0
G2 X24.6097 Y29.8182 I-0.0105 J-3.5045
G1 F25.0 Z-3.0
G2 F150.0 X27.0 Y26.506 I-1.1141 J-3.3227
G2 Y26.5 I-2.0 J-0.006
G1 Y1.5
G2 Y1.494 I-2.0 J0.0
G2 X23.506 Y-2.0 I-3.5045 J0.0105
G2 X23.5 I-0.006 J2.0
G1 X1.5
G2 X1.494 I0.0 J2.0
G2 X-2.0 Y1.494 I0.0105 J3.5045
G2 Y1.5 I2.0 J0.006
G1 Y26.5
G2 Y26.506 I2.0 J0.0
G2 X1.494 Y30.0 I3.5045 J-0.0105
G2 X1.5 I0.006 J-2.0
G1 X23.5
G2 X23.506 I0.0 J-2.0
G2 X24.6097 Y29.8182 I-0.0105 J-3.5045
G1 F25.0 Z-4.0
G2 F150.0 X27.0 Y26.506 I-1.1141 J-3.3227
G2 Y26.5 I-2.0 J-0.006
G1 Y1.5
G2 Y1.494 I-2.0 J0.0
G2 X23.506 Y-2.0 I-3.5045 J0.0105
G2 X23.5 I-0.006 J2.0
G1 X1.5
G2 X1.494 I0.0 J2.0
G2 X-2.0 Y1.494 I0.0105 J3.5045
G2 Y1.5 I2.0 J0.006
G1 Y26.5
G2 Y26.506 I2.0 J0.0
G2 X1.494 Y30.0 I3.5045 J-0.0105
G2 X1.5 I0.006 J-2.0
G1 X23.5
G2 X23.506 I0.0 J-2.0
G2 X24.6097 Y29.8182 I-0.0105 J-3.5045
G1 F25.0 Z-4.5
G2 F150.0 X27.0 Y26.506 I-1.1141 J-3.3227
G2 Y26.5 I-2.0 J-0.006
G1 Y1.5
G2 Y1.494 I-2.0 J0.0
G2 X23.506 Y-2.0 I-3.5045 J0.0105
G2 X23.5 I-0.006 J2.0
G1 X1.5
G2 X1.494 I0.0 J2.0
G2 X-2.0 Y1.494 I0.0105 J3.5045
G2 Y1.5 I2.0 J0.006
G1 Y26.5
G2 Y26.506 I2.0 J0.0
G2 X1.494 Y30.0 I3.5045 J-0.0105
G2 X1.5 I0.006 J-2.0
G1 X23.5
G2 X23.506 I0.0 J-2.0
G2 X24.6097 Y29.8182 I-0.0105 J-3.5045
( Profile2 )
S1000
G0 Z3.0
G0 X54.5577 Y29.8511
G0 Z1.0
G1 F25.0 Z-1.0
G2 F150.0 X57.0512 Y26.506 I-1.0109 J-3.3555
G2 Y26.5 I-2.0 J-0.006
G1 Y1.5
G2 Y1.494 I-2.0 J0.0
G2 X53.5572 Y-2.0 I-3.5045 J0.0105
G2 X53.5513 I-0.006 J2.0
G1 X31.5512
G2 X31.5452 I0.0 J2.0
G2 X28.0512 Y1.494 I0.0105 J3.5045
G2 Y1.5 I2.0 J0.006
G1 Y26.5
G2 Y26.506 I2.0 J0.0
G2 X31.5452 Y30.0 I3.5045 J-0.0105
G2 X31.5512 I0.006 J-2.0
G1 X53.5513
G2 X53.5572 I0.0 J-2.0
G2 X54.5577 Y29.8511 I-0.0105 J-3.5045
G1 F25.0 Z-2.0
G2 F150.0 X57.0512 Y26.506 I-1.0109 J-3.3555
G2 Y26.5 I-2.0 J-0.006
G1 Y1.5
G2 Y1.494 I-2.0 J0.0
G2 X53.5572 Y-2.0 I-3.5045 J0.0105
G2 X53.5513 I-0.006 J2.0
G1 X31.5512
G2 X31.5452 I0.0 J2.0
G2 X28.0512 Y1.494 I0.0105 J3.5045
G2 Y1.5 I2.0 J0.006
G1 Y26.5
G2 Y26.506 I2.0 J0.0
G2 X31.5452 Y30.0 I3.5045 J-0.0105
G2 X31.5512 I0.006 J-2.0
G1 X53.5513
G2 X53.5572 I0.0 J-2.0
G2 X54.5577 Y29.8511 I-0.0105 J-3.5045
G1 F25.0 Z-3.0
G2 F150.0 X57.0512 Y26.506 I-1.0109 J-3.3555
G2 Y26.5 I-2.0 J-0.006
G1 Y1.5
G2 Y1.494 I-2.0 J0.0
G2 X53.5572 Y-2.0 I-3.5045 J0.0105
G2 X53.5513 I-0.006 J2.0
G1 X31.5512
G2 X31.5452 I0.0 J2.0
G2 X28.0512 Y1.494 I0.0105 J3.5045
G2 Y1.5 I2.0 J0.006
G1 Y26.5
G2 Y26.506 I2.0 J0.0
G2 X31.5452 Y30.0 I3.5045 J-0.0105
G2 X31.5512 I0.006 J-2.0
G1 X53.5513
G2 X53.5572 I0.0 J-2.0
G2 X54.5577 Y29.8511 I-0.0105 J-3.5045
G1 F25.0 Z-4.0
G2 F150.0 X57.0512 Y26.506 I-1.0109 J-3.3555
G2 Y26.5 I-2.0 J-0.006
G1 Y1.5
G2 Y1.494 I-2.0 J0.0
G2 X53.5572 Y-2.0 I-3.5045 J0.0105
G2 X53.5513 I-0.006 J2.0
G1 X31.5512
G2 X31.5452 I0.0 J2.0
G2 X28.0512 Y1.494 I0.0105 J3.5045
G2 Y1.5 I2.0 J0.006
G1 Y26.5
G2 Y26.506 I2.0 J0.0
G2 X31.5452 Y30.0 I3.5045 J-0.0105
G2 X31.5512 I0.006 J-2.0
G1 X53.5513
G2 X53.5572 I0.0 J-2.0
G2 X54.5577 Y29.8511 I-0.0105 J-3.5045
G1 F25.0 Z-4.5
G2 F150.0 X57.0512 Y26.506 I-1.0109 J-3.3555
G2 Y26.5 I-2.0 J-0.006
G1 Y1.5
G2 Y1.494 I-2.0 J0.0
G2 X53.5572 Y-2.0 I-3.5045 J0.0105
G2 X53.5513 I-0.006 J2.0
G1 X31.5512
G2 X31.5452 I0.0 J2.0
G2 X28.0512 Y1.494 I0.0105 J3.5045
G2 Y1.5 I2.0 J0.006
G1 Y26.5
G2 Y26.506 I2.0 J0.0
G2 X31.5452 Y30.0 I3.5045 J-0.0105
G2 X31.5512 I0.006 J-2.0
G1 X53.5513
G2 X53.5572 I0.0 J-2.0
G2 X54.5577 Y29.8511 I-0.0105 J-3.5045
( Profile3 )
S1000
G0 Z3.0
G0 X54.6671 Y62.9772
G0 Z1.0
G1 F25.0 Z-1.0
G2 F150.0 X57.0512 Y59.6671 I-1.1203 J-3.3206
G2 Y59.6611 I-2.0 J-0.006
G1 Y34.6611
G2 Y34.6551 I-2.0 J0.0
G2 X53.5572 Y31.1611 I-3.5045 J0.0105
G2 X53.5513 I-0.006 J2.0
G1 X31.5512
G2 X31.5452 I0.0 J2.0
G2 X28.0512 Y34.6551 I0.0105 J3.5045
G2 Y34.6611 I2.0 J0.006
G1 Y59.6611
G2 Y59.6671 I2.0 J0.0
G2 X31.5452 Y63.1611 I3.5045 J-0.0105
G2 X31.5512 I0.006 J-2.0
G1 X53.5513
G2 X53.5572 I0.0 J-2.0
G2 X54.6671 Y62.9772 I-0.0105 J-3.5045
G1 F25.0 Z-2.0
G2 F150.0 X57.0512 Y59.6671 I-1.1203 J-3.3206
G2 Y59.6611 I-2.0 J-0.006
G1 Y34.6611
G2 Y34.6551 I-2.0 J0.0
G2 X53.5572 Y31.1611 I-3.5045 J0.0105
G2 X53.5513 I-0.006 J2.0
G1 X31.5512
G2 X31.5452 I0.0 J2.0
G2 X28.0512 Y34.6551 I0.0105 J3.5045
G2 Y34.6611 I2.0 J0.006
G1 Y59.6611
G2 Y59.6671 I2.0 J0.0
G2 X31.5452 Y63.1611 I3.5045 J-0.0105
G2 X31.5512 I0.006 J-2.0
G1 X53.5513
G2 X53.5572 I0.0 J-2.0
G2 X54.6671 Y62.9772 I-0.0105 J-3.5045
G1 F25.0 Z-3.0
G2 F150.0 X57.0512 Y59.6671 I-1.1203 J-3.3206
G2 Y59.6611 I-2.0 J-0.006
G1 Y34.6611
G2 Y34.6551 I-2.0 J0.0
G2 X53.5572 Y31.1611 I-3.5045 J0.0105
G2 X53.5513 I-0.006 J2.0
G1 X31.5512
G2 X31.5452 I0.0 J2.0
G2 X28.0512 Y34.6551 I0.0105 J3.5045
G2 Y34.6611 I2.0 J0.006
G1 Y59.6611
G2 Y59.6671 I2.0 J0.0
G2 X31.5452 Y63.1611 I3.5045 J-0.0105
G2 X31.5512 I0.006 J-2.0
G1 X53.5513
G2 X53.5572 I0.0 J-2.0
G2 X54.6671 Y62.9772 I-0.0105 J-3.5045
G1 F25.0 Z-4.0
G2 F150.0 X57.0512 Y59.6671 I-1.1203 J-3.3206
G2 Y59.6611 I-2.0 J-0.006
G1 Y34.6611
G2 Y34.6551 I-2.0 J0.0
G2 X53.5572 Y31.1611 I-3.5045 J0.0105
G2 X53.5513 I-0.006 J2.0
G1 X31.5512
G2 X31.5452 I0.0 J2.0
G2 X28.0512 Y34.6551 I0.0105 J3.5045
G2 Y34.6611 I2.0 J0.006
G1 Y59.6611
G2 Y59.6671 I2.0 J0.0
G2 X31.5452 Y63.1611 I3.5045 J-0.0105
G2 X31.5512 I0.006 J-2.0
G1 X53.5513
G2 X53.5572 I0.0 J-2.0
G2 X54.6671 Y62.9772 I-0.0105 J-3.5045
G1 F25.0 Z-4.5
G2 F150.0 X57.0512 Y59.6671 I-1.1203 J-3.3206
G2 Y59.6611 I-2.0 J-0.006
G1 Y34.6611
G2 Y34.6551 I-2.0 J0.0
G2 X53.5572 Y31.1611 I-3.5045 J0.0105
G2 X53.5513 I-0.006 J2.0
G1 X31.5512
G2 X31.5452 I0.0 J2.0
G2 X28.0512 Y34.6551 I0.0105 J3.5045
G2 Y34.6611 I2.0 J0.006
G1 Y59.6611
G2 Y59.6671 I2.0 J0.0
G2 X31.5452 Y63.1611 I3.5045 J-0.0105
G2 X31.5512 I0.006 J-2.0
G1 X53.5513
G2 X53.5572 I0.0 J-2.0
G2 X54.6671 Y62.9772 I-0.0105 J-3.5045
G0 Z3.0
M5
M30
