( Made using CamBam - http://www.cambam.co.uk )
( chip plates SOIC 10/26/2013 4:42:22 PM )
( T0 : 0.0 )
G21 G90 G91.1 G64 G40
G0 Z3.0
( T0 : 0.0 )
T0 M6
( Engrave )
G17
M3 S1000
G0 X22.1006 Y8.6374
G0 Z1.0
G1 F25.0 Z-0.1
G3 X21.8742 Y8.5826 I0.0148 J-0.556
G3 X21.6448 Y8.3284 I0.2199 J-0.4291
G3 X21.5846 Y7.9914 I0.7953 J-0.3161
G3 X21.6788 Y7.6217 I0.7115 J-0.0155
G3 X22.0135 Y7.4387 I0.3213 J0.19
G3 X22.2298 Y7.5131 I0.0106 J0.3207
G3 X22.3294 Y7.6466 I-0.2921 J0.3219
G3 X22.4097 Y7.8815 I-1.0528 J0.4908
G1 X22.4237 Y7.9419
G3 X22.4336 Y7.9874 I-0.2547 J0.0789
G1 X22.4407 Y8.0216
G1 X22.4617 Y8.1241
G2 X22.5164 Y8.3565 I3.0697 J-0.6006
G2 X22.5797 Y8.5283 I1.0934 J-0.3047
G2 X22.7542 Y8.7412 I0.4613 J-0.2003
G2 X23.0201 Y8.8124 I0.2492 J-0.3983
G2 X23.4559 Y8.5803 I0.0132 J-0.5003
G2 X23.5555 Y8.3517 I-0.6223 J-0.4072
G2 X23.5872 Y8.1044 I-0.9702 J-0.25
G2 X23.5545 Y7.7958 I-1.2994 J-0.0183
G2 X23.4715 Y7.5739 I-0.8523 J0.1921
G2 X23.2194 Y7.3268 I-0.5206 J0.279
G2 X22.8737 Y7.2554 I-0.3208 J0.6803
G1 Y7.3794
G3 X23.1428 Y7.421 I0.0469 J0.5867
G3 X23.3071 Y7.5398 I-0.1852 J0.4293
G3 X23.4438 Y7.8068 I-0.4921 J0.4204
G3 X23.48 Y8.1044 I-1.1863 J0.2956
G3 X23.3761 Y8.4956 I-0.7436 J0.0118
G3 X23.0201 Y8.6882 I-0.3429 J-0.2084
G3 X22.7975 Y8.618 I-0.0115 J-0.3516
G3 X22.69 Y8.4859 I0.2613 J-0.3225
G3 X22.6033 Y8.2477 I0.9439 J-0.4784
G3 X22.5492 Y8.0 I3.9291 J-0.9886
G2 X22.4964 Y7.7726 I-3.3324 J0.6538
G2 X22.4371 Y7.6035 I-0.9736 J0.2463
G2 X22.4065 Y7.5426 I-0.3323 J0.1292
G2 X22.2437 Y7.3704 I-0.3908 J0.2063
G2 X22.0135 Y7.3145 I-0.2164 J0.3888
G2 X21.7763 Y7.3701 I-0.0109 J0.4865
G2 X21.6364 Y7.4851 I0.2252 J0.4167
G2 X21.514 Y7.7248 I0.4999 J0.4062
G2 X21.4774 Y7.9914 I0.9676 J0.2687
G2 X21.5071 Y8.2644 I1.2432 J0.0031
G2 X21.5807 Y8.46 I0.8339 J-0.2023
G2 X21.7989 Y8.6826 I0.4885 J-0.2606
G2 X22.1006 Y8.7616 I0.3182 J-0.6002
G1 Y8.6374
G0 Z3.0
G0 X22.2828 Y9.5975
G0 Z1.0
G1 Z-0.1
G2 X22.1407 Y9.6331 I0.2372 J1.2503
G2 X21.8702 Y9.7623 I0.3123 J1.0016
G2 X21.5745 Y10.0977 I0.4785 J0.72
G2 X21.4774 Y10.5342 I0.8925 J0.4275
G2 X21.5544 Y10.9259 I0.9649 J0.0137
G2 X21.9578 Y11.3563 I0.8069 J-0.3521
G2 X22.5323 Y11.4904 I0.5576 J-1.0914
G2 X22.9232 Y11.4329 I0.0114 J-1.2787
G2 X23.1935 Y11.3043 I-0.302 J-0.9829
G2 X23.4897 Y10.97 I-0.4911 J-0.7335
G2 X23.5872 Y10.5342 I-0.8695 J-0.4234
G2 X23.5106 Y10.1419 I-0.9808 J-0.0121
G2 X23.1075 Y9.7099 I-0.8126 J0.3542
G2 X22.5323 Y9.5753 I-0.5579 J1.0873
G2 X22.2828 Y9.5975 I-0.0122 J1.2725
G0 Z3.0
G0 X22.3064 Y9.7193
G0 Z1.0
G1 Z-0.1
G3 X22.5323 Y9.6993 I0.2097 J1.0853
G3 X22.8782 Y9.7493 I-0.0018 J1.2346
G3 X23.3155 Y10.0373 I-0.2411 J0.8422
G3 X23.48 Y10.5342 I-0.623 J0.4821
G3 X23.4072 Y10.88 I-0.8259 J0.0065
G3 X23.0408 Y11.251 I-0.7169 J-0.3416
G3 X22.5323 Y11.3664 I-0.4929 J-0.9934
G3 X22.1871 Y11.3167 I0.0026 J-1.2413
G3 X21.7499 Y11.0301 I0.241 J-0.8444
G3 X21.5846 Y10.5342 I0.6195 J-0.4821
G3 X21.657 Y10.1878 I0.8335 J-0.0064
G3 X22.023 Y9.8153 I0.7158 J0.3371
G3 X22.3064 Y9.7193 I0.4931 J0.9893
G0 Z3.0
G0 Y12.3212
G0 Z1.0
G1 Z-0.1
G1 X21.5253
G1 Y12.4452
G1 X23.5393
G1 Y12.3212
G1 X22.3064
G0 Z3.0
G0 X22.3992 Y13.295
G0 Z1.0
G1 Z-0.1
G2 X22.1407 Y13.3471 I0.1208 J1.2668
G2 X21.8702 Y13.4763 I0.3123 J1.0016
G2 X21.5745 Y13.8117 I0.4785 J0.72
G2 X21.4774 Y14.2482 I0.8925 J0.4275
G2 X21.5149 Y14.5283 I0.9627 J0.0136
G2 X21.7431 Y14.8824 I0.6904 J-0.1944
G2 X22.1261 Y15.0578 I0.5159 J-0.6204
G1 Y14.9336
G3 X21.7258 Y14.6932 I0.0905 J-0.6041
G3 X21.5846 Y14.2482 I0.6017 J-0.4359
G3 X21.657 Y13.9018 I0.8335 J-0.0064
G3 X22.023 Y13.5293 I0.7158 J0.3371
G3 X22.5323 Y13.4133 I0.4931 J0.9893
G3 X22.8782 Y13.4633 I-0.0018 J1.2346
G3 X23.3155 Y13.7513 I-0.2411 J0.8422
G3 X23.48 Y14.2482 I-0.623 J0.4821
G3 X23.2566 Y14.748 I-0.6896 J-0.0084
G3 X22.7552 Y14.9676 I-0.5553 J-0.586
G1 Y15.0916
G2 X23.3368 Y14.8332 I-0.0774 J-0.9578
G2 X23.5872 Y14.2482 I-0.5563 J-0.5843
G2 X23.5106 Y13.8559 I-0.9808 J-0.0121
G2 X23.1075 Y13.4239 I-0.8126 J0.3542
G2 X22.5323 Y13.2893 I-0.5579 J1.0873
G2 X22.3992 Y13.295 I-0.0122 J1.2725
G0 Z3.0
G0 Y17.9143
G0 Z1.0
G1 Z-0.1
G1 X21.5932
G1 Y18.0215
G1 X23.5393
G1 Y17.9143
G1 X22.3992
G0 Z3.0
G0 X22.9357 Y19.3034
G0 Z1.0
G1 Z-0.1
G1 X21.5932 Y20.2511
G1 Y20.3583
G1 X22.9498
G1 Y20.6854
G1 X23.0429
G1 Y20.3583
G1 X23.5393
G1 Y20.2511
G1 X23.0429
G1 Y19.3034
G1 X22.9357
G0 Z3.0
G0 X22.9498 Y19.4105
G0 Z1.0
G1 Z-0.1
G1 Y20.2511
G1 X21.7396
G1 Y20.2454
G1 X22.9498 Y19.4105
G0 Z3.0
G0 X51.6103 Y20.0286
G0 Z1.0
G1 Z-0.1
G2 Y20.0565 I0.6508 J0.014
G2 X51.6411 Y20.2704 I0.6812 J0.0111
G2 X51.8228 Y20.5367 I0.5021 J-0.1475
G2 X52.124 Y20.6516 I0.3574 J-0.4845
G1 Y20.5445
G3 X51.82 Y20.3813 I0.0759 J-0.5061
G3 X51.7036 Y20.0565 I0.3707 J-0.316
G3 X51.8075 Y19.7357 I0.5022 J-0.0146
G3 X52.0001 Y19.5816 I0.4458 J0.3598
G3 X52.171 Y19.5139 I0.4601 J0.9119
G3 X52.2376 Y19.4962 I0.5087 J1.776
G3 X52.7162 Y19.4472 I0.4462 J1.9989
G1 X52.7217 Y19.4529
G2 X52.3045 Y20.0339 I0.198 J0.5825
G2 X52.4954 Y20.5045 I0.6417 J0.0137
G2 X52.9701 Y20.6854 I0.4606 J-0.4954
G2 X53.4376 Y20.5006 I0.0115 J-0.6549
G2 X53.6243 Y20.0339 I-0.4609 J-0.4551
G2 X53.557 Y19.7123 I-0.7154 J-0.0182
G2 X53.4031 Y19.5227 I-0.4941 J0.2438
G2 X53.2463 Y19.4308 I-0.4429 J0.5757
G2 X52.9843 Y19.3591 I-0.4339 J1.0711
G1 X52.9169 Y19.3504
G2 X52.7134 Y19.3401 I-0.2245 J2.4234
G2 X52.3545 Y19.3651 I-0.0291 J2.1717
G2 X52.0859 Y19.43 I0.2086 J1.4505
G2 X51.896 Y19.5206 I0.2744 J0.8191
G2 X51.6799 Y19.7495 I0.3178 J0.5166
G2 X51.6103 Y20.0286 I0.5812 J0.2931
G0 Z3.0
G0 X52.3974 Y20.0275
G0 Z1.0
G1 Z-0.1
G3 X52.5667 Y19.637 I0.5332 J-0.0008
G3 X52.9701 Y19.4839 I0.3956 J0.4342
G3 X53.3669 Y19.6404 I0.0073 J0.5629
G3 X53.5313 Y20.0339 I-0.3794 J0.3896
G3 X53.3652 Y20.4242 I-0.5325 J0.0039
G3 X52.9701 Y20.5782 I-0.3902 J-0.417
G3 X52.5704 Y20.4253 I-0.0027 J-0.5915
G3 X52.3975 Y20.0339 I0.3506 J-0.3888
G3 X52.3974 Y20.0275 I0.5332 J-0.0072
G0 Z3.0
G0 Y18.0215
G0 Z1.0
G1 Z-0.1
G1 X53.5905
G1 Y17.9143
G1 X51.6444
G1 Y18.0215
G1 X52.3974
G0 Z3.0
G0 X52.8064 Y15.0916
G0 Z1.0
G1 Z-0.1
G2 X53.388 Y14.8332 I-0.0774 J-0.9578
G2 X53.6384 Y14.2482 I-0.5563 J-0.5843
G2 X53.5618 Y13.8559 I-0.9808 J-0.0121
G2 X53.1588 Y13.4239 I-0.8126 J0.3542
G2 X52.5835 Y13.2893 I-0.5579 J1.0873
G2 X52.1919 Y13.3471 I-0.0122 J1.2725
G2 X51.9215 Y13.4763 I0.3123 J1.0016
G2 X51.6257 Y13.8117 I0.4785 J0.72
G2 X51.5286 Y14.2482 I0.8925 J0.4275
G2 X51.5661 Y14.5283 I0.9627 J0.0136
G2 X51.7944 Y14.8824 I0.6904 J-0.1944
G2 X52.1773 Y15.0578 I0.5159 J-0.6204
G1 Y14.9336
G3 X51.7771 Y14.6932 I0.0905 J-0.6041
G3 X51.6358 Y14.2482 I0.6017 J-0.4359
G3 X51.7082 Y13.9018 I0.8335 J-0.0064
G3 X52.0742 Y13.5293 I0.7158 J0.3371
G3 X52.5835 Y13.4133 I0.4931 J0.9893
G3 X52.9294 Y13.4633 I-0.0018 J1.2346
G3 X53.3667 Y13.7513 I-0.2411 J0.8422
G3 X53.5313 Y14.2482 I-0.623 J0.4821
G3 X53.3079 Y14.748 I-0.6896 J-0.0084
G3 X52.8064 Y14.9676 I-0.5553 J-0.586
G1 Y15.0916
G0 Z3.0
G0 Y12.4452
G0 Z1.0
G1 Z-0.1
G1 X53.5905
G1 Y12.3212
G1 X51.5765
G1 Y12.4452
G1 X52.8064
G0 Z3.0
G0 X52.7155 Y11.4848
G0 Z1.0
G1 Z-0.1
G2 X52.9745 Y11.4329 I-0.1205 J-1.2731
G2 X53.2447 Y11.3043 I-0.302 J-0.9829
G2 X53.5409 Y10.97 I-0.4911 J-0.7335
G2 X53.6384 Y10.5342 I-0.8695 J-0.4234
G2 X53.5618 Y10.1419 I-0.9808 J-0.0121
G2 X53.1588 Y9.7099 I-0.8126 J0.3542
G2 X52.5835 Y9.5753 I-0.5579 J1.0873
G2 X52.1919 Y9.6331 I-0.0122 J1.2725
G2 X51.9215 Y9.7623 I0.3123 J1.0016
G2 X51.6257 Y10.0977 I0.4785 J0.72
G2 X51.5286 Y10.5342 I0.8925 J0.4275
G2 X51.6056 Y10.9259 I0.9649 J0.0137
G2 X52.0091 Y11.3563 I0.8069 J-0.3521
G2 X52.5835 Y11.4904 I0.5576 J-1.0914
G2 X52.7155 Y11.4848 I0.0114 J-1.2787
G0 Z3.0
G0 X52.7038 Y11.3616
G0 Z1.0
G1 Z-0.1
G3 X52.5835 Y11.3664 I-0.1046 J-1.104
G3 X52.2383 Y11.3167 I0.0026 J-1.2413
G3 X51.8011 Y11.0301 I0.241 J-0.8444
G3 X51.6358 Y10.5342 I0.6195 J-0.4821
G3 X51.7082 Y10.1878 I0.8335 J-0.0064
G3 X52.0742 Y9.8153 I0.7158 J0.3371
G3 X52.5835 Y9.6993 I0.4931 J0.9893
G3 X52.9294 Y9.7493 I-0.0018 J1.2346
G3 X53.3667 Y10.0373 I-0.2411 J0.8422
G3 X53.5313 Y10.5342 I-0.623 J0.4821
G3 X53.4584 Y10.88 I-0.8259 J0.0065
G3 X53.0921 Y11.251 I-0.7169 J-0.3416
G3 X52.7038 Y11.3616 I-0.4929 J-0.9934
G0 Z3.0
G0 X53.0004 Y8.8095
G0 Z1.0
G1 Z-0.1
G2 X53.0714 Y8.8124 I0.0542 J-0.4667
G2 X53.5071 Y8.5803 I0.0132 J-0.5003
G2 X53.6067 Y8.3517 I-0.6223 J-0.4072
G2 X53.6384 Y8.1044 I-0.9702 J-0.25
G2 X53.6057 Y7.7958 I-1.2994 J-0.0183
G2 X53.5228 Y7.5739 I-0.8523 J0.1921
G2 X53.2706 Y7.3268 I-0.5206 J0.279
G2 X52.9249 Y7.2554 I-0.3208 J0.6803
G1 Y7.3794
G3 X53.194 Y7.421 I0.0469 J0.5867
G3 X53.3583 Y7.5398 I-0.1852 J0.4293
G3 X53.495 Y7.8068 I-0.4921 J0.4204
G3 X53.5313 Y8.1044 I-1.1863 J0.2956
G3 X53.4273 Y8.4956 I-0.7436 J0.0118
G3 X53.0714 Y8.6882 I-0.3429 J-0.2084
G3 X52.8487 Y8.618 I-0.0115 J-0.3516
G3 X52.7412 Y8.4859 I0.2613 J-0.3225
G3 X52.6545 Y8.2477 I0.9439 J-0.4784
G3 X52.6004 Y8.0 I3.9291 J-0.9886
G2 X52.5476 Y7.7726 I-3.3324 J0.6538
G2 X52.4883 Y7.6035 I-0.9736 J0.2463
G2 X52.4577 Y7.5426 I-0.3323 J0.1292
G2 X52.2949 Y7.3704 I-0.3908 J0.2063
G2 X52.0647 Y7.3145 I-0.2164 J0.3888
G2 X51.8275 Y7.3701 I-0.0109 J0.4865
G2 X51.6876 Y7.4851 I0.2252 J0.4167
G2 X51.5652 Y7.7248 I0.4999 J0.4062
G2 X51.5286 Y7.9914 I0.9676 J0.2687
G2 X51.5583 Y8.2644 I1.2432 J0.0031
G2 X51.6319 Y8.46 I0.8339 J-0.2023
G2 X51.8502 Y8.6826 I0.4885 J-0.2606
G2 X52.1519 Y8.7616 I0.3182 J-0.6002
G1 Y8.6374
G3 X51.9255 Y8.5826 I0.0148 J-0.556
G3 X51.696 Y8.3284 I0.2199 J-0.4291
G3 X51.6358 Y7.9914 I0.7953 J-0.3161
G3 X51.73 Y7.6217 I0.7115 J-0.0155
G3 X52.0647 Y7.4387 I0.3213 J0.19
G3 X52.281 Y7.5131 I0.0106 J0.3207
G3 X52.3807 Y7.6466 I-0.2921 J0.3219
G3 X52.4609 Y7.8815 I-1.0528 J0.4908
G1 X52.475 Y7.9419
G3 X52.4848 Y7.9874 I-0.2547 J0.0789
G1 X52.492 Y8.0216
G1 X52.5129 Y8.1241
G2 X52.5677 Y8.3565 I3.0697 J-0.6006
G2 X52.6309 Y8.5283 I1.0934 J-0.3047
G2 X52.8055 Y8.7412 I0.4613 J-0.2003
G2 X53.0004 Y8.8095 I0.2492 J-0.3983
G0 Z3.0
G0 X52.9722 Y40.4161
G0 Z1.0
G1 Z-0.1
G2 X52.9466 Y40.4165 I-0.0007 J0.7521
G1 Y40.5405
G3 X53.2157 Y40.5821 I0.0469 J0.5867
G3 X53.38 Y40.7009 I-0.1852 J0.4293
G3 X53.5167 Y40.9679 I-0.4921 J0.4204
G3 X53.553 Y41.2655 I-1.1863 J0.2956
G3 X53.449 Y41.6567 I-0.7436 J0.0118
G3 X53.0931 Y41.8493 I-0.3429 J-0.2084
G3 X52.8704 Y41.7791 I-0.0115 J-0.3516
G3 X52.7629 Y41.647 I0.2613 J-0.3225
G3 X52.6762 Y41.4088 I0.9439 J-0.4784
G3 X52.6221 Y41.1611 I3.9291 J-0.9886
G2 X52.5693 Y40.9337 I-3.3324 J0.6538
G2 X52.5101 Y40.7646 I-0.9736 J0.2463
G2 X52.4794 Y40.7038 I-0.3323 J0.1292
G2 X52.3166 Y40.5315 I-0.3908 J0.2063
G2 X52.0864 Y40.4756 I-0.2164 J0.3888
G2 X51.8492 Y40.5312 I-0.0109 J0.4865
G2 X51.7093 Y40.6462 I0.2252 J0.4167
G2 X51.5869 Y40.8859 I0.4999 J0.4062
G2 X51.5503 Y41.1525 I0.9676 J0.2687
G2 X51.58 Y41.4256 I1.2432 J0.0031
G2 X51.6536 Y41.6211 I0.8339 J-0.2023
G2 X51.8719 Y41.8438 I0.4885 J-0.2606
G2 X52.1736 Y41.9227 I0.3182 J-0.6002
G1 Y41.7985
G3 X51.9472 Y41.7437 I0.0148 J-0.556
G3 X51.7177 Y41.4895 I0.2199 J-0.4291
G3 X51.6575 Y41.1525 I0.7953 J-0.3161
G3 X51.7517 Y40.7828 I0.7115 J-0.0155
G3 X52.0864 Y40.5998 I0.3213 J0.19
G3 X52.3027 Y40.6742 I0.0106 J0.3207
G3 X52.4024 Y40.8077 I-0.2921 J0.3219
G3 X52.4826 Y41.0426 I-1.0528 J0.4908
G1 X52.4967 Y41.103
G3 X52.5065 Y41.1485 I-0.2547 J0.0789
G1 X52.5137 Y41.1827
G1 X52.5346 Y41.2852
G2 X52.5894 Y41.5176 I3.0697 J-0.6006
G2 X52.6526 Y41.6894 I1.0934 J-0.3047
G2 X52.8272 Y41.9023 I0.4613 J-0.2003
G2 X53.0931 Y41.9735 I0.2492 J-0.3983
G2 X53.5288 Y41.7414 I0.0132 J-0.5003
G2 X53.6284 Y41.5128 I-0.6223 J-0.4072
G2 X53.6601 Y41.2655 I-0.9702 J-0.25
G2 X53.6274 Y40.9569 I-1.2994 J-0.0183
G2 X53.5445 Y40.735 I-0.8523 J0.1921
G2 X53.2923 Y40.4879 I-0.5206 J0.279
G2 X52.9722 Y40.4161 I-0.3208 J0.6803
G0 Z3.0
G0 X52.7426 Y42.7422
G0 Z1.0
G1 Z-0.1
G2 X52.6052 Y42.7364 I-0.12 J1.2162
G2 X52.2136 Y42.7942 I-0.0122 J1.2725
G2 X51.9432 Y42.9234 I0.3123 J1.0016
G2 X51.6474 Y43.2588 I0.4785 J0.72
G2 X51.5503 Y43.6954 I0.8925 J0.4275
G2 X51.6273 Y44.087 I0.9649 J0.0137
G2 X52.0308 Y44.5174 I0.8069 J-0.3521
G2 X52.6052 Y44.6515 I0.5576 J-1.0914
G2 X52.9962 Y44.594 I0.0114 J-1.2787
G2 X53.2664 Y44.4654 I-0.302 J-0.9829
G2 X53.5626 Y44.1311 I-0.4911 J-0.7335
G2 X53.6601 Y43.6954 I-0.8695 J-0.4234
G2 X53.5835 Y43.303 I-0.9808 J-0.0121
G2 X53.1805 Y42.8711 I-0.8126 J0.3542
G2 X52.7426 Y42.7422 I-0.5579 J1.0873
G0 Z3.0
G0 X52.7298 Y42.8669
G0 Z1.0
G1 Z-0.1
G3 X52.9511 Y42.9104 I-0.1264 J1.2282
G3 X53.3884 Y43.1984 I-0.2411 J0.8422
G3 X53.553 Y43.6954 I-0.623 J0.4821
G3 X53.4801 Y44.0411 I-0.8259 J0.0065
G3 X53.1138 Y44.4121 I-0.7169 J-0.3416
G3 X52.6052 Y44.5275 I-0.4929 J-0.9934
G3 X52.26 Y44.4778 I0.0026 J-1.2413
G3 X51.8229 Y44.1912 I0.241 J-0.8444
G3 X51.6575 Y43.6954 I0.6195 J-0.4821
G3 X51.7299 Y43.3489 I0.8335 J-0.0064
G3 X52.0959 Y42.9764 I0.7158 J0.3371
G3 X52.6052 Y42.8604 I0.4931 J0.9893
G3 X52.7298 Y42.8669 I-0.0018 J1.2346
G0 Z3.0
G0 Y45.4823
G0 Z1.0
G1 Z-0.1
G1 X51.5982
G1 Y45.6063
G1 X53.6122
G1 Y45.4823
G1 X52.7298
G0 Z3.0
G0 X52.6823 Y46.4517
G0 Z1.0
G1 Z-0.1
G2 X52.6052 Y46.4504 I-0.0598 J1.2207
G2 X52.2136 Y46.5082 I-0.0122 J1.2725
G2 X51.9432 Y46.6374 I0.3123 J1.0016
G2 X51.6474 Y46.9728 I0.4785 J0.72
G2 X51.5503 Y47.4093 I0.8925 J0.4275
G2 X51.5878 Y47.6894 I0.9627 J0.0136
G2 X51.8161 Y48.0435 I0.6904 J-0.1944
G2 X52.1991 Y48.2189 I0.5159 J-0.6204
G1 Y48.0947
G3 X51.7988 Y47.8543 I0.0905 J-0.6041
G3 X51.6575 Y47.4093 I0.6017 J-0.4359
G3 X51.7299 Y47.0629 I0.8335 J-0.0064
G3 X52.0959 Y46.6904 I0.7158 J0.3371
G3 X52.6052 Y46.5744 I0.4931 J0.9893
G3 X52.9511 Y46.6244 I-0.0018 J1.2346
G3 X53.3884 Y46.9124 I-0.2411 J0.8422
G3 X53.553 Y47.4093 I-0.623 J0.4821
G3 X53.3296 Y47.9092 I-0.6896 J-0.0084
G3 X52.8281 Y48.1287 I-0.5553 J-0.586
G1 Y48.2527
G2 X53.4097 Y47.9943 I-0.0774 J-0.9578
G2 X53.6601 Y47.4093 I-0.5563 J-0.5843
G2 X53.5835 Y47.017 I-0.9808 J-0.0121
G2 X53.1805 Y46.585 I-0.8126 J0.3542
G2 X52.6823 Y46.4517 I-0.5579 J1.0873
G0 Z3.0
G0 X52.3231 Y50.4267
G0 Z1.0
G1 Z-0.1
G2 X52.068 Y50.464 I0.0717 J1.3832
G2 X51.8863 Y50.5386 I0.1566 J0.6394
G2 X51.6888 Y50.7545 I0.2438 J0.4213
G2 X51.632 Y51.0415 I0.6115 J0.2701
G2 X51.6616 Y51.2637 I0.7678 J0.0109
G2 X51.8445 Y51.5454 I0.5166 J-0.1352
G2 X52.1653 Y51.6453 I0.3071 J-0.4217
G2 X52.4026 Y51.5975 I0.0025 J-0.6016
G2 X52.6902 Y51.3835 I-0.343 J-0.7612
G2 X52.907 Y51.098 I-1.6485 J-1.4767
G2 X52.9658 Y51.0094 I-3.6233 J-2.4664
G1 X53.0711 Y50.8551
G3 X53.253 Y50.6399 I1.2368 J0.861
G3 X53.3685 Y50.5557 I0.4527 J0.4998
G3 X53.5051 Y50.5141 I0.1739 J0.3256
G1 Y51.6763
G1 X53.6122
G1 Y50.3787
G2 X53.1631 Y50.5844 I0.0483 J0.6984
G2 X53.0777 Y50.6741 I0.5281 J0.5884
G2 X53.0191 Y50.746 I0.62 J0.5661
G1 X52.9773 Y50.8017
G2 X52.9173 Y50.8872 I0.8909 J0.6896
G2 X52.8591 Y50.9738 I1.0006 J0.7344
G3 X52.7284 Y51.1646 I-3.7046 J-2.3978
G3 X52.6197 Y51.3019 I-1.3057 J-0.9226
G3 X52.4178 Y51.4715 I-0.6106 J-0.5219
G3 X52.1625 Y51.5379 I-0.2521 J-0.445
G3 X51.8424 Y51.3909 I-0.0056 J-0.4099
G3 X51.7254 Y51.0586 I0.3985 J-0.3271
G3 X51.7668 Y50.8375 I0.5601 J-0.0094
G3 X51.9983 Y50.6003 I0.4216 J0.18
G3 X52.3231 Y50.5339 I0.3099 J0.6881
G1 Y50.4267
G0 Z3.0
G0 X52.1653 Y52.5669
G0 Z1.0
G1 Z-0.1
G2 X52.1202 Y52.566 I-0.0315 J0.4276
G2 X51.9043 Y52.6099 I-0.0099 J0.5038
G2 X51.6877 Y52.849 I0.1908 J0.3906
G2 X51.632 Y53.1668 I0.8161 J0.3067
G2 X51.655 Y53.3808 I0.9984 J0.0011
G2 X51.7113 Y53.535 I0.5806 J-0.1245
G2 X51.8813 Y53.712 I0.3779 J-0.1929
G2 X52.1202 Y53.7676 I0.2248 J-0.4246
G2 X52.4035 Y53.6724 I0.0136 J-0.4287
G2 X52.546 Y53.4095 I-0.298 J-0.3315
G1 X52.5515
G2 X52.7146 Y53.7277 I0.4785 J-0.0443
G2 X53.0538 Y53.8406 I0.3236 J-0.4059
G2 X53.303 Y53.7937 I0.0084 J-0.6402
G2 X53.5704 Y53.5327 I-0.2054 J-0.478
G2 X53.646 Y53.1668 I-0.7803 J-0.3519
G2 X53.6143 Y52.9187 I-1.0266 J0.0051
G2 X53.5392 Y52.7441 I-0.7041 J0.1993
G2 X53.3307 Y52.5525 I-0.4308 J0.2596
G2 X53.0538 Y52.4927 I-0.2665 J0.5641
G2 X52.8741 Y52.5193 I-0.005 J0.5881
G2 X52.6506 Y52.6722 I0.1332 J0.4346
G2 X52.5515 Y52.9242 I0.3955 J0.301
G1 X52.546
G2 X52.4036 Y52.6613 I-0.4413 J0.069
G2 X52.1653 Y52.5669 I-0.2699 J0.3332
G0 Z3.0
G0 X52.1575 Y52.6739
G0 Z1.0
G1 Z-0.1
G3 X52.4227 Y52.8345 I-0.0247 J0.3402
G3 X52.4878 Y52.9948 I-0.4615 J0.281
G3 X52.5067 Y53.1668 I-0.769 J0.1714
G3 X52.4878 Y53.3389 I-0.7221 J0.0079
G3 X52.3651 Y53.5694 I-0.4477 J-0.0905
G3 X52.1202 Y53.6605 I-0.2333 J-0.2526
G3 X51.9435 Y53.6244 I-0.0081 J-0.4108
G3 X51.7686 Y53.427 I0.1534 J-0.3122
G3 X51.7254 Y53.1668 I0.7097 J-0.2517
G3 X51.743 Y52.9918 I0.7307 J-0.0147
G3 X51.7873 Y52.865 I0.4744 J0.0948
G3 X52.1202 Y52.6733 I0.3111 J0.1552
G3 X52.1575 Y52.6739 I0.0126 J0.3408
G0 Z3.0
G0 X52.6499 Y52.8722
G0 Z1.0
G1 Z-0.1
G3 X52.6731 Y52.8216 I0.5382 J0.2167
G3 X53.0538 Y52.5999 I0.3598 J0.1801
G3 X53.263 Y52.6401 I0.0043 J0.5419
G3 X53.4876 Y52.8597 I-0.1811 J0.4098
G3 X53.553 Y53.1668 I-0.6464 J0.2982
G3 X53.5252 Y53.3751 I-0.7085 J0.0116
G3 X53.3545 Y53.6397 I-0.4854 J-0.1258
G3 X53.0538 Y53.7335 I-0.2877 J-0.3934
G3 X52.8519 Y53.6908 I-0.009 J-0.4558
G3 X52.6513 Y53.4646 I0.186 J-0.367
G3 X52.5997 Y53.1668 I0.7524 J-0.2838
G3 X52.621 Y52.9663 I0.8811 J-0.0078
G3 X52.6499 Y52.8722 I0.5671 J0.1226
G0 Z3.0
M5
M30
