( Made using CamBam - http://www.cambam.co.uk )
( picker cage h plates 9/23/2013 12:50:49 PM )
( T16 : 1.0 )
G21 G90 G64 G40
G0 Z3.0
( T16 : 1.0 )
T16 M6
( Spot Drill )
G17
M3 S1000
G0 X15.8638 Y65.38
G98
G83 X15.8638 Y65.38 Z-1.0 Q1.0 R2.0 F50.0
G83 X30.8569 Z-1.0
G83 X46.1352 Y65.3796 Z-1.0
G83 X69.0637 Y52.4423 Z-1.0
G83 Y37.8447 Z-1.0
G83 Y22.4527 Z-1.0
G83 X85.6456 Z-1.0
G83 Y37.8447 Z-1.0
G83 Y52.4423 Z-1.0
G80
G0 Z3.0
M5
M30
