( Made using CamBam - http://www.cambam.co.uk )
( picker cage h plates 9/23/2013 1:42:51 PM )
( T4 : 4.0 )
G21 G90 G64 G40
G0 Z3.0
( T4 : 4.0 )
T4 M6
( Pocket2 )
G17
M3 S1000
G0 X29.2 Y36.7341
G0 Z1.0
G1 F50.0 Z-1.0
G1 F120.0 X32.7998
G1 Y38.3029
G1 X29.2
G1 Y36.7341
G1 F50.0 X27.6
G1 F120.0 Y35.1341
G1 X34.3998
G1 Y39.9029
G1 X27.6
G1 Y36.7341
G1 F50.0 X26.0
G1 F120.0 Y33.5341
G1 X35.9998
G1 Y41.5029
G1 X26.0
G1 Y36.7341
G1 F50.0 X24.4
G1 F120.0 Y31.9341
G1 X37.5998
G1 Y43.1029
G1 X24.4
G1 Y36.7341
G1 F50.0 X22.8
G1 F120.0 Y30.3341
G1 X39.1998
G1 Y44.7029
G1 X22.8
G1 Y36.7341
G1 F50.0 X21.2
G1 F120.0 Y28.7341
G1 X40.7998
G1 Y46.3029
G1 X21.2
G1 Y36.7341
G1 F50.0 X19.6
G1 F120.0 Y27.1341
G1 X42.3998
G1 Y47.9029
G1 X19.6
G1 Y36.7341
G1 F50.0 X18.0
G1 F120.0 Y25.5341
G1 X43.9998
G1 Y49.5029
G1 X18.0
G1 Y36.7341
G1 F50.0 X16.4
G1 F120.0 Y23.9341
G1 X45.5998
G1 Y51.1029
G1 X16.4
G1 Y36.7341
G1 F50.0 X14.8
G1 F120.0 Y22.3341
G1 X47.1998
G1 Y52.7029
G1 X14.8
G1 Y36.7341
G1 F50.0 X13.2
G1 F120.0 Y20.7341
G1 X48.7998
G1 Y54.3029
G1 X13.2
G1 Y36.7341
G1 F50.0 X11.6
G1 F120.0 Y19.1341
G1 X50.3998
G1 Y55.9029
G1 X11.6
G1 Y36.7341
G1 F50.0 X10.0
G1 F120.0 Y17.5341
G1 X51.9998
G1 Y57.5029
G1 X10.0
G1 Y36.7341
G1 F50.0 X8.4
G1 F120.0 Y15.9341
G1 X53.5998
G1 Y59.1029
G1 X8.4
G1 Y36.7341
G1 F50.0 X6.8
G1 F120.0 Y14.3341
G1 X55.1998
G1 Y60.7029
G1 X6.8
G1 Y36.7341
G1 F50.0 X5.2
G1 F120.0 Y12.7341
G1 X56.7998
G1 Y62.3029
G1 X5.2
G1 Y36.7341
G1 F50.0 X3.6
G1 F120.0 Y11.1341
G1 X58.3998
G1 Y63.9029
G1 X3.6
G1 Y36.7341
G1 F50.0 X2.0
G1 F120.0 Y9.5341
G1 X59.9998
G1 Y65.5029
G1 X2.0
G1 Y36.7341
( Pocket3 )
S1000
G0 Z3.0
G0 X31.3994 Y17.4663
G0 Z1.0
G1 F50.0 Z-1.0
G2 F120.0 X30.9998 Y17.7248 I6.1003 J9.8664
G2 X30.6003 Y17.4663 I-6.4999 J9.6079
G2 X30.9998 Y17.2078 I-6.1003 J-9.8664
G2 X31.3994 Y17.4663 I6.4999 J-9.6079
G1 F50.0 X32.2408 Y16.1054
G2 F120.0 X35.8706 Y17.4663 I5.2589 J-8.5055
G2 X30.9998 Y19.7332 I1.6291 J9.8664
G2 X26.1291 Y17.4663 I-6.4999 J7.5995
G2 X30.9998 Y15.1993 I-1.6291 J-9.8664
G2 X32.2408 Y16.1054 I6.4999 J-7.5995
G1 F50.0 X33.0822 Y14.7445
G2 F120.0 X37.4997 Y15.9999 I4.4175 J-7.1446
G1 X43.6156
G1 Y18.9327
G1 X37.4997
G2 X31.3601 Y21.5999 I0.0 J8.4
G1 X30.6396
G2 X24.5 Y18.9327 I-6.1396 J5.7328
G1 X18.4244
G1 Y15.9999
G1 X24.5
G2 X30.5765 Y13.3995 I0.0 J-8.4
G1 X31.4232
G2 X33.0822 Y14.7445 I6.0765 J-5.7996
G1 F50.0 X33.9236 Y13.3836
G2 F120.0 X37.4997 Y14.3999 I3.5761 J-5.7838
G1 X45.2156
G1 Y20.5327
G1 X37.4997
G2 X32.0997 Y23.1999 I0.0 J6.8
G1 X29.9
G2 X24.5 Y20.5327 I-5.4 J4.1328
G1 X16.8244
G1 Y14.3999
G1 X24.5
G2 X29.8481 Y11.7995 I0.0 J-6.8
G1 X32.1515
G2 X33.9236 Y13.3836 I5.3482 J-4.1996
G1 F50.0 X34.7651 Y12.0228
G2 F120.0 X37.4997 Y12.7999 I2.7346 J-4.4229
G1 X46.8156
G1 Y22.1327
G1 X37.4997
G2 X32.9582 Y24.7999 I0.0 J5.2
G1 X29.0414
G2 X24.5 Y22.1327 I-4.5415 J2.5328
G1 X15.2244
G1 Y12.7999
G1 X24.5
G2 X29.0035 Y10.1995 I0.0 J-5.2
G1 X32.9962
G2 X34.7651 Y12.0228 I4.5035 J-2.5996
G1 F50.0 X35.6065 Y10.6619
G2 F120.0 X37.4997 Y11.1999 I1.8932 J-3.062
G1 X48.4156
G1 Y23.7327
G1 X37.4997
G2 X34.0226 Y26.3999 I0.0 J3.6
G1 X27.977
G2 X24.5 Y23.7327 I-3.477 J0.9328
G1 X13.6244
G1 Y11.1999
G1 X24.5
G2 X27.9584 Y8.5995 I0.0 J-3.6
G1 X34.0413
G2 X35.6065 Y10.6619 I3.4584 J-0.9996
G1 F50.0 X36.4479 Y9.301
G2 F120.0 X37.4997 Y9.5999 I1.0518 J-1.7011
G1 X50.0156
G1 Y25.3327
G1 X37.4997
G2 X35.4997 Y27.3327 I0.0 J2.0
G1 Y27.9999
G1 X26.5
G1 Y27.3327
G2 X24.5 Y25.3327 I-2.0 J0.0
G1 X12.0244
G1 Y9.5999
G1 X24.5
G2 X26.5 Y7.5999 I0.0 J-2.0
G1 Y6.9995
G1 X35.4997
G1 Y7.5999
G2 X36.4479 Y9.301 I2.0 J0.0
G0 Z3.0
G0 X31.3994 Y17.4663
G0 Z0.0
G1 F50.0 Z-2.0
G2 F120.0 X30.9998 Y17.7248 I6.1003 J9.8664
G2 X30.6003 Y17.4663 I-6.4999 J9.6079
G2 X30.9998 Y17.2078 I-6.1003 J-9.8664
G2 X31.3994 Y17.4663 I6.4999 J-9.6079
G1 F50.0 X32.2408 Y16.1054
G2 F120.0 X35.8706 Y17.4663 I5.2589 J-8.5055
G2 X30.9998 Y19.7332 I1.6291 J9.8664
G2 X26.1291 Y17.4663 I-6.4999 J7.5995
G2 X30.9998 Y15.1993 I-1.6291 J-9.8664
G2 X32.2408 Y16.1054 I6.4999 J-7.5995
G1 F50.0 X33.0822 Y14.7445
G2 F120.0 X37.4997 Y15.9999 I4.4175 J-7.1446
G1 X43.6156
G1 Y18.9327
G1 X37.4997
G2 X31.3601 Y21.5999 I0.0 J8.4
G1 X30.6396
G2 X24.5 Y18.9327 I-6.1396 J5.7328
G1 X18.4244
G1 Y15.9999
G1 X24.5
G2 X30.5765 Y13.3995 I0.0 J-8.4
G1 X31.4232
G2 X33.0822 Y14.7445 I6.0765 J-5.7996
G1 F50.0 X33.9236 Y13.3836
G2 F120.0 X37.4997 Y14.3999 I3.5761 J-5.7838
G1 X45.2156
G1 Y20.5327
G1 X37.4997
G2 X32.0997 Y23.1999 I0.0 J6.8
G1 X29.9
G2 X24.5 Y20.5327 I-5.4 J4.1328
G1 X16.8244
G1 Y14.3999
G1 X24.5
G2 X29.8481 Y11.7995 I0.0 J-6.8
G1 X32.1515
G2 X33.9236 Y13.3836 I5.3482 J-4.1996
G1 F50.0 X34.7651 Y12.0228
G2 F120.0 X37.4997 Y12.7999 I2.7346 J-4.4229
G1 X46.8156
G1 Y22.1327
G1 X37.4997
G2 X32.9582 Y24.7999 I0.0 J5.2
G1 X29.0414
G2 X24.5 Y22.1327 I-4.5415 J2.5328
G1 X15.2244
G1 Y12.7999
G1 X24.5
G2 X29.0035 Y10.1995 I0.0 J-5.2
G1 X32.9962
G2 X34.7651 Y12.0228 I4.5035 J-2.5996
G1 F50.0 X35.6065 Y10.6619
G2 F120.0 X37.4997 Y11.1999 I1.8932 J-3.062
G1 X48.4156
G1 Y23.7327
G1 X37.4997
G2 X34.0226 Y26.3999 I0.0 J3.6
G1 X27.977
G2 X24.5 Y23.7327 I-3.477 J0.9328
G1 X13.6244
G1 Y11.1999
G1 X24.5
G2 X27.9584 Y8.5995 I0.0 J-3.6
G1 X34.0413
G2 X35.6065 Y10.6619 I3.4584 J-0.9996
G1 F50.0 X36.4479 Y9.301
G2 F120.0 X37.4997 Y9.5999 I1.0518 J-1.7011
G1 X50.0156
G1 Y25.3327
G1 X37.4997
G2 X35.4997 Y27.3327 I0.0 J2.0
G1 Y27.9999
G1 X26.5
G1 Y27.3327
G2 X24.5 Y25.3327 I-2.0 J0.0
G1 X12.0244
G1 Y9.5999
G1 X24.5
G2 X26.5 Y7.5999 I0.0 J-2.0
G1 Y6.9995
G1 X35.4997
G1 Y7.5999
G2 X36.4479 Y9.301 I2.0 J0.0
G0 Z3.0
G0 X31.3994 Y17.4663
G0 Z-1.0
G1 F50.0 Z-3.0
G2 F120.0 X30.9998 Y17.7248 I6.1003 J9.8664
G2 X30.6003 Y17.4663 I-6.4999 J9.6079
G2 X30.9998 Y17.2078 I-6.1003 J-9.8664
G2 X31.3994 Y17.4663 I6.4999 J-9.6079
G1 F50.0 X32.2408 Y16.1054
G2 F120.0 X35.8706 Y17.4663 I5.2589 J-8.5055
G2 X30.9998 Y19.7332 I1.6291 J9.8664
G2 X26.1291 Y17.4663 I-6.4999 J7.5995
G2 X30.9998 Y15.1993 I-1.6291 J-9.8664
G2 X32.2408 Y16.1054 I6.4999 J-7.5995
G1 F50.0 X33.0822 Y14.7445
G2 F120.0 X37.4997 Y15.9999 I4.4175 J-7.1446
G1 X43.6156
G1 Y18.9327
G1 X37.4997
G2 X31.3601 Y21.5999 I0.0 J8.4
G1 X30.6396
G2 X24.5 Y18.9327 I-6.1396 J5.7328
G1 X18.4244
G1 Y15.9999
G1 X24.5
G2 X30.5765 Y13.3995 I0.0 J-8.4
G1 X31.4232
G2 X33.0822 Y14.7445 I6.0765 J-5.7996
G1 F50.0 X33.9236 Y13.3836
G2 F120.0 X37.4997 Y14.3999 I3.5761 J-5.7838
G1 X45.2156
G1 Y20.5327
G1 X37.4997
G2 X32.0997 Y23.1999 I0.0 J6.8
G1 X29.9
G2 X24.5 Y20.5327 I-5.4 J4.1328
G1 X16.8244
G1 Y14.3999
G1 X24.5
G2 X29.8481 Y11.7995 I0.0 J-6.8
G1 X32.1515
G2 X33.9236 Y13.3836 I5.3482 J-4.1996
G1 F50.0 X34.7651 Y12.0228
G2 F120.0 X37.4997 Y12.7999 I2.7346 J-4.4229
G1 X46.8156
G1 Y22.1327
G1 X37.4997
G2 X32.9582 Y24.7999 I0.0 J5.2
G1 X29.0414
G2 X24.5 Y22.1327 I-4.5415 J2.5328
G1 X15.2244
G1 Y12.7999
G1 X24.5
G2 X29.0035 Y10.1995 I0.0 J-5.2
G1 X32.9962
G2 X34.7651 Y12.0228 I4.5035 J-2.5996
G1 F50.0 X35.6065 Y10.6619
G2 F120.0 X37.4997 Y11.1999 I1.8932 J-3.062
G1 X48.4156
G1 Y23.7327
G1 X37.4997
G2 X34.0226 Y26.3999 I0.0 J3.6
G1 X27.977
G2 X24.5 Y23.7327 I-3.477 J0.9328
G1 X13.6244
G1 Y11.1999
G1 X24.5
G2 X27.9584 Y8.5995 I0.0 J-3.6
G1 X34.0413
G2 X35.6065 Y10.6619 I3.4584 J-0.9996
G1 F50.0 X36.4479 Y9.301
G2 F120.0 X37.4997 Y9.5999 I1.0518 J-1.7011
G1 X50.0156
G1 Y25.3327
G1 X37.4997
G2 X35.4997 Y27.3327 I0.0 J2.0
G1 Y27.9999
G1 X26.5
G1 Y27.3327
G2 X24.5 Y25.3327 I-2.0 J0.0
G1 X12.0244
G1 Y9.5999
G1 X24.5
G2 X26.5 Y7.5999 I0.0 J-2.0
G1 Y6.9995
G1 X35.4997
G1 Y7.5999
G2 X36.4479 Y9.301 I2.0 J0.0
G0 Z3.0
G0 X31.3994 Y17.4663
G0 Z-2.0
G1 F50.0 Z-4.0
G2 F120.0 X30.9998 Y17.7248 I6.1003 J9.8664
G2 X30.6003 Y17.4663 I-6.4999 J9.6079
G2 X30.9998 Y17.2078 I-6.1003 J-9.8664
G2 X31.3994 Y17.4663 I6.4999 J-9.6079
G1 F50.0 X32.2408 Y16.1054
G2 F120.0 X35.8706 Y17.4663 I5.2589 J-8.5055
G2 X30.9998 Y19.7332 I1.6291 J9.8664
G2 X26.1291 Y17.4663 I-6.4999 J7.5995
G2 X30.9998 Y15.1993 I-1.6291 J-9.8664
G2 X32.2408 Y16.1054 I6.4999 J-7.5995
G1 F50.0 X33.0822 Y14.7445
G2 F120.0 X37.4997 Y15.9999 I4.4175 J-7.1446
G1 X43.6156
G1 Y18.9327
G1 X37.4997
G2 X31.3601 Y21.5999 I0.0 J8.4
G1 X30.6396
G2 X24.5 Y18.9327 I-6.1396 J5.7328
G1 X18.4244
G1 Y15.9999
G1 X24.5
G2 X30.5765 Y13.3995 I0.0 J-8.4
G1 X31.4232
G2 X33.0822 Y14.7445 I6.0765 J-5.7996
G1 F50.0 X33.9236 Y13.3836
G2 F120.0 X37.4997 Y14.3999 I3.5761 J-5.7838
G1 X45.2156
G1 Y20.5327
G1 X37.4997
G2 X32.0997 Y23.1999 I0.0 J6.8
G1 X29.9
G2 X24.5 Y20.5327 I-5.4 J4.1328
G1 X16.8244
G1 Y14.3999
G1 X24.5
G2 X29.8481 Y11.7995 I0.0 J-6.8
G1 X32.1515
G2 X33.9236 Y13.3836 I5.3482 J-4.1996
G1 F50.0 X34.7651 Y12.0228
G2 F120.0 X37.4997 Y12.7999 I2.7346 J-4.4229
G1 X46.8156
G1 Y22.1327
G1 X37.4997
G2 X32.9582 Y24.7999 I0.0 J5.2
G1 X29.0414
G2 X24.5 Y22.1327 I-4.5415 J2.5328
G1 X15.2244
G1 Y12.7999
G1 X24.5
G2 X29.0035 Y10.1995 I0.0 J-5.2
G1 X32.9962
G2 X34.7651 Y12.0228 I4.5035 J-2.5996
G1 F50.0 X35.6065 Y10.6619
G2 F120.0 X37.4997 Y11.1999 I1.8932 J-3.062
G1 X48.4156
G1 Y23.7327
G1 X37.4997
G2 X34.0226 Y26.3999 I0.0 J3.6
G1 X27.977
G2 X24.5 Y23.7327 I-3.477 J0.9328
G1 X13.6244
G1 Y11.1999
G1 X24.5
G2 X27.9584 Y8.5995 I0.0 J-3.6
G1 X34.0413
G2 X35.6065 Y10.6619 I3.4584 J-0.9996
G1 F50.0 X36.4479 Y9.301
G2 F120.0 X37.4997 Y9.5999 I1.0518 J-1.7011
G1 X50.0156
G1 Y25.3327
G1 X37.4997
G2 X35.4997 Y27.3327 I0.0 J2.0
G1 Y27.9999
G1 X26.5
G1 Y27.3327
G2 X24.5 Y25.3327 I-2.0 J0.0
G1 X12.0244
G1 Y9.5999
G1 X24.5
G2 X26.5 Y7.5999 I0.0 J-2.0
G1 Y6.9995
G1 X35.4997
G1 Y7.5999
G2 X36.4479 Y9.301 I2.0 J0.0
G0 Z3.0
M5
M30
