( Made using CamBam - http://www.cambam.co.uk )
( picker cage h plates 9/23/2013 3:20:41 PM )
( T4 : 4.0 )
G21 G90 G64 G40
G0 Z3.0
( T4 : 4.0 )
T4 M6
( Profile1 )
G17
M3 S1000
G0 X62.7054 Y10.3131
G0 Z1.0
G1 F50.0 Z-1.0
G2 F120.0 X60.7054 Y12.3131 I0.0 J2.0
G1 Y62.3125
G2 X62.7054 Y64.3125 I2.0 J0.0
G1 X97.7048
G2 X99.7048 Y62.3125 I0.0 J-2.0
G1 Y12.3131
G2 X97.7048 Y10.3131 I-2.0 J0.0
G1 X62.7054
G1 F50.0 Z-2.0
G2 F120.0 X60.7054 Y12.3131 I0.0 J2.0
G1 Y62.3125
G2 X62.7054 Y64.3125 I2.0 J0.0
G1 X97.7048
G2 X99.7048 Y62.3125 I0.0 J-2.0
G1 Y12.3131
G2 X97.7048 Y10.3131 I-2.0 J0.0
G1 X62.7054
G1 F50.0 Z-3.0
G2 F120.0 X60.7054 Y12.3131 I0.0 J2.0
G1 Y62.3125
G2 X62.7054 Y64.3125 I2.0 J0.0
G1 X97.7048
G2 X99.7048 Y62.3125 I0.0 J-2.0
G1 Y12.3131
G2 X97.7048 Y10.3131 I-2.0 J0.0
G1 X62.7054
G1 F50.0 Z-4.0
G2 F120.0 X60.7054 Y12.3131 I0.0 J2.0
G1 Y62.3125
G2 X62.7054 Y64.3125 I2.0 J0.0
G1 X97.7048
G2 X99.7048 Y62.3125 I0.0 J-2.0
G1 Y12.3131
G2 X97.7048 Y10.3131 I-2.0 J0.0
G1 X62.7054
G1 F50.0 Z-5.0
G2 F120.0 X60.7054 Y12.3131 I0.0 J2.0
G1 Y62.3125
G2 X62.7054 Y64.3125 I2.0 J0.0
G1 X97.7048
G2 X99.7048 Y62.3125 I0.0 J-2.0
G1 Y12.3131
G2 X97.7048 Y10.3131 I-2.0 J0.0
G1 X62.7054
G1 F50.0 Z-6.0
G2 F120.0 X60.7054 Y12.3131 I0.0 J2.0
G1 Y62.3125
G2 X62.7054 Y64.3125 I2.0 J0.0
G1 X97.7048
G2 X99.7048 Y62.3125 I0.0 J-2.0
G1 Y12.3131
G2 X97.7048 Y10.3131 I-2.0 J0.0
G1 X62.7054
G1 F50.0 Z-6.5
G2 F120.0 X60.7054 Y12.3131 I0.0 J2.0
G1 Y62.3125
G2 X62.7054 Y64.3125 I2.0 J0.0
G1 X97.7048
G2 X99.7048 Y62.3125 I0.0 J-2.0
G1 Y12.3131
G2 X97.7048 Y10.3131 I-2.0 J0.0
G1 X62.7054
( Profile2 )
S1000
G0 Z3.0
G0 X57.9995 Y0.0
G0 Z1.0
G1 F50.0 Z-1.0
G2 F120.0 X55.9995 Y-2.0 I-2.0 J0.0
G1 X5.9998
G2 X3.9998 Y0.0 I0.0 J2.0
G1 Y34.9994
G2 X5.9998 Y36.9994 I2.0 J0.0
G1 X55.9995
G2 X57.9995 Y34.9994 I0.0 J-2.0
G1 Y0.0
G1 F50.0 Z-2.0
G2 F120.0 X55.9995 Y-2.0 I-2.0 J0.0
G1 X5.9998
G2 X3.9998 Y0.0 I0.0 J2.0
G1 Y34.9994
G2 X5.9998 Y36.9994 I2.0 J0.0
G1 X55.9995
G2 X57.9995 Y34.9994 I0.0 J-2.0
G1 Y0.0
G1 F50.0 Z-3.0
G2 F120.0 X55.9995 Y-2.0 I-2.0 J0.0
G1 X5.9998
G2 X3.9998 Y0.0 I0.0 J2.0
G1 Y34.9994
G2 X5.9998 Y36.9994 I2.0 J0.0
G1 X55.9995
G2 X57.9995 Y34.9994 I0.0 J-2.0
G1 Y0.0
G1 F50.0 Z-4.0
G2 F120.0 X55.9995 Y-2.0 I-2.0 J0.0
G1 X5.9998
G2 X3.9998 Y0.0 I0.0 J2.0
G1 Y34.9994
G2 X5.9998 Y36.9994 I2.0 J0.0
G1 X55.9995
G2 X57.9995 Y34.9994 I0.0 J-2.0
G1 Y0.0
G1 F50.0 Z-5.0
G2 F120.0 X55.9995 Y-2.0 I-2.0 J0.0
G1 X5.9998
G2 X3.9998 Y0.0 I0.0 J2.0
G1 Y34.9994
G2 X5.9998 Y36.9994 I2.0 J0.0
G1 X55.9995
G2 X57.9995 Y34.9994 I0.0 J-2.0
G1 Y0.0
G1 F50.0 Z-6.0
G2 F120.0 X55.9995 Y-2.0 I-2.0 J0.0
G1 X5.9998
G2 X3.9998 Y0.0 I0.0 J2.0
G1 Y34.9994
G2 X5.9998 Y36.9994 I2.0 J0.0
G1 X55.9995
G2 X57.9995 Y34.9994 I0.0 J-2.0
G1 Y0.0
G1 F50.0 Z-6.5
G2 F120.0 X55.9995 Y-2.0 I-2.0 J0.0
G1 X5.9998
G2 X3.9998 Y0.0 I0.0 J2.0
G1 Y34.9994
G2 X5.9998 Y36.9994 I2.0 J0.0
G1 X55.9995
G2 X57.9995 Y34.9994 I0.0 J-2.0
G1 Y0.0
( Profile3 )
S1000
G0 Z3.0
G0 X3.9998 Y75.5031
G0 Z1.0
G1 F50.0 Z-1.0
G2 F120.0 X5.9998 Y77.5031 I2.0 J0.0
G1 X55.9995
G2 X57.9995 Y75.5031 I0.0 J-2.0
G1 Y40.5033
G2 X55.9995 Y38.5033 I-2.0 J0.0
G1 X5.9998
G2 X3.9998 Y40.5033 I0.0 J2.0
G1 Y75.5031
G1 F50.0 Z-2.0
G2 F120.0 X5.9998 Y77.5031 I2.0 J0.0
G1 X55.9995
G2 X57.9995 Y75.5031 I0.0 J-2.0
G1 Y40.5033
G2 X55.9995 Y38.5033 I-2.0 J0.0
G1 X5.9998
G2 X3.9998 Y40.5033 I0.0 J2.0
G1 Y75.5031
G1 F50.0 Z-3.0
G2 F120.0 X5.9998 Y77.5031 I2.0 J0.0
G1 X55.9995
G2 X57.9995 Y75.5031 I0.0 J-2.0
G1 Y40.5033
G2 X55.9995 Y38.5033 I-2.0 J0.0
G1 X5.9998
G2 X3.9998 Y40.5033 I0.0 J2.0
G1 Y75.5031
G1 F50.0 Z-4.0
G2 F120.0 X5.9998 Y77.5031 I2.0 J0.0
G1 X55.9995
G2 X57.9995 Y75.5031 I0.0 J-2.0
G1 Y40.5033
G2 X55.9995 Y38.5033 I-2.0 J0.0
G1 X5.9998
G2 X3.9998 Y40.5033 I0.0 J2.0
G1 Y75.5031
G1 F50.0 Z-5.0
G2 F120.0 X5.9998 Y77.5031 I2.0 J0.0
G1 X55.9995
G2 X57.9995 Y75.5031 I0.0 J-2.0
G1 Y40.5033
G2 X55.9995 Y38.5033 I-2.0 J0.0
G1 X5.9998
G2 X3.9998 Y40.5033 I0.0 J2.0
G1 Y75.5031
G1 F50.0 Z-6.0
G2 F120.0 X5.9998 Y77.5031 I2.0 J0.0
G1 X55.9995
G2 X57.9995 Y75.5031 I0.0 J-2.0
G1 Y40.5033
G2 X55.9995 Y38.5033 I-2.0 J0.0
G1 X5.9998
G2 X3.9998 Y40.5033 I0.0 J2.0
G1 Y75.5031
G1 F50.0 Z-6.5
G2 F120.0 X5.9998 Y77.5031 I2.0 J0.0
G1 X55.9995
G2 X57.9995 Y75.5031 I0.0 J-2.0
G1 Y40.5033
G2 X55.9995 Y38.5033 I-2.0 J0.0
G1 X5.9998
G2 X3.9998 Y40.5033 I0.0 J2.0
G1 Y75.5031
G0 Z3.0
M5
M30
