( Made using CamBam - http://www.cambam.co.uk )
( head stepper spacer 9/28/2013 11:33:26 AM )
( T4 : 4.0 )
G21 G90 G64 G40
G0 Z3.0
( T4 : 4.0 )
T4 M6
( Profile2 )
G17
M3 S1000
G0 X43.408 Y2.5787
G0 Z1.0
G1 F80.0 Z-3.0
G1 F120.0 X39.3738 Y-1.4204
G2 X37.9652 Y-2.0 I-1.408 J1.4204
G1 X3.981 Y-1.9893
G2 X2.5663 Y-1.4023 I0.0006 J2.0
G1 X-1.4154 Y2.586
G2 X-2.0 Y3.9991 I1.4154 J1.413
G1 Y37.9991
G2 X-1.4175 Y39.41 I2.0 J0.0
G1 X2.5642 Y43.4101
G2 X3.9817 Y43.9992 I1.4175 J-1.4109
G1 X37.9658
G2 X39.374 Y43.4194 I0.0 J-2.0
G1 X43.4082 Y39.4193
G2 X44.0 Y37.9991 I-1.4082 J-1.4202
G1 Y3.9991
G2 X43.408 Y2.5787 I-2.0 J0.0
G1 F80.0 Z-6.0
G1 F120.0 X39.3738 Y-1.4204
G2 X37.9652 Y-2.0 I-1.408 J1.4204
G1 X3.981 Y-1.9893
G2 X2.5663 Y-1.4023 I0.0006 J2.0
G1 X-1.4154 Y2.586
G2 X-2.0 Y3.9991 I1.4154 J1.413
G1 Y37.9991
G2 X-1.4175 Y39.41 I2.0 J0.0
G1 X2.5642 Y43.4101
G2 X3.9817 Y43.9992 I1.4175 J-1.4109
G1 X37.9658
G2 X39.374 Y43.4194 I0.0 J-2.0
G1 X43.4082 Y39.4193
G2 X44.0 Y37.9991 I-1.4082 J-1.4202
G1 Y3.9991
G2 X43.408 Y2.5787 I-2.0 J0.0
G0 Z3.0
M5
M30
