( Made using CamBam - http://www.cambam.co.uk )
( head stepper spacer 9/28/2013 11:33:20 AM )
( T4 : 4.0 )
( T10 : 4.0 )
G21 G90 G64 G40
G0 Z3.0
( T10 : 4.0 )
T10 M6
( Drill1 )
G17
M3 S1000
G0 X5.4999 Y36.4991
G98
G81 X5.4999 Y36.4991 Z-6.0 R3.0 F80.0
G81 X36.4996 Z-6.0
G81 Y5.4991 Z-6.0
G81 X5.4999 Z-6.0
G80
( Profile1 )
G0 Z3.0
( T4 : 4.0 )
T4 M6
M3 S1000
G0 X30.9997 Y21.0024
G0 Z1.0
G1 F80.0 Z-3.0
G3 F120.0 X30.2419 Y24.8254 I-9.9396 J0.0165
G3 X28.0708 Y28.0696 I-9.2663 J-3.8528
G2 X28.0687 Y28.0717 I1.414 J1.4144
G3 X21.0025 Y30.9987 I-7.0524 J-7.0329
G2 X20.9976 I-0.0028 J2.0
G3 X17.1728 Y30.2407 I-0.011 J-9.974
G3 X13.9289 Y28.0698 I3.8553 J-9.2698
G2 X13.9269 Y28.0678 I-1.4142 J1.4142
G3 X10.9998 Y21.0018 I7.0323 J-7.0523
G2 Y20.9969 I-2.0 J-0.0027
G3 X11.7578 Y17.1721 I9.9737 J-0.0109
G3 X13.9287 Y13.9284 I9.2663 J3.8534
G2 X13.9308 Y13.9263 I-1.414 J-1.4144
G3 X20.9971 Y10.9993 I7.0529 J7.0336
G2 X21.002 I0.0027 J-2.0
G3 X24.8267 Y11.7572 I0.0112 J9.9725
G3 X28.0705 Y13.9282 I-3.8543 J9.2682
G2 X28.0726 Y13.9302 I1.4143 J-1.4141
G3 X30.9997 Y20.9964 I-7.0332 J7.0528
G2 Y21.0024 I2.0 J0.0027
G1 F80.0 Z-6.0
G3 F120.0 X30.2419 Y24.8254 I-9.9396 J0.0165
G3 X28.0708 Y28.0696 I-9.2663 J-3.8528
G2 X28.0687 Y28.0717 I1.414 J1.4144
G3 X21.0025 Y30.9987 I-7.0524 J-7.0329
G2 X20.9976 I-0.0028 J2.0
G3 X17.1728 Y30.2407 I-0.011 J-9.974
G3 X13.9289 Y28.0698 I3.8553 J-9.2698
G2 X13.9269 Y28.0678 I-1.4142 J1.4142
G3 X10.9998 Y21.0018 I7.0323 J-7.0523
G2 Y20.9969 I-2.0 J-0.0027
G3 X11.7578 Y17.1721 I9.9737 J-0.0109
G3 X13.9287 Y13.9284 I9.2663 J3.8534
G2 X13.9308 Y13.9263 I-1.414 J-1.4144
G3 X20.9971 Y10.9993 I7.0529 J7.0336
G2 X21.002 I0.0027 J-2.0
G3 X24.8267 Y11.7572 I0.0112 J9.9725
G3 X28.0705 Y13.9282 I-3.8543 J9.2682
G2 X28.0726 Y13.9302 I1.4143 J-1.4141
G3 X30.9997 Y20.9964 I-7.0332 J7.0528
G2 Y21.0024 I2.0 J0.0027
G0 Z3.0
M5
M30
