( Made using CamBam - http://www.cambam.co.uk )
( y belt plates - 4mm 9/15/2013 2:10:40 PM )
( T16 : 1.0 )
G21 G90 G64 G40
G0 Z3.0
( T16 : 1.0 )
T16 M6
( Spot Drill )
G17
M3 S1000
G0 X4.3234 Y2.8854
G98
G81 X4.3234 Y2.8854 Z-1.0 R2.0 F50.0
G81 X9.3298 Y10.9999 Z-1.0
G81 X4.3234 Y19.1138 Z-1.0
G81 X14.805 Z-1.0
G81 X20.0005 Y10.9999 Z-1.0
G81 X14.805 Y2.8854 Z-1.0
G81 X25.2863 Z-1.0
G81 X30.3289 Y10.9999 Z-1.0
G81 X25.2863 Y19.1138 Z-1.0
G81 X35.7677 Z-1.0
G81 X50.302 Z-1.0
G81 X55.3084 Y10.9999 Z-1.0
G81 X50.302 Y2.8853 Z-1.0
G81 X60.7837 Z-1.0
G81 X65.9793 Y10.9999 Z-1.0
G81 X60.7837 Y19.1138 Z-1.0
G81 X71.2652 Z-1.0
G81 X76.3077 Y10.9999 Z-1.0
G81 X71.2652 Y2.8853 Z-1.0
G81 X81.7468 Z-1.0
G81 Y19.1138 Z-1.0
G81 X35.7677 Y2.8854 Z-1.0
G80
G0 Z3.0
M5
M30
