( Made using CamBam - http://www.cambam.co.uk )
( y belt plates - 4mm 9/15/2013 2:10:45 PM )
( T9 : 3.0 )
G21 G90 G64 G40
G0 Z3.0
( T9 : 3.0 )
T9 M6
( 3mm drill )
G17
M3 S1000
G0 X4.3234 Y2.8854
G98
G83 X4.3234 Y2.8854 Z-6.0 Q1.5 R2.0 F50.0
G83 X9.3298 Y10.9999 Z-6.0
G83 X4.3234 Y19.1138 Z-6.0
G83 X14.805 Z-6.0
G83 X20.0005 Y10.9999 Z-6.0
G83 X14.805 Y2.8854 Z-6.0
G83 X25.2863 Z-6.0
G83 X30.3289 Y10.9999 Z-6.0
G83 X25.2863 Y19.1138 Z-6.0
G83 X35.7677 Z-6.0
G83 X50.302 Z-6.0
G83 X55.3084 Y10.9999 Z-6.0
G83 X50.302 Y2.8853 Z-6.0
G83 X60.7837 Z-6.0
G83 X65.9793 Y10.9999 Z-6.0
G83 X60.7837 Y19.1138 Z-6.0
G83 X71.2652 Z-6.0
G83 X76.3077 Y10.9999 Z-6.0
G83 X71.2652 Y2.8853 Z-6.0
G83 X81.7468 Z-6.0
G83 Y19.1138 Z-6.0
G83 X35.7677 Y2.8854 Z-6.0
G80
G0 Z3.0
M5
M30
