( Made using CamBam - http://www.cambam.co.uk )
( y belt plates - 4mm 9/14/2013 11:36:12 AM )
( T0 : 0.0 )
G21 G90 G64 G40
G0 Z3.0
( T0 : 0.0 )
T0 M6
( 2mm ball nose )
G17
M3 S1000
G0 X45.6708 Y43.7038
G0 Z1.0
G1 F50.0 Z-0.5
G1 Y32.7039
G0 Z3.0
G0 Y43.7038
G0 Z0.5
G1 Z-1.0
G1 Y32.7039
G0 Z3.0
G0 Y43.7038
G0 Z0.0
G1 Z-1.5
G1 Y32.7039
G0 Z3.0
G0 X48.6708 Y43.7038
G0 Z1.0
G1 Z-0.5
G1 Y32.7039
G0 Z3.0
G0 Y43.7038
G0 Z0.5
G1 Z-1.0
G1 Y32.7039
G0 Z3.0
G0 Y43.7038
G0 Z0.0
G1 Z-1.5
G1 Y32.7039
G0 Z3.0
G0 X51.6707 Y43.7038
G0 Z1.0
G1 Z-0.5
G1 Y32.7039
G0 Z3.0
G0 Y43.7038
G0 Z0.5
G1 Z-1.0
G1 Y32.7039
G0 Z3.0
G0 Y43.7038
G0 Z0.0
G1 Z-1.5
G1 Y32.7039
G0 Z3.0
G0 X54.6707 Y43.7038
G0 Z1.0
G1 Z-0.5
G1 Y32.7039
G0 Z3.0
G0 Y43.7038
G0 Z0.5
G1 Z-1.0
G1 Y32.7039
G0 Z3.0
G0 Y43.7038
G0 Z0.0
G1 Z-1.5
G1 Y32.7039
G0 Z3.0
G0 X57.6707 Y43.7038
G0 Z1.0
G1 Z-0.5
G1 Y32.7039
G0 Z3.0
G0 Y43.7038
G0 Z0.5
G1 Z-1.0
G1 Y32.7039
G0 Z3.0
G0 Y43.7038
G0 Z0.0
G1 Z-1.5
G1 Y32.7039
G0 Z3.0
G0 X60.6707 Y43.7038
G0 Z1.0
G1 Z-0.5
G1 Y32.7039
G0 Z3.0
G0 Y43.7038
G0 Z0.5
G1 Z-1.0
G1 Y32.7039
G0 Z3.0
G0 Y43.7038
G0 Z0.0
G1 Z-1.5
G1 Y32.7039
G0 Z3.0
G0 X63.6707 Y43.7038
G0 Z1.0
G1 Z-0.5
G1 Y32.7039
G0 Z3.0
G0 Y43.7038
G0 Z0.5
G1 Z-1.0
G1 Y32.7039
G0 Z3.0
G0 Y43.7038
G0 Z0.0
G1 Z-1.5
G1 Y32.7039
G0 Z3.0
G0 X66.6707 Y43.7038
G0 Z1.0
G1 Z-0.5
G1 Y32.7039
G0 Z3.0
G0 Y43.7038
G0 Z0.5
G1 Z-1.0
G1 Y32.7039
G0 Z3.0
G0 Y43.7038
G0 Z0.0
G1 Z-1.5
G1 Y32.7039
G0 Z3.0
G0 X69.6707 Y43.7038
G0 Z1.0
G1 Z-0.5
G1 Y32.7039
G0 Z3.0
G0 Y43.7038
G0 Z0.5
G1 Z-1.0
G1 Y32.7039
G0 Z3.0
G0 Y43.7038
G0 Z0.0
G1 Z-1.5
G1 Y32.7039
G0 Z3.0
G0 X72.6707 Y43.7038
G0 Z1.0
G1 Z-0.5
G1 Y32.7039
G0 Z3.0
G0 Y43.7038
G0 Z0.5
G1 Z-1.0
G1 Y32.7039
G0 Z3.0
G0 Y43.7038
G0 Z0.0
G1 Z-1.5
G1 Y32.7039
G0 Z3.0
G0 X75.6707 Y43.7038
G0 Z1.0
G1 Z-0.5
G1 Y32.7039
G0 Z3.0
G0 Y43.7038
G0 Z0.5
G1 Z-1.0
G1 Y32.7039
G0 Z3.0
G0 Y43.7038
G0 Z0.0
G1 Z-1.5
G1 Y32.7039
G0 Z3.0
G0 X78.6707 Y43.7038
G0 Z1.0
G1 Z-0.5
G1 Y32.7039
G0 Z3.0
G0 Y43.7038
G0 Z0.5
G1 Z-1.0
G1 Y32.7039
G0 Z3.0
G0 Y43.7038
G0 Z0.0
G1 Z-1.5
G1 Y32.7039
G0 Z3.0
G0 X81.6706 Y43.7038
G0 Z1.0
G1 Z-0.5
G1 Y32.7039
G0 Z3.0
G0 Y43.7038
G0 Z0.5
G1 Z-1.0
G1 Y32.7039
G0 Z3.0
G0 Y43.7038
G0 Z0.0
G1 Z-1.5
G1 Y32.7039
G0 Z3.0
G0 X84.6706 Y43.7038
G0 Z1.0
G1 Z-0.5
G1 Y32.7039
G0 Z3.0
G0 Y43.7038
G0 Z0.5
G1 Z-1.0
G1 Y32.7039
G0 Z3.0
G0 Y43.7038
G0 Z0.0
G1 Z-1.5
G1 Y32.7039
G0 Z3.0
G0 Y16.4999
G0 Z1.0
G1 Z-0.5
G1 Y5.5001
G0 Z3.0
G0 Y16.4999
G0 Z0.5
G1 Z-1.0
G1 Y5.5001
G0 Z3.0
G0 Y16.4999
G0 Z0.0
G1 Z-1.5
G1 Y5.5001
G0 Z3.0
G0 X81.6706 Y16.4999
G0 Z1.0
G1 Z-0.5
G1 Y5.5001
G0 Z3.0
G0 Y16.4999
G0 Z0.5
G1 Z-1.0
G1 Y5.5001
G0 Z3.0
G0 Y16.4999
G0 Z0.0
G1 Z-1.5
G1 Y5.5001
G0 Z3.0
G0 X78.6707 Y16.4999
G0 Z1.0
G1 Z-0.5
G1 Y5.5001
G0 Z3.0
G0 Y16.4999
G0 Z0.5
G1 Z-1.0
G1 Y5.5001
G0 Z3.0
G0 Y16.4999
G0 Z0.0
G1 Z-1.5
G1 Y5.5001
G0 Z3.0
G0 X75.6707 Y16.4999
G0 Z1.0
G1 Z-0.5
G1 Y5.5001
G0 Z3.0
G0 Y16.4999
G0 Z0.5
G1 Z-1.0
G1 Y5.5001
G0 Z3.0
G0 Y16.4999
G0 Z0.0
G1 Z-1.5
G1 Y5.5001
G0 Z3.0
G0 X72.6707 Y16.4999
G0 Z1.0
G1 Z-0.5
G1 Y5.5001
G0 Z3.0
G0 Y16.4999
G0 Z0.5
G1 Z-1.0
G1 Y5.5001
G0 Z3.0
G0 Y16.4999
G0 Z0.0
G1 Z-1.5
G1 Y5.5001
G0 Z3.0
G0 X69.6707 Y16.4999
G0 Z1.0
G1 Z-0.5
G1 Y5.5001
G0 Z3.0
G0 Y16.4999
G0 Z0.5
G1 Z-1.0
G1 Y5.5001
G0 Z3.0
G0 Y16.4999
G0 Z0.0
G1 Z-1.5
G1 Y5.5001
G0 Z3.0
G0 X66.6707 Y16.4999
G0 Z1.0
G1 Z-0.5
G1 Y5.5001
G0 Z3.0
G0 Y16.4999
G0 Z0.5
G1 Z-1.0
G1 Y5.5001
G0 Z3.0
G0 Y16.4999
G0 Z0.0
G1 Z-1.5
G1 Y5.5001
G0 Z3.0
G0 X63.6707 Y16.4999
G0 Z1.0
G1 Z-0.5
G1 Y5.5001
G0 Z3.0
G0 Y16.4999
G0 Z0.5
G1 Z-1.0
G1 Y5.5001
G0 Z3.0
G0 Y16.4999
G0 Z0.0
G1 Z-1.5
G1 Y5.5001
G0 Z3.0
G0 X60.6707 Y16.4999
G0 Z1.0
G1 Z-0.5
G1 Y5.5001
G0 Z3.0
G0 Y16.4999
G0 Z0.5
G1 Z-1.0
G1 Y5.5001
G0 Z3.0
G0 Y16.4999
G0 Z0.0
G1 Z-1.5
G1 Y5.5001
G0 Z3.0
G0 X57.6707 Y16.4999
G0 Z1.0
G1 Z-0.5
G1 Y5.5001
G0 Z3.0
G0 Y16.4999
G0 Z0.5
G1 Z-1.0
G1 Y5.5001
G0 Z3.0
G0 Y16.4999
G0 Z0.0
G1 Z-1.5
G1 Y5.5001
G0 Z3.0
G0 X54.6707 Y16.4999
G0 Z1.0
G1 Z-0.5
G1 Y5.5001
G0 Z3.0
G0 Y16.4999
G0 Z0.5
G1 Z-1.0
G1 Y5.5001
G0 Z3.0
G0 Y16.4999
G0 Z0.0
G1 Z-1.5
G1 Y5.5001
G0 Z3.0
G0 X51.6707 Y16.4999
G0 Z1.0
G1 Z-0.5
G1 Y5.5001
G0 Z3.0
G0 Y16.4999
G0 Z0.5
G1 Z-1.0
G1 Y5.5001
G0 Z3.0
G0 Y16.4999
G0 Z0.0
G1 Z-1.5
G1 Y5.5001
G0 Z3.0
G0 X48.6708 Y16.4999
G0 Z1.0
G1 Z-0.5
G1 Y5.5001
G0 Z3.0
G0 Y16.4999
G0 Z0.5
G1 Z-1.0
G1 Y5.5001
G0 Z3.0
G0 Y16.4999
G0 Z0.0
G1 Z-1.5
G1 Y5.5001
G0 Z3.0
G0 X45.6708 Y16.4999
G0 Z1.0
G1 Z-0.5
G1 Y5.5001
G0 Z3.0
G0 Y16.4999
G0 Z0.5
G1 Z-1.0
G1 Y5.5001
G0 Z3.0
G0 Y16.4999
G0 Z0.0
G1 Z-1.5
G1 Y5.5001
G0 Z3.0
M5
M30
