( Made using CamBam - http://www.cambam.co.uk )
( y belt plates - 4mm 9/15/2013 2:11:04 PM )
( T4 : 4.0 )
G21 G90 G64 G40
G0 Z3.0
( T4 : 4.0 )
T4 M6
( 4mm pockets )
G17
M3 S1000
G0 X9.53 Y11.0
G0 Z1.0
G1 F50.0 Z-1.0
G3 F120.0 X9.3295 Y11.2002 I-0.2006 J-0.0004
G3 X9.3294 I-0.0002 J-0.2006
G1 X9.3297
G3 X9.3295 I0.0 J-0.1998
G3 X9.1298 Y11.0004 I0.0001 J-0.1998
G2 Y10.9994 I-2.8 J-0.0003
G3 X9.3295 Y10.7997 I0.1997 J0.0
G1 X9.3294
G1 X9.3295
G3 X9.53 Y11.0 I-0.0001 J0.2007
G1 F50.0 X10.33 Y11.0016
G3 F120.0 X9.3296 Y12.0002 I-1.0006 J-0.002
G1 X9.3295
G1 X9.3297
G1 X9.3296
G3 X8.3298 Y11.0003 I0.0 J-0.9998
G2 Y10.9996 I-2.0 J-0.0002
G3 X9.3296 Y9.9997 I0.9997 J-0.0002
G1 X9.3295
G1 X9.3296
G3 X10.33 Y11.0 I-0.0002 J1.0007
G3 Y11.0016 I-1.0006 J-0.0004
G1 F50.0 X9.53 Y11.0
G1 Z-2.0
G3 F120.0 X9.3295 Y11.2002 I-0.2006 J-0.0004
G3 X9.3294 I-0.0002 J-0.2006
G1 X9.3297
G3 X9.3295 I0.0 J-0.1998
G3 X9.1298 Y11.0004 I0.0001 J-0.1998
G2 Y10.9994 I-2.8 J-0.0003
G3 X9.3295 Y10.7997 I0.1997 J0.0
G1 X9.3294
G1 X9.3295
G3 X9.53 Y11.0 I-0.0001 J0.2007
G1 F50.0 X10.33 Y11.0016
G3 F120.0 X9.3296 Y12.0002 I-1.0006 J-0.002
G1 X9.3295
G1 X9.3297
G1 X9.3296
G3 X8.3298 Y11.0003 I0.0 J-0.9998
G2 Y10.9996 I-2.0 J-0.0002
G3 X9.3296 Y9.9997 I0.9997 J-0.0002
G1 X9.3295
G1 X9.3296
G3 X10.33 Y11.0 I-0.0002 J1.0007
G3 Y11.0016 I-1.0006 J-0.0004
G0 Z3.0
G0 X19.8005 Y11.0004
G0 Z1.0
G1 F50.0 Z-1.0
G2 F120.0 Y10.9994 I-2.8 J-0.0003
G3 X20.0001 Y10.7997 I0.1997 J0.0
G1 X20.0002
G1 X20.0
G1 X20.0001
G3 X20.2007 Y11.0 I-0.0001 J0.2007
G3 X20.0002 Y11.2002 I-0.2006 J-0.0004
G3 X20.0001 I-0.0002 J-0.2006
G1 X20.0003
G3 X20.0002 I0.0 J-0.1998
G3 X19.8005 Y11.0004 I0.0001 J-0.1998
G1 F50.0 X19.0005 Y11.0005
G3 F120.0 Y11.0003 I0.9998 J-0.0001
G2 Y10.9996 I-2.0 J-0.0002
G3 X20.0002 Y9.9997 I0.9997 J-0.0002
G1 X20.0003
G1 X20.0002
G3 X21.0007 Y11.0 I-0.0002 J1.0007
G3 X20.0003 Y12.0002 I-1.0006 J-0.0004
G1 X20.0002
G1 X20.0004
G1 X20.0003
G3 X19.0005 Y11.0005 I0.0 J-0.9998
G1 F50.0 X19.8005 Y11.0004
G1 Z-2.0
G2 F120.0 Y10.9994 I-2.8 J-0.0003
G3 X20.0001 Y10.7997 I0.1997 J0.0
G1 X20.0002
G1 X20.0
G1 X20.0001
G3 X20.2007 Y11.0 I-0.0001 J0.2007
G3 X20.0002 Y11.2002 I-0.2006 J-0.0004
G3 X20.0001 I-0.0002 J-0.2006
G1 X20.0003
G3 X20.0002 I0.0 J-0.1998
G3 X19.8005 Y11.0004 I0.0001 J-0.1998
G1 F50.0 X19.0005 Y11.0005
G3 F120.0 Y11.0003 I0.9998 J-0.0001
G2 Y10.9996 I-2.0 J-0.0002
G3 X20.0002 Y9.9997 I0.9997 J-0.0002
G1 X20.0003
G1 X20.0002
G3 X21.0007 Y11.0 I-0.0002 J1.0007
G3 X20.0003 Y12.0002 I-1.0006 J-0.0004
G1 X20.0002
G1 X20.0004
G1 X20.0003
G3 X19.0005 Y11.0005 I0.0 J-0.9998
G0 Z3.0
G0 X30.1289 Y11.0004
G0 Z1.0
G1 F50.0 Z-1.0
G2 F120.0 Y10.9994 I-2.8 J-0.0003
G3 X30.3285 Y10.7997 I0.1997 J0.0
G1 X30.3286
G1 X30.3284
G1 X30.3285
G3 X30.5291 Y11.0 I-0.0001 J0.2007
G3 X30.3286 Y11.2002 I-0.2006 J-0.0004
G3 X30.3285 I-0.0002 J-0.2006
G1 X30.3287
G3 X30.3286 I0.0 J-0.1998
G3 X30.1289 Y11.0004 I0.0001 J-0.1998
G1 F50.0 X29.3289
G3 F120.0 Y11.0003 I0.9998 J0.0
G2 Y10.9996 I-2.0 J-0.0002
G3 X30.3286 Y9.9997 I0.9997 J-0.0002
G1 X30.3287
G1 X30.3286
G3 X31.3291 Y11.0 I-0.0002 J1.0007
G3 X30.3287 Y12.0002 I-1.0006 J-0.0004
G1 X30.3286
G1 X30.3288
G1 X30.3287
G3 X29.3289 Y11.0004 I0.0 J-0.9998
G1 F50.0 X30.1289
G1 Z-2.0
G2 F120.0 Y10.9994 I-2.8 J-0.0003
G3 X30.3285 Y10.7997 I0.1997 J0.0
G1 X30.3286
G1 X30.3284
G1 X30.3285
G3 X30.5291 Y11.0 I-0.0001 J0.2007
G3 X30.3286 Y11.2002 I-0.2006 J-0.0004
G3 X30.3285 I-0.0002 J-0.2006
G1 X30.3287
G3 X30.3286 I0.0 J-0.1998
G3 X30.1289 Y11.0004 I0.0001 J-0.1998
G1 F50.0 X29.3289
G3 F120.0 Y11.0003 I0.9998 J0.0
G2 Y10.9996 I-2.0 J-0.0002
G3 X30.3286 Y9.9997 I0.9997 J-0.0002
G1 X30.3287
G1 X30.3286
G3 X31.3291 Y11.0 I-0.0002 J1.0007
G3 X30.3287 Y12.0002 I-1.0006 J-0.0004
G1 X30.3286
G1 X30.3288
G1 X30.3287
G3 X29.3289 Y11.0004 I0.0 J-0.9998
G0 Z3.0
G0 X55.1084 Y10.9994
G0 Z1.0
G1 F50.0 Z-1.0
G3 F120.0 X55.3081 Y10.7997 I0.1997 J0.0
G3 X55.5088 Y11.0 I-0.0001 J0.2007
G3 X55.3082 Y11.2002 I-0.2007 J-0.0004
G1 X55.3081
G1 X55.3082
G3 X55.1084 Y11.0004 I0.0001 J-0.1998
G2 Y10.9994 I-2.8 J-0.0003
G1 F50.0 X54.3084
G3 F120.0 X55.3082 Y9.9997 I0.9997 J0.0
G3 X56.3088 Y11.0 I-0.0001 J1.0007
G3 X55.3082 Y12.0002 I-1.0007 J-0.0005
G1 X55.3083
G1 X55.3082
G3 X54.3084 Y11.0003 I0.0 J-0.9998
G2 Y10.9996 I-2.0 J-0.0002
G3 Y10.9994 I0.9997 J-0.0002
G1 F50.0 X55.1084
G1 Z-2.0
G3 F120.0 X55.3081 Y10.7997 I0.1997 J0.0
G3 X55.5088 Y11.0 I-0.0001 J0.2007
G3 X55.3082 Y11.2002 I-0.2007 J-0.0004
G1 X55.3081
G1 X55.3082
G3 X55.1084 Y11.0004 I0.0001 J-0.1998
G2 Y10.9994 I-2.8 J-0.0003
G1 F50.0 X54.3084
G3 F120.0 X55.3082 Y9.9997 I0.9997 J0.0
G3 X56.3088 Y11.0 I-0.0001 J1.0007
G3 X55.3082 Y12.0002 I-1.0007 J-0.0005
G1 X55.3083
G1 X55.3082
G3 X54.3084 Y11.0003 I0.0 J-0.9998
G2 Y10.9996 I-2.0 J-0.0002
G3 Y10.9994 I0.9997 J-0.0002
G0 Z3.0
G0 X65.7793
G0 Z1.0
G1 F50.0 Z-1.0
G3 F120.0 X65.9788 Y10.7997 I0.1997 J0.0
G3 X65.979 I0.0001 J0.1997
G1 X65.9787
G3 X65.9788 I0.0 J0.2006
G3 X66.1793 Y10.9999 I-0.0002 J0.2006
G3 X65.9789 Y11.2002 I-0.2006 J-0.0004
G3 X65.9787 I-0.0002 J-0.2006
G1 X65.9791
G3 X65.9789 I0.0 J-0.1998
G3 X65.7793 Y11.0004 I0.0002 J-0.1998
G2 Y10.9994 I-2.8 J-0.0003
G1 F50.0 X64.9793
G3 F120.0 X65.9789 Y9.9997 I0.9997 J0.0
G3 X65.9791 I0.0 J0.9997
G1 X65.9788
G3 X65.9789 I-0.0002 J1.0006
G3 X66.9793 Y11.0 I-0.0003 J1.0006
G3 X65.979 Y12.0002 I-1.0006 J-0.0004
G3 X65.9789 I-0.0003 J-1.0006
G1 X65.9791
G3 X65.979 I-0.0001 J-0.9998
G3 X64.9793 Y11.0003 I0.0001 J-0.9998
G2 Y10.9996 I-2.0 J-0.0002
G3 Y10.9994 I0.9997 J-0.0002
G1 F50.0 X65.7793
G1 Z-2.0
G3 F120.0 X65.9788 Y10.7997 I0.1997 J0.0
G3 X65.979 I0.0001 J0.1997
G1 X65.9787
G3 X65.9788 I0.0 J0.2006
G3 X66.1793 Y10.9999 I-0.0002 J0.2006
G3 X65.9789 Y11.2002 I-0.2006 J-0.0004
G3 X65.9787 I-0.0002 J-0.2006
G1 X65.9791
G3 X65.9789 I0.0 J-0.1998
G3 X65.7793 Y11.0004 I0.0002 J-0.1998
G2 Y10.9994 I-2.8 J-0.0003
G1 F50.0 X64.9793
G3 F120.0 X65.9789 Y9.9997 I0.9997 J0.0
G3 X65.9791 I0.0 J0.9997
G1 X65.9788
G3 X65.9789 I-0.0002 J1.0006
G3 X66.9793 Y11.0 I-0.0003 J1.0006
G3 X65.979 Y12.0002 I-1.0006 J-0.0004
G3 X65.9789 I-0.0003 J-1.0006
G1 X65.9791
G3 X65.979 I-0.0001 J-0.9998
G3 X64.9793 Y11.0003 I0.0001 J-0.9998
G2 Y10.9996 I-2.0 J-0.0002
G3 Y10.9994 I0.9997 J-0.0002
G0 Z3.0
G0 X76.1077
G0 Z1.0
G1 F50.0 Z-1.0
G3 F120.0 X76.3072 Y10.7997 I0.1997 J0.0
G3 X76.3074 I0.0001 J0.1997
G1 X76.3071
G3 X76.3072 I0.0 J0.2006
G3 X76.5076 Y10.9999 I-0.0002 J0.2006
G3 X76.3073 Y11.2002 I-0.2006 J-0.0004
G3 X76.3071 I-0.0002 J-0.2006
G1 X76.3075
G3 X76.3073 I0.0 J-0.1998
G3 X76.1077 Y11.0004 I0.0002 J-0.1998
G2 Y10.9994 I-2.8 J-0.0003
G1 F50.0 X75.3077
G3 F120.0 X76.3073 Y9.9997 I0.9997 J0.0
G3 X76.3075 I0.0 J0.9997
G1 X76.3072
G3 X76.3073 I-0.0002 J1.0006
G3 X77.3076 Y11.0 I-0.0003 J1.0006
G3 X76.3074 Y12.0002 I-1.0006 J-0.0004
G3 X76.3073 I-0.0003 J-1.0006
G1 X76.3075
G3 X76.3074 I-0.0001 J-0.9998
G3 X75.3077 Y11.0003 I0.0001 J-0.9998
G2 Y10.9996 I-2.0 J-0.0002
G3 Y10.9994 I0.9997 J-0.0002
G1 F50.0 X76.1077
G1 Z-2.0
G3 F120.0 X76.3072 Y10.7997 I0.1997 J0.0
G3 X76.3074 I0.0001 J0.1997
G1 X76.3071
G3 X76.3072 I0.0 J0.2006
G3 X76.5076 Y10.9999 I-0.0002 J0.2006
G3 X76.3073 Y11.2002 I-0.2006 J-0.0004
G3 X76.3071 I-0.0002 J-0.2006
G1 X76.3075
G3 X76.3073 I0.0 J-0.1998
G3 X76.1077 Y11.0004 I0.0002 J-0.1998
G2 Y10.9994 I-2.8 J-0.0003
G1 F50.0 X75.3077
G3 F120.0 X76.3073 Y9.9997 I0.9997 J0.0
G3 X76.3075 I0.0 J0.9997
G1 X76.3072
G3 X76.3073 I-0.0002 J1.0006
G3 X77.3076 Y11.0 I-0.0003 J1.0006
G3 X76.3074 Y12.0002 I-1.0006 J-0.0004
G3 X76.3073 I-0.0003 J-1.0006
G1 X76.3075
G3 X76.3074 I-0.0001 J-0.9998
G3 X75.3077 Y11.0003 I0.0001 J-0.9998
G2 Y10.9996 I-2.0 J-0.0002
G3 Y10.9994 I0.9997 J-0.0002
G0 Z3.0
M5
M30
