( Made using CamBam - http://www.cambam.co.uk )
( y belt plates - 4mm 9/15/2013 2:11:09 PM )
( T4 : 4.0 )
G21 G90 G64 G40
G0 Z3.0
( T4 : 4.0 )
T4 M6
( Profile2 )
G17
M3 S1000
G0 X45.1656 Y-0.8401
G0 Z1.0
G1 F50.0 Z-1.0
G2 F120.0 X45.1519 Y-0.8265 I2.8138 J2.833
G2 X43.9788 Y1.9986 I2.8211 J2.8276
G2 Y1.9999 I2.0 J0.0013
G1 Y19.9999
G1 Y20.0
G1 Y19.9999
G2 X45.1524 Y22.827 I3.9914 J0.0002
G2 X47.9775 Y24.0 I2.8274 J-2.8209
G2 X47.9786 I0.0011 J-2.0
G1 X83.9799
G1 X83.9801
G2 X86.8066 Y22.8267 I-0.0004 J-3.9922
G2 X87.9801 Y20.0003 I-2.8184 J-2.827
G1 Y20.0
G1 Y1.9999
G1 Y1.9998
G2 X86.8057 Y-0.8275 I-3.9909 J0.0002
G2 X83.9818 Y-2.0 I-2.8278 J2.8238
G2 X83.9799 I-0.002 J2.0
G1 X47.9786
G2 X47.9779 I0.0 J2.0
G2 X45.1656 Y-0.8401 I0.0014 J3.9929
G1 F50.0 Z-2.0
G2 F120.0 X45.1519 Y-0.8265 I2.8138 J2.833
G2 X43.9788 Y1.9986 I2.8211 J2.8276
G2 Y1.9999 I2.0 J0.0013
G1 Y19.9999
G1 Y20.0
G1 Y19.9999
G2 X45.1524 Y22.827 I3.9914 J0.0002
G2 X47.9775 Y24.0 I2.8274 J-2.8209
G2 X47.9786 I0.0011 J-2.0
G1 X83.9799
G1 X83.9801
G2 X86.8066 Y22.8267 I-0.0004 J-3.9922
G2 X87.9801 Y20.0003 I-2.8184 J-2.827
G1 Y20.0
G1 Y1.9999
G1 Y1.9998
G2 X86.8057 Y-0.8275 I-3.9909 J0.0002
G2 X83.9818 Y-2.0 I-2.8278 J2.8238
G2 X83.9799 I-0.002 J2.0
G1 X47.9786
G2 X47.9779 I0.0 J2.0
G2 X45.1656 Y-0.8401 I0.0014 J3.9929
G1 F50.0 Z-3.0
G2 F120.0 X45.1519 Y-0.8265 I2.8138 J2.833
G2 X43.9788 Y1.9986 I2.8211 J2.8276
G2 Y1.9999 I2.0 J0.0013
G1 Y19.9999
G1 Y20.0
G1 Y19.9999
G2 X45.1524 Y22.827 I3.9914 J0.0002
G2 X47.9775 Y24.0 I2.8274 J-2.8209
G2 X47.9786 I0.0011 J-2.0
G1 X83.9799
G1 X83.9801
G2 X86.8066 Y22.8267 I-0.0004 J-3.9922
G2 X87.9801 Y20.0003 I-2.8184 J-2.827
G1 Y20.0
G1 Y1.9999
G1 Y1.9998
G2 X86.8057 Y-0.8275 I-3.9909 J0.0002
G2 X83.9818 Y-2.0 I-2.8278 J2.8238
G2 X83.9799 I-0.002 J2.0
G1 X47.9786
G2 X47.9779 I0.0 J2.0
G2 X45.1656 Y-0.8401 I0.0014 J3.9929
G1 F50.0 Z-4.0
G2 F120.0 X45.1519 Y-0.8265 I2.8138 J2.833
G2 X43.9788 Y1.9986 I2.8211 J2.8276
G2 Y1.9999 I2.0 J0.0013
G1 Y19.9999
G1 Y20.0
G1 Y19.9999
G2 X45.1524 Y22.827 I3.9914 J0.0002
G2 X47.9775 Y24.0 I2.8274 J-2.8209
G2 X47.9786 I0.0011 J-2.0
G1 X83.9799
G1 X83.9801
G2 X86.8066 Y22.8267 I-0.0004 J-3.9922
G2 X87.9801 Y20.0003 I-2.8184 J-2.827
G1 Y20.0
G1 Y1.9999
G1 Y1.9998
G2 X86.8057 Y-0.8275 I-3.9909 J0.0002
G2 X83.9818 Y-2.0 I-2.8278 J2.8238
G2 X83.9799 I-0.002 J2.0
G1 X47.9786
G2 X47.9779 I0.0 J2.0
G2 X45.1656 Y-0.8401 I0.0014 J3.9929
G1 F50.0 Z-4.5
G2 F120.0 X45.1519 Y-0.8265 I2.8138 J2.833
G2 X43.9788 Y1.9986 I2.8211 J2.8276
G2 Y1.9999 I2.0 J0.0013
G1 Y19.9999
G1 Y20.0
G1 Y19.9999
G2 X45.1524 Y22.827 I3.9914 J0.0002
G2 X47.9775 Y24.0 I2.8274 J-2.8209
G2 X47.9786 I0.0011 J-2.0
G1 X83.9799
G1 X83.9801
G2 X86.8066 Y22.8267 I-0.0004 J-3.9922
G2 X87.9801 Y20.0003 I-2.8184 J-2.827
G1 Y20.0
G1 Y1.9999
G1 Y1.9998
G2 X86.8057 Y-0.8275 I-3.9909 J0.0002
G2 X83.9818 Y-2.0 I-2.8278 J2.8238
G2 X83.9799 I-0.002 J2.0
G1 X47.9786
G2 X47.9779 I0.0 J2.0
G2 X45.1656 Y-0.8401 I0.0014 J3.9929
( Profile1 )
S1000
G0 Z3.0
G0 X-0.8273 Y-0.8261
G0 Z1.0
G1 F50.0 Z-1.0
G2 F120.0 X-2.0 Y1.9983 I2.8232 J2.8278
G2 Y2.0001 I2.0 J0.0017
G1 Y19.9999
G1 Y20.0
G1 Y19.9999
G2 X-0.8261 Y22.8274 I3.9916 J0.0001
G2 X1.9983 Y24.0 I2.8278 J-2.8232
G2 X2.0001 I0.0017 J-2.0
G1 X38.0009
G1 X38.001
G1 X38.0009
G2 X40.8283 Y22.8261 I0.0001 J-3.9916
G2 X42.001 Y20.0017 I-2.8232 J-2.8278
G2 Y20.0 I-2.0 J-0.0017
G1 Y2.0001
G2 X40.8271 Y-0.8273 I-3.9916 J-0.0001
G2 X38.0027 Y-2.0 I-2.8278 J2.8232
G2 X38.001 I-0.0017 J2.0
G1 X2.0001
G2 X-0.8273 Y-0.8261 I-0.0001 J3.9916
G1 F50.0 Z-2.0
G2 F120.0 X-2.0 Y1.9983 I2.8232 J2.8278
G2 Y2.0001 I2.0 J0.0017
G1 Y19.9999
G1 Y20.0
G1 Y19.9999
G2 X-0.8261 Y22.8274 I3.9916 J0.0001
G2 X1.9983 Y24.0 I2.8278 J-2.8232
G2 X2.0001 I0.0017 J-2.0
G1 X38.0009
G1 X38.001
G1 X38.0009
G2 X40.8283 Y22.8261 I0.0001 J-3.9916
G2 X42.001 Y20.0017 I-2.8232 J-2.8278
G2 Y20.0 I-2.0 J-0.0017
G1 Y2.0001
G2 X40.8271 Y-0.8273 I-3.9916 J-0.0001
G2 X38.0027 Y-2.0 I-2.8278 J2.8232
G2 X38.001 I-0.0017 J2.0
G1 X2.0001
G2 X-0.8273 Y-0.8261 I-0.0001 J3.9916
G1 F50.0 Z-3.0
G2 F120.0 X-2.0 Y1.9983 I2.8232 J2.8278
G2 Y2.0001 I2.0 J0.0017
G1 Y19.9999
G1 Y20.0
G1 Y19.9999
G2 X-0.8261 Y22.8274 I3.9916 J0.0001
G2 X1.9983 Y24.0 I2.8278 J-2.8232
G2 X2.0001 I0.0017 J-2.0
G1 X38.0009
G1 X38.001
G1 X38.0009
G2 X40.8283 Y22.8261 I0.0001 J-3.9916
G2 X42.001 Y20.0017 I-2.8232 J-2.8278
G2 Y20.0 I-2.0 J-0.0017
G1 Y2.0001
G2 X40.8271 Y-0.8273 I-3.9916 J-0.0001
G2 X38.0027 Y-2.0 I-2.8278 J2.8232
G2 X38.001 I-0.0017 J2.0
G1 X2.0001
G2 X-0.8273 Y-0.8261 I-0.0001 J3.9916
G1 F50.0 Z-4.0
G2 F120.0 X-2.0 Y1.9983 I2.8232 J2.8278
G2 Y2.0001 I2.0 J0.0017
G1 Y19.9999
G1 Y20.0
G1 Y19.9999
G2 X-0.8261 Y22.8274 I3.9916 J0.0001
G2 X1.9983 Y24.0 I2.8278 J-2.8232
G2 X2.0001 I0.0017 J-2.0
G1 X38.0009
G1 X38.001
G1 X38.0009
G2 X40.8283 Y22.8261 I0.0001 J-3.9916
G2 X42.001 Y20.0017 I-2.8232 J-2.8278
G2 Y20.0 I-2.0 J-0.0017
G1 Y2.0001
G2 X40.8271 Y-0.8273 I-3.9916 J-0.0001
G2 X38.0027 Y-2.0 I-2.8278 J2.8232
G2 X38.001 I-0.0017 J2.0
G1 X2.0001
G2 X-0.8273 Y-0.8261 I-0.0001 J3.9916
G1 F50.0 Z-4.5
G2 F120.0 X-2.0 Y1.9983 I2.8232 J2.8278
G2 Y2.0001 I2.0 J0.0017
G1 Y19.9999
G1 Y20.0
G1 Y19.9999
G2 X-0.8261 Y22.8274 I3.9916 J0.0001
G2 X1.9983 Y24.0 I2.8278 J-2.8232
G2 X2.0001 I0.0017 J-2.0
G1 X38.0009
G1 X38.001
G1 X38.0009
G2 X40.8283 Y22.8261 I0.0001 J-3.9916
G2 X42.001 Y20.0017 I-2.8232 J-2.8278
G2 Y20.0 I-2.0 J-0.0017
G1 Y2.0001
G2 X40.8271 Y-0.8273 I-3.9916 J-0.0001
G2 X38.0027 Y-2.0 I-2.8278 J2.8232
G2 X38.001 I-0.0017 J2.0
G1 X2.0001
G2 X-0.8273 Y-0.8261 I-0.0001 J3.9916
G0 Z3.0
M5
M30
