( Made using CamBam - http://www.cambam.co.uk )
( y belt plates - 10mm 9/15/2013 2:06:30 PM )
( T4 : 4.0 )
G21 G90 G64 G40
G0 Z3.0
( T4 : 4.0 )
T4 M6
( Profile1 )
G17
M3 S1000
G0 X-0.5317 Y-1.928
G0 Z1.0
G1 F50.0 Z-1.0
G2 F120.0 X-2.0 Y0.0 I0.5317 J1.928
G1 Y8.5383
G2 X-1.7791 Y9.4519 I2.0 J0.0
G1 X8.2306 Y28.9448
G1 Y36.9998
G2 X10.2306 Y38.9998 I2.0 J0.0
G1 X50.2307
G2 X52.2307 Y36.9998 I0.0 J-2.0
G1 Y28.4613
G2 X52.0098 Y27.5477 I-2.0 J0.0
G1 X42.0001 Y8.0548
G1 Y0.0
G2 X40.0001 Y-2.0 I-2.0 J0.0
G1 X0.0
G2 X-0.5317 Y-1.928 I0.0 J2.0
G1 F50.0 Z-2.0
G2 F120.0 X-2.0 Y0.0 I0.5317 J1.928
G1 Y8.5383
G2 X-1.7791 Y9.4519 I2.0 J0.0
G1 X8.2306 Y28.9448
G1 Y36.9998
G2 X10.2306 Y38.9998 I2.0 J0.0
G1 X50.2307
G2 X52.2307 Y36.9998 I0.0 J-2.0
G1 Y28.4613
G2 X52.0098 Y27.5477 I-2.0 J0.0
G1 X42.0001 Y8.0548
G1 Y0.0
G2 X40.0001 Y-2.0 I-2.0 J0.0
G1 X0.0
G2 X-0.5317 Y-1.928 I0.0 J2.0
G1 F50.0 Z-3.0
G2 F120.0 X-2.0 Y0.0 I0.5317 J1.928
G1 Y8.5383
G2 X-1.7791 Y9.4519 I2.0 J0.0
G1 X8.2306 Y28.9448
G1 Y36.9998
G2 X10.2306 Y38.9998 I2.0 J0.0
G1 X50.2307
G2 X52.2307 Y36.9998 I0.0 J-2.0
G1 Y28.4613
G2 X52.0098 Y27.5477 I-2.0 J0.0
G1 X42.0001 Y8.0548
G1 Y0.0
G2 X40.0001 Y-2.0 I-2.0 J0.0
G1 X0.0
G2 X-0.5317 Y-1.928 I0.0 J2.0
G1 F50.0 Z-4.0
G2 F120.0 X-2.0 Y0.0 I0.5317 J1.928
G1 Y8.5383
G2 X-1.7791 Y9.4519 I2.0 J0.0
G1 X8.2306 Y28.9448
G1 Y36.9998
G2 X10.2306 Y38.9998 I2.0 J0.0
G1 X50.2307
G2 X52.2307 Y36.9998 I0.0 J-2.0
G1 Y28.4613
G2 X52.0098 Y27.5477 I-2.0 J0.0
G1 X42.0001 Y8.0548
G1 Y0.0
G2 X40.0001 Y-2.0 I-2.0 J0.0
G1 X0.0
G2 X-0.5317 Y-1.928 I0.0 J2.0
G1 F50.0 Z-5.0
G2 F120.0 X-2.0 Y0.0 I0.5317 J1.928
G1 Y8.5383
G2 X-1.7791 Y9.4519 I2.0 J0.0
G1 X8.2306 Y28.9448
G1 Y36.9998
G2 X10.2306 Y38.9998 I2.0 J0.0
G1 X50.2307
G2 X52.2307 Y36.9998 I0.0 J-2.0
G1 Y28.4613
G2 X52.0098 Y27.5477 I-2.0 J0.0
G1 X42.0001 Y8.0548
G1 Y0.0
G2 X40.0001 Y-2.0 I-2.0 J0.0
G1 X0.0
G2 X-0.5317 Y-1.928 I0.0 J2.0
G1 F50.0 Z-6.0
G2 F120.0 X-2.0 Y0.0 I0.5317 J1.928
G1 Y8.5383
G2 X-1.7791 Y9.4519 I2.0 J0.0
G1 X8.2306 Y28.9448
G1 Y36.9998
G2 X10.2306 Y38.9998 I2.0 J0.0
G1 X50.2307
G2 X52.2307 Y36.9998 I0.0 J-2.0
G1 Y28.4613
G2 X52.0098 Y27.5477 I-2.0 J0.0
G1 X42.0001 Y8.0548
G1 Y0.0
G2 X40.0001 Y-2.0 I-2.0 J0.0
G1 X0.0
G2 X-0.5317 Y-1.928 I0.0 J2.0
G1 F50.0 Z-7.0
G2 F120.0 X-2.0 Y0.0 I0.5317 J1.928
G1 Y8.5383
G2 X-1.7791 Y9.4519 I2.0 J0.0
G1 X8.2306 Y28.9448
G1 Y36.9998
G2 X10.2306 Y38.9998 I2.0 J0.0
G1 X50.2307
G2 X52.2307 Y36.9998 I0.0 J-2.0
G1 Y28.4613
G2 X52.0098 Y27.5477 I-2.0 J0.0
G1 X42.0001 Y8.0548
G1 Y0.0
G2 X40.0001 Y-2.0 I-2.0 J0.0
G1 X0.0
G2 X-0.5317 Y-1.928 I0.0 J2.0
G1 F50.0 Z-8.0
G2 F120.0 X-2.0 Y0.0 I0.5317 J1.928
G1 Y8.5383
G2 X-1.7791 Y9.4519 I2.0 J0.0
G1 X8.2306 Y28.9448
G1 Y36.9998
G2 X10.2306 Y38.9998 I2.0 J0.0
G1 X50.2307
G2 X52.2307 Y36.9998 I0.0 J-2.0
G1 Y28.4613
G2 X52.0098 Y27.5477 I-2.0 J0.0
G1 X42.0001 Y8.0548
G1 Y0.0
G2 X40.0001 Y-2.0 I-2.0 J0.0
G1 X0.0
G2 X-0.5317 Y-1.928 I0.0 J2.0
G1 F50.0 Z-9.0
G2 F120.0 X-2.0 Y0.0 I0.5317 J1.928
G1 Y8.5383
G2 X-1.7791 Y9.4519 I2.0 J0.0
G1 X8.2306 Y28.9448
G1 Y36.9998
G2 X10.2306 Y38.9998 I2.0 J0.0
G1 X50.2307
G2 X52.2307 Y36.9998 I0.0 J-2.0
G1 Y28.4613
G2 X52.0098 Y27.5477 I-2.0 J0.0
G1 X42.0001 Y8.0548
G1 Y0.0
G2 X40.0001 Y-2.0 I-2.0 J0.0
G1 X0.0
G2 X-0.5317 Y-1.928 I0.0 J2.0
G1 F50.0 Z-10.0
G2 F120.0 X-2.0 Y0.0 I0.5317 J1.928
G1 Y8.5383
G2 X-1.7791 Y9.4519 I2.0 J0.0
G1 X8.2306 Y28.9448
G1 Y36.9998
G2 X10.2306 Y38.9998 I2.0 J0.0
G1 X50.2307
G2 X52.2307 Y36.9998 I0.0 J-2.0
G1 Y28.4613
G2 X52.0098 Y27.5477 I-2.0 J0.0
G1 X42.0001 Y8.0548
G1 Y0.0
G2 X40.0001 Y-2.0 I-2.0 J0.0
G1 X0.0
G2 X-0.5317 Y-1.928 I0.0 J2.0
G1 F50.0 Z-10.5
G2 F120.0 X-2.0 Y0.0 I0.5317 J1.928
G1 Y8.5383
G2 X-1.7791 Y9.4519 I2.0 J0.0
G1 X8.2306 Y28.9448
G1 Y36.9998
G2 X10.2306 Y38.9998 I2.0 J0.0
G1 X50.2307
G2 X52.2307 Y36.9998 I0.0 J-2.0
G1 Y28.4613
G2 X52.0098 Y27.5477 I-2.0 J0.0
G1 X42.0001 Y8.0548
G1 Y0.0
G2 X40.0001 Y-2.0 I-2.0 J0.0
G1 X0.0
G2 X-0.5317 Y-1.928 I0.0 J2.0
( Profile2 )
S1000
G0 Z3.0
G0 X46.2006 Y-2.0
G0 Z1.0
G1 F50.0 Z-1.0
G2 F120.0 X44.2006 Y0.0 I0.0 J2.0
G1 Y8.5383
G2 X44.4215 Y9.4519 I2.0 J0.0
G1 X54.4308 Y28.9448
G1 Y36.9998
G2 X56.4308 Y38.9998 I2.0 J0.0
G1 X96.4312
G2 X98.4312 Y36.9998 I0.0 J-2.0
G1 Y28.4613
G2 X98.2103 Y27.5477 I-2.0 J0.0
G1 X88.2006 Y8.0548
G1 Y0.0
G2 X86.2006 Y-2.0 I-2.0 J0.0
G1 X46.2006
G1 F50.0 Z-2.0
G2 F120.0 X44.2006 Y0.0 I0.0 J2.0
G1 Y8.5383
G2 X44.4215 Y9.4519 I2.0 J0.0
G1 X54.4308 Y28.9448
G1 Y36.9998
G2 X56.4308 Y38.9998 I2.0 J0.0
G1 X96.4312
G2 X98.4312 Y36.9998 I0.0 J-2.0
G1 Y28.4613
G2 X98.2103 Y27.5477 I-2.0 J0.0
G1 X88.2006 Y8.0548
G1 Y0.0
G2 X86.2006 Y-2.0 I-2.0 J0.0
G1 X46.2006
G1 F50.0 Z-3.0
G2 F120.0 X44.2006 Y0.0 I0.0 J2.0
G1 Y8.5383
G2 X44.4215 Y9.4519 I2.0 J0.0
G1 X54.4308 Y28.9448
G1 Y36.9998
G2 X56.4308 Y38.9998 I2.0 J0.0
G1 X96.4312
G2 X98.4312 Y36.9998 I0.0 J-2.0
G1 Y28.4613
G2 X98.2103 Y27.5477 I-2.0 J0.0
G1 X88.2006 Y8.0548
G1 Y0.0
G2 X86.2006 Y-2.0 I-2.0 J0.0
G1 X46.2006
G1 F50.0 Z-4.0
G2 F120.0 X44.2006 Y0.0 I0.0 J2.0
G1 Y8.5383
G2 X44.4215 Y9.4519 I2.0 J0.0
G1 X54.4308 Y28.9448
G1 Y36.9998
G2 X56.4308 Y38.9998 I2.0 J0.0
G1 X96.4312
G2 X98.4312 Y36.9998 I0.0 J-2.0
G1 Y28.4613
G2 X98.2103 Y27.5477 I-2.0 J0.0
G1 X88.2006 Y8.0548
G1 Y0.0
G2 X86.2006 Y-2.0 I-2.0 J0.0
G1 X46.2006
G1 F50.0 Z-5.0
G2 F120.0 X44.2006 Y0.0 I0.0 J2.0
G1 Y8.5383
G2 X44.4215 Y9.4519 I2.0 J0.0
G1 X54.4308 Y28.9448
G1 Y36.9998
G2 X56.4308 Y38.9998 I2.0 J0.0
G1 X96.4312
G2 X98.4312 Y36.9998 I0.0 J-2.0
G1 Y28.4613
G2 X98.2103 Y27.5477 I-2.0 J0.0
G1 X88.2006 Y8.0548
G1 Y0.0
G2 X86.2006 Y-2.0 I-2.0 J0.0
G1 X46.2006
G1 F50.0 Z-6.0
G2 F120.0 X44.2006 Y0.0 I0.0 J2.0
G1 Y8.5383
G2 X44.4215 Y9.4519 I2.0 J0.0
G1 X54.4308 Y28.9448
G1 Y36.9998
G2 X56.4308 Y38.9998 I2.0 J0.0
G1 X96.4312
G2 X98.4312 Y36.9998 I0.0 J-2.0
G1 Y28.4613
G2 X98.2103 Y27.5477 I-2.0 J0.0
G1 X88.2006 Y8.0548
G1 Y0.0
G2 X86.2006 Y-2.0 I-2.0 J0.0
G1 X46.2006
G1 F50.0 Z-7.0
G2 F120.0 X44.2006 Y0.0 I0.0 J2.0
G1 Y8.5383
G2 X44.4215 Y9.4519 I2.0 J0.0
G1 X54.4308 Y28.9448
G1 Y36.9998
G2 X56.4308 Y38.9998 I2.0 J0.0
G1 X96.4312
G2 X98.4312 Y36.9998 I0.0 J-2.0
G1 Y28.4613
G2 X98.2103 Y27.5477 I-2.0 J0.0
G1 X88.2006 Y8.0548
G1 Y0.0
G2 X86.2006 Y-2.0 I-2.0 J0.0
G1 X46.2006
G1 F50.0 Z-8.0
G2 F120.0 X44.2006 Y0.0 I0.0 J2.0
G1 Y8.5383
G2 X44.4215 Y9.4519 I2.0 J0.0
G1 X54.4308 Y28.9448
G1 Y36.9998
G2 X56.4308 Y38.9998 I2.0 J0.0
G1 X96.4312
G2 X98.4312 Y36.9998 I0.0 J-2.0
G1 Y28.4613
G2 X98.2103 Y27.5477 I-2.0 J0.0
G1 X88.2006 Y8.0548
G1 Y0.0
G2 X86.2006 Y-2.0 I-2.0 J0.0
G1 X46.2006
G1 F50.0 Z-9.0
G2 F120.0 X44.2006 Y0.0 I0.0 J2.0
G1 Y8.5383
G2 X44.4215 Y9.4519 I2.0 J0.0
G1 X54.4308 Y28.9448
G1 Y36.9998
G2 X56.4308 Y38.9998 I2.0 J0.0
G1 X96.4312
G2 X98.4312 Y36.9998 I0.0 J-2.0
G1 Y28.4613
G2 X98.2103 Y27.5477 I-2.0 J0.0
G1 X88.2006 Y8.0548
G1 Y0.0
G2 X86.2006 Y-2.0 I-2.0 J0.0
G1 X46.2006
G1 F50.0 Z-10.0
G2 F120.0 X44.2006 Y0.0 I0.0 J2.0
G1 Y8.5383
G2 X44.4215 Y9.4519 I2.0 J0.0
G1 X54.4308 Y28.9448
G1 Y36.9998
G2 X56.4308 Y38.9998 I2.0 J0.0
G1 X96.4312
G2 X98.4312 Y36.9998 I0.0 J-2.0
G1 Y28.4613
G2 X98.2103 Y27.5477 I-2.0 J0.0
G1 X88.2006 Y8.0548
G1 Y0.0
G2 X86.2006 Y-2.0 I-2.0 J0.0
G1 X46.2006
G1 F50.0 Z-10.5
G2 F120.0 X44.2006 Y0.0 I0.0 J2.0
G1 Y8.5383
G2 X44.4215 Y9.4519 I2.0 J0.0
G1 X54.4308 Y28.9448
G1 Y36.9998
G2 X56.4308 Y38.9998 I2.0 J0.0
G1 X96.4312
G2 X98.4312 Y36.9998 I0.0 J-2.0
G1 Y28.4613
G2 X98.2103 Y27.5477 I-2.0 J0.0
G1 X88.2006 Y8.0548
G1 Y0.0
G2 X86.2006 Y-2.0 I-2.0 J0.0
G1 X46.2006
G0 Z3.0
M5
M30
