( Made using CamBam - http://www.cambam.co.uk )
( bearing hole 12/26/2012 2:34:13 PM )
( T4 : 4.0 )
G21 G90 G64 G40
G0 Z3.0
( T4 : 4.0 )
T4 M6
( Pocket1 )
G17
M3 S1000
G0 X-0.2999 Y-0.0081
G1 F50.0 Z-1.0
G3 F70.0 X-0.2177 Y-0.2067 I0.2798 J-0.0004
G2 X-0.2083 Y-0.216 I-3.6715 J-3.6824
G3 X-0.0061 Y-0.2998 I0.2019 J0.2015
G2 X0.0067 I0.0061 J-5.2
G3 X0.2076 Y-0.2165 I0.0004 J0.2833
G2 X0.2168 Y-0.2074 I3.6814 J-3.6725
G3 X0.2999 Y-0.0067 I-0.1998 J0.2003
G2 Y0.0064 I5.2 J0.0067
G3 X0.2168 Y0.2071 I-0.2831 J0.0003
G2 X0.2075 Y0.2164 I3.6722 J3.6817
G3 X0.0063 Y0.2998 I-0.2009 J-0.2004
G2 X-0.0071 I-0.0063 J5.2
G3 X-0.2072 Y0.2169 I-0.0004 J-0.2821
G2 X-0.2167 Y0.2074 I-3.6818 J3.6721
G3 X-0.2999 Y0.0065 I0.2 J-0.2005
G2 Y-0.0081 I-5.2 J-0.0065
G1 F50.0 X-1.8999 Y-0.0056
G3 F70.0 X-1.3474 Y-1.3397 I1.8798 J-0.0029
G2 X-1.3409 Y-1.3462 I-2.5418 J-2.5494
G3 X-0.0042 Y-1.8998 I1.3345 J1.3317
G2 X0.0046 I0.0042 J-3.6
G3 X1.3404 Y-1.3465 I0.0024 J1.8833
G2 X1.3467 Y-1.3402 I2.5487 J-2.5425
G3 X1.8999 Y-0.0046 I-1.3297 J1.3331
G2 Y0.0044 I3.6 J0.0046
G3 X1.3467 Y1.34 I-1.8831 J0.0023
G2 X1.3402 Y1.3464 I2.5423 J2.5489
G3 X0.0043 Y1.8998 I-1.3336 J-1.3304
G2 X-0.0049 I-0.0043 J3.6
G3 X-1.3401 Y1.3468 I-0.0026 J-1.8821
G2 X-1.3466 Y1.3402 I-2.5489 J2.5423
G3 X-1.8999 Y0.0045 I1.33 J-1.3333
G2 Y-0.0056 I-3.6 J-0.0045
G1 F50.0 X-3.4999 Y-0.0031
G3 F70.0 X-2.4771 Y-2.4728 I3.4798 J-0.0054
G2 X-2.4735 Y-2.4764 I-1.4121 J-1.4163
G3 X-0.0023 Y-3.4998 I2.467 J2.4618
G2 X0.0026 I0.0023 J-2.0
G3 X2.4731 Y-2.4765 I0.0045 J3.4833
G2 X2.4767 Y-2.473 I1.4159 J-1.4125
G3 X3.4999 Y-0.0026 I-2.4597 J2.4659
G2 Y0.0024 I2.0 J0.0026
G3 X2.4766 Y2.4728 I-3.4831 J0.0043
G2 X2.473 Y2.4764 I1.4124 J1.416
G3 X0.0024 Y3.4998 I-2.4664 J-2.4603
G2 X-0.0027 I-0.0024 J2.0
G3 X-2.4729 Y2.4766 I-0.0047 J-3.4821
G2 X-2.4766 Y2.473 I-1.4161 J1.4124
G3 X-3.4999 Y0.0025 I2.4599 J-2.4662
G2 Y-0.0031 I-2.0 J-0.0025
G0 Z3.0
G0 X-0.2999 Y-0.0081
G1 F50.0 Z-2.0
G3 F70.0 X-0.2177 Y-0.2067 I0.2798 J-0.0004
G2 X-0.2083 Y-0.216 I-3.6715 J-3.6824
G3 X-0.0061 Y-0.2998 I0.2019 J0.2015
G2 X0.0067 I0.0061 J-5.2
G3 X0.2076 Y-0.2165 I0.0004 J0.2833
G2 X0.2168 Y-0.2074 I3.6814 J-3.6725
G3 X0.2999 Y-0.0067 I-0.1998 J0.2003
G2 Y0.0064 I5.2 J0.0067
G3 X0.2168 Y0.2071 I-0.2831 J0.0003
G2 X0.2075 Y0.2164 I3.6722 J3.6817
G3 X0.0063 Y0.2998 I-0.2009 J-0.2004
G2 X-0.0071 I-0.0063 J5.2
G3 X-0.2072 Y0.2169 I-0.0004 J-0.2821
G2 X-0.2167 Y0.2074 I-3.6818 J3.6721
G3 X-0.2999 Y0.0065 I0.2 J-0.2005
G2 Y-0.0081 I-5.2 J-0.0065
G1 F50.0 X-1.8999 Y-0.0056
G3 F70.0 X-1.3474 Y-1.3397 I1.8798 J-0.0029
G2 X-1.3409 Y-1.3462 I-2.5418 J-2.5494
G3 X-0.0042 Y-1.8998 I1.3345 J1.3317
G2 X0.0046 I0.0042 J-3.6
G3 X1.3404 Y-1.3465 I0.0024 J1.8833
G2 X1.3467 Y-1.3402 I2.5487 J-2.5425
G3 X1.8999 Y-0.0046 I-1.3297 J1.3331
G2 Y0.0044 I3.6 J0.0046
G3 X1.3467 Y1.34 I-1.8831 J0.0023
G2 X1.3402 Y1.3464 I2.5423 J2.5489
G3 X0.0043 Y1.8998 I-1.3336 J-1.3304
G2 X-0.0049 I-0.0043 J3.6
G3 X-1.3401 Y1.3468 I-0.0026 J-1.8821
G2 X-1.3466 Y1.3402 I-2.5489 J2.5423
G3 X-1.8999 Y0.0045 I1.33 J-1.3333
G2 Y-0.0056 I-3.6 J-0.0045
G1 F50.0 X-3.4999 Y-0.0031
G3 F70.0 X-2.4771 Y-2.4728 I3.4798 J-0.0054
G2 X-2.4735 Y-2.4764 I-1.4121 J-1.4163
G3 X-0.0023 Y-3.4998 I2.467 J2.4618
G2 X0.0026 I0.0023 J-2.0
G3 X2.4731 Y-2.4765 I0.0045 J3.4833
G2 X2.4767 Y-2.473 I1.4159 J-1.4125
G3 X3.4999 Y-0.0026 I-2.4597 J2.4659
G2 Y0.0024 I2.0 J0.0026
G3 X2.4766 Y2.4728 I-3.4831 J0.0043
G2 X2.473 Y2.4764 I1.4124 J1.416
G3 X0.0024 Y3.4998 I-2.4664 J-2.4603
G2 X-0.0027 I-0.0024 J2.0
G3 X-2.4729 Y2.4766 I-0.0047 J-3.4821
G2 X-2.4766 Y2.473 I-1.4161 J1.4124
G3 X-3.4999 Y0.0025 I2.4599 J-2.4662
G2 Y-0.0031 I-2.0 J-0.0025
G0 Z3.0
G0 X-0.2999 Y-0.0081
G1 F50.0 Z-3.0
G3 F70.0 X-0.2177 Y-0.2067 I0.2798 J-0.0004
G2 X-0.2083 Y-0.216 I-3.6715 J-3.6824
G3 X-0.0061 Y-0.2998 I0.2019 J0.2015
G2 X0.0067 I0.0061 J-5.2
G3 X0.2076 Y-0.2165 I0.0004 J0.2833
G2 X0.2168 Y-0.2074 I3.6814 J-3.6725
G3 X0.2999 Y-0.0067 I-0.1998 J0.2003
G2 Y0.0064 I5.2 J0.0067
G3 X0.2168 Y0.2071 I-0.2831 J0.0003
G2 X0.2075 Y0.2164 I3.6722 J3.6817
G3 X0.0063 Y0.2998 I-0.2009 J-0.2004
G2 X-0.0071 I-0.0063 J5.2
G3 X-0.2072 Y0.2169 I-0.0004 J-0.2821
G2 X-0.2167 Y0.2074 I-3.6818 J3.6721
G3 X-0.2999 Y0.0065 I0.2 J-0.2005
G2 Y-0.0081 I-5.2 J-0.0065
G1 F50.0 X-1.8999 Y-0.0056
G3 F70.0 X-1.3474 Y-1.3397 I1.8798 J-0.0029
G2 X-1.3409 Y-1.3462 I-2.5418 J-2.5494
G3 X-0.0042 Y-1.8998 I1.3345 J1.3317
G2 X0.0046 I0.0042 J-3.6
G3 X1.3404 Y-1.3465 I0.0024 J1.8833
G2 X1.3467 Y-1.3402 I2.5487 J-2.5425
G3 X1.8999 Y-0.0046 I-1.3297 J1.3331
G2 Y0.0044 I3.6 J0.0046
G3 X1.3467 Y1.34 I-1.8831 J0.0023
G2 X1.3402 Y1.3464 I2.5423 J2.5489
G3 X0.0043 Y1.8998 I-1.3336 J-1.3304
G2 X-0.0049 I-0.0043 J3.6
G3 X-1.3401 Y1.3468 I-0.0026 J-1.8821
G2 X-1.3466 Y1.3402 I-2.5489 J2.5423
G3 X-1.8999 Y0.0045 I1.33 J-1.3333
G2 Y-0.0056 I-3.6 J-0.0045
G1 F50.0 X-3.4999 Y-0.0031
G3 F70.0 X-2.4771 Y-2.4728 I3.4798 J-0.0054
G2 X-2.4735 Y-2.4764 I-1.4121 J-1.4163
G3 X-0.0023 Y-3.4998 I2.467 J2.4618
G2 X0.0026 I0.0023 J-2.0
G3 X2.4731 Y-2.4765 I0.0045 J3.4833
G2 X2.4767 Y-2.473 I1.4159 J-1.4125
G3 X3.4999 Y-0.0026 I-2.4597 J2.4659
G2 Y0.0024 I2.0 J0.0026
G3 X2.4766 Y2.4728 I-3.4831 J0.0043
G2 X2.473 Y2.4764 I1.4124 J1.416
G3 X0.0024 Y3.4998 I-2.4664 J-2.4603
G2 X-0.0027 I-0.0024 J2.0
G3 X-2.4729 Y2.4766 I-0.0047 J-3.4821
G2 X-2.4766 Y2.473 I-1.4161 J1.4124
G3 X-3.4999 Y0.0025 I2.4599 J-2.4662
G2 Y-0.0031 I-2.0 J-0.0025
G0 Z3.0
G0 X-0.2999 Y-0.0081
G1 F50.0 Z-4.0
G3 F70.0 X-0.2177 Y-0.2067 I0.2798 J-0.0004
G2 X-0.2083 Y-0.216 I-3.6715 J-3.6824
G3 X-0.0061 Y-0.2998 I0.2019 J0.2015
G2 X0.0067 I0.0061 J-5.2
G3 X0.2076 Y-0.2165 I0.0004 J0.2833
G2 X0.2168 Y-0.2074 I3.6814 J-3.6725
G3 X0.2999 Y-0.0067 I-0.1998 J0.2003
G2 Y0.0064 I5.2 J0.0067
G3 X0.2168 Y0.2071 I-0.2831 J0.0003
G2 X0.2075 Y0.2164 I3.6722 J3.6817
G3 X0.0063 Y0.2998 I-0.2009 J-0.2004
G2 X-0.0071 I-0.0063 J5.2
G3 X-0.2072 Y0.2169 I-0.0004 J-0.2821
G2 X-0.2167 Y0.2074 I-3.6818 J3.6721
G3 X-0.2999 Y0.0065 I0.2 J-0.2005
G2 Y-0.0081 I-5.2 J-0.0065
G1 F50.0 X-1.8999 Y-0.0056
G3 F70.0 X-1.3474 Y-1.3397 I1.8798 J-0.0029
G2 X-1.3409 Y-1.3462 I-2.5418 J-2.5494
G3 X-0.0042 Y-1.8998 I1.3345 J1.3317
G2 X0.0046 I0.0042 J-3.6
G3 X1.3404 Y-1.3465 I0.0024 J1.8833
G2 X1.3467 Y-1.3402 I2.5487 J-2.5425
G3 X1.8999 Y-0.0046 I-1.3297 J1.3331
G2 Y0.0044 I3.6 J0.0046
G3 X1.3467 Y1.34 I-1.8831 J0.0023
G2 X1.3402 Y1.3464 I2.5423 J2.5489
G3 X0.0043 Y1.8998 I-1.3336 J-1.3304
G2 X-0.0049 I-0.0043 J3.6
G3 X-1.3401 Y1.3468 I-0.0026 J-1.8821
G2 X-1.3466 Y1.3402 I-2.5489 J2.5423
G3 X-1.8999 Y0.0045 I1.33 J-1.3333
G2 Y-0.0056 I-3.6 J-0.0045
G1 F50.0 X-3.4999 Y-0.0031
G3 F70.0 X-2.4771 Y-2.4728 I3.4798 J-0.0054
G2 X-2.4735 Y-2.4764 I-1.4121 J-1.4163
G3 X-0.0023 Y-3.4998 I2.467 J2.4618
G2 X0.0026 I0.0023 J-2.0
G3 X2.4731 Y-2.4765 I0.0045 J3.4833
G2 X2.4767 Y-2.473 I1.4159 J-1.4125
G3 X3.4999 Y-0.0026 I-2.4597 J2.4659
G2 Y0.0024 I2.0 J0.0026
G3 X2.4766 Y2.4728 I-3.4831 J0.0043
G2 X2.473 Y2.4764 I1.4124 J1.416
G3 X0.0024 Y3.4998 I-2.4664 J-2.4603
G2 X-0.0027 I-0.0024 J2.0
G3 X-2.4729 Y2.4766 I-0.0047 J-3.4821
G2 X-2.4766 Y2.473 I-1.4161 J1.4124
G3 X-3.4999 Y0.0025 I2.4599 J-2.4662
G2 Y-0.0031 I-2.0 J-0.0025
G0 Z3.0
M5
M30
