( Made using CamBam - http://www.cambam.co.uk )
( x bearing mount 12/26/2012 2:32:59 PM )
( T4 : 4.0 )
G21 G90 G64 G40
G0 Z3.0
( T4 : 4.0 )
T4 M6
( Profile1 )
G17
M3 S1000
G0 X34.3381 Y2.9985
G1 F50.0 Z-1.0
G2 F70.0 X32.8715 Y-0.5325 I-4.9929 J0.0036
G2 X29.3382 Y-2.0 I-3.5336 J3.5206
G1 X29.3381
G1 X3.0
G2 X2.9985 I0.0 J2.0
G2 X-0.5325 Y-0.5335 I0.0036 J4.9929
G2 X-2.0 Y2.9999 I3.5206 J3.5336
G1 Y3.0
G1 Y32.748
G2 X-1.9999 Y32.7628 I2.0 J0.0
G2 X-1.9506 Y33.6763 I9.8154 J-0.0725
G2 X-1.9494 Y33.6876 I1.9899 J-0.2009
G2 X-1.7111 Y35.1582 I13.6364 J-1.4549
G2 X-1.1076 Y37.2493 I15.88 J-3.4506
G2 X-1.1071 Y37.2505 I1.8801 J-0.682
G2 X-0.6863 Y38.2802 I13.285 J-4.8289
G2 X-0.5558 Y38.555 I8.1113 J-3.6837
G2 X-0.1265 Y39.3363 I9.0635 J-4.4711
G2 X-0.1172 Y39.3516 I1.7087 J-1.0394
G1 X3.0643 Y44.4776
G3 X3.319 Y44.9421 I-4.9967 J3.0414
G3 X3.723 Y45.9125 I-8.8247 J4.2434
G2 X3.7233 Y45.9134 I1.885 J-0.6685
G3 X4.1685 Y47.4935 I-11.606 J4.1226
G3 X4.3015 Y48.2809 I-10.0262 J2.0993
G2 X4.3017 Y48.2823 I1.9835 J-0.2561
G3 X4.3208 Y48.4521 I-4.963 J0.6445
G2 X4.3221 Y48.4652 I1.991 J-0.1897
G3 X4.342 Y48.7175 I-5.5398 J0.5647
G1 X4.348 Y48.8566
G1 X4.35 Y48.9935
G1 Y58.6185
G2 Y58.6199 I2.0 J0.0
G2 X5.8165 Y62.151 I4.9929 J-0.0036
G2 X9.3499 Y63.6185 I3.5336 J-3.5206
G1 X9.35
G1 X22.6353
G2 X22.6368 I0.0 J-2.0
G2 X26.1678 Y62.1519 I-0.0036 J-4.9929
G2 X27.6353 Y58.6186 I-3.5206 J-3.5336
G1 Y58.6185
G1 Y48.9821
G3 X27.6642 Y48.4709 I4.8695 J0.0186
G2 X27.6644 Y48.4684 I-1.9881 J-0.2176
G3 X27.8364 Y47.4512 I8.604 J0.9311
G2 X27.8379 Y47.4446 I-1.9487 J-0.4502
G3 X28.308 Y45.888 I11.3891 J2.5906
G2 X28.3107 Y45.8809 I-1.8697 J-0.7101
G3 X28.609 Y45.1846 I7.781 J2.9215
G1 X28.7047 Y44.9931
G3 X28.7588 Y44.8913 I4.3503 J2.2464
G3 X28.9569 Y44.558 I4.9657 J2.727
G1 X32.367 Y39.3535
G2 X32.3711 Y39.3472 I-1.6729 J-1.0961
G2 X32.8392 Y38.537 I-7.4908 J-4.8679
G2 X33.4422 Y37.1595 I-11.3542 J-5.7913
G2 X34.0574 Y35.0725 I-14.7809 J-5.4914
G2 X34.2542 Y33.956 I-12.1137 J-2.7103
G2 X34.2571 Y33.932 I-1.9834 J-0.2568
G1 X34.2849 Y33.695
G2 X34.2874 Y33.6728 I-1.9864 J-0.2327
G2 X34.3081 Y33.4506 I-8.8235 J-0.9339
G2 X34.3298 Y33.1106 I-7.5378 J-0.6521
G2 X34.3363 Y32.9121 I-5.0103 J-0.2633
G1 X34.3374 Y32.8502
G2 X34.3376 Y32.827 I-1.9997 J-0.0351
G1 X34.338 Y32.76
G2 X34.3381 Y32.748 I-2.0 J-0.0119
G1 Y3.0
G2 Y2.9985 I-2.0 J0.0
G1 F50.0 Z-2.0
G2 F70.0 X32.8715 Y-0.5325 I-4.9929 J0.0036
G2 X29.3382 Y-2.0 I-3.5336 J3.5206
G1 X29.3381
G1 X3.0
G2 X2.9985 I0.0 J2.0
G2 X-0.5325 Y-0.5335 I0.0036 J4.9929
G2 X-2.0 Y2.9999 I3.5206 J3.5336
G1 Y3.0
G1 Y32.748
G2 X-1.9999 Y32.7628 I2.0 J0.0
G2 X-1.9506 Y33.6763 I9.8154 J-0.0725
G2 X-1.9494 Y33.6876 I1.9899 J-0.2009
G2 X-1.7111 Y35.1582 I13.6364 J-1.4549
G2 X-1.1076 Y37.2493 I15.88 J-3.4506
G2 X-1.1071 Y37.2505 I1.8801 J-0.682
G2 X-0.6863 Y38.2802 I13.285 J-4.8289
G2 X-0.5558 Y38.555 I8.1113 J-3.6837
G2 X-0.1265 Y39.3363 I9.0635 J-4.4711
G2 X-0.1172 Y39.3516 I1.7087 J-1.0394
G1 X3.0643 Y44.4776
G3 X3.319 Y44.9421 I-4.9967 J3.0414
G3 X3.723 Y45.9125 I-8.8247 J4.2434
G2 X3.7233 Y45.9134 I1.885 J-0.6685
G3 X4.1685 Y47.4935 I-11.606 J4.1226
G3 X4.3015 Y48.2809 I-10.0262 J2.0993
G2 X4.3017 Y48.2823 I1.9835 J-0.2561
G3 X4.3208 Y48.4521 I-4.963 J0.6445
G2 X4.3221 Y48.4652 I1.991 J-0.1897
G3 X4.342 Y48.7175 I-5.5398 J0.5647
G1 X4.348 Y48.8566
G1 X4.35 Y48.9935
G1 Y58.6185
G2 Y58.6199 I2.0 J0.0
G2 X5.8165 Y62.151 I4.9929 J-0.0036
G2 X9.3499 Y63.6185 I3.5336 J-3.5206
G1 X9.35
G1 X22.6353
G2 X22.6368 I0.0 J-2.0
G2 X26.1678 Y62.1519 I-0.0036 J-4.9929
G2 X27.6353 Y58.6186 I-3.5206 J-3.5336
G1 Y58.6185
G1 Y48.9821
G3 X27.6642 Y48.4709 I4.8695 J0.0186
G2 X27.6644 Y48.4684 I-1.9881 J-0.2176
G3 X27.8364 Y47.4512 I8.604 J0.9311
G2 X27.8379 Y47.4446 I-1.9487 J-0.4502
G3 X28.308 Y45.888 I11.3891 J2.5906
G2 X28.3107 Y45.8809 I-1.8697 J-0.7101
G3 X28.609 Y45.1846 I7.781 J2.9215
G1 X28.7047 Y44.9931
G3 X28.7588 Y44.8913 I4.3503 J2.2464
G3 X28.9569 Y44.558 I4.9657 J2.727
G1 X32.367 Y39.3535
G2 X32.3711 Y39.3472 I-1.6729 J-1.0961
G2 X32.8392 Y38.537 I-7.4908 J-4.8679
G2 X33.4422 Y37.1595 I-11.3542 J-5.7913
G2 X34.0574 Y35.0725 I-14.7809 J-5.4914
G2 X34.2542 Y33.956 I-12.1137 J-2.7103
G2 X34.2571 Y33.932 I-1.9834 J-0.2568
G1 X34.2849 Y33.695
G2 X34.2874 Y33.6728 I-1.9864 J-0.2327
G2 X34.3081 Y33.4506 I-8.8235 J-0.9339
G2 X34.3298 Y33.1106 I-7.5378 J-0.6521
G2 X34.3363 Y32.9121 I-5.0103 J-0.2633
G1 X34.3374 Y32.8502
G2 X34.3376 Y32.827 I-1.9997 J-0.0351
G1 X34.338 Y32.76
G2 X34.3381 Y32.748 I-2.0 J-0.0119
G1 Y3.0
G2 Y2.9985 I-2.0 J0.0
G1 F50.0 Z-3.0
G2 F70.0 X32.8715 Y-0.5325 I-4.9929 J0.0036
G2 X29.3382 Y-2.0 I-3.5336 J3.5206
G1 X29.3381
G1 X3.0
G2 X2.9985 I0.0 J2.0
G2 X-0.5325 Y-0.5335 I0.0036 J4.9929
G2 X-2.0 Y2.9999 I3.5206 J3.5336
G1 Y3.0
G1 Y32.748
G2 X-1.9999 Y32.7628 I2.0 J0.0
G2 X-1.9506 Y33.6763 I9.8154 J-0.0725
G2 X-1.9494 Y33.6876 I1.9899 J-0.2009
G2 X-1.7111 Y35.1582 I13.6364 J-1.4549
G2 X-1.1076 Y37.2493 I15.88 J-3.4506
G2 X-1.1071 Y37.2505 I1.8801 J-0.682
G2 X-0.6863 Y38.2802 I13.285 J-4.8289
G2 X-0.5558 Y38.555 I8.1113 J-3.6837
G2 X-0.1265 Y39.3363 I9.0635 J-4.4711
G2 X-0.1172 Y39.3516 I1.7087 J-1.0394
G1 X3.0643 Y44.4776
G3 X3.319 Y44.9421 I-4.9967 J3.0414
G3 X3.723 Y45.9125 I-8.8247 J4.2434
G2 X3.7233 Y45.9134 I1.885 J-0.6685
G3 X4.1685 Y47.4935 I-11.606 J4.1226
G3 X4.3015 Y48.2809 I-10.0262 J2.0993
G2 X4.3017 Y48.2823 I1.9835 J-0.2561
G3 X4.3208 Y48.4521 I-4.963 J0.6445
G2 X4.3221 Y48.4652 I1.991 J-0.1897
G3 X4.342 Y48.7175 I-5.5398 J0.5647
G1 X4.348 Y48.8566
G1 X4.35 Y48.9935
G1 Y58.6185
G2 Y58.6199 I2.0 J0.0
G2 X5.8165 Y62.151 I4.9929 J-0.0036
G2 X9.3499 Y63.6185 I3.5336 J-3.5206
G1 X9.35
G1 X22.6353
G2 X22.6368 I0.0 J-2.0
G2 X26.1678 Y62.1519 I-0.0036 J-4.9929
G2 X27.6353 Y58.6186 I-3.5206 J-3.5336
G1 Y58.6185
G1 Y48.9821
G3 X27.6642 Y48.4709 I4.8695 J0.0186
G2 X27.6644 Y48.4684 I-1.9881 J-0.2176
G3 X27.8364 Y47.4512 I8.604 J0.9311
G2 X27.8379 Y47.4446 I-1.9487 J-0.4502
G3 X28.308 Y45.888 I11.3891 J2.5906
G2 X28.3107 Y45.8809 I-1.8697 J-0.7101
G3 X28.609 Y45.1846 I7.781 J2.9215
G1 X28.7047 Y44.9931
G3 X28.7588 Y44.8913 I4.3503 J2.2464
G3 X28.9569 Y44.558 I4.9657 J2.727
G1 X32.367 Y39.3535
G2 X32.3711 Y39.3472 I-1.6729 J-1.0961
G2 X32.8392 Y38.537 I-7.4908 J-4.8679
G2 X33.4422 Y37.1595 I-11.3542 J-5.7913
G2 X34.0574 Y35.0725 I-14.7809 J-5.4914
G2 X34.2542 Y33.956 I-12.1137 J-2.7103
G2 X34.2571 Y33.932 I-1.9834 J-0.2568
G1 X34.2849 Y33.695
G2 X34.2874 Y33.6728 I-1.9864 J-0.2327
G2 X34.3081 Y33.4506 I-8.8235 J-0.9339
G2 X34.3298 Y33.1106 I-7.5378 J-0.6521
G2 X34.3363 Y32.9121 I-5.0103 J-0.2633
G1 X34.3374 Y32.8502
G2 X34.3376 Y32.827 I-1.9997 J-0.0351
G1 X34.338 Y32.76
G2 X34.3381 Y32.748 I-2.0 J-0.0119
G1 Y3.0
G2 Y2.9985 I-2.0 J0.0
G1 F50.0 Z-4.0
G2 F70.0 X32.8715 Y-0.5325 I-4.9929 J0.0036
G2 X29.3382 Y-2.0 I-3.5336 J3.5206
G1 X29.3381
G1 X3.0
G2 X2.9985 I0.0 J2.0
G2 X-0.5325 Y-0.5335 I0.0036 J4.9929
G2 X-2.0 Y2.9999 I3.5206 J3.5336
G1 Y3.0
G1 Y32.748
G2 X-1.9999 Y32.7628 I2.0 J0.0
G2 X-1.9506 Y33.6763 I9.8154 J-0.0725
G2 X-1.9494 Y33.6876 I1.9899 J-0.2009
G2 X-1.7111 Y35.1582 I13.6364 J-1.4549
G2 X-1.1076 Y37.2493 I15.88 J-3.4506
G2 X-1.1071 Y37.2505 I1.8801 J-0.682
G2 X-0.6863 Y38.2802 I13.285 J-4.8289
G2 X-0.5558 Y38.555 I8.1113 J-3.6837
G2 X-0.1265 Y39.3363 I9.0635 J-4.4711
G2 X-0.1172 Y39.3516 I1.7087 J-1.0394
G1 X3.0643 Y44.4776
G3 X3.319 Y44.9421 I-4.9967 J3.0414
G3 X3.723 Y45.9125 I-8.8247 J4.2434
G2 X3.7233 Y45.9134 I1.885 J-0.6685
G3 X4.1685 Y47.4935 I-11.606 J4.1226
G3 X4.3015 Y48.2809 I-10.0262 J2.0993
G2 X4.3017 Y48.2823 I1.9835 J-0.2561
G3 X4.3208 Y48.4521 I-4.963 J0.6445
G2 X4.3221 Y48.4652 I1.991 J-0.1897
G3 X4.342 Y48.7175 I-5.5398 J0.5647
G1 X4.348 Y48.8566
G1 X4.35 Y48.9935
G1 Y58.6185
G2 Y58.6199 I2.0 J0.0
G2 X5.8165 Y62.151 I4.9929 J-0.0036
G2 X9.3499 Y63.6185 I3.5336 J-3.5206
G1 X9.35
G1 X22.6353
G2 X22.6368 I0.0 J-2.0
G2 X26.1678 Y62.1519 I-0.0036 J-4.9929
G2 X27.6353 Y58.6186 I-3.5206 J-3.5336
G1 Y58.6185
G1 Y48.9821
G3 X27.6642 Y48.4709 I4.8695 J0.0186
G2 X27.6644 Y48.4684 I-1.9881 J-0.2176
G3 X27.8364 Y47.4512 I8.604 J0.9311
G2 X27.8379 Y47.4446 I-1.9487 J-0.4502
G3 X28.308 Y45.888 I11.3891 J2.5906
G2 X28.3107 Y45.8809 I-1.8697 J-0.7101
G3 X28.609 Y45.1846 I7.781 J2.9215
G1 X28.7047 Y44.9931
G3 X28.7588 Y44.8913 I4.3503 J2.2464
G3 X28.9569 Y44.558 I4.9657 J2.727
G1 X32.367 Y39.3535
G2 X32.3711 Y39.3472 I-1.6729 J-1.0961
G2 X32.8392 Y38.537 I-7.4908 J-4.8679
G2 X33.4422 Y37.1595 I-11.3542 J-5.7913
G2 X34.0574 Y35.0725 I-14.7809 J-5.4914
G2 X34.2542 Y33.956 I-12.1137 J-2.7103
G2 X34.2571 Y33.932 I-1.9834 J-0.2568
G1 X34.2849 Y33.695
G2 X34.2874 Y33.6728 I-1.9864 J-0.2327
G2 X34.3081 Y33.4506 I-8.8235 J-0.9339
G2 X34.3298 Y33.1106 I-7.5378 J-0.6521
G2 X34.3363 Y32.9121 I-5.0103 J-0.2633
G1 X34.3374 Y32.8502
G2 X34.3376 Y32.827 I-1.9997 J-0.0351
G1 X34.338 Y32.76
G2 X34.3381 Y32.748 I-2.0 J-0.0119
G1 Y3.0
G2 Y2.9985 I-2.0 J0.0
G1 F50.0 Z-5.0
G2 F70.0 X32.8715 Y-0.5325 I-4.9929 J0.0036
G2 X29.3382 Y-2.0 I-3.5336 J3.5206
G1 X29.3381
G1 X3.0
G2 X2.9985 I0.0 J2.0
G2 X-0.5325 Y-0.5335 I0.0036 J4.9929
G2 X-2.0 Y2.9999 I3.5206 J3.5336
G1 Y3.0
G1 Y32.748
G2 X-1.9999 Y32.7628 I2.0 J0.0
G2 X-1.9506 Y33.6763 I9.8154 J-0.0725
G2 X-1.9494 Y33.6876 I1.9899 J-0.2009
G2 X-1.7111 Y35.1582 I13.6364 J-1.4549
G2 X-1.1076 Y37.2493 I15.88 J-3.4506
G2 X-1.1071 Y37.2505 I1.8801 J-0.682
G2 X-0.6863 Y38.2802 I13.285 J-4.8289
G2 X-0.5558 Y38.555 I8.1113 J-3.6837
G2 X-0.1265 Y39.3363 I9.0635 J-4.4711
G2 X-0.1172 Y39.3516 I1.7087 J-1.0394
G1 X3.0643 Y44.4776
G3 X3.319 Y44.9421 I-4.9967 J3.0414
G3 X3.723 Y45.9125 I-8.8247 J4.2434
G2 X3.7233 Y45.9134 I1.885 J-0.6685
G3 X4.1685 Y47.4935 I-11.606 J4.1226
G3 X4.3015 Y48.2809 I-10.0262 J2.0993
G2 X4.3017 Y48.2823 I1.9835 J-0.2561
G3 X4.3208 Y48.4521 I-4.963 J0.6445
G2 X4.3221 Y48.4652 I1.991 J-0.1897
G3 X4.342 Y48.7175 I-5.5398 J0.5647
G1 X4.348 Y48.8566
G1 X4.35 Y48.9935
G1 Y58.6185
G2 Y58.6199 I2.0 J0.0
G2 X5.8165 Y62.151 I4.9929 J-0.0036
G2 X9.3499 Y63.6185 I3.5336 J-3.5206
G1 X9.35
G1 X22.6353
G2 X22.6368 I0.0 J-2.0
G2 X26.1678 Y62.1519 I-0.0036 J-4.9929
G2 X27.6353 Y58.6186 I-3.5206 J-3.5336
G1 Y58.6185
G1 Y48.9821
G3 X27.6642 Y48.4709 I4.8695 J0.0186
G2 X27.6644 Y48.4684 I-1.9881 J-0.2176
G3 X27.8364 Y47.4512 I8.604 J0.9311
G2 X27.8379 Y47.4446 I-1.9487 J-0.4502
G3 X28.308 Y45.888 I11.3891 J2.5906
G2 X28.3107 Y45.8809 I-1.8697 J-0.7101
G3 X28.609 Y45.1846 I7.781 J2.9215
G1 X28.7047 Y44.9931
G3 X28.7588 Y44.8913 I4.3503 J2.2464
G3 X28.9569 Y44.558 I4.9657 J2.727
G1 X32.367 Y39.3535
G2 X32.3711 Y39.3472 I-1.6729 J-1.0961
G2 X32.8392 Y38.537 I-7.4908 J-4.8679
G2 X33.4422 Y37.1595 I-11.3542 J-5.7913
G2 X34.0574 Y35.0725 I-14.7809 J-5.4914
G2 X34.2542 Y33.956 I-12.1137 J-2.7103
G2 X34.2571 Y33.932 I-1.9834 J-0.2568
G1 X34.2849 Y33.695
G2 X34.2874 Y33.6728 I-1.9864 J-0.2327
G2 X34.3081 Y33.4506 I-8.8235 J-0.9339
G2 X34.3298 Y33.1106 I-7.5378 J-0.6521
G2 X34.3363 Y32.9121 I-5.0103 J-0.2633
G1 X34.3374 Y32.8502
G2 X34.3376 Y32.827 I-1.9997 J-0.0351
G1 X34.338 Y32.76
G2 X34.3381 Y32.748 I-2.0 J-0.0119
G1 Y3.0
G2 Y2.9985 I-2.0 J0.0
G1 F50.0 Z-6.0
G2 F70.0 X32.8715 Y-0.5325 I-4.9929 J0.0036
G2 X29.3382 Y-2.0 I-3.5336 J3.5206
G1 X29.3381
G1 X3.0
G2 X2.9985 I0.0 J2.0
G2 X-0.5325 Y-0.5335 I0.0036 J4.9929
G2 X-2.0 Y2.9999 I3.5206 J3.5336
G1 Y3.0
G1 Y32.748
G2 X-1.9999 Y32.7628 I2.0 J0.0
G2 X-1.9506 Y33.6763 I9.8154 J-0.0725
G2 X-1.9494 Y33.6876 I1.9899 J-0.2009
G2 X-1.7111 Y35.1582 I13.6364 J-1.4549
G2 X-1.1076 Y37.2493 I15.88 J-3.4506
G2 X-1.1071 Y37.2505 I1.8801 J-0.682
G2 X-0.6863 Y38.2802 I13.285 J-4.8289
G2 X-0.5558 Y38.555 I8.1113 J-3.6837
G2 X-0.1265 Y39.3363 I9.0635 J-4.4711
G2 X-0.1172 Y39.3516 I1.7087 J-1.0394
G1 X3.0643 Y44.4776
G3 X3.319 Y44.9421 I-4.9967 J3.0414
G3 X3.723 Y45.9125 I-8.8247 J4.2434
G2 X3.7233 Y45.9134 I1.885 J-0.6685
G3 X4.1685 Y47.4935 I-11.606 J4.1226
G3 X4.3015 Y48.2809 I-10.0262 J2.0993
G2 X4.3017 Y48.2823 I1.9835 J-0.2561
G3 X4.3208 Y48.4521 I-4.963 J0.6445
G2 X4.3221 Y48.4652 I1.991 J-0.1897
G3 X4.342 Y48.7175 I-5.5398 J0.5647
G1 X4.348 Y48.8566
G1 X4.35 Y48.9935
G1 Y58.6185
G2 Y58.6199 I2.0 J0.0
G2 X5.8165 Y62.151 I4.9929 J-0.0036
G2 X9.3499 Y63.6185 I3.5336 J-3.5206
G1 X9.35
G1 X22.6353
G2 X22.6368 I0.0 J-2.0
G2 X26.1678 Y62.1519 I-0.0036 J-4.9929
G2 X27.6353 Y58.6186 I-3.5206 J-3.5336
G1 Y58.6185
G1 Y48.9821
G3 X27.6642 Y48.4709 I4.8695 J0.0186
G2 X27.6644 Y48.4684 I-1.9881 J-0.2176
G3 X27.8364 Y47.4512 I8.604 J0.9311
G2 X27.8379 Y47.4446 I-1.9487 J-0.4502
G3 X28.308 Y45.888 I11.3891 J2.5906
G2 X28.3107 Y45.8809 I-1.8697 J-0.7101
G3 X28.609 Y45.1846 I7.781 J2.9215
G1 X28.7047 Y44.9931
G3 X28.7588 Y44.8913 I4.3503 J2.2464
G3 X28.9569 Y44.558 I4.9657 J2.727
G1 X32.367 Y39.3535
G2 X32.3711 Y39.3472 I-1.6729 J-1.0961
G2 X32.8392 Y38.537 I-7.4908 J-4.8679
G2 X33.4422 Y37.1595 I-11.3542 J-5.7913
G2 X34.0574 Y35.0725 I-14.7809 J-5.4914
G2 X34.2542 Y33.956 I-12.1137 J-2.7103
G2 X34.2571 Y33.932 I-1.9834 J-0.2568
G1 X34.2849 Y33.695
G2 X34.2874 Y33.6728 I-1.9864 J-0.2327
G2 X34.3081 Y33.4506 I-8.8235 J-0.9339
G2 X34.3298 Y33.1106 I-7.5378 J-0.6521
G2 X34.3363 Y32.9121 I-5.0103 J-0.2633
G1 X34.3374 Y32.8502
G2 X34.3376 Y32.827 I-1.9997 J-0.0351
G1 X34.338 Y32.76
G2 X34.3381 Y32.748 I-2.0 J-0.0119
G1 Y3.0
G2 Y2.9985 I-2.0 J0.0
G1 F50.0 Z-7.0
G2 F70.0 X32.8715 Y-0.5325 I-4.9929 J0.0036
G2 X29.3382 Y-2.0 I-3.5336 J3.5206
G1 X29.3381
G1 X3.0
G2 X2.9985 I0.0 J2.0
G2 X-0.5325 Y-0.5335 I0.0036 J4.9929
G2 X-2.0 Y2.9999 I3.5206 J3.5336
G1 Y3.0
G1 Y32.748
G2 X-1.9999 Y32.7628 I2.0 J0.0
G2 X-1.9506 Y33.6763 I9.8154 J-0.0725
G2 X-1.9494 Y33.6876 I1.9899 J-0.2009
G2 X-1.7111 Y35.1582 I13.6364 J-1.4549
G2 X-1.1076 Y37.2493 I15.88 J-3.4506
G2 X-1.1071 Y37.2505 I1.8801 J-0.682
G2 X-0.6863 Y38.2802 I13.285 J-4.8289
G2 X-0.5558 Y38.555 I8.1113 J-3.6837
G2 X-0.1265 Y39.3363 I9.0635 J-4.4711
G2 X-0.1172 Y39.3516 I1.7087 J-1.0394
G1 X3.0643 Y44.4776
G3 X3.319 Y44.9421 I-4.9967 J3.0414
G3 X3.723 Y45.9125 I-8.8247 J4.2434
G2 X3.7233 Y45.9134 I1.885 J-0.6685
G3 X4.1685 Y47.4935 I-11.606 J4.1226
G3 X4.3015 Y48.2809 I-10.0262 J2.0993
G2 X4.3017 Y48.2823 I1.9835 J-0.2561
G3 X4.3208 Y48.4521 I-4.963 J0.6445
G2 X4.3221 Y48.4652 I1.991 J-0.1897
G3 X4.342 Y48.7175 I-5.5398 J0.5647
G1 X4.348 Y48.8566
G1 X4.35 Y48.9935
G1 Y58.6185
G2 Y58.6199 I2.0 J0.0
G2 X5.8165 Y62.151 I4.9929 J-0.0036
G2 X9.3499 Y63.6185 I3.5336 J-3.5206
G1 X9.35
G1 X22.6353
G2 X22.6368 I0.0 J-2.0
G2 X26.1678 Y62.1519 I-0.0036 J-4.9929
G2 X27.6353 Y58.6186 I-3.5206 J-3.5336
G1 Y58.6185
G1 Y48.9821
G3 X27.6642 Y48.4709 I4.8695 J0.0186
G2 X27.6644 Y48.4684 I-1.9881 J-0.2176
G3 X27.8364 Y47.4512 I8.604 J0.9311
G2 X27.8379 Y47.4446 I-1.9487 J-0.4502
G3 X28.308 Y45.888 I11.3891 J2.5906
G2 X28.3107 Y45.8809 I-1.8697 J-0.7101
G3 X28.609 Y45.1846 I7.781 J2.9215
G1 X28.7047 Y44.9931
G3 X28.7588 Y44.8913 I4.3503 J2.2464
G3 X28.9569 Y44.558 I4.9657 J2.727
G1 X32.367 Y39.3535
G2 X32.3711 Y39.3472 I-1.6729 J-1.0961
G2 X32.8392 Y38.537 I-7.4908 J-4.8679
G2 X33.4422 Y37.1595 I-11.3542 J-5.7913
G2 X34.0574 Y35.0725 I-14.7809 J-5.4914
G2 X34.2542 Y33.956 I-12.1137 J-2.7103
G2 X34.2571 Y33.932 I-1.9834 J-0.2568
G1 X34.2849 Y33.695
G2 X34.2874 Y33.6728 I-1.9864 J-0.2327
G2 X34.3081 Y33.4506 I-8.8235 J-0.9339
G2 X34.3298 Y33.1106 I-7.5378 J-0.6521
G2 X34.3363 Y32.9121 I-5.0103 J-0.2633
G1 X34.3374 Y32.8502
G2 X34.3376 Y32.827 I-1.9997 J-0.0351
G1 X34.338 Y32.76
G2 X34.3381 Y32.748 I-2.0 J-0.0119
G1 Y3.0
G2 Y2.9985 I-2.0 J0.0
G1 F50.0 Z-8.0
G2 F70.0 X32.8715 Y-0.5325 I-4.9929 J0.0036
G2 X29.3382 Y-2.0 I-3.5336 J3.5206
G1 X29.3381
G1 X3.0
G2 X2.9985 I0.0 J2.0
G2 X-0.5325 Y-0.5335 I0.0036 J4.9929
G2 X-2.0 Y2.9999 I3.5206 J3.5336
G1 Y3.0
G1 Y32.748
G2 X-1.9999 Y32.7628 I2.0 J0.0
G2 X-1.9506 Y33.6763 I9.8154 J-0.0725
G2 X-1.9494 Y33.6876 I1.9899 J-0.2009
G2 X-1.7111 Y35.1582 I13.6364 J-1.4549
G2 X-1.1076 Y37.2493 I15.88 J-3.4506
G2 X-1.1071 Y37.2505 I1.8801 J-0.682
G2 X-0.6863 Y38.2802 I13.285 J-4.8289
G2 X-0.5558 Y38.555 I8.1113 J-3.6837
G2 X-0.1265 Y39.3363 I9.0635 J-4.4711
G2 X-0.1172 Y39.3516 I1.7087 J-1.0394
G1 X3.0643 Y44.4776
G3 X3.319 Y44.9421 I-4.9967 J3.0414
G3 X3.723 Y45.9125 I-8.8247 J4.2434
G2 X3.7233 Y45.9134 I1.885 J-0.6685
G3 X4.1685 Y47.4935 I-11.606 J4.1226
G3 X4.3015 Y48.2809 I-10.0262 J2.0993
G2 X4.3017 Y48.2823 I1.9835 J-0.2561
G3 X4.3208 Y48.4521 I-4.963 J0.6445
G2 X4.3221 Y48.4652 I1.991 J-0.1897
G3 X4.342 Y48.7175 I-5.5398 J0.5647
G1 X4.348 Y48.8566
G1 X4.35 Y48.9935
G1 Y58.6185
G2 Y58.6199 I2.0 J0.0
G2 X5.8165 Y62.151 I4.9929 J-0.0036
G2 X9.3499 Y63.6185 I3.5336 J-3.5206
G1 X9.35
G1 X22.6353
G2 X22.6368 I0.0 J-2.0
G2 X26.1678 Y62.1519 I-0.0036 J-4.9929
G2 X27.6353 Y58.6186 I-3.5206 J-3.5336
G1 Y58.6185
G1 Y48.9821
G3 X27.6642 Y48.4709 I4.8695 J0.0186
G2 X27.6644 Y48.4684 I-1.9881 J-0.2176
G3 X27.8364 Y47.4512 I8.604 J0.9311
G2 X27.8379 Y47.4446 I-1.9487 J-0.4502
G3 X28.308 Y45.888 I11.3891 J2.5906
G2 X28.3107 Y45.8809 I-1.8697 J-0.7101
G3 X28.609 Y45.1846 I7.781 J2.9215
G1 X28.7047 Y44.9931
G3 X28.7588 Y44.8913 I4.3503 J2.2464
G3 X28.9569 Y44.558 I4.9657 J2.727
G1 X32.367 Y39.3535
G2 X32.3711 Y39.3472 I-1.6729 J-1.0961
G2 X32.8392 Y38.537 I-7.4908 J-4.8679
G2 X33.4422 Y37.1595 I-11.3542 J-5.7913
G2 X34.0574 Y35.0725 I-14.7809 J-5.4914
G2 X34.2542 Y33.956 I-12.1137 J-2.7103
G2 X34.2571 Y33.932 I-1.9834 J-0.2568
G1 X34.2849 Y33.695
G2 X34.2874 Y33.6728 I-1.9864 J-0.2327
G2 X34.3081 Y33.4506 I-8.8235 J-0.9339
G2 X34.3298 Y33.1106 I-7.5378 J-0.6521
G2 X34.3363 Y32.9121 I-5.0103 J-0.2633
G1 X34.3374 Y32.8502
G2 X34.3376 Y32.827 I-1.9997 J-0.0351
G1 X34.338 Y32.76
G2 X34.3381 Y32.748 I-2.0 J-0.0119
G1 Y3.0
G2 Y2.9985 I-2.0 J0.0
G1 F50.0 Z-9.0
G2 F70.0 X32.8715 Y-0.5325 I-4.9929 J0.0036
G2 X29.3382 Y-2.0 I-3.5336 J3.5206
G1 X29.3381
G1 X3.0
G2 X2.9985 I0.0 J2.0
G2 X-0.5325 Y-0.5335 I0.0036 J4.9929
G2 X-2.0 Y2.9999 I3.5206 J3.5336
G1 Y3.0
G1 Y32.748
G2 X-1.9999 Y32.7628 I2.0 J0.0
G2 X-1.9506 Y33.6763 I9.8154 J-0.0725
G2 X-1.9494 Y33.6876 I1.9899 J-0.2009
G2 X-1.7111 Y35.1582 I13.6364 J-1.4549
G2 X-1.1076 Y37.2493 I15.88 J-3.4506
G2 X-1.1071 Y37.2505 I1.8801 J-0.682
G2 X-0.6863 Y38.2802 I13.285 J-4.8289
G2 X-0.5558 Y38.555 I8.1113 J-3.6837
G2 X-0.1265 Y39.3363 I9.0635 J-4.4711
G2 X-0.1172 Y39.3516 I1.7087 J-1.0394
G1 X3.0643 Y44.4776
G3 X3.319 Y44.9421 I-4.9967 J3.0414
G3 X3.723 Y45.9125 I-8.8247 J4.2434
G2 X3.7233 Y45.9134 I1.885 J-0.6685
G3 X4.1685 Y47.4935 I-11.606 J4.1226
G3 X4.3015 Y48.2809 I-10.0262 J2.0993
G2 X4.3017 Y48.2823 I1.9835 J-0.2561
G3 X4.3208 Y48.4521 I-4.963 J0.6445
G2 X4.3221 Y48.4652 I1.991 J-0.1897
G3 X4.342 Y48.7175 I-5.5398 J0.5647
G1 X4.348 Y48.8566
G1 X4.35 Y48.9935
G1 Y58.6185
G2 Y58.6199 I2.0 J0.0
G2 X5.8165 Y62.151 I4.9929 J-0.0036
G2 X9.3499 Y63.6185 I3.5336 J-3.5206
G1 X9.35
G1 X22.6353
G2 X22.6368 I0.0 J-2.0
G2 X26.1678 Y62.1519 I-0.0036 J-4.9929
G2 X27.6353 Y58.6186 I-3.5206 J-3.5336
G1 Y58.6185
G1 Y48.9821
G3 X27.6642 Y48.4709 I4.8695 J0.0186
G2 X27.6644 Y48.4684 I-1.9881 J-0.2176
G3 X27.8364 Y47.4512 I8.604 J0.9311
G2 X27.8379 Y47.4446 I-1.9487 J-0.4502
G3 X28.308 Y45.888 I11.3891 J2.5906
G2 X28.3107 Y45.8809 I-1.8697 J-0.7101
G3 X28.609 Y45.1846 I7.781 J2.9215
G1 X28.7047 Y44.9931
G3 X28.7588 Y44.8913 I4.3503 J2.2464
G3 X28.9569 Y44.558 I4.9657 J2.727
G1 X32.367 Y39.3535
G2 X32.3711 Y39.3472 I-1.6729 J-1.0961
G2 X32.8392 Y38.537 I-7.4908 J-4.8679
G2 X33.4422 Y37.1595 I-11.3542 J-5.7913
G2 X34.0574 Y35.0725 I-14.7809 J-5.4914
G2 X34.2542 Y33.956 I-12.1137 J-2.7103
G2 X34.2571 Y33.932 I-1.9834 J-0.2568
G1 X34.2849 Y33.695
G2 X34.2874 Y33.6728 I-1.9864 J-0.2327
G2 X34.3081 Y33.4506 I-8.8235 J-0.9339
G2 X34.3298 Y33.1106 I-7.5378 J-0.6521
G2 X34.3363 Y32.9121 I-5.0103 J-0.2633
G1 X34.3374 Y32.8502
G2 X34.3376 Y32.827 I-1.9997 J-0.0351
G1 X34.338 Y32.76
G2 X34.3381 Y32.748 I-2.0 J-0.0119
G1 Y3.0
G2 Y2.9985 I-2.0 J0.0
G1 F50.0 Z-10.0
G2 F70.0 X32.8715 Y-0.5325 I-4.9929 J0.0036
G2 X29.3382 Y-2.0 I-3.5336 J3.5206
G1 X29.3381
G1 X3.0
G2 X2.9985 I0.0 J2.0
G2 X-0.5325 Y-0.5335 I0.0036 J4.9929
G2 X-2.0 Y2.9999 I3.5206 J3.5336
G1 Y3.0
G1 Y32.748
G2 X-1.9999 Y32.7628 I2.0 J0.0
G2 X-1.9506 Y33.6763 I9.8154 J-0.0725
G2 X-1.9494 Y33.6876 I1.9899 J-0.2009
G2 X-1.7111 Y35.1582 I13.6364 J-1.4549
G2 X-1.1076 Y37.2493 I15.88 J-3.4506
G2 X-1.1071 Y37.2505 I1.8801 J-0.682
G2 X-0.6863 Y38.2802 I13.285 J-4.8289
G2 X-0.5558 Y38.555 I8.1113 J-3.6837
G2 X-0.1265 Y39.3363 I9.0635 J-4.4711
G2 X-0.1172 Y39.3516 I1.7087 J-1.0394
G1 X3.0643 Y44.4776
G3 X3.319 Y44.9421 I-4.9967 J3.0414
G3 X3.723 Y45.9125 I-8.8247 J4.2434
G2 X3.7233 Y45.9134 I1.885 J-0.6685
G3 X4.1685 Y47.4935 I-11.606 J4.1226
G3 X4.3015 Y48.2809 I-10.0262 J2.0993
G2 X4.3017 Y48.2823 I1.9835 J-0.2561
G3 X4.3208 Y48.4521 I-4.963 J0.6445
G2 X4.3221 Y48.4652 I1.991 J-0.1897
G3 X4.342 Y48.7175 I-5.5398 J0.5647
G1 X4.348 Y48.8566
G1 X4.35 Y48.9935
G1 Y58.6185
G2 Y58.6199 I2.0 J0.0
G2 X5.8165 Y62.151 I4.9929 J-0.0036
G2 X9.3499 Y63.6185 I3.5336 J-3.5206
G1 X9.35
G1 X22.6353
G2 X22.6368 I0.0 J-2.0
G2 X26.1678 Y62.1519 I-0.0036 J-4.9929
G2 X27.6353 Y58.6186 I-3.5206 J-3.5336
G1 Y58.6185
G1 Y48.9821
G3 X27.6642 Y48.4709 I4.8695 J0.0186
G2 X27.6644 Y48.4684 I-1.9881 J-0.2176
G3 X27.8364 Y47.4512 I8.604 J0.9311
G2 X27.8379 Y47.4446 I-1.9487 J-0.4502
G3 X28.308 Y45.888 I11.3891 J2.5906
G2 X28.3107 Y45.8809 I-1.8697 J-0.7101
G3 X28.609 Y45.1846 I7.781 J2.9215
G1 X28.7047 Y44.9931
G3 X28.7588 Y44.8913 I4.3503 J2.2464
G3 X28.9569 Y44.558 I4.9657 J2.727
G1 X32.367 Y39.3535
G2 X32.3711 Y39.3472 I-1.6729 J-1.0961
G2 X32.8392 Y38.537 I-7.4908 J-4.8679
G2 X33.4422 Y37.1595 I-11.3542 J-5.7913
G2 X34.0574 Y35.0725 I-14.7809 J-5.4914
G2 X34.2542 Y33.956 I-12.1137 J-2.7103
G2 X34.2571 Y33.932 I-1.9834 J-0.2568
G1 X34.2849 Y33.695
G2 X34.2874 Y33.6728 I-1.9864 J-0.2327
G2 X34.3081 Y33.4506 I-8.8235 J-0.9339
G2 X34.3298 Y33.1106 I-7.5378 J-0.6521
G2 X34.3363 Y32.9121 I-5.0103 J-0.2633
G1 X34.3374 Y32.8502
G2 X34.3376 Y32.827 I-1.9997 J-0.0351
G1 X34.338 Y32.76
G2 X34.3381 Y32.748 I-2.0 J-0.0119
G1 Y3.0
G2 Y2.9985 I-2.0 J0.0
G1 F50.0 Z-11.0
G2 F70.0 X32.8715 Y-0.5325 I-4.9929 J0.0036
G2 X29.3382 Y-2.0 I-3.5336 J3.5206
G1 X29.3381
G1 X3.0
G2 X2.9985 I0.0 J2.0
G2 X-0.5325 Y-0.5335 I0.0036 J4.9929
G2 X-2.0 Y2.9999 I3.5206 J3.5336
G1 Y3.0
G1 Y32.748
G2 X-1.9999 Y32.7628 I2.0 J0.0
G2 X-1.9506 Y33.6763 I9.8154 J-0.0725
G2 X-1.9494 Y33.6876 I1.9899 J-0.2009
G2 X-1.7111 Y35.1582 I13.6364 J-1.4549
G2 X-1.1076 Y37.2493 I15.88 J-3.4506
G2 X-1.1071 Y37.2505 I1.8801 J-0.682
G2 X-0.6863 Y38.2802 I13.285 J-4.8289
G2 X-0.5558 Y38.555 I8.1113 J-3.6837
G2 X-0.1265 Y39.3363 I9.0635 J-4.4711
G2 X-0.1172 Y39.3516 I1.7087 J-1.0394
G1 X3.0643 Y44.4776
G3 X3.319 Y44.9421 I-4.9967 J3.0414
G3 X3.723 Y45.9125 I-8.8247 J4.2434
G2 X3.7233 Y45.9134 I1.885 J-0.6685
G3 X4.1685 Y47.4935 I-11.606 J4.1226
G3 X4.3015 Y48.2809 I-10.0262 J2.0993
G2 X4.3017 Y48.2823 I1.9835 J-0.2561
G3 X4.3208 Y48.4521 I-4.963 J0.6445
G2 X4.3221 Y48.4652 I1.991 J-0.1897
G3 X4.342 Y48.7175 I-5.5398 J0.5647
G1 X4.348 Y48.8566
G1 X4.35 Y48.9935
G1 Y58.6185
G2 Y58.6199 I2.0 J0.0
G2 X5.8165 Y62.151 I4.9929 J-0.0036
G2 X9.3499 Y63.6185 I3.5336 J-3.5206
G1 X9.35
G1 X22.6353
G2 X22.6368 I0.0 J-2.0
G2 X26.1678 Y62.1519 I-0.0036 J-4.9929
G2 X27.6353 Y58.6186 I-3.5206 J-3.5336
G1 Y58.6185
G1 Y48.9821
G3 X27.6642 Y48.4709 I4.8695 J0.0186
G2 X27.6644 Y48.4684 I-1.9881 J-0.2176
G3 X27.8364 Y47.4512 I8.604 J0.9311
G2 X27.8379 Y47.4446 I-1.9487 J-0.4502
G3 X28.308 Y45.888 I11.3891 J2.5906
G2 X28.3107 Y45.8809 I-1.8697 J-0.7101
G3 X28.609 Y45.1846 I7.781 J2.9215
G1 X28.7047 Y44.9931
G3 X28.7588 Y44.8913 I4.3503 J2.2464
G3 X28.9569 Y44.558 I4.9657 J2.727
G1 X32.367 Y39.3535
G2 X32.3711 Y39.3472 I-1.6729 J-1.0961
G2 X32.8392 Y38.537 I-7.4908 J-4.8679
G2 X33.4422 Y37.1595 I-11.3542 J-5.7913
G2 X34.0574 Y35.0725 I-14.7809 J-5.4914
G2 X34.2542 Y33.956 I-12.1137 J-2.7103
G2 X34.2571 Y33.932 I-1.9834 J-0.2568
G1 X34.2849 Y33.695
G2 X34.2874 Y33.6728 I-1.9864 J-0.2327
G2 X34.3081 Y33.4506 I-8.8235 J-0.9339
G2 X34.3298 Y33.1106 I-7.5378 J-0.6521
G2 X34.3363 Y32.9121 I-5.0103 J-0.2633
G1 X34.3374 Y32.8502
G2 X34.3376 Y32.827 I-1.9997 J-0.0351
G1 X34.338 Y32.76
G2 X34.3381 Y32.748 I-2.0 J-0.0119
G1 Y3.0
G2 Y2.9985 I-2.0 J0.0
( Pocket1 )
S1000
G0 Z3.0
G0 X14.9416 Y15.1033
G1 F50.0 Z-1.0
G1 F80.0 Y19.2956
G3 X16.0915 Y20.1539 I-6.35 J9.7076
G3 X17.2415 Y19.2956 I7.5 J8.8493
G1 Y15.1033
G1 X14.9416
G1 F50.0 Y13.5033
G1 F80.0 X13.3416
G1 Y20.2034
G3 X16.0915 Y22.3888 I-4.75 J8.7998
G3 X18.8415 Y20.2034 I7.5 J6.6144
G1 Y13.5033
G1 X14.9416
G1 F50.0 Y11.9033
G1 F80.0 X11.7416
G1 Y21.2162
G3 X16.0915 Y25.2203 I-3.15 J7.787
G3 X20.4415 Y21.2162 I7.5 J3.7829
G1 Y11.9033
G1 X14.9416
G1 F50.0 Y10.3033
G1 F80.0 X10.1416
G1 Y22.3822
G3 X15.3916 Y29.0032 I-1.55 J6.621
G1 Y32.2033
G1 X16.7915
G1 Y29.0032
G3 X22.0415 Y22.3822 I6.8 J0.0
G1 Y10.3033
G1 X14.9416
G1 F50.0 Y8.7033
G1 F80.0 X8.5416
G1 Y23.8032
G1 X8.5916
G3 X13.7916 Y29.0032 I0.0 J5.2
G1 Y33.8033
G1 X18.3915
G1 Y29.0032
G3 X23.5915 Y23.8032 I5.2 J0.0
G1 X23.6415
G1 Y8.7033
G1 X14.9416
G1 F50.0 Y7.1033
G1 F80.0 X6.9416
G1 Y25.4032
G1 X8.5916
G3 X12.1916 Y29.0032 I0.0 J3.6
G1 Y35.4034
G3 X12.2189 Y35.4033 I0.0273 J3.5999
G1 X19.9915
G1 Y29.0032
G3 X23.5915 Y25.4032 I3.6 J0.0
G1 X25.0925
G3 X25.2415 Y25.4063 I0.0 J3.6
G1 Y7.1024
G3 X25.1587 Y7.1033 I-0.0828 J-3.599
G1 X14.9416
G1 F50.0 Y5.5033
G1 F80.0 X6.7584
G3 X5.0508 Y4.5445 I0.0 J-2.0
G2 X4.6281 Y4.3072 I-0.4226 J0.2577
G3 X4.6276 I-0.0002 J-2.0
G2 X4.1279 Y4.8069 I-0.0001 J0.4996
G1 Y4.8072
G2 X4.3689 Y5.2325 I0.4957 J0.0
G3 X5.3416 Y6.9484 I-1.0274 J1.716
G1 Y25.667
G3 X4.369 Y27.3829 I-2.0 J0.0
G2 X4.1279 Y27.8083 I0.2547 J0.4254
G1 Y27.8085
G2 X4.6276 Y28.3082 I0.4996 J0.0001
G3 X4.6291 I0.0004 J2.0
G2 X5.0676 Y28.0477 I0.0003 J-0.4988
G3 X6.8246 Y27.0032 I1.757 J0.9555
G1 X8.5916
G3 X10.5916 Y29.0032 I0.0 J2.0
G1 Y35.7456
G3 X9.7467 Y37.3783 I-2.0 J0.0
G2 X9.538 Y37.7817 I0.2853 J0.4032
G3 Y37.7827 I-2.0 J0.0007
G2 X10.0378 Y38.2825 I0.4996 J0.0001
G3 X10.0392 I0.0004 J2.0
G2 X10.4727 Y38.0282 I0.0003 J-0.4962
G3 X12.2189 Y37.0033 I1.7462 J0.9751
G1 X20.0861
G3 X21.8319 Y38.0275 I0.0 J2.0
G2 X22.2666 Y38.2825 I0.4347 J-0.243
G3 X22.2672 I0.0002 J2.0
G2 X22.767 Y37.7827 I0.0001 J-0.4996
G3 Y37.7821 I2.0 J-0.0004
G2 X22.5338 Y37.3621 I-0.4949 J-0.0001
G3 X21.5915 Y35.6647 I1.0577 J-1.6974
G1 Y29.0032
G3 X23.5915 Y27.0032 I2.0 J0.0
G1 X25.0925
G3 X26.8493 Y28.0472 I0.0 J2.0
G2 X27.2885 Y28.3082 I0.4392 J-0.239
G3 X27.2895 I0.0006 J2.0
G2 X27.7892 Y27.8085 I0.0001 J-0.4996
G3 Y27.807 I2.0 J-0.0004
G2 X27.6017 Y27.4197 I-0.4932 J-0.0003
G3 X26.8415 Y25.8503 I1.2397 J-1.5694
G1 Y6.7651
G3 X27.6016 Y5.1958 I2.0 J0.0
G2 X27.7892 Y4.8082 I-0.306 J-0.3874
G3 Y4.8069 I2.0 J-0.001
G2 X27.2896 Y4.3072 I-0.4996 J-0.0001
G1 X27.2895
G1 X27.2897
G1 X27.2896
G2 X26.8659 Y4.5451 I0.0002 J0.4965
G3 X25.1587 Y5.5033 I-1.7073 J-1.0418
G1 X14.9416
G0 Z3.0
G0 Y15.1033
G1 F50.0 Z-2.0
G1 F80.0 Y19.2956
G3 X16.0915 Y20.1539 I-6.35 J9.7076
G3 X17.2415 Y19.2956 I7.5 J8.8493
G1 Y15.1033
G1 X14.9416
G1 F50.0 Y13.5033
G1 F80.0 X13.3416
G1 Y20.2034
G3 X16.0915 Y22.3888 I-4.75 J8.7998
G3 X18.8415 Y20.2034 I7.5 J6.6144
G1 Y13.5033
G1 X14.9416
G1 F50.0 Y11.9033
G1 F80.0 X11.7416
G1 Y21.2162
G3 X16.0915 Y25.2203 I-3.15 J7.787
G3 X20.4415 Y21.2162 I7.5 J3.7829
G1 Y11.9033
G1 X14.9416
G1 F50.0 Y10.3033
G1 F80.0 X10.1416
G1 Y22.3822
G3 X15.3916 Y29.0032 I-1.55 J6.621
G1 Y32.2033
G1 X16.7915
G1 Y29.0032
G3 X22.0415 Y22.3822 I6.8 J0.0
G1 Y10.3033
G1 X14.9416
G1 F50.0 Y8.7033
G1 F80.0 X8.5416
G1 Y23.8032
G1 X8.5916
G3 X13.7916 Y29.0032 I0.0 J5.2
G1 Y33.8033
G1 X18.3915
G1 Y29.0032
G3 X23.5915 Y23.8032 I5.2 J0.0
G1 X23.6415
G1 Y8.7033
G1 X14.9416
G1 F50.0 Y7.1033
G1 F80.0 X6.9416
G1 Y25.4032
G1 X8.5916
G3 X12.1916 Y29.0032 I0.0 J3.6
G1 Y35.4034
G3 X12.2189 Y35.4033 I0.0273 J3.5999
G1 X19.9915
G1 Y29.0032
G3 X23.5915 Y25.4032 I3.6 J0.0
G1 X25.0925
G3 X25.2415 Y25.4063 I0.0 J3.6
G1 Y7.1024
G3 X25.1587 Y7.1033 I-0.0828 J-3.599
G1 X14.9416
G1 F50.0 Y5.5033
G1 F80.0 X6.7584
G3 X5.0508 Y4.5445 I0.0 J-2.0
G2 X4.6281 Y4.3072 I-0.4226 J0.2577
G3 X4.6276 I-0.0002 J-2.0
G2 X4.1279 Y4.8069 I-0.0001 J0.4996
G1 Y4.8072
G2 X4.3689 Y5.2325 I0.4957 J0.0
G3 X5.3416 Y6.9484 I-1.0274 J1.716
G1 Y25.667
G3 X4.369 Y27.3829 I-2.0 J0.0
G2 X4.1279 Y27.8083 I0.2547 J0.4254
G1 Y27.8085
G2 X4.6276 Y28.3082 I0.4996 J0.0001
G3 X4.6291 I0.0004 J2.0
G2 X5.0676 Y28.0477 I0.0003 J-0.4988
G3 X6.8246 Y27.0032 I1.757 J0.9555
G1 X8.5916
G3 X10.5916 Y29.0032 I0.0 J2.0
G1 Y35.7456
G3 X9.7467 Y37.3783 I-2.0 J0.0
G2 X9.538 Y37.7817 I0.2853 J0.4032
G3 Y37.7827 I-2.0 J0.0007
G2 X10.0378 Y38.2825 I0.4996 J0.0001
G3 X10.0392 I0.0004 J2.0
G2 X10.4727 Y38.0282 I0.0003 J-0.4962
G3 X12.2189 Y37.0033 I1.7462 J0.9751
G1 X20.0861
G3 X21.8319 Y38.0275 I0.0 J2.0
G2 X22.2666 Y38.2825 I0.4347 J-0.243
G3 X22.2672 I0.0002 J2.0
G2 X22.767 Y37.7827 I0.0001 J-0.4996
G3 Y37.7821 I2.0 J-0.0004
G2 X22.5338 Y37.3621 I-0.4949 J-0.0001
G3 X21.5915 Y35.6647 I1.0577 J-1.6974
G1 Y29.0032
G3 X23.5915 Y27.0032 I2.0 J0.0
G1 X25.0925
G3 X26.8493 Y28.0472 I0.0 J2.0
G2 X27.2885 Y28.3082 I0.4392 J-0.239
G3 X27.2895 I0.0006 J2.0
G2 X27.7892 Y27.8085 I0.0001 J-0.4996
G3 Y27.807 I2.0 J-0.0004
G2 X27.6017 Y27.4197 I-0.4932 J-0.0003
G3 X26.8415 Y25.8503 I1.2397 J-1.5694
G1 Y6.7651
G3 X27.6016 Y5.1958 I2.0 J0.0
G2 X27.7892 Y4.8082 I-0.306 J-0.3874
G3 Y4.8069 I2.0 J-0.001
G2 X27.2896 Y4.3072 I-0.4996 J-0.0001
G1 X27.2895
G1 X27.2897
G1 X27.2896
G2 X26.8659 Y4.5451 I0.0002 J0.4965
G3 X25.1587 Y5.5033 I-1.7073 J-1.0418
G1 X14.9416
G0 Z3.0
G0 Y15.1033
G1 F50.0 Z-3.0
G1 F80.0 Y19.2956
G3 X16.0915 Y20.1539 I-6.35 J9.7076
G3 X17.2415 Y19.2956 I7.5 J8.8493
G1 Y15.1033
G1 X14.9416
G1 F50.0 Y13.5033
G1 F80.0 X13.3416
G1 Y20.2034
G3 X16.0915 Y22.3888 I-4.75 J8.7998
G3 X18.8415 Y20.2034 I7.5 J6.6144
G1 Y13.5033
G1 X14.9416
G1 F50.0 Y11.9033
G1 F80.0 X11.7416
G1 Y21.2162
G3 X16.0915 Y25.2203 I-3.15 J7.787
G3 X20.4415 Y21.2162 I7.5 J3.7829
G1 Y11.9033
G1 X14.9416
G1 F50.0 Y10.3033
G1 F80.0 X10.1416
G1 Y22.3822
G3 X15.3916 Y29.0032 I-1.55 J6.621
G1 Y32.2033
G1 X16.7915
G1 Y29.0032
G3 X22.0415 Y22.3822 I6.8 J0.0
G1 Y10.3033
G1 X14.9416
G1 F50.0 Y8.7033
G1 F80.0 X8.5416
G1 Y23.8032
G1 X8.5916
G3 X13.7916 Y29.0032 I0.0 J5.2
G1 Y33.8033
G1 X18.3915
G1 Y29.0032
G3 X23.5915 Y23.8032 I5.2 J0.0
G1 X23.6415
G1 Y8.7033
G1 X14.9416
G1 F50.0 Y7.1033
G1 F80.0 X6.9416
G1 Y25.4032
G1 X8.5916
G3 X12.1916 Y29.0032 I0.0 J3.6
G1 Y35.4034
G3 X12.2189 Y35.4033 I0.0273 J3.5999
G1 X19.9915
G1 Y29.0032
G3 X23.5915 Y25.4032 I3.6 J0.0
G1 X25.0925
G3 X25.2415 Y25.4063 I0.0 J3.6
G1 Y7.1024
G3 X25.1587 Y7.1033 I-0.0828 J-3.599
G1 X14.9416
G1 F50.0 Y5.5033
G1 F80.0 X6.7584
G3 X5.0508 Y4.5445 I0.0 J-2.0
G2 X4.6281 Y4.3072 I-0.4226 J0.2577
G3 X4.6276 I-0.0002 J-2.0
G2 X4.1279 Y4.8069 I-0.0001 J0.4996
G1 Y4.8072
G2 X4.3689 Y5.2325 I0.4957 J0.0
G3 X5.3416 Y6.9484 I-1.0274 J1.716
G1 Y25.667
G3 X4.369 Y27.3829 I-2.0 J0.0
G2 X4.1279 Y27.8083 I0.2547 J0.4254
G1 Y27.8085
G2 X4.6276 Y28.3082 I0.4996 J0.0001
G3 X4.6291 I0.0004 J2.0
G2 X5.0676 Y28.0477 I0.0003 J-0.4988
G3 X6.8246 Y27.0032 I1.757 J0.9555
G1 X8.5916
G3 X10.5916 Y29.0032 I0.0 J2.0
G1 Y35.7456
G3 X9.7467 Y37.3783 I-2.0 J0.0
G2 X9.538 Y37.7817 I0.2853 J0.4032
G3 Y37.7827 I-2.0 J0.0007
G2 X10.0378 Y38.2825 I0.4996 J0.0001
G3 X10.0392 I0.0004 J2.0
G2 X10.4727 Y38.0282 I0.0003 J-0.4962
G3 X12.2189 Y37.0033 I1.7462 J0.9751
G1 X20.0861
G3 X21.8319 Y38.0275 I0.0 J2.0
G2 X22.2666 Y38.2825 I0.4347 J-0.243
G3 X22.2672 I0.0002 J2.0
G2 X22.767 Y37.7827 I0.0001 J-0.4996
G3 Y37.7821 I2.0 J-0.0004
G2 X22.5338 Y37.3621 I-0.4949 J-0.0001
G3 X21.5915 Y35.6647 I1.0577 J-1.6974
G1 Y29.0032
G3 X23.5915 Y27.0032 I2.0 J0.0
G1 X25.0925
G3 X26.8493 Y28.0472 I0.0 J2.0
G2 X27.2885 Y28.3082 I0.4392 J-0.239
G3 X27.2895 I0.0006 J2.0
G2 X27.7892 Y27.8085 I0.0001 J-0.4996
G3 Y27.807 I2.0 J-0.0004
G2 X27.6017 Y27.4197 I-0.4932 J-0.0003
G3 X26.8415 Y25.8503 I1.2397 J-1.5694
G1 Y6.7651
G3 X27.6016 Y5.1958 I2.0 J0.0
G2 X27.7892 Y4.8082 I-0.306 J-0.3874
G3 Y4.8069 I2.0 J-0.001
G2 X27.2896 Y4.3072 I-0.4996 J-0.0001
G1 X27.2895
G1 X27.2897
G1 X27.2896
G2 X26.8659 Y4.5451 I0.0002 J0.4965
G3 X25.1587 Y5.5033 I-1.7073 J-1.0418
G1 X14.9416
G0 Z3.0
G0 Y15.1033
G1 F50.0 Z-4.0
G1 F80.0 Y19.2956
G3 X16.0915 Y20.1539 I-6.35 J9.7076
G3 X17.2415 Y19.2956 I7.5 J8.8493
G1 Y15.1033
G1 X14.9416
G1 F50.0 Y13.5033
G1 F80.0 X13.3416
G1 Y20.2034
G3 X16.0915 Y22.3888 I-4.75 J8.7998
G3 X18.8415 Y20.2034 I7.5 J6.6144
G1 Y13.5033
G1 X14.9416
G1 F50.0 Y11.9033
G1 F80.0 X11.7416
G1 Y21.2162
G3 X16.0915 Y25.2203 I-3.15 J7.787
G3 X20.4415 Y21.2162 I7.5 J3.7829
G1 Y11.9033
G1 X14.9416
G1 F50.0 Y10.3033
G1 F80.0 X10.1416
G1 Y22.3822
G3 X15.3916 Y29.0032 I-1.55 J6.621
G1 Y32.2033
G1 X16.7915
G1 Y29.0032
G3 X22.0415 Y22.3822 I6.8 J0.0
G1 Y10.3033
G1 X14.9416
G1 F50.0 Y8.7033
G1 F80.0 X8.5416
G1 Y23.8032
G1 X8.5916
G3 X13.7916 Y29.0032 I0.0 J5.2
G1 Y33.8033
G1 X18.3915
G1 Y29.0032
G3 X23.5915 Y23.8032 I5.2 J0.0
G1 X23.6415
G1 Y8.7033
G1 X14.9416
G1 F50.0 Y7.1033
G1 F80.0 X6.9416
G1 Y25.4032
G1 X8.5916
G3 X12.1916 Y29.0032 I0.0 J3.6
G1 Y35.4034
G3 X12.2189 Y35.4033 I0.0273 J3.5999
G1 X19.9915
G1 Y29.0032
G3 X23.5915 Y25.4032 I3.6 J0.0
G1 X25.0925
G3 X25.2415 Y25.4063 I0.0 J3.6
G1 Y7.1024
G3 X25.1587 Y7.1033 I-0.0828 J-3.599
G1 X14.9416
G1 F50.0 Y5.5033
G1 F80.0 X6.7584
G3 X5.0508 Y4.5445 I0.0 J-2.0
G2 X4.6281 Y4.3072 I-0.4226 J0.2577
G3 X4.6276 I-0.0002 J-2.0
G2 X4.1279 Y4.8069 I-0.0001 J0.4996
G1 Y4.8072
G2 X4.3689 Y5.2325 I0.4957 J0.0
G3 X5.3416 Y6.9484 I-1.0274 J1.716
G1 Y25.667
G3 X4.369 Y27.3829 I-2.0 J0.0
G2 X4.1279 Y27.8083 I0.2547 J0.4254
G1 Y27.8085
G2 X4.6276 Y28.3082 I0.4996 J0.0001
G3 X4.6291 I0.0004 J2.0
G2 X5.0676 Y28.0477 I0.0003 J-0.4988
G3 X6.8246 Y27.0032 I1.757 J0.9555
G1 X8.5916
G3 X10.5916 Y29.0032 I0.0 J2.0
G1 Y35.7456
G3 X9.7467 Y37.3783 I-2.0 J0.0
G2 X9.538 Y37.7817 I0.2853 J0.4032
G3 Y37.7827 I-2.0 J0.0007
G2 X10.0378 Y38.2825 I0.4996 J0.0001
G3 X10.0392 I0.0004 J2.0
G2 X10.4727 Y38.0282 I0.0003 J-0.4962
G3 X12.2189 Y37.0033 I1.7462 J0.9751
G1 X20.0861
G3 X21.8319 Y38.0275 I0.0 J2.0
G2 X22.2666 Y38.2825 I0.4347 J-0.243
G3 X22.2672 I0.0002 J2.0
G2 X22.767 Y37.7827 I0.0001 J-0.4996
G3 Y37.7821 I2.0 J-0.0004
G2 X22.5338 Y37.3621 I-0.4949 J-0.0001
G3 X21.5915 Y35.6647 I1.0577 J-1.6974
G1 Y29.0032
G3 X23.5915 Y27.0032 I2.0 J0.0
G1 X25.0925
G3 X26.8493 Y28.0472 I0.0 J2.0
G2 X27.2885 Y28.3082 I0.4392 J-0.239
G3 X27.2895 I0.0006 J2.0
G2 X27.7892 Y27.8085 I0.0001 J-0.4996
G3 Y27.807 I2.0 J-0.0004
G2 X27.6017 Y27.4197 I-0.4932 J-0.0003
G3 X26.8415 Y25.8503 I1.2397 J-1.5694
G1 Y6.7651
G3 X27.6016 Y5.1958 I2.0 J0.0
G2 X27.7892 Y4.8082 I-0.306 J-0.3874
G3 Y4.8069 I2.0 J-0.001
G2 X27.2896 Y4.3072 I-0.4996 J-0.0001
G1 X27.2895
G1 X27.2897
G1 X27.2896
G2 X26.8659 Y4.5451 I0.0002 J0.4965
G3 X25.1587 Y5.5033 I-1.7073 J-1.0418
G1 X14.9416
G0 Z3.0
G0 Y15.1033
G1 F50.0 Z-5.0
G1 F80.0 Y19.2956
G3 X16.0915 Y20.1539 I-6.35 J9.7076
G3 X17.2415 Y19.2956 I7.5 J8.8493
G1 Y15.1033
G1 X14.9416
G1 F50.0 Y13.5033
G1 F80.0 X13.3416
G1 Y20.2034
G3 X16.0915 Y22.3888 I-4.75 J8.7998
G3 X18.8415 Y20.2034 I7.5 J6.6144
G1 Y13.5033
G1 X14.9416
G1 F50.0 Y11.9033
G1 F80.0 X11.7416
G1 Y21.2162
G3 X16.0915 Y25.2203 I-3.15 J7.787
G3 X20.4415 Y21.2162 I7.5 J3.7829
G1 Y11.9033
G1 X14.9416
G1 F50.0 Y10.3033
G1 F80.0 X10.1416
G1 Y22.3822
G3 X15.3916 Y29.0032 I-1.55 J6.621
G1 Y32.2033
G1 X16.7915
G1 Y29.0032
G3 X22.0415 Y22.3822 I6.8 J0.0
G1 Y10.3033
G1 X14.9416
G1 F50.0 Y8.7033
G1 F80.0 X8.5416
G1 Y23.8032
G1 X8.5916
G3 X13.7916 Y29.0032 I0.0 J5.2
G1 Y33.8033
G1 X18.3915
G1 Y29.0032
G3 X23.5915 Y23.8032 I5.2 J0.0
G1 X23.6415
G1 Y8.7033
G1 X14.9416
G1 F50.0 Y7.1033
G1 F80.0 X6.9416
G1 Y25.4032
G1 X8.5916
G3 X12.1916 Y29.0032 I0.0 J3.6
G1 Y35.4034
G3 X12.2189 Y35.4033 I0.0273 J3.5999
G1 X19.9915
G1 Y29.0032
G3 X23.5915 Y25.4032 I3.6 J0.0
G1 X25.0925
G3 X25.2415 Y25.4063 I0.0 J3.6
G1 Y7.1024
G3 X25.1587 Y7.1033 I-0.0828 J-3.599
G1 X14.9416
G1 F50.0 Y5.5033
G1 F80.0 X6.7584
G3 X5.0508 Y4.5445 I0.0 J-2.0
G2 X4.6281 Y4.3072 I-0.4226 J0.2577
G3 X4.6276 I-0.0002 J-2.0
G2 X4.1279 Y4.8069 I-0.0001 J0.4996
G1 Y4.8072
G2 X4.3689 Y5.2325 I0.4957 J0.0
G3 X5.3416 Y6.9484 I-1.0274 J1.716
G1 Y25.667
G3 X4.369 Y27.3829 I-2.0 J0.0
G2 X4.1279 Y27.8083 I0.2547 J0.4254
G1 Y27.8085
G2 X4.6276 Y28.3082 I0.4996 J0.0001
G3 X4.6291 I0.0004 J2.0
G2 X5.0676 Y28.0477 I0.0003 J-0.4988
G3 X6.8246 Y27.0032 I1.757 J0.9555
G1 X8.5916
G3 X10.5916 Y29.0032 I0.0 J2.0
G1 Y35.7456
G3 X9.7467 Y37.3783 I-2.0 J0.0
G2 X9.538 Y37.7817 I0.2853 J0.4032
G3 Y37.7827 I-2.0 J0.0007
G2 X10.0378 Y38.2825 I0.4996 J0.0001
G3 X10.0392 I0.0004 J2.0
G2 X10.4727 Y38.0282 I0.0003 J-0.4962
G3 X12.2189 Y37.0033 I1.7462 J0.9751
G1 X20.0861
G3 X21.8319 Y38.0275 I0.0 J2.0
G2 X22.2666 Y38.2825 I0.4347 J-0.243
G3 X22.2672 I0.0002 J2.0
G2 X22.767 Y37.7827 I0.0001 J-0.4996
G3 Y37.7821 I2.0 J-0.0004
G2 X22.5338 Y37.3621 I-0.4949 J-0.0001
G3 X21.5915 Y35.6647 I1.0577 J-1.6974
G1 Y29.0032
G3 X23.5915 Y27.0032 I2.0 J0.0
G1 X25.0925
G3 X26.8493 Y28.0472 I0.0 J2.0
G2 X27.2885 Y28.3082 I0.4392 J-0.239
G3 X27.2895 I0.0006 J2.0
G2 X27.7892 Y27.8085 I0.0001 J-0.4996
G3 Y27.807 I2.0 J-0.0004
G2 X27.6017 Y27.4197 I-0.4932 J-0.0003
G3 X26.8415 Y25.8503 I1.2397 J-1.5694
G1 Y6.7651
G3 X27.6016 Y5.1958 I2.0 J0.0
G2 X27.7892 Y4.8082 I-0.306 J-0.3874
G3 Y4.8069 I2.0 J-0.001
G2 X27.2896 Y4.3072 I-0.4996 J-0.0001
G1 X27.2895
G1 X27.2897
G1 X27.2896
G2 X26.8659 Y4.5451 I0.0002 J0.4965
G3 X25.1587 Y5.5033 I-1.7073 J-1.0418
G1 X14.9416
G0 Z3.0
M5
M30
