( Made using CamBam - http://www.cambam.co.uk )
( x bearing mount 12/26/2012 2:52:11 PM )
( T4 : 4.0 )
G21 G90 G64 G40
G0 Z3.0
( T4 : 4.0 )
T4 M6
( Profile1 )
G17
M3 S1000
G0 X34.3381 Y2.9985
G1 F50.0 Z-1.0
G2 F70.0 X32.8715 Y-0.5325 I-4.9929 J0.0036
G2 X29.3382 Y-2.0 I-3.5336 J3.5206
G1 X29.3381
G1 X3.0
G2 X2.9985 I0.0 J2.0
G2 X-0.5325 Y-0.5335 I0.0036 J4.9929
G2 X-2.0 Y2.9999 I3.5206 J3.5336
G1 Y3.0
G1 Y32.748
G2 X-1.9999 Y32.7628 I2.0 J0.0
G2 X-1.9506 Y33.6763 I9.8154 J-0.0725
G2 X-1.9494 Y33.6876 I1.9899 J-0.2009
G2 X-1.7111 Y35.1582 I13.6364 J-1.4549
G2 X-1.1076 Y37.2493 I15.88 J-3.4506
G2 X-1.1071 Y37.2505 I1.8801 J-0.682
G2 X-0.6863 Y38.2802 I13.285 J-4.8289
G2 X-0.5558 Y38.555 I8.1113 J-3.6837
G2 X-0.1265 Y39.3363 I9.0635 J-4.4711
G2 X-0.1172 Y39.3516 I1.7087 J-1.0394
G1 X3.0643 Y44.4776
G3 X3.319 Y44.9421 I-4.9967 J3.0414
G3 X3.723 Y45.9125 I-8.8247 J4.2434
G2 X3.7233 Y45.9134 I1.885 J-0.6685
G3 X4.1685 Y47.4935 I-11.606 J4.1226
G3 X4.3015 Y48.2809 I-10.0262 J2.0993
G2 X4.3017 Y48.2823 I1.9835 J-0.2561
G3 X4.3208 Y48.4521 I-4.963 J0.6445
G2 X4.3221 Y48.4652 I1.991 J-0.1897
G3 X4.342 Y48.7175 I-5.5398 J0.5647
G1 X4.348 Y48.8566
G1 X4.35 Y48.9935
G1 Y58.6185
G2 Y58.6199 I2.0 J0.0
G2 X5.8165 Y62.151 I4.9929 J-0.0036
G2 X9.3499 Y63.6185 I3.5336 J-3.5206
G1 X9.35
G1 X22.6353
G2 X22.6368 I0.0 J-2.0
G2 X26.1678 Y62.1519 I-0.0036 J-4.9929
G2 X27.6353 Y58.6186 I-3.5206 J-3.5336
G1 Y58.6185
G1 Y48.9821
G3 X27.6642 Y48.4709 I4.8695 J0.0186
G2 X27.6644 Y48.4684 I-1.9881 J-0.2176
G3 X27.8364 Y47.4512 I8.604 J0.9311
G2 X27.8379 Y47.4446 I-1.9487 J-0.4502
G3 X28.308 Y45.888 I11.3891 J2.5906
G2 X28.3107 Y45.8809 I-1.8697 J-0.7101
G3 X28.609 Y45.1846 I7.781 J2.9215
G1 X28.7047 Y44.9931
G3 X28.7588 Y44.8913 I4.3503 J2.2464
G3 X28.9569 Y44.558 I4.9657 J2.727
G1 X32.367 Y39.3535
G2 X32.3711 Y39.3472 I-1.6729 J-1.0961
G2 X32.8392 Y38.537 I-7.4908 J-4.8679
G2 X33.4422 Y37.1595 I-11.3542 J-5.7913
G2 X34.0574 Y35.0725 I-14.7809 J-5.4914
G2 X34.2542 Y33.956 I-12.1137 J-2.7103
G2 X34.2571 Y33.932 I-1.9834 J-0.2568
G1 X34.2849 Y33.695
G2 X34.2874 Y33.6728 I-1.9864 J-0.2327
G2 X34.3081 Y33.4506 I-8.8235 J-0.9339
G2 X34.3298 Y33.1106 I-7.5378 J-0.6521
G2 X34.3363 Y32.9121 I-5.0103 J-0.2633
G1 X34.3374 Y32.8502
G2 X34.3376 Y32.827 I-1.9997 J-0.0351
G1 X34.338 Y32.76
G2 X34.3381 Y32.748 I-2.0 J-0.0119
G1 Y3.0
G2 Y2.9985 I-2.0 J0.0
G1 F50.0 Z-2.0
G2 F70.0 X32.8715 Y-0.5325 I-4.9929 J0.0036
G2 X29.3382 Y-2.0 I-3.5336 J3.5206
G1 X29.3381
G1 X3.0
G2 X2.9985 I0.0 J2.0
G2 X-0.5325 Y-0.5335 I0.0036 J4.9929
G2 X-2.0 Y2.9999 I3.5206 J3.5336
G1 Y3.0
G1 Y32.748
G2 X-1.9999 Y32.7628 I2.0 J0.0
G2 X-1.9506 Y33.6763 I9.8154 J-0.0725
G2 X-1.9494 Y33.6876 I1.9899 J-0.2009
G2 X-1.7111 Y35.1582 I13.6364 J-1.4549
G2 X-1.1076 Y37.2493 I15.88 J-3.4506
G2 X-1.1071 Y37.2505 I1.8801 J-0.682
G2 X-0.6863 Y38.2802 I13.285 J-4.8289
G2 X-0.5558 Y38.555 I8.1113 J-3.6837
G2 X-0.1265 Y39.3363 I9.0635 J-4.4711
G2 X-0.1172 Y39.3516 I1.7087 J-1.0394
G1 X3.0643 Y44.4776
G3 X3.319 Y44.9421 I-4.9967 J3.0414
G3 X3.723 Y45.9125 I-8.8247 J4.2434
G2 X3.7233 Y45.9134 I1.885 J-0.6685
G3 X4.1685 Y47.4935 I-11.606 J4.1226
G3 X4.3015 Y48.2809 I-10.0262 J2.0993
G2 X4.3017 Y48.2823 I1.9835 J-0.2561
G3 X4.3208 Y48.4521 I-4.963 J0.6445
G2 X4.3221 Y48.4652 I1.991 J-0.1897
G3 X4.342 Y48.7175 I-5.5398 J0.5647
G1 X4.348 Y48.8566
G1 X4.35 Y48.9935
G1 Y58.6185
G2 Y58.6199 I2.0 J0.0
G2 X5.8165 Y62.151 I4.9929 J-0.0036
G2 X9.3499 Y63.6185 I3.5336 J-3.5206
G1 X9.35
G1 X22.6353
G2 X22.6368 I0.0 J-2.0
G2 X26.1678 Y62.1519 I-0.0036 J-4.9929
G2 X27.6353 Y58.6186 I-3.5206 J-3.5336
G1 Y58.6185
G1 Y48.9821
G3 X27.6642 Y48.4709 I4.8695 J0.0186
G2 X27.6644 Y48.4684 I-1.9881 J-0.2176
G3 X27.8364 Y47.4512 I8.604 J0.9311
G2 X27.8379 Y47.4446 I-1.9487 J-0.4502
G3 X28.308 Y45.888 I11.3891 J2.5906
G2 X28.3107 Y45.8809 I-1.8697 J-0.7101
G3 X28.609 Y45.1846 I7.781 J2.9215
G1 X28.7047 Y44.9931
G3 X28.7588 Y44.8913 I4.3503 J2.2464
G3 X28.9569 Y44.558 I4.9657 J2.727
G1 X32.367 Y39.3535
G2 X32.3711 Y39.3472 I-1.6729 J-1.0961
G2 X32.8392 Y38.537 I-7.4908 J-4.8679
G2 X33.4422 Y37.1595 I-11.3542 J-5.7913
G2 X34.0574 Y35.0725 I-14.7809 J-5.4914
G2 X34.2542 Y33.956 I-12.1137 J-2.7103
G2 X34.2571 Y33.932 I-1.9834 J-0.2568
G1 X34.2849 Y33.695
G2 X34.2874 Y33.6728 I-1.9864 J-0.2327
G2 X34.3081 Y33.4506 I-8.8235 J-0.9339
G2 X34.3298 Y33.1106 I-7.5378 J-0.6521
G2 X34.3363 Y32.9121 I-5.0103 J-0.2633
G1 X34.3374 Y32.8502
G2 X34.3376 Y32.827 I-1.9997 J-0.0351
G1 X34.338 Y32.76
G2 X34.3381 Y32.748 I-2.0 J-0.0119
G1 Y3.0
G2 Y2.9985 I-2.0 J0.0
G1 F50.0 Z-3.0
G2 F70.0 X32.8715 Y-0.5325 I-4.9929 J0.0036
G2 X29.3382 Y-2.0 I-3.5336 J3.5206
G1 X29.3381
G1 X3.0
G2 X2.9985 I0.0 J2.0
G2 X-0.5325 Y-0.5335 I0.0036 J4.9929
G2 X-2.0 Y2.9999 I3.5206 J3.5336
G1 Y3.0
G1 Y32.748
G2 X-1.9999 Y32.7628 I2.0 J0.0
G2 X-1.9506 Y33.6763 I9.8154 J-0.0725
G2 X-1.9494 Y33.6876 I1.9899 J-0.2009
G2 X-1.7111 Y35.1582 I13.6364 J-1.4549
G2 X-1.1076 Y37.2493 I15.88 J-3.4506
G2 X-1.1071 Y37.2505 I1.8801 J-0.682
G2 X-0.6863 Y38.2802 I13.285 J-4.8289
G2 X-0.5558 Y38.555 I8.1113 J-3.6837
G2 X-0.1265 Y39.3363 I9.0635 J-4.4711
G2 X-0.1172 Y39.3516 I1.7087 J-1.0394
G1 X3.0643 Y44.4776
G3 X3.319 Y44.9421 I-4.9967 J3.0414
G3 X3.723 Y45.9125 I-8.8247 J4.2434
G2 X3.7233 Y45.9134 I1.885 J-0.6685
G3 X4.1685 Y47.4935 I-11.606 J4.1226
G3 X4.3015 Y48.2809 I-10.0262 J2.0993
G2 X4.3017 Y48.2823 I1.9835 J-0.2561
G3 X4.3208 Y48.4521 I-4.963 J0.6445
G2 X4.3221 Y48.4652 I1.991 J-0.1897
G3 X4.342 Y48.7175 I-5.5398 J0.5647
G1 X4.348 Y48.8566
G1 X4.35 Y48.9935
G1 Y58.6185
G2 Y58.6199 I2.0 J0.0
G2 X5.8165 Y62.151 I4.9929 J-0.0036
G2 X9.3499 Y63.6185 I3.5336 J-3.5206
G1 X9.35
G1 X22.6353
G2 X22.6368 I0.0 J-2.0
G2 X26.1678 Y62.1519 I-0.0036 J-4.9929
G2 X27.6353 Y58.6186 I-3.5206 J-3.5336
G1 Y58.6185
G1 Y48.9821
G3 X27.6642 Y48.4709 I4.8695 J0.0186
G2 X27.6644 Y48.4684 I-1.9881 J-0.2176
G3 X27.8364 Y47.4512 I8.604 J0.9311
G2 X27.8379 Y47.4446 I-1.9487 J-0.4502
G3 X28.308 Y45.888 I11.3891 J2.5906
G2 X28.3107 Y45.8809 I-1.8697 J-0.7101
G3 X28.609 Y45.1846 I7.781 J2.9215
G1 X28.7047 Y44.9931
G3 X28.7588 Y44.8913 I4.3503 J2.2464
G3 X28.9569 Y44.558 I4.9657 J2.727
G1 X32.367 Y39.3535
G2 X32.3711 Y39.3472 I-1.6729 J-1.0961
G2 X32.8392 Y38.537 I-7.4908 J-4.8679
G2 X33.4422 Y37.1595 I-11.3542 J-5.7913
G2 X34.0574 Y35.0725 I-14.7809 J-5.4914
G2 X34.2542 Y33.956 I-12.1137 J-2.7103
G2 X34.2571 Y33.932 I-1.9834 J-0.2568
G1 X34.2849 Y33.695
G2 X34.2874 Y33.6728 I-1.9864 J-0.2327
G2 X34.3081 Y33.4506 I-8.8235 J-0.9339
G2 X34.3298 Y33.1106 I-7.5378 J-0.6521
G2 X34.3363 Y32.9121 I-5.0103 J-0.2633
G1 X34.3374 Y32.8502
G2 X34.3376 Y32.827 I-1.9997 J-0.0351
G1 X34.338 Y32.76
G2 X34.3381 Y32.748 I-2.0 J-0.0119
G1 Y3.0
G2 Y2.9985 I-2.0 J0.0
G1 F50.0 Z-4.0
G2 F70.0 X32.8715 Y-0.5325 I-4.9929 J0.0036
G2 X29.3382 Y-2.0 I-3.5336 J3.5206
G1 X29.3381
G1 X3.0
G2 X2.9985 I0.0 J2.0
G2 X-0.5325 Y-0.5335 I0.0036 J4.9929
G2 X-2.0 Y2.9999 I3.5206 J3.5336
G1 Y3.0
G1 Y32.748
G2 X-1.9999 Y32.7628 I2.0 J0.0
G2 X-1.9506 Y33.6763 I9.8154 J-0.0725
G2 X-1.9494 Y33.6876 I1.9899 J-0.2009
G2 X-1.7111 Y35.1582 I13.6364 J-1.4549
G2 X-1.1076 Y37.2493 I15.88 J-3.4506
G2 X-1.1071 Y37.2505 I1.8801 J-0.682
G2 X-0.6863 Y38.2802 I13.285 J-4.8289
G2 X-0.5558 Y38.555 I8.1113 J-3.6837
G2 X-0.1265 Y39.3363 I9.0635 J-4.4711
G2 X-0.1172 Y39.3516 I1.7087 J-1.0394
G1 X3.0643 Y44.4776
G3 X3.319 Y44.9421 I-4.9967 J3.0414
G3 X3.723 Y45.9125 I-8.8247 J4.2434
G2 X3.7233 Y45.9134 I1.885 J-0.6685
G3 X4.1685 Y47.4935 I-11.606 J4.1226
G3 X4.3015 Y48.2809 I-10.0262 J2.0993
G2 X4.3017 Y48.2823 I1.9835 J-0.2561
G3 X4.3208 Y48.4521 I-4.963 J0.6445
G2 X4.3221 Y48.4652 I1.991 J-0.1897
G3 X4.342 Y48.7175 I-5.5398 J0.5647
G1 X4.348 Y48.8566
G1 X4.35 Y48.9935
G1 Y58.6185
G2 Y58.6199 I2.0 J0.0
G2 X5.8165 Y62.151 I4.9929 J-0.0036
G2 X9.3499 Y63.6185 I3.5336 J-3.5206
G1 X9.35
G1 X22.6353
G2 X22.6368 I0.0 J-2.0
G2 X26.1678 Y62.1519 I-0.0036 J-4.9929
G2 X27.6353 Y58.6186 I-3.5206 J-3.5336
G1 Y58.6185
G1 Y48.9821
G3 X27.6642 Y48.4709 I4.8695 J0.0186
G2 X27.6644 Y48.4684 I-1.9881 J-0.2176
G3 X27.8364 Y47.4512 I8.604 J0.9311
G2 X27.8379 Y47.4446 I-1.9487 J-0.4502
G3 X28.308 Y45.888 I11.3891 J2.5906
G2 X28.3107 Y45.8809 I-1.8697 J-0.7101
G3 X28.609 Y45.1846 I7.781 J2.9215
G1 X28.7047 Y44.9931
G3 X28.7588 Y44.8913 I4.3503 J2.2464
G3 X28.9569 Y44.558 I4.9657 J2.727
G1 X32.367 Y39.3535
G2 X32.3711 Y39.3472 I-1.6729 J-1.0961
G2 X32.8392 Y38.537 I-7.4908 J-4.8679
G2 X33.4422 Y37.1595 I-11.3542 J-5.7913
G2 X34.0574 Y35.0725 I-14.7809 J-5.4914
G2 X34.2542 Y33.956 I-12.1137 J-2.7103
G2 X34.2571 Y33.932 I-1.9834 J-0.2568
G1 X34.2849 Y33.695
G2 X34.2874 Y33.6728 I-1.9864 J-0.2327
G2 X34.3081 Y33.4506 I-8.8235 J-0.9339
G2 X34.3298 Y33.1106 I-7.5378 J-0.6521
G2 X34.3363 Y32.9121 I-5.0103 J-0.2633
G1 X34.3374 Y32.8502
G2 X34.3376 Y32.827 I-1.9997 J-0.0351
G1 X34.338 Y32.76
G2 X34.3381 Y32.748 I-2.0 J-0.0119
G1 Y3.0
G2 Y2.9985 I-2.0 J0.0
G1 F50.0 Z-5.0
G2 F70.0 X32.8715 Y-0.5325 I-4.9929 J0.0036
G2 X29.3382 Y-2.0 I-3.5336 J3.5206
G1 X29.3381
G1 X3.0
G2 X2.9985 I0.0 J2.0
G2 X-0.5325 Y-0.5335 I0.0036 J4.9929
G2 X-2.0 Y2.9999 I3.5206 J3.5336
G1 Y3.0
G1 Y32.748
G2 X-1.9999 Y32.7628 I2.0 J0.0
G2 X-1.9506 Y33.6763 I9.8154 J-0.0725
G2 X-1.9494 Y33.6876 I1.9899 J-0.2009
G2 X-1.7111 Y35.1582 I13.6364 J-1.4549
G2 X-1.1076 Y37.2493 I15.88 J-3.4506
G2 X-1.1071 Y37.2505 I1.8801 J-0.682
G2 X-0.6863 Y38.2802 I13.285 J-4.8289
G2 X-0.5558 Y38.555 I8.1113 J-3.6837
G2 X-0.1265 Y39.3363 I9.0635 J-4.4711
G2 X-0.1172 Y39.3516 I1.7087 J-1.0394
G1 X3.0643 Y44.4776
G3 X3.319 Y44.9421 I-4.9967 J3.0414
G3 X3.723 Y45.9125 I-8.8247 J4.2434
G2 X3.7233 Y45.9134 I1.885 J-0.6685
G3 X4.1685 Y47.4935 I-11.606 J4.1226
G3 X4.3015 Y48.2809 I-10.0262 J2.0993
G2 X4.3017 Y48.2823 I1.9835 J-0.2561
G3 X4.3208 Y48.4521 I-4.963 J0.6445
G2 X4.3221 Y48.4652 I1.991 J-0.1897
G3 X4.342 Y48.7175 I-5.5398 J0.5647
G1 X4.348 Y48.8566
G1 X4.35 Y48.9935
G1 Y58.6185
G2 Y58.6199 I2.0 J0.0
G2 X5.8165 Y62.151 I4.9929 J-0.0036
G2 X9.3499 Y63.6185 I3.5336 J-3.5206
G1 X9.35
G1 X22.6353
G2 X22.6368 I0.0 J-2.0
G2 X26.1678 Y62.1519 I-0.0036 J-4.9929
G2 X27.6353 Y58.6186 I-3.5206 J-3.5336
G1 Y58.6185
G1 Y48.9821
G3 X27.6642 Y48.4709 I4.8695 J0.0186
G2 X27.6644 Y48.4684 I-1.9881 J-0.2176
G3 X27.8364 Y47.4512 I8.604 J0.9311
G2 X27.8379 Y47.4446 I-1.9487 J-0.4502
G3 X28.308 Y45.888 I11.3891 J2.5906
G2 X28.3107 Y45.8809 I-1.8697 J-0.7101
G3 X28.609 Y45.1846 I7.781 J2.9215
G1 X28.7047 Y44.9931
G3 X28.7588 Y44.8913 I4.3503 J2.2464
G3 X28.9569 Y44.558 I4.9657 J2.727
G1 X32.367 Y39.3535
G2 X32.3711 Y39.3472 I-1.6729 J-1.0961
G2 X32.8392 Y38.537 I-7.4908 J-4.8679
G2 X33.4422 Y37.1595 I-11.3542 J-5.7913
G2 X34.0574 Y35.0725 I-14.7809 J-5.4914
G2 X34.2542 Y33.956 I-12.1137 J-2.7103
G2 X34.2571 Y33.932 I-1.9834 J-0.2568
G1 X34.2849 Y33.695
G2 X34.2874 Y33.6728 I-1.9864 J-0.2327
G2 X34.3081 Y33.4506 I-8.8235 J-0.9339
G2 X34.3298 Y33.1106 I-7.5378 J-0.6521
G2 X34.3363 Y32.9121 I-5.0103 J-0.2633
G1 X34.3374 Y32.8502
G2 X34.3376 Y32.827 I-1.9997 J-0.0351
G1 X34.338 Y32.76
G2 X34.3381 Y32.748 I-2.0 J-0.0119
G1 Y3.0
G2 Y2.9985 I-2.0 J0.0
G1 F50.0 Z-6.0
G2 F70.0 X32.8715 Y-0.5325 I-4.9929 J0.0036
G2 X29.3382 Y-2.0 I-3.5336 J3.5206
G1 X29.3381
G1 X3.0
G2 X2.9985 I0.0 J2.0
G2 X-0.5325 Y-0.5335 I0.0036 J4.9929
G2 X-2.0 Y2.9999 I3.5206 J3.5336
G1 Y3.0
G1 Y32.748
G2 X-1.9999 Y32.7628 I2.0 J0.0
G2 X-1.9506 Y33.6763 I9.8154 J-0.0725
G2 X-1.9494 Y33.6876 I1.9899 J-0.2009
G2 X-1.7111 Y35.1582 I13.6364 J-1.4549
G2 X-1.1076 Y37.2493 I15.88 J-3.4506
G2 X-1.1071 Y37.2505 I1.8801 J-0.682
G2 X-0.6863 Y38.2802 I13.285 J-4.8289
G2 X-0.5558 Y38.555 I8.1113 J-3.6837
G2 X-0.1265 Y39.3363 I9.0635 J-4.4711
G2 X-0.1172 Y39.3516 I1.7087 J-1.0394
G1 X3.0643 Y44.4776
G3 X3.319 Y44.9421 I-4.9967 J3.0414
G3 X3.723 Y45.9125 I-8.8247 J4.2434
G2 X3.7233 Y45.9134 I1.885 J-0.6685
G3 X4.1685 Y47.4935 I-11.606 J4.1226
G3 X4.3015 Y48.2809 I-10.0262 J2.0993
G2 X4.3017 Y48.2823 I1.9835 J-0.2561
G3 X4.3208 Y48.4521 I-4.963 J0.6445
G2 X4.3221 Y48.4652 I1.991 J-0.1897
G3 X4.342 Y48.7175 I-5.5398 J0.5647
G1 X4.348 Y48.8566
G1 X4.35 Y48.9935
G1 Y58.6185
G2 Y58.6199 I2.0 J0.0
G2 X5.8165 Y62.151 I4.9929 J-0.0036
G2 X9.3499 Y63.6185 I3.5336 J-3.5206
G1 X9.35
G1 X22.6353
G2 X22.6368 I0.0 J-2.0
G2 X26.1678 Y62.1519 I-0.0036 J-4.9929
G2 X27.6353 Y58.6186 I-3.5206 J-3.5336
G1 Y58.6185
G1 Y48.9821
G3 X27.6642 Y48.4709 I4.8695 J0.0186
G2 X27.6644 Y48.4684 I-1.9881 J-0.2176
G3 X27.8364 Y47.4512 I8.604 J0.9311
G2 X27.8379 Y47.4446 I-1.9487 J-0.4502
G3 X28.308 Y45.888 I11.3891 J2.5906
G2 X28.3107 Y45.8809 I-1.8697 J-0.7101
G3 X28.609 Y45.1846 I7.781 J2.9215
G1 X28.7047 Y44.9931
G3 X28.7588 Y44.8913 I4.3503 J2.2464
G3 X28.9569 Y44.558 I4.9657 J2.727
G1 X32.367 Y39.3535
G2 X32.3711 Y39.3472 I-1.6729 J-1.0961
G2 X32.8392 Y38.537 I-7.4908 J-4.8679
G2 X33.4422 Y37.1595 I-11.3542 J-5.7913
G2 X34.0574 Y35.0725 I-14.7809 J-5.4914
G2 X34.2542 Y33.956 I-12.1137 J-2.7103
G2 X34.2571 Y33.932 I-1.9834 J-0.2568
G1 X34.2849 Y33.695
G2 X34.2874 Y33.6728 I-1.9864 J-0.2327
G2 X34.3081 Y33.4506 I-8.8235 J-0.9339
G2 X34.3298 Y33.1106 I-7.5378 J-0.6521
G2 X34.3363 Y32.9121 I-5.0103 J-0.2633
G1 X34.3374 Y32.8502
G2 X34.3376 Y32.827 I-1.9997 J-0.0351
G1 X34.338 Y32.76
G2 X34.3381 Y32.748 I-2.0 J-0.0119
G1 Y3.0
G2 Y2.9985 I-2.0 J0.0
G1 F50.0 Z-7.0
G2 F70.0 X32.8715 Y-0.5325 I-4.9929 J0.0036
G2 X29.3382 Y-2.0 I-3.5336 J3.5206
G1 X29.3381
G1 X3.0
G2 X2.9985 I0.0 J2.0
G2 X-0.5325 Y-0.5335 I0.0036 J4.9929
G2 X-2.0 Y2.9999 I3.5206 J3.5336
G1 Y3.0
G1 Y32.748
G2 X-1.9999 Y32.7628 I2.0 J0.0
G2 X-1.9506 Y33.6763 I9.8154 J-0.0725
G2 X-1.9494 Y33.6876 I1.9899 J-0.2009
G2 X-1.7111 Y35.1582 I13.6364 J-1.4549
G2 X-1.1076 Y37.2493 I15.88 J-3.4506
G2 X-1.1071 Y37.2505 I1.8801 J-0.682
G2 X-0.6863 Y38.2802 I13.285 J-4.8289
G2 X-0.5558 Y38.555 I8.1113 J-3.6837
G2 X-0.1265 Y39.3363 I9.0635 J-4.4711
G2 X-0.1172 Y39.3516 I1.7087 J-1.0394
G1 X3.0643 Y44.4776
G3 X3.319 Y44.9421 I-4.9967 J3.0414
G3 X3.723 Y45.9125 I-8.8247 J4.2434
G2 X3.7233 Y45.9134 I1.885 J-0.6685
G3 X4.1685 Y47.4935 I-11.606 J4.1226
G3 X4.3015 Y48.2809 I-10.0262 J2.0993
G2 X4.3017 Y48.2823 I1.9835 J-0.2561
G3 X4.3208 Y48.4521 I-4.963 J0.6445
G2 X4.3221 Y48.4652 I1.991 J-0.1897
G3 X4.342 Y48.7175 I-5.5398 J0.5647
G1 X4.348 Y48.8566
G1 X4.35 Y48.9935
G1 Y58.6185
G2 Y58.6199 I2.0 J0.0
G2 X5.8165 Y62.151 I4.9929 J-0.0036
G2 X9.3499 Y63.6185 I3.5336 J-3.5206
G1 X9.35
G1 X22.6353
G2 X22.6368 I0.0 J-2.0
G2 X26.1678 Y62.1519 I-0.0036 J-4.9929
G2 X27.6353 Y58.6186 I-3.5206 J-3.5336
G1 Y58.6185
G1 Y48.9821
G3 X27.6642 Y48.4709 I4.8695 J0.0186
G2 X27.6644 Y48.4684 I-1.9881 J-0.2176
G3 X27.8364 Y47.4512 I8.604 J0.9311
G2 X27.8379 Y47.4446 I-1.9487 J-0.4502
G3 X28.308 Y45.888 I11.3891 J2.5906
G2 X28.3107 Y45.8809 I-1.8697 J-0.7101
G3 X28.609 Y45.1846 I7.781 J2.9215
G1 X28.7047 Y44.9931
G3 X28.7588 Y44.8913 I4.3503 J2.2464
G3 X28.9569 Y44.558 I4.9657 J2.727
G1 X32.367 Y39.3535
G2 X32.3711 Y39.3472 I-1.6729 J-1.0961
G2 X32.8392 Y38.537 I-7.4908 J-4.8679
G2 X33.4422 Y37.1595 I-11.3542 J-5.7913
G2 X34.0574 Y35.0725 I-14.7809 J-5.4914
G2 X34.2542 Y33.956 I-12.1137 J-2.7103
G2 X34.2571 Y33.932 I-1.9834 J-0.2568
G1 X34.2849 Y33.695
G2 X34.2874 Y33.6728 I-1.9864 J-0.2327
G2 X34.3081 Y33.4506 I-8.8235 J-0.9339
G2 X34.3298 Y33.1106 I-7.5378 J-0.6521
G2 X34.3363 Y32.9121 I-5.0103 J-0.2633
G1 X34.3374 Y32.8502
G2 X34.3376 Y32.827 I-1.9997 J-0.0351
G1 X34.338 Y32.76
G2 X34.3381 Y32.748 I-2.0 J-0.0119
G1 Y3.0
G2 Y2.9985 I-2.0 J0.0
G1 F50.0 Z-8.0
G2 F70.0 X32.8715 Y-0.5325 I-4.9929 J0.0036
G2 X29.3382 Y-2.0 I-3.5336 J3.5206
G1 X29.3381
G1 X3.0
G2 X2.9985 I0.0 J2.0
G2 X-0.5325 Y-0.5335 I0.0036 J4.9929
G2 X-2.0 Y2.9999 I3.5206 J3.5336
G1 Y3.0
G1 Y32.748
G2 X-1.9999 Y32.7628 I2.0 J0.0
G2 X-1.9506 Y33.6763 I9.8154 J-0.0725
G2 X-1.9494 Y33.6876 I1.9899 J-0.2009
G2 X-1.7111 Y35.1582 I13.6364 J-1.4549
G2 X-1.1076 Y37.2493 I15.88 J-3.4506
G2 X-1.1071 Y37.2505 I1.8801 J-0.682
G2 X-0.6863 Y38.2802 I13.285 J-4.8289
G2 X-0.5558 Y38.555 I8.1113 J-3.6837
G2 X-0.1265 Y39.3363 I9.0635 J-4.4711
G2 X-0.1172 Y39.3516 I1.7087 J-1.0394
G1 X3.0643 Y44.4776
G3 X3.319 Y44.9421 I-4.9967 J3.0414
G3 X3.723 Y45.9125 I-8.8247 J4.2434
G2 X3.7233 Y45.9134 I1.885 J-0.6685
G3 X4.1685 Y47.4935 I-11.606 J4.1226
G3 X4.3015 Y48.2809 I-10.0262 J2.0993
G2 X4.3017 Y48.2823 I1.9835 J-0.2561
G3 X4.3208 Y48.4521 I-4.963 J0.6445
G2 X4.3221 Y48.4652 I1.991 J-0.1897
G3 X4.342 Y48.7175 I-5.5398 J0.5647
G1 X4.348 Y48.8566
G1 X4.35 Y48.9935
G1 Y58.6185
G2 Y58.6199 I2.0 J0.0
G2 X5.8165 Y62.151 I4.9929 J-0.0036
G2 X9.3499 Y63.6185 I3.5336 J-3.5206
G1 X9.35
G1 X22.6353
G2 X22.6368 I0.0 J-2.0
G2 X26.1678 Y62.1519 I-0.0036 J-4.9929
G2 X27.6353 Y58.6186 I-3.5206 J-3.5336
G1 Y58.6185
G1 Y48.9821
G3 X27.6642 Y48.4709 I4.8695 J0.0186
G2 X27.6644 Y48.4684 I-1.9881 J-0.2176
G3 X27.8364 Y47.4512 I8.604 J0.9311
G2 X27.8379 Y47.4446 I-1.9487 J-0.4502
G3 X28.308 Y45.888 I11.3891 J2.5906
G2 X28.3107 Y45.8809 I-1.8697 J-0.7101
G3 X28.609 Y45.1846 I7.781 J2.9215
G1 X28.7047 Y44.9931
G3 X28.7588 Y44.8913 I4.3503 J2.2464
G3 X28.9569 Y44.558 I4.9657 J2.727
G1 X32.367 Y39.3535
G2 X32.3711 Y39.3472 I-1.6729 J-1.0961
G2 X32.8392 Y38.537 I-7.4908 J-4.8679
G2 X33.4422 Y37.1595 I-11.3542 J-5.7913
G2 X34.0574 Y35.0725 I-14.7809 J-5.4914
G2 X34.2542 Y33.956 I-12.1137 J-2.7103
G2 X34.2571 Y33.932 I-1.9834 J-0.2568
G1 X34.2849 Y33.695
G2 X34.2874 Y33.6728 I-1.9864 J-0.2327
G2 X34.3081 Y33.4506 I-8.8235 J-0.9339
G2 X34.3298 Y33.1106 I-7.5378 J-0.6521
G2 X34.3363 Y32.9121 I-5.0103 J-0.2633
G1 X34.3374 Y32.8502
G2 X34.3376 Y32.827 I-1.9997 J-0.0351
G1 X34.338 Y32.76
G2 X34.3381 Y32.748 I-2.0 J-0.0119
G1 Y3.0
G2 Y2.9985 I-2.0 J0.0
G1 F50.0 Z-9.0
G2 F70.0 X32.8715 Y-0.5325 I-4.9929 J0.0036
G2 X29.3382 Y-2.0 I-3.5336 J3.5206
G1 X29.3381
G1 X3.0
G2 X2.9985 I0.0 J2.0
G2 X-0.5325 Y-0.5335 I0.0036 J4.9929
G2 X-2.0 Y2.9999 I3.5206 J3.5336
G1 Y3.0
G1 Y32.748
G2 X-1.9999 Y32.7628 I2.0 J0.0
G2 X-1.9506 Y33.6763 I9.8154 J-0.0725
G2 X-1.9494 Y33.6876 I1.9899 J-0.2009
G2 X-1.7111 Y35.1582 I13.6364 J-1.4549
G2 X-1.1076 Y37.2493 I15.88 J-3.4506
G2 X-1.1071 Y37.2505 I1.8801 J-0.682
G2 X-0.6863 Y38.2802 I13.285 J-4.8289
G2 X-0.5558 Y38.555 I8.1113 J-3.6837
G2 X-0.1265 Y39.3363 I9.0635 J-4.4711
G2 X-0.1172 Y39.3516 I1.7087 J-1.0394
G1 X3.0643 Y44.4776
G3 X3.319 Y44.9421 I-4.9967 J3.0414
G3 X3.723 Y45.9125 I-8.8247 J4.2434
G2 X3.7233 Y45.9134 I1.885 J-0.6685
G3 X4.1685 Y47.4935 I-11.606 J4.1226
G3 X4.3015 Y48.2809 I-10.0262 J2.0993
G2 X4.3017 Y48.2823 I1.9835 J-0.2561
G3 X4.3208 Y48.4521 I-4.963 J0.6445
G2 X4.3221 Y48.4652 I1.991 J-0.1897
G3 X4.342 Y48.7175 I-5.5398 J0.5647
G1 X4.348 Y48.8566
G1 X4.35 Y48.9935
G1 Y58.6185
G2 Y58.6199 I2.0 J0.0
G2 X5.8165 Y62.151 I4.9929 J-0.0036
G2 X9.3499 Y63.6185 I3.5336 J-3.5206
G1 X9.35
G1 X22.6353
G2 X22.6368 I0.0 J-2.0
G2 X26.1678 Y62.1519 I-0.0036 J-4.9929
G2 X27.6353 Y58.6186 I-3.5206 J-3.5336
G1 Y58.6185
G1 Y48.9821
G3 X27.6642 Y48.4709 I4.8695 J0.0186
G2 X27.6644 Y48.4684 I-1.9881 J-0.2176
G3 X27.8364 Y47.4512 I8.604 J0.9311
G2 X27.8379 Y47.4446 I-1.9487 J-0.4502
G3 X28.308 Y45.888 I11.3891 J2.5906
G2 X28.3107 Y45.8809 I-1.8697 J-0.7101
G3 X28.609 Y45.1846 I7.781 J2.9215
G1 X28.7047 Y44.9931
G3 X28.7588 Y44.8913 I4.3503 J2.2464
G3 X28.9569 Y44.558 I4.9657 J2.727
G1 X32.367 Y39.3535
G2 X32.3711 Y39.3472 I-1.6729 J-1.0961
G2 X32.8392 Y38.537 I-7.4908 J-4.8679
G2 X33.4422 Y37.1595 I-11.3542 J-5.7913
G2 X34.0574 Y35.0725 I-14.7809 J-5.4914
G2 X34.2542 Y33.956 I-12.1137 J-2.7103
G2 X34.2571 Y33.932 I-1.9834 J-0.2568
G1 X34.2849 Y33.695
G2 X34.2874 Y33.6728 I-1.9864 J-0.2327
G2 X34.3081 Y33.4506 I-8.8235 J-0.9339
G2 X34.3298 Y33.1106 I-7.5378 J-0.6521
G2 X34.3363 Y32.9121 I-5.0103 J-0.2633
G1 X34.3374 Y32.8502
G2 X34.3376 Y32.827 I-1.9997 J-0.0351
G1 X34.338 Y32.76
G2 X34.3381 Y32.748 I-2.0 J-0.0119
G1 Y3.0
G2 Y2.9985 I-2.0 J0.0
G1 F50.0 Z-10.0
G2 F70.0 X32.8715 Y-0.5325 I-4.9929 J0.0036
G2 X29.3382 Y-2.0 I-3.5336 J3.5206
G1 X29.3381
G1 X3.0
G2 X2.9985 I0.0 J2.0
G2 X-0.5325 Y-0.5335 I0.0036 J4.9929
G2 X-2.0 Y2.9999 I3.5206 J3.5336
G1 Y3.0
G1 Y32.748
G2 X-1.9999 Y32.7628 I2.0 J0.0
G2 X-1.9506 Y33.6763 I9.8154 J-0.0725
G2 X-1.9494 Y33.6876 I1.9899 J-0.2009
G2 X-1.7111 Y35.1582 I13.6364 J-1.4549
G2 X-1.1076 Y37.2493 I15.88 J-3.4506
G2 X-1.1071 Y37.2505 I1.8801 J-0.682
G2 X-0.6863 Y38.2802 I13.285 J-4.8289
G2 X-0.5558 Y38.555 I8.1113 J-3.6837
G2 X-0.1265 Y39.3363 I9.0635 J-4.4711
G2 X-0.1172 Y39.3516 I1.7087 J-1.0394
G1 X3.0643 Y44.4776
G3 X3.319 Y44.9421 I-4.9967 J3.0414
G3 X3.723 Y45.9125 I-8.8247 J4.2434
G2 X3.7233 Y45.9134 I1.885 J-0.6685
G3 X4.1685 Y47.4935 I-11.606 J4.1226
G3 X4.3015 Y48.2809 I-10.0262 J2.0993
G2 X4.3017 Y48.2823 I1.9835 J-0.2561
G3 X4.3208 Y48.4521 I-4.963 J0.6445
G2 X4.3221 Y48.4652 I1.991 J-0.1897
G3 X4.342 Y48.7175 I-5.5398 J0.5647
G1 X4.348 Y48.8566
G1 X4.35 Y48.9935
G1 Y58.6185
G2 Y58.6199 I2.0 J0.0
G2 X5.8165 Y62.151 I4.9929 J-0.0036
G2 X9.3499 Y63.6185 I3.5336 J-3.5206
G1 X9.35
G1 X22.6353
G2 X22.6368 I0.0 J-2.0
G2 X26.1678 Y62.1519 I-0.0036 J-4.9929
G2 X27.6353 Y58.6186 I-3.5206 J-3.5336
G1 Y58.6185
G1 Y48.9821
G3 X27.6642 Y48.4709 I4.8695 J0.0186
G2 X27.6644 Y48.4684 I-1.9881 J-0.2176
G3 X27.8364 Y47.4512 I8.604 J0.9311
G2 X27.8379 Y47.4446 I-1.9487 J-0.4502
G3 X28.308 Y45.888 I11.3891 J2.5906
G2 X28.3107 Y45.8809 I-1.8697 J-0.7101
G3 X28.609 Y45.1846 I7.781 J2.9215
G1 X28.7047 Y44.9931
G3 X28.7588 Y44.8913 I4.3503 J2.2464
G3 X28.9569 Y44.558 I4.9657 J2.727
G1 X32.367 Y39.3535
G2 X32.3711 Y39.3472 I-1.6729 J-1.0961
G2 X32.8392 Y38.537 I-7.4908 J-4.8679
G2 X33.4422 Y37.1595 I-11.3542 J-5.7913
G2 X34.0574 Y35.0725 I-14.7809 J-5.4914
G2 X34.2542 Y33.956 I-12.1137 J-2.7103
G2 X34.2571 Y33.932 I-1.9834 J-0.2568
G1 X34.2849 Y33.695
G2 X34.2874 Y33.6728 I-1.9864 J-0.2327
G2 X34.3081 Y33.4506 I-8.8235 J-0.9339
G2 X34.3298 Y33.1106 I-7.5378 J-0.6521
G2 X34.3363 Y32.9121 I-5.0103 J-0.2633
G1 X34.3374 Y32.8502
G2 X34.3376 Y32.827 I-1.9997 J-0.0351
G1 X34.338 Y32.76
G2 X34.3381 Y32.748 I-2.0 J-0.0119
G1 Y3.0
G2 Y2.9985 I-2.0 J0.0
G1 F50.0 Z-11.0
G2 F70.0 X32.8715 Y-0.5325 I-4.9929 J0.0036
G2 X29.3382 Y-2.0 I-3.5336 J3.5206
G1 X29.3381
G1 X3.0
G2 X2.9985 I0.0 J2.0
G2 X-0.5325 Y-0.5335 I0.0036 J4.9929
G2 X-2.0 Y2.9999 I3.5206 J3.5336
G1 Y3.0
G1 Y32.748
G2 X-1.9999 Y32.7628 I2.0 J0.0
G2 X-1.9506 Y33.6763 I9.8154 J-0.0725
G2 X-1.9494 Y33.6876 I1.9899 J-0.2009
G2 X-1.7111 Y35.1582 I13.6364 J-1.4549
G2 X-1.1076 Y37.2493 I15.88 J-3.4506
G2 X-1.1071 Y37.2505 I1.8801 J-0.682
G2 X-0.6863 Y38.2802 I13.285 J-4.8289
G2 X-0.5558 Y38.555 I8.1113 J-3.6837
G2 X-0.1265 Y39.3363 I9.0635 J-4.4711
G2 X-0.1172 Y39.3516 I1.7087 J-1.0394
G1 X3.0643 Y44.4776
G3 X3.319 Y44.9421 I-4.9967 J3.0414
G3 X3.723 Y45.9125 I-8.8247 J4.2434
G2 X3.7233 Y45.9134 I1.885 J-0.6685
G3 X4.1685 Y47.4935 I-11.606 J4.1226
G3 X4.3015 Y48.2809 I-10.0262 J2.0993
G2 X4.3017 Y48.2823 I1.9835 J-0.2561
G3 X4.3208 Y48.4521 I-4.963 J0.6445
G2 X4.3221 Y48.4652 I1.991 J-0.1897
G3 X4.342 Y48.7175 I-5.5398 J0.5647
G1 X4.348 Y48.8566
G1 X4.35 Y48.9935
G1 Y58.6185
G2 Y58.6199 I2.0 J0.0
G2 X5.8165 Y62.151 I4.9929 J-0.0036
G2 X9.3499 Y63.6185 I3.5336 J-3.5206
G1 X9.35
G1 X22.6353
G2 X22.6368 I0.0 J-2.0
G2 X26.1678 Y62.1519 I-0.0036 J-4.9929
G2 X27.6353 Y58.6186 I-3.5206 J-3.5336
G1 Y58.6185
G1 Y48.9821
G3 X27.6642 Y48.4709 I4.8695 J0.0186
G2 X27.6644 Y48.4684 I-1.9881 J-0.2176
G3 X27.8364 Y47.4512 I8.604 J0.9311
G2 X27.8379 Y47.4446 I-1.9487 J-0.4502
G3 X28.308 Y45.888 I11.3891 J2.5906
G2 X28.3107 Y45.8809 I-1.8697 J-0.7101
G3 X28.609 Y45.1846 I7.781 J2.9215
G1 X28.7047 Y44.9931
G3 X28.7588 Y44.8913 I4.3503 J2.2464
G3 X28.9569 Y44.558 I4.9657 J2.727
G1 X32.367 Y39.3535
G2 X32.3711 Y39.3472 I-1.6729 J-1.0961
G2 X32.8392 Y38.537 I-7.4908 J-4.8679
G2 X33.4422 Y37.1595 I-11.3542 J-5.7913
G2 X34.0574 Y35.0725 I-14.7809 J-5.4914
G2 X34.2542 Y33.956 I-12.1137 J-2.7103
G2 X34.2571 Y33.932 I-1.9834 J-0.2568
G1 X34.2849 Y33.695
G2 X34.2874 Y33.6728 I-1.9864 J-0.2327
G2 X34.3081 Y33.4506 I-8.8235 J-0.9339
G2 X34.3298 Y33.1106 I-7.5378 J-0.6521
G2 X34.3363 Y32.9121 I-5.0103 J-0.2633
G1 X34.3374 Y32.8502
G2 X34.3376 Y32.827 I-1.9997 J-0.0351
G1 X34.338 Y32.76
G2 X34.3381 Y32.748 I-2.0 J-0.0119
G1 Y3.0
G2 Y2.9985 I-2.0 J0.0
G0 Z3.0
M5
M30
