( Made using CamBam - http://www.cambam.co.uk )
( x bearing mount 12/26/2012 2:52:05 PM )
( T4 : 4.0 )
( T14 : 4.0 )
G21 G90 G64 G40
G0 Z3.0
( T4 : 4.0 )
T4 M6
( Pocket1 )
G17
M3 S1000
G0 X14.9416 Y15.1033
G1 F50.0 Z-1.0
G1 F80.0 Y19.2956
G3 X16.0915 Y20.1539 I-6.35 J9.7076
G3 X17.2415 Y19.2956 I7.5 J8.8493
G1 Y15.1033
G1 X14.9416
G1 F50.0 Y13.5033
G1 F80.0 X13.3416
G1 Y20.2034
G3 X16.0915 Y22.3888 I-4.75 J8.7998
G3 X18.8415 Y20.2034 I7.5 J6.6144
G1 Y13.5033
G1 X14.9416
G1 F50.0 Y11.9033
G1 F80.0 X11.7416
G1 Y21.2162
G3 X16.0915 Y25.2203 I-3.15 J7.787
G3 X20.4415 Y21.2162 I7.5 J3.7829
G1 Y11.9033
G1 X14.9416
G1 F50.0 Y10.3033
G1 F80.0 X10.1416
G1 Y22.3822
G3 X15.3916 Y29.0032 I-1.55 J6.621
G1 Y32.2033
G1 X16.7915
G1 Y29.0032
G3 X22.0415 Y22.3822 I6.8 J0.0
G1 Y10.3033
G1 X14.9416
G1 F50.0 Y8.7033
G1 F80.0 X8.5416
G1 Y23.8032
G1 X8.5916
G3 X13.7916 Y29.0032 I0.0 J5.2
G1 Y33.8033
G1 X18.3915
G1 Y29.0032
G3 X23.5915 Y23.8032 I5.2 J0.0
G1 X23.6415
G1 Y8.7033
G1 X14.9416
G1 F50.0 Y7.1033
G1 F80.0 X6.9416
G1 Y25.4032
G1 X8.5916
G3 X12.1916 Y29.0032 I0.0 J3.6
G1 Y35.4034
G3 X12.2189 Y35.4033 I0.0273 J3.5999
G1 X19.9915
G1 Y29.0032
G3 X23.5915 Y25.4032 I3.6 J0.0
G1 X25.0925
G3 X25.2415 Y25.4063 I0.0 J3.6
G1 Y7.1024
G3 X25.1587 Y7.1033 I-0.0828 J-3.599
G1 X14.9416
G1 F50.0 Y5.5033
G1 F80.0 X6.7584
G3 X5.0508 Y4.5445 I0.0 J-2.0
G2 X4.6281 Y4.3072 I-0.4226 J0.2577
G3 X4.6276 I-0.0002 J-2.0
G2 X4.1279 Y4.8069 I-0.0001 J0.4996
G1 Y4.8072
G2 X4.3689 Y5.2325 I0.4957 J0.0
G3 X5.3416 Y6.9484 I-1.0274 J1.716
G1 Y25.667
G3 X4.369 Y27.3829 I-2.0 J0.0
G2 X4.1279 Y27.8083 I0.2547 J0.4254
G1 Y27.8085
G2 X4.6276 Y28.3082 I0.4996 J0.0001
G3 X4.6291 I0.0004 J2.0
G2 X5.0676 Y28.0477 I0.0003 J-0.4988
G3 X6.8246 Y27.0032 I1.757 J0.9555
G1 X8.5916
G3 X10.5916 Y29.0032 I0.0 J2.0
G1 Y35.7456
G3 X9.7467 Y37.3783 I-2.0 J0.0
G2 X9.538 Y37.7817 I0.2853 J0.4032
G3 Y37.7827 I-2.0 J0.0007
G2 X10.0378 Y38.2825 I0.4996 J0.0001
G3 X10.0392 I0.0004 J2.0
G2 X10.4727 Y38.0282 I0.0003 J-0.4962
G3 X12.2189 Y37.0033 I1.7462 J0.9751
G1 X20.0861
G3 X21.8319 Y38.0275 I0.0 J2.0
G2 X22.2666 Y38.2825 I0.4347 J-0.243
G3 X22.2672 I0.0002 J2.0
G2 X22.767 Y37.7827 I0.0001 J-0.4996
G3 Y37.7821 I2.0 J-0.0004
G2 X22.5338 Y37.3621 I-0.4949 J-0.0001
G3 X21.5915 Y35.6647 I1.0577 J-1.6974
G1 Y29.0032
G3 X23.5915 Y27.0032 I2.0 J0.0
G1 X25.0925
G3 X26.8493 Y28.0472 I0.0 J2.0
G2 X27.2885 Y28.3082 I0.4392 J-0.239
G3 X27.2895 I0.0006 J2.0
G2 X27.7892 Y27.8085 I0.0001 J-0.4996
G3 Y27.807 I2.0 J-0.0004
G2 X27.6017 Y27.4197 I-0.4932 J-0.0003
G3 X26.8415 Y25.8503 I1.2397 J-1.5694
G1 Y6.7651
G3 X27.6016 Y5.1958 I2.0 J0.0
G2 X27.7892 Y4.8082 I-0.306 J-0.3874
G3 Y4.8069 I2.0 J-0.001
G2 X27.2896 Y4.3072 I-0.4996 J-0.0001
G1 X27.2895
G1 X27.2897
G1 X27.2896
G2 X26.8659 Y4.5451 I0.0002 J0.4965
G3 X25.1587 Y5.5033 I-1.7073 J-1.0418
G1 X14.9416
G0 Z3.0
G0 Y15.1033
G1 F50.0 Z-2.0
G1 F80.0 Y19.2956
G3 X16.0915 Y20.1539 I-6.35 J9.7076
G3 X17.2415 Y19.2956 I7.5 J8.8493
G1 Y15.1033
G1 X14.9416
G1 F50.0 Y13.5033
G1 F80.0 X13.3416
G1 Y20.2034
G3 X16.0915 Y22.3888 I-4.75 J8.7998
G3 X18.8415 Y20.2034 I7.5 J6.6144
G1 Y13.5033
G1 X14.9416
G1 F50.0 Y11.9033
G1 F80.0 X11.7416
G1 Y21.2162
G3 X16.0915 Y25.2203 I-3.15 J7.787
G3 X20.4415 Y21.2162 I7.5 J3.7829
G1 Y11.9033
G1 X14.9416
G1 F50.0 Y10.3033
G1 F80.0 X10.1416
G1 Y22.3822
G3 X15.3916 Y29.0032 I-1.55 J6.621
G1 Y32.2033
G1 X16.7915
G1 Y29.0032
G3 X22.0415 Y22.3822 I6.8 J0.0
G1 Y10.3033
G1 X14.9416
G1 F50.0 Y8.7033
G1 F80.0 X8.5416
G1 Y23.8032
G1 X8.5916
G3 X13.7916 Y29.0032 I0.0 J5.2
G1 Y33.8033
G1 X18.3915
G1 Y29.0032
G3 X23.5915 Y23.8032 I5.2 J0.0
G1 X23.6415
G1 Y8.7033
G1 X14.9416
G1 F50.0 Y7.1033
G1 F80.0 X6.9416
G1 Y25.4032
G1 X8.5916
G3 X12.1916 Y29.0032 I0.0 J3.6
G1 Y35.4034
G3 X12.2189 Y35.4033 I0.0273 J3.5999
G1 X19.9915
G1 Y29.0032
G3 X23.5915 Y25.4032 I3.6 J0.0
G1 X25.0925
G3 X25.2415 Y25.4063 I0.0 J3.6
G1 Y7.1024
G3 X25.1587 Y7.1033 I-0.0828 J-3.599
G1 X14.9416
G1 F50.0 Y5.5033
G1 F80.0 X6.7584
G3 X5.0508 Y4.5445 I0.0 J-2.0
G2 X4.6281 Y4.3072 I-0.4226 J0.2577
G3 X4.6276 I-0.0002 J-2.0
G2 X4.1279 Y4.8069 I-0.0001 J0.4996
G1 Y4.8072
G2 X4.3689 Y5.2325 I0.4957 J0.0
G3 X5.3416 Y6.9484 I-1.0274 J1.716
G1 Y25.667
G3 X4.369 Y27.3829 I-2.0 J0.0
G2 X4.1279 Y27.8083 I0.2547 J0.4254
G1 Y27.8085
G2 X4.6276 Y28.3082 I0.4996 J0.0001
G3 X4.6291 I0.0004 J2.0
G2 X5.0676 Y28.0477 I0.0003 J-0.4988
G3 X6.8246 Y27.0032 I1.757 J0.9555
G1 X8.5916
G3 X10.5916 Y29.0032 I0.0 J2.0
G1 Y35.7456
G3 X9.7467 Y37.3783 I-2.0 J0.0
G2 X9.538 Y37.7817 I0.2853 J0.4032
G3 Y37.7827 I-2.0 J0.0007
G2 X10.0378 Y38.2825 I0.4996 J0.0001
G3 X10.0392 I0.0004 J2.0
G2 X10.4727 Y38.0282 I0.0003 J-0.4962
G3 X12.2189 Y37.0033 I1.7462 J0.9751
G1 X20.0861
G3 X21.8319 Y38.0275 I0.0 J2.0
G2 X22.2666 Y38.2825 I0.4347 J-0.243
G3 X22.2672 I0.0002 J2.0
G2 X22.767 Y37.7827 I0.0001 J-0.4996
G3 Y37.7821 I2.0 J-0.0004
G2 X22.5338 Y37.3621 I-0.4949 J-0.0001
G3 X21.5915 Y35.6647 I1.0577 J-1.6974
G1 Y29.0032
G3 X23.5915 Y27.0032 I2.0 J0.0
G1 X25.0925
G3 X26.8493 Y28.0472 I0.0 J2.0
G2 X27.2885 Y28.3082 I0.4392 J-0.239
G3 X27.2895 I0.0006 J2.0
G2 X27.7892 Y27.8085 I0.0001 J-0.4996
G3 Y27.807 I2.0 J-0.0004
G2 X27.6017 Y27.4197 I-0.4932 J-0.0003
G3 X26.8415 Y25.8503 I1.2397 J-1.5694
G1 Y6.7651
G3 X27.6016 Y5.1958 I2.0 J0.0
G2 X27.7892 Y4.8082 I-0.306 J-0.3874
G3 Y4.8069 I2.0 J-0.001
G2 X27.2896 Y4.3072 I-0.4996 J-0.0001
G1 X27.2895
G1 X27.2897
G1 X27.2896
G2 X26.8659 Y4.5451 I0.0002 J0.4965
G3 X25.1587 Y5.5033 I-1.7073 J-1.0418
G1 X14.9416
G0 Z3.0
G0 Y15.1033
G1 F50.0 Z-3.0
G1 F80.0 Y19.2956
G3 X16.0915 Y20.1539 I-6.35 J9.7076
G3 X17.2415 Y19.2956 I7.5 J8.8493
G1 Y15.1033
G1 X14.9416
G1 F50.0 Y13.5033
G1 F80.0 X13.3416
G1 Y20.2034
G3 X16.0915 Y22.3888 I-4.75 J8.7998
G3 X18.8415 Y20.2034 I7.5 J6.6144
G1 Y13.5033
G1 X14.9416
G1 F50.0 Y11.9033
G1 F80.0 X11.7416
G1 Y21.2162
G3 X16.0915 Y25.2203 I-3.15 J7.787
G3 X20.4415 Y21.2162 I7.5 J3.7829
G1 Y11.9033
G1 X14.9416
G1 F50.0 Y10.3033
G1 F80.0 X10.1416
G1 Y22.3822
G3 X15.3916 Y29.0032 I-1.55 J6.621
G1 Y32.2033
G1 X16.7915
G1 Y29.0032
G3 X22.0415 Y22.3822 I6.8 J0.0
G1 Y10.3033
G1 X14.9416
G1 F50.0 Y8.7033
G1 F80.0 X8.5416
G1 Y23.8032
G1 X8.5916
G3 X13.7916 Y29.0032 I0.0 J5.2
G1 Y33.8033
G1 X18.3915
G1 Y29.0032
G3 X23.5915 Y23.8032 I5.2 J0.0
G1 X23.6415
G1 Y8.7033
G1 X14.9416
G1 F50.0 Y7.1033
G1 F80.0 X6.9416
G1 Y25.4032
G1 X8.5916
G3 X12.1916 Y29.0032 I0.0 J3.6
G1 Y35.4034
G3 X12.2189 Y35.4033 I0.0273 J3.5999
G1 X19.9915
G1 Y29.0032
G3 X23.5915 Y25.4032 I3.6 J0.0
G1 X25.0925
G3 X25.2415 Y25.4063 I0.0 J3.6
G1 Y7.1024
G3 X25.1587 Y7.1033 I-0.0828 J-3.599
G1 X14.9416
G1 F50.0 Y5.5033
G1 F80.0 X6.7584
G3 X5.0508 Y4.5445 I0.0 J-2.0
G2 X4.6281 Y4.3072 I-0.4226 J0.2577
G3 X4.6276 I-0.0002 J-2.0
G2 X4.1279 Y4.8069 I-0.0001 J0.4996
G1 Y4.8072
G2 X4.3689 Y5.2325 I0.4957 J0.0
G3 X5.3416 Y6.9484 I-1.0274 J1.716
G1 Y25.667
G3 X4.369 Y27.3829 I-2.0 J0.0
G2 X4.1279 Y27.8083 I0.2547 J0.4254
G1 Y27.8085
G2 X4.6276 Y28.3082 I0.4996 J0.0001
G3 X4.6291 I0.0004 J2.0
G2 X5.0676 Y28.0477 I0.0003 J-0.4988
G3 X6.8246 Y27.0032 I1.757 J0.9555
G1 X8.5916
G3 X10.5916 Y29.0032 I0.0 J2.0
G1 Y35.7456
G3 X9.7467 Y37.3783 I-2.0 J0.0
G2 X9.538 Y37.7817 I0.2853 J0.4032
G3 Y37.7827 I-2.0 J0.0007
G2 X10.0378 Y38.2825 I0.4996 J0.0001
G3 X10.0392 I0.0004 J2.0
G2 X10.4727 Y38.0282 I0.0003 J-0.4962
G3 X12.2189 Y37.0033 I1.7462 J0.9751
G1 X20.0861
G3 X21.8319 Y38.0275 I0.0 J2.0
G2 X22.2666 Y38.2825 I0.4347 J-0.243
G3 X22.2672 I0.0002 J2.0
G2 X22.767 Y37.7827 I0.0001 J-0.4996
G3 Y37.7821 I2.0 J-0.0004
G2 X22.5338 Y37.3621 I-0.4949 J-0.0001
G3 X21.5915 Y35.6647 I1.0577 J-1.6974
G1 Y29.0032
G3 X23.5915 Y27.0032 I2.0 J0.0
G1 X25.0925
G3 X26.8493 Y28.0472 I0.0 J2.0
G2 X27.2885 Y28.3082 I0.4392 J-0.239
G3 X27.2895 I0.0006 J2.0
G2 X27.7892 Y27.8085 I0.0001 J-0.4996
G3 Y27.807 I2.0 J-0.0004
G2 X27.6017 Y27.4197 I-0.4932 J-0.0003
G3 X26.8415 Y25.8503 I1.2397 J-1.5694
G1 Y6.7651
G3 X27.6016 Y5.1958 I2.0 J0.0
G2 X27.7892 Y4.8082 I-0.306 J-0.3874
G3 Y4.8069 I2.0 J-0.001
G2 X27.2896 Y4.3072 I-0.4996 J-0.0001
G1 X27.2895
G1 X27.2897
G1 X27.2896
G2 X26.8659 Y4.5451 I0.0002 J0.4965
G3 X25.1587 Y5.5033 I-1.7073 J-1.0418
G1 X14.9416
G0 Z3.0
G0 Y15.1033
G1 F50.0 Z-4.0
G1 F80.0 Y19.2956
G3 X16.0915 Y20.1539 I-6.35 J9.7076
G3 X17.2415 Y19.2956 I7.5 J8.8493
G1 Y15.1033
G1 X14.9416
G1 F50.0 Y13.5033
G1 F80.0 X13.3416
G1 Y20.2034
G3 X16.0915 Y22.3888 I-4.75 J8.7998
G3 X18.8415 Y20.2034 I7.5 J6.6144
G1 Y13.5033
G1 X14.9416
G1 F50.0 Y11.9033
G1 F80.0 X11.7416
G1 Y21.2162
G3 X16.0915 Y25.2203 I-3.15 J7.787
G3 X20.4415 Y21.2162 I7.5 J3.7829
G1 Y11.9033
G1 X14.9416
G1 F50.0 Y10.3033
G1 F80.0 X10.1416
G1 Y22.3822
G3 X15.3916 Y29.0032 I-1.55 J6.621
G1 Y32.2033
G1 X16.7915
G1 Y29.0032
G3 X22.0415 Y22.3822 I6.8 J0.0
G1 Y10.3033
G1 X14.9416
G1 F50.0 Y8.7033
G1 F80.0 X8.5416
G1 Y23.8032
G1 X8.5916
G3 X13.7916 Y29.0032 I0.0 J5.2
G1 Y33.8033
G1 X18.3915
G1 Y29.0032
G3 X23.5915 Y23.8032 I5.2 J0.0
G1 X23.6415
G1 Y8.7033
G1 X14.9416
G1 F50.0 Y7.1033
G1 F80.0 X6.9416
G1 Y25.4032
G1 X8.5916
G3 X12.1916 Y29.0032 I0.0 J3.6
G1 Y35.4034
G3 X12.2189 Y35.4033 I0.0273 J3.5999
G1 X19.9915
G1 Y29.0032
G3 X23.5915 Y25.4032 I3.6 J0.0
G1 X25.0925
G3 X25.2415 Y25.4063 I0.0 J3.6
G1 Y7.1024
G3 X25.1587 Y7.1033 I-0.0828 J-3.599
G1 X14.9416
G1 F50.0 Y5.5033
G1 F80.0 X6.7584
G3 X5.0508 Y4.5445 I0.0 J-2.0
G2 X4.6281 Y4.3072 I-0.4226 J0.2577
G3 X4.6276 I-0.0002 J-2.0
G2 X4.1279 Y4.8069 I-0.0001 J0.4996
G1 Y4.8072
G2 X4.3689 Y5.2325 I0.4957 J0.0
G3 X5.3416 Y6.9484 I-1.0274 J1.716
G1 Y25.667
G3 X4.369 Y27.3829 I-2.0 J0.0
G2 X4.1279 Y27.8083 I0.2547 J0.4254
G1 Y27.8085
G2 X4.6276 Y28.3082 I0.4996 J0.0001
G3 X4.6291 I0.0004 J2.0
G2 X5.0676 Y28.0477 I0.0003 J-0.4988
G3 X6.8246 Y27.0032 I1.757 J0.9555
G1 X8.5916
G3 X10.5916 Y29.0032 I0.0 J2.0
G1 Y35.7456
G3 X9.7467 Y37.3783 I-2.0 J0.0
G2 X9.538 Y37.7817 I0.2853 J0.4032
G3 Y37.7827 I-2.0 J0.0007
G2 X10.0378 Y38.2825 I0.4996 J0.0001
G3 X10.0392 I0.0004 J2.0
G2 X10.4727 Y38.0282 I0.0003 J-0.4962
G3 X12.2189 Y37.0033 I1.7462 J0.9751
G1 X20.0861
G3 X21.8319 Y38.0275 I0.0 J2.0
G2 X22.2666 Y38.2825 I0.4347 J-0.243
G3 X22.2672 I0.0002 J2.0
G2 X22.767 Y37.7827 I0.0001 J-0.4996
G3 Y37.7821 I2.0 J-0.0004
G2 X22.5338 Y37.3621 I-0.4949 J-0.0001
G3 X21.5915 Y35.6647 I1.0577 J-1.6974
G1 Y29.0032
G3 X23.5915 Y27.0032 I2.0 J0.0
G1 X25.0925
G3 X26.8493 Y28.0472 I0.0 J2.0
G2 X27.2885 Y28.3082 I0.4392 J-0.239
G3 X27.2895 I0.0006 J2.0
G2 X27.7892 Y27.8085 I0.0001 J-0.4996
G3 Y27.807 I2.0 J-0.0004
G2 X27.6017 Y27.4197 I-0.4932 J-0.0003
G3 X26.8415 Y25.8503 I1.2397 J-1.5694
G1 Y6.7651
G3 X27.6016 Y5.1958 I2.0 J0.0
G2 X27.7892 Y4.8082 I-0.306 J-0.3874
G3 Y4.8069 I2.0 J-0.001
G2 X27.2896 Y4.3072 I-0.4996 J-0.0001
G1 X27.2895
G1 X27.2897
G1 X27.2896
G2 X26.8659 Y4.5451 I0.0002 J0.4965
G3 X25.1587 Y5.5033 I-1.7073 J-1.0418
G1 X14.9416
G0 Z3.0
G0 Y15.1033
G1 F50.0 Z-5.0
G1 F80.0 Y19.2956
G3 X16.0915 Y20.1539 I-6.35 J9.7076
G3 X17.2415 Y19.2956 I7.5 J8.8493
G1 Y15.1033
G1 X14.9416
G1 F50.0 Y13.5033
G1 F80.0 X13.3416
G1 Y20.2034
G3 X16.0915 Y22.3888 I-4.75 J8.7998
G3 X18.8415 Y20.2034 I7.5 J6.6144
G1 Y13.5033
G1 X14.9416
G1 F50.0 Y11.9033
G1 F80.0 X11.7416
G1 Y21.2162
G3 X16.0915 Y25.2203 I-3.15 J7.787
G3 X20.4415 Y21.2162 I7.5 J3.7829
G1 Y11.9033
G1 X14.9416
G1 F50.0 Y10.3033
G1 F80.0 X10.1416
G1 Y22.3822
G3 X15.3916 Y29.0032 I-1.55 J6.621
G1 Y32.2033
G1 X16.7915
G1 Y29.0032
G3 X22.0415 Y22.3822 I6.8 J0.0
G1 Y10.3033
G1 X14.9416
G1 F50.0 Y8.7033
G1 F80.0 X8.5416
G1 Y23.8032
G1 X8.5916
G3 X13.7916 Y29.0032 I0.0 J5.2
G1 Y33.8033
G1 X18.3915
G1 Y29.0032
G3 X23.5915 Y23.8032 I5.2 J0.0
G1 X23.6415
G1 Y8.7033
G1 X14.9416
G1 F50.0 Y7.1033
G1 F80.0 X6.9416
G1 Y25.4032
G1 X8.5916
G3 X12.1916 Y29.0032 I0.0 J3.6
G1 Y35.4034
G3 X12.2189 Y35.4033 I0.0273 J3.5999
G1 X19.9915
G1 Y29.0032
G3 X23.5915 Y25.4032 I3.6 J0.0
G1 X25.0925
G3 X25.2415 Y25.4063 I0.0 J3.6
G1 Y7.1024
G3 X25.1587 Y7.1033 I-0.0828 J-3.599
G1 X14.9416
G1 F50.0 Y5.5033
G1 F80.0 X6.7584
G3 X5.0508 Y4.5445 I0.0 J-2.0
G2 X4.6281 Y4.3072 I-0.4226 J0.2577
G3 X4.6276 I-0.0002 J-2.0
G2 X4.1279 Y4.8069 I-0.0001 J0.4996
G1 Y4.8072
G2 X4.3689 Y5.2325 I0.4957 J0.0
G3 X5.3416 Y6.9484 I-1.0274 J1.716
G1 Y25.667
G3 X4.369 Y27.3829 I-2.0 J0.0
G2 X4.1279 Y27.8083 I0.2547 J0.4254
G1 Y27.8085
G2 X4.6276 Y28.3082 I0.4996 J0.0001
G3 X4.6291 I0.0004 J2.0
G2 X5.0676 Y28.0477 I0.0003 J-0.4988
G3 X6.8246 Y27.0032 I1.757 J0.9555
G1 X8.5916
G3 X10.5916 Y29.0032 I0.0 J2.0
G1 Y35.7456
G3 X9.7467 Y37.3783 I-2.0 J0.0
G2 X9.538 Y37.7817 I0.2853 J0.4032
G3 Y37.7827 I-2.0 J0.0007
G2 X10.0378 Y38.2825 I0.4996 J0.0001
G3 X10.0392 I0.0004 J2.0
G2 X10.4727 Y38.0282 I0.0003 J-0.4962
G3 X12.2189 Y37.0033 I1.7462 J0.9751
G1 X20.0861
G3 X21.8319 Y38.0275 I0.0 J2.0
G2 X22.2666 Y38.2825 I0.4347 J-0.243
G3 X22.2672 I0.0002 J2.0
G2 X22.767 Y37.7827 I0.0001 J-0.4996
G3 Y37.7821 I2.0 J-0.0004
G2 X22.5338 Y37.3621 I-0.4949 J-0.0001
G3 X21.5915 Y35.6647 I1.0577 J-1.6974
G1 Y29.0032
G3 X23.5915 Y27.0032 I2.0 J0.0
G1 X25.0925
G3 X26.8493 Y28.0472 I0.0 J2.0
G2 X27.2885 Y28.3082 I0.4392 J-0.239
G3 X27.2895 I0.0006 J2.0
G2 X27.7892 Y27.8085 I0.0001 J-0.4996
G3 Y27.807 I2.0 J-0.0004
G2 X27.6017 Y27.4197 I-0.4932 J-0.0003
G3 X26.8415 Y25.8503 I1.2397 J-1.5694
G1 Y6.7651
G3 X27.6016 Y5.1958 I2.0 J0.0
G2 X27.7892 Y4.8082 I-0.306 J-0.3874
G3 Y4.8069 I2.0 J-0.001
G2 X27.2896 Y4.3072 I-0.4996 J-0.0001
G1 X27.2895
G1 X27.2897
G1 X27.2896
G2 X26.8659 Y4.5451 I0.0002 J0.4965
G3 X25.1587 Y5.5033 I-1.7073 J-1.0418
G1 X14.9416
( Pocket2 )
G0 Z3.0
( T14 : 4.0 )
T14 M6
M3 S1000
G0 X15.6586 Y51.8444
G1 F50.0 Z-1.0
G3 F70.0 X15.7411 Y51.6451 I0.2808 J-0.0004
G2 X15.7506 Y51.6357 I-3.6718 J-3.6821
G3 X15.9521 Y51.5522 I0.2012 J0.2008
G2 X15.9664 I0.0064 J-5.2
G3 X16.1652 Y51.6345 I0.0004 J0.2801
G2 X16.1755 Y51.6448 I3.6824 J-3.6715
G3 X16.2585 Y51.8452 I-0.1995 J0.2
G2 Y51.8592 I5.2 J0.0069
G3 X16.1757 Y52.059 I-0.2817 J0.0004
G2 X16.1659 Y52.0688 I3.6718 J3.6821
G3 X15.965 Y52.1521 I-0.2006 J-0.2001
G2 X15.9516 I-0.0064 J5.2
G3 X15.7513 Y52.0691 I-0.0004 J-0.2824
G2 X15.7424 Y52.0602 I-3.6818 J3.6721
G3 X15.6586 Y51.858 I0.2014 J-0.2018
G2 Y51.8444 I-5.2 J-0.0059
G1 F50.0 X14.0586 Y51.8467
G3 F70.0 X14.6114 Y50.5121 I1.8808 J-0.0028
G2 X14.6179 Y50.5056 I-2.542 J-2.5492
G3 X15.9541 Y49.9522 I1.3339 J1.3308
G2 X15.964 I0.0044 J-3.6
G3 X17.2982 Y50.5049 I0.0028 J1.8801
G2 X17.3054 Y50.512 I2.5494 J-2.5418
G3 X17.8585 Y51.8473 I-1.3294 J1.3328
G2 Y51.857 I3.6 J0.0048
G3 X17.3055 Y53.192 I-1.8817 J0.0026
G2 X17.2987 Y53.1988 I2.542 J2.5491
G3 X15.963 Y53.7521 I-1.3334 J-1.33
G2 X15.9537 I-0.0044 J3.6
G3 X14.6184 Y53.199 I-0.0025 J-1.8824
G2 X14.6122 Y53.1928 I-2.5489 J2.5422
G3 X14.0586 Y51.8562 I1.3315 J-1.3345
G2 Y51.8467 I-3.6 J-0.0041
G1 F50.0 X12.4586 Y51.8491
G3 F70.0 X13.4816 Y49.3792 I3.4808 J-0.0052
G2 X13.4852 Y49.3756 I-1.4122 J-1.4162
G3 X15.9561 Y48.3522 I2.4666 J2.4609
G2 X15.9616 I0.0025 J-2.0
G3 X18.4313 Y49.3752 I0.0053 J3.4801
G2 X18.4353 Y49.3791 I1.4163 J-1.4121
G3 X19.4585 Y51.8495 I-2.4592 J2.4657
G2 Y51.8548 I2.0 J0.0027
G3 X18.4353 Y54.3249 I-3.4817 J0.0047
G2 X18.4315 Y54.3287 I1.4122 J1.4162
G3 X15.961 Y55.3521 I-2.4662 J-2.46
G2 X15.9559 I-0.0025 J2.0
G3 X13.4855 Y54.3289 I-0.0047 J-3.4824
G2 X13.4821 Y54.3254 I-1.4161 J1.4123
G3 X12.4586 Y51.8544 I2.4616 J-2.4671
G2 Y51.8491 I-2.0 J-0.0023
G0 Z3.0
G0 X15.6586 Y51.8444
G1 F50.0 Z-2.0
G3 F70.0 X15.7411 Y51.6451 I0.2808 J-0.0004
G2 X15.7506 Y51.6357 I-3.6718 J-3.6821
G3 X15.9521 Y51.5522 I0.2012 J0.2008
G2 X15.9664 I0.0064 J-5.2
G3 X16.1652 Y51.6345 I0.0004 J0.2801
G2 X16.1755 Y51.6448 I3.6824 J-3.6715
G3 X16.2585 Y51.8452 I-0.1995 J0.2
G2 Y51.8592 I5.2 J0.0069
G3 X16.1757 Y52.059 I-0.2817 J0.0004
G2 X16.1659 Y52.0688 I3.6718 J3.6821
G3 X15.965 Y52.1521 I-0.2006 J-0.2001
G2 X15.9516 I-0.0064 J5.2
G3 X15.7513 Y52.0691 I-0.0004 J-0.2824
G2 X15.7424 Y52.0602 I-3.6818 J3.6721
G3 X15.6586 Y51.858 I0.2014 J-0.2018
G2 Y51.8444 I-5.2 J-0.0059
G1 F50.0 X14.0586 Y51.8467
G3 F70.0 X14.6114 Y50.5121 I1.8808 J-0.0028
G2 X14.6179 Y50.5056 I-2.542 J-2.5492
G3 X15.9541 Y49.9522 I1.3339 J1.3308
G2 X15.964 I0.0044 J-3.6
G3 X17.2982 Y50.5049 I0.0028 J1.8801
G2 X17.3054 Y50.512 I2.5494 J-2.5418
G3 X17.8585 Y51.8473 I-1.3294 J1.3328
G2 Y51.857 I3.6 J0.0048
G3 X17.3055 Y53.192 I-1.8817 J0.0026
G2 X17.2987 Y53.1988 I2.542 J2.5491
G3 X15.963 Y53.7521 I-1.3334 J-1.33
G2 X15.9537 I-0.0044 J3.6
G3 X14.6184 Y53.199 I-0.0025 J-1.8824
G2 X14.6122 Y53.1928 I-2.5489 J2.5422
G3 X14.0586 Y51.8562 I1.3315 J-1.3345
G2 Y51.8467 I-3.6 J-0.0041
G1 F50.0 X12.4586 Y51.8491
G3 F70.0 X13.4816 Y49.3792 I3.4808 J-0.0052
G2 X13.4852 Y49.3756 I-1.4122 J-1.4162
G3 X15.9561 Y48.3522 I2.4666 J2.4609
G2 X15.9616 I0.0025 J-2.0
G3 X18.4313 Y49.3752 I0.0053 J3.4801
G2 X18.4353 Y49.3791 I1.4163 J-1.4121
G3 X19.4585 Y51.8495 I-2.4592 J2.4657
G2 Y51.8548 I2.0 J0.0027
G3 X18.4353 Y54.3249 I-3.4817 J0.0047
G2 X18.4315 Y54.3287 I1.4122 J1.4162
G3 X15.961 Y55.3521 I-2.4662 J-2.46
G2 X15.9559 I-0.0025 J2.0
G3 X13.4855 Y54.3289 I-0.0047 J-3.4824
G2 X13.4821 Y54.3254 I-1.4161 J1.4123
G3 X12.4586 Y51.8544 I2.4616 J-2.4671
G2 Y51.8491 I-2.0 J-0.0023
G0 Z3.0
G0 X15.6586 Y51.8444
G1 F50.0 Z-3.0
G3 F70.0 X15.7411 Y51.6451 I0.2808 J-0.0004
G2 X15.7506 Y51.6357 I-3.6718 J-3.6821
G3 X15.9521 Y51.5522 I0.2012 J0.2008
G2 X15.9664 I0.0064 J-5.2
G3 X16.1652 Y51.6345 I0.0004 J0.2801
G2 X16.1755 Y51.6448 I3.6824 J-3.6715
G3 X16.2585 Y51.8452 I-0.1995 J0.2
G2 Y51.8592 I5.2 J0.0069
G3 X16.1757 Y52.059 I-0.2817 J0.0004
G2 X16.1659 Y52.0688 I3.6718 J3.6821
G3 X15.965 Y52.1521 I-0.2006 J-0.2001
G2 X15.9516 I-0.0064 J5.2
G3 X15.7513 Y52.0691 I-0.0004 J-0.2824
G2 X15.7424 Y52.0602 I-3.6818 J3.6721
G3 X15.6586 Y51.858 I0.2014 J-0.2018
G2 Y51.8444 I-5.2 J-0.0059
G1 F50.0 X14.0586 Y51.8467
G3 F70.0 X14.6114 Y50.5121 I1.8808 J-0.0028
G2 X14.6179 Y50.5056 I-2.542 J-2.5492
G3 X15.9541 Y49.9522 I1.3339 J1.3308
G2 X15.964 I0.0044 J-3.6
G3 X17.2982 Y50.5049 I0.0028 J1.8801
G2 X17.3054 Y50.512 I2.5494 J-2.5418
G3 X17.8585 Y51.8473 I-1.3294 J1.3328
G2 Y51.857 I3.6 J0.0048
G3 X17.3055 Y53.192 I-1.8817 J0.0026
G2 X17.2987 Y53.1988 I2.542 J2.5491
G3 X15.963 Y53.7521 I-1.3334 J-1.33
G2 X15.9537 I-0.0044 J3.6
G3 X14.6184 Y53.199 I-0.0025 J-1.8824
G2 X14.6122 Y53.1928 I-2.5489 J2.5422
G3 X14.0586 Y51.8562 I1.3315 J-1.3345
G2 Y51.8467 I-3.6 J-0.0041
G1 F50.0 X12.4586 Y51.8491
G3 F70.0 X13.4816 Y49.3792 I3.4808 J-0.0052
G2 X13.4852 Y49.3756 I-1.4122 J-1.4162
G3 X15.9561 Y48.3522 I2.4666 J2.4609
G2 X15.9616 I0.0025 J-2.0
G3 X18.4313 Y49.3752 I0.0053 J3.4801
G2 X18.4353 Y49.3791 I1.4163 J-1.4121
G3 X19.4585 Y51.8495 I-2.4592 J2.4657
G2 Y51.8548 I2.0 J0.0027
G3 X18.4353 Y54.3249 I-3.4817 J0.0047
G2 X18.4315 Y54.3287 I1.4122 J1.4162
G3 X15.961 Y55.3521 I-2.4662 J-2.46
G2 X15.9559 I-0.0025 J2.0
G3 X13.4855 Y54.3289 I-0.0047 J-3.4824
G2 X13.4821 Y54.3254 I-1.4161 J1.4123
G3 X12.4586 Y51.8544 I2.4616 J-2.4671
G2 Y51.8491 I-2.0 J-0.0023
G0 Z3.0
G0 X15.6586 Y51.8444
G1 F50.0 Z-4.0
G3 F70.0 X15.7411 Y51.6451 I0.2808 J-0.0004
G2 X15.7506 Y51.6357 I-3.6718 J-3.6821
G3 X15.9521 Y51.5522 I0.2012 J0.2008
G2 X15.9664 I0.0064 J-5.2
G3 X16.1652 Y51.6345 I0.0004 J0.2801
G2 X16.1755 Y51.6448 I3.6824 J-3.6715
G3 X16.2585 Y51.8452 I-0.1995 J0.2
G2 Y51.8592 I5.2 J0.0069
G3 X16.1757 Y52.059 I-0.2817 J0.0004
G2 X16.1659 Y52.0688 I3.6718 J3.6821
G3 X15.965 Y52.1521 I-0.2006 J-0.2001
G2 X15.9516 I-0.0064 J5.2
G3 X15.7513 Y52.0691 I-0.0004 J-0.2824
G2 X15.7424 Y52.0602 I-3.6818 J3.6721
G3 X15.6586 Y51.858 I0.2014 J-0.2018
G2 Y51.8444 I-5.2 J-0.0059
G1 F50.0 X14.0586 Y51.8467
G3 F70.0 X14.6114 Y50.5121 I1.8808 J-0.0028
G2 X14.6179 Y50.5056 I-2.542 J-2.5492
G3 X15.9541 Y49.9522 I1.3339 J1.3308
G2 X15.964 I0.0044 J-3.6
G3 X17.2982 Y50.5049 I0.0028 J1.8801
G2 X17.3054 Y50.512 I2.5494 J-2.5418
G3 X17.8585 Y51.8473 I-1.3294 J1.3328
G2 Y51.857 I3.6 J0.0048
G3 X17.3055 Y53.192 I-1.8817 J0.0026
G2 X17.2987 Y53.1988 I2.542 J2.5491
G3 X15.963 Y53.7521 I-1.3334 J-1.33
G2 X15.9537 I-0.0044 J3.6
G3 X14.6184 Y53.199 I-0.0025 J-1.8824
G2 X14.6122 Y53.1928 I-2.5489 J2.5422
G3 X14.0586 Y51.8562 I1.3315 J-1.3345
G2 Y51.8467 I-3.6 J-0.0041
G1 F50.0 X12.4586 Y51.8491
G3 F70.0 X13.4816 Y49.3792 I3.4808 J-0.0052
G2 X13.4852 Y49.3756 I-1.4122 J-1.4162
G3 X15.9561 Y48.3522 I2.4666 J2.4609
G2 X15.9616 I0.0025 J-2.0
G3 X18.4313 Y49.3752 I0.0053 J3.4801
G2 X18.4353 Y49.3791 I1.4163 J-1.4121
G3 X19.4585 Y51.8495 I-2.4592 J2.4657
G2 Y51.8548 I2.0 J0.0027
G3 X18.4353 Y54.3249 I-3.4817 J0.0047
G2 X18.4315 Y54.3287 I1.4122 J1.4162
G3 X15.961 Y55.3521 I-2.4662 J-2.46
G2 X15.9559 I-0.0025 J2.0
G3 X13.4855 Y54.3289 I-0.0047 J-3.4824
G2 X13.4821 Y54.3254 I-1.4161 J1.4123
G3 X12.4586 Y51.8544 I2.4616 J-2.4671
G2 Y51.8491 I-2.0 J-0.0023
G0 Z3.0
M5
M30
