( Made using CamBam - http://www.cambam.co.uk )
( head stepper mount 9/28/2013 10:34:21 AM )
( T9 : 3.0 )
G21 G90 G64 G40
G0 Z3.0
( T9 : 3.0 )
T9 M6
( 3mm drill )
G17
M3 S1000
G0 X5.4998 Y36.4991
G98
G83 X5.4998 Y36.4991 Z-8.0 Q2.0 R3.0 F50.0
G83 X20.9998 Y20.9991 Z-8.0
G83 X36.4998 Y36.4991 Z-8.0
G83 X57.0001 Y20.9996 Z-8.0
G83 X77.0 Y20.9991 Z-8.0
G83 X36.4998 Y5.4991 Z-8.0
G83 X5.4998 Z-8.0
G80
G0 Z3.0
M5
M30
