( Made using CamBam - http://www.cambam.co.uk )
( head stepper mount 9/28/2013 10:34:34 AM )
( T4 : 4.0 )
G21 G90 G64 G40
G0 Z3.0
( T4 : 4.0 )
T4 M6
( Pocket1 )
G17
M3 S1000
G0 X60.0 Y21.0023
G0 Z1.0
G1 F50.0 Z-1.0
G3 F120.0 X59.8546 Y21.3561 I-0.5014 J0.0007
G2 X59.8514 Y21.3593 I1.42 J1.4084
G3 X59.5154 Y21.4995 I-0.3356 J-0.3313
G2 X59.5137 I-0.0018 J2.0
G1 X54.4863
G2 X54.4847 I0.0 J2.0
G3 X54.1488 Y21.3592 I-0.0004 J-0.4716
G2 X54.1444 Y21.3548 I-1.4232 J1.4051
G3 X54.0003 Y21.0041 I0.3519 J-0.3496
G2 Y20.9971 I-2.0 J-0.0045
G3 X54.1458 Y20.6429 I0.5022 J-0.0006
G2 X54.149 Y20.6397 I-1.4203 J-1.4081
G3 X54.4845 Y20.4996 I0.3351 J0.3307
G2 X54.4863 I0.0018 J-2.0
G1 X59.5137
G2 X59.5154 I0.0 J-2.0
G3 X59.8515 Y20.6399 I0.0004 J0.4718
G2 X59.8557 Y20.6443 I1.4231 J-1.4052
G3 X60.0 Y20.9953 I-0.3522 J0.3499
G2 Y21.0023 I2.0 J0.0043
G1 F50.0 Z-2.0
G3 F120.0 X59.8546 Y21.3561 I-0.5014 J0.0007
G2 X59.8514 Y21.3593 I1.42 J1.4084
G3 X59.5154 Y21.4995 I-0.3356 J-0.3313
G2 X59.5137 I-0.0018 J2.0
G1 X54.4863
G2 X54.4847 I0.0 J2.0
G3 X54.1488 Y21.3592 I-0.0004 J-0.4716
G2 X54.1444 Y21.3548 I-1.4232 J1.4051
G3 X54.0003 Y21.0041 I0.3519 J-0.3496
G2 Y20.9971 I-2.0 J-0.0045
G3 X54.1458 Y20.6429 I0.5022 J-0.0006
G2 X54.149 Y20.6397 I-1.4203 J-1.4081
G3 X54.4845 Y20.4996 I0.3351 J0.3307
G2 X54.4863 I0.0018 J-2.0
G1 X59.5137
G2 X59.5154 I0.0 J-2.0
G3 X59.8515 Y20.6399 I0.0004 J0.4718
G2 X59.8557 Y20.6443 I1.4231 J-1.4052
G3 X60.0 Y20.9953 I-0.3522 J0.3499
G2 Y21.0023 I2.0 J0.0043
G1 F50.0 Z-3.0
G3 F120.0 X59.8546 Y21.3561 I-0.5014 J0.0007
G2 X59.8514 Y21.3593 I1.42 J1.4084
G3 X59.5154 Y21.4995 I-0.3356 J-0.3313
G2 X59.5137 I-0.0018 J2.0
G1 X54.4863
G2 X54.4847 I0.0 J2.0
G3 X54.1488 Y21.3592 I-0.0004 J-0.4716
G2 X54.1444 Y21.3548 I-1.4232 J1.4051
G3 X54.0003 Y21.0041 I0.3519 J-0.3496
G2 Y20.9971 I-2.0 J-0.0045
G3 X54.1458 Y20.6429 I0.5022 J-0.0006
G2 X54.149 Y20.6397 I-1.4203 J-1.4081
G3 X54.4845 Y20.4996 I0.3351 J0.3307
G2 X54.4863 I0.0018 J-2.0
G1 X59.5137
G2 X59.5154 I0.0 J-2.0
G3 X59.8515 Y20.6399 I0.0004 J0.4718
G2 X59.8557 Y20.6443 I1.4231 J-1.4052
G3 X60.0 Y20.9953 I-0.3522 J0.3499
G2 Y21.0023 I2.0 J0.0043
G1 F50.0 Z-4.0
G3 F120.0 X59.8546 Y21.3561 I-0.5014 J0.0007
G2 X59.8514 Y21.3593 I1.42 J1.4084
G3 X59.5154 Y21.4995 I-0.3356 J-0.3313
G2 X59.5137 I-0.0018 J2.0
G1 X54.4863
G2 X54.4847 I0.0 J2.0
G3 X54.1488 Y21.3592 I-0.0004 J-0.4716
G2 X54.1444 Y21.3548 I-1.4232 J1.4051
G3 X54.0003 Y21.0041 I0.3519 J-0.3496
G2 Y20.9971 I-2.0 J-0.0045
G3 X54.1458 Y20.6429 I0.5022 J-0.0006
G2 X54.149 Y20.6397 I-1.4203 J-1.4081
G3 X54.4845 Y20.4996 I0.3351 J0.3307
G2 X54.4863 I0.0018 J-2.0
G1 X59.5137
G2 X59.5154 I0.0 J-2.0
G3 X59.8515 Y20.6399 I0.0004 J0.4718
G2 X59.8557 Y20.6443 I1.4231 J-1.4052
G3 X60.0 Y20.9953 I-0.3522 J0.3499
G2 Y21.0023 I2.0 J0.0043
G1 F50.0 Z-5.0
G3 F120.0 X59.8546 Y21.3561 I-0.5014 J0.0007
G2 X59.8514 Y21.3593 I1.42 J1.4084
G3 X59.5154 Y21.4995 I-0.3356 J-0.3313
G2 X59.5137 I-0.0018 J2.0
G1 X54.4863
G2 X54.4847 I0.0 J2.0
G3 X54.1488 Y21.3592 I-0.0004 J-0.4716
G2 X54.1444 Y21.3548 I-1.4232 J1.4051
G3 X54.0003 Y21.0041 I0.3519 J-0.3496
G2 Y20.9971 I-2.0 J-0.0045
G3 X54.1458 Y20.6429 I0.5022 J-0.0006
G2 X54.149 Y20.6397 I-1.4203 J-1.4081
G3 X54.4845 Y20.4996 I0.3351 J0.3307
G2 X54.4863 I0.0018 J-2.0
G1 X59.5137
G2 X59.5154 I0.0 J-2.0
G3 X59.8515 Y20.6399 I0.0004 J0.4718
G2 X59.8557 Y20.6443 I1.4231 J-1.4052
G3 X60.0 Y20.9953 I-0.3522 J0.3499
G2 Y21.0023 I2.0 J0.0043
G1 F50.0 Z-6.0
G3 F120.0 X59.8546 Y21.3561 I-0.5014 J0.0007
G2 X59.8514 Y21.3593 I1.42 J1.4084
G3 X59.5154 Y21.4995 I-0.3356 J-0.3313
G2 X59.5137 I-0.0018 J2.0
G1 X54.4863
G2 X54.4847 I0.0 J2.0
G3 X54.1488 Y21.3592 I-0.0004 J-0.4716
G2 X54.1444 Y21.3548 I-1.4232 J1.4051
G3 X54.0003 Y21.0041 I0.3519 J-0.3496
G2 Y20.9971 I-2.0 J-0.0045
G3 X54.1458 Y20.6429 I0.5022 J-0.0006
G2 X54.149 Y20.6397 I-1.4203 J-1.4081
G3 X54.4845 Y20.4996 I0.3351 J0.3307
G2 X54.4863 I0.0018 J-2.0
G1 X59.5137
G2 X59.5154 I0.0 J-2.0
G3 X59.8515 Y20.6399 I0.0004 J0.4718
G2 X59.8557 Y20.6443 I1.4231 J-1.4052
G3 X60.0 Y20.9953 I-0.3522 J0.3499
G2 Y21.0023 I2.0 J0.0043
G1 F50.0 Z-7.0
G3 F120.0 X59.8546 Y21.3561 I-0.5014 J0.0007
G2 X59.8514 Y21.3593 I1.42 J1.4084
G3 X59.5154 Y21.4995 I-0.3356 J-0.3313
G2 X59.5137 I-0.0018 J2.0
G1 X54.4863
G2 X54.4847 I0.0 J2.0
G3 X54.1488 Y21.3592 I-0.0004 J-0.4716
G2 X54.1444 Y21.3548 I-1.4232 J1.4051
G3 X54.0003 Y21.0041 I0.3519 J-0.3496
G2 Y20.9971 I-2.0 J-0.0045
G3 X54.1458 Y20.6429 I0.5022 J-0.0006
G2 X54.149 Y20.6397 I-1.4203 J-1.4081
G3 X54.4845 Y20.4996 I0.3351 J0.3307
G2 X54.4863 I0.0018 J-2.0
G1 X59.5137
G2 X59.5154 I0.0 J-2.0
G3 X59.8515 Y20.6399 I0.0004 J0.4718
G2 X59.8557 Y20.6443 I1.4231 J-1.4052
G3 X60.0 Y20.9953 I-0.3522 J0.3499
G2 Y21.0023 I2.0 J0.0043
G0 Z3.0
G0 X74.0001 Y21.0046
G0 Z1.0
G1 F50.0 Z-1.0
G3 F120.0 Y21.0036 I0.496 J0.0001
G2 Y20.9966 I-2.0 J-0.0045
G3 X74.1456 Y20.6424 I0.5022 J-0.0006
G2 X74.1488 Y20.6392 I-1.4203 J-1.4081
G3 X74.4843 Y20.4991 I0.3351 J0.3307
G2 X74.4861 I0.0018 J-2.0
G1 X79.5135
G2 X79.5152 I0.0 J-2.0
G3 X79.8513 Y20.6394 I0.0004 J0.4718
G2 X79.8556 Y20.6437 I1.4231 J-1.4052
G3 X79.9998 Y20.9947 I-0.3522 J0.3499
G2 Y21.0018 I2.0 J0.0043
G3 X79.8544 Y21.3555 I-0.5014 J0.0007
G2 X79.8512 Y21.3587 I1.42 J1.4084
G3 X79.5152 Y21.499 I-0.3356 J-0.3313
G2 X79.5135 I-0.0018 J2.0
G1 X74.4861
G2 X74.4846 I0.0 J2.0
G3 X74.1486 Y21.3587 I-0.0004 J-0.4716
G2 X74.1442 Y21.3543 I-1.4232 J1.4051
G3 X74.0001 Y21.0046 I0.3519 J-0.3496
G1 F50.0 Z-2.0
G3 F120.0 Y21.0036 I0.496 J0.0001
G2 Y20.9966 I-2.0 J-0.0045
G3 X74.1456 Y20.6424 I0.5022 J-0.0006
G2 X74.1488 Y20.6392 I-1.4203 J-1.4081
G3 X74.4843 Y20.4991 I0.3351 J0.3307
G2 X74.4861 I0.0018 J-2.0
G1 X79.5135
G2 X79.5152 I0.0 J-2.0
G3 X79.8513 Y20.6394 I0.0004 J0.4718
G2 X79.8556 Y20.6437 I1.4231 J-1.4052
G3 X79.9998 Y20.9947 I-0.3522 J0.3499
G2 Y21.0018 I2.0 J0.0043
G3 X79.8544 Y21.3555 I-0.5014 J0.0007
G2 X79.8512 Y21.3587 I1.42 J1.4084
G3 X79.5152 Y21.499 I-0.3356 J-0.3313
G2 X79.5135 I-0.0018 J2.0
G1 X74.4861
G2 X74.4846 I0.0 J2.0
G3 X74.1486 Y21.3587 I-0.0004 J-0.4716
G2 X74.1442 Y21.3543 I-1.4232 J1.4051
G3 X74.0001 Y21.0046 I0.3519 J-0.3496
G1 F50.0 Z-3.0
G3 F120.0 Y21.0036 I0.496 J0.0001
G2 Y20.9966 I-2.0 J-0.0045
G3 X74.1456 Y20.6424 I0.5022 J-0.0006
G2 X74.1488 Y20.6392 I-1.4203 J-1.4081
G3 X74.4843 Y20.4991 I0.3351 J0.3307
G2 X74.4861 I0.0018 J-2.0
G1 X79.5135
G2 X79.5152 I0.0 J-2.0
G3 X79.8513 Y20.6394 I0.0004 J0.4718
G2 X79.8556 Y20.6437 I1.4231 J-1.4052
G3 X79.9998 Y20.9947 I-0.3522 J0.3499
G2 Y21.0018 I2.0 J0.0043
G3 X79.8544 Y21.3555 I-0.5014 J0.0007
G2 X79.8512 Y21.3587 I1.42 J1.4084
G3 X79.5152 Y21.499 I-0.3356 J-0.3313
G2 X79.5135 I-0.0018 J2.0
G1 X74.4861
G2 X74.4846 I0.0 J2.0
G3 X74.1486 Y21.3587 I-0.0004 J-0.4716
G2 X74.1442 Y21.3543 I-1.4232 J1.4051
G3 X74.0001 Y21.0046 I0.3519 J-0.3496
G1 F50.0 Z-4.0
G3 F120.0 Y21.0036 I0.496 J0.0001
G2 Y20.9966 I-2.0 J-0.0045
G3 X74.1456 Y20.6424 I0.5022 J-0.0006
G2 X74.1488 Y20.6392 I-1.4203 J-1.4081
G3 X74.4843 Y20.4991 I0.3351 J0.3307
G2 X74.4861 I0.0018 J-2.0
G1 X79.5135
G2 X79.5152 I0.0 J-2.0
G3 X79.8513 Y20.6394 I0.0004 J0.4718
G2 X79.8556 Y20.6437 I1.4231 J-1.4052
G3 X79.9998 Y20.9947 I-0.3522 J0.3499
G2 Y21.0018 I2.0 J0.0043
G3 X79.8544 Y21.3555 I-0.5014 J0.0007
G2 X79.8512 Y21.3587 I1.42 J1.4084
G3 X79.5152 Y21.499 I-0.3356 J-0.3313
G2 X79.5135 I-0.0018 J2.0
G1 X74.4861
G2 X74.4846 I0.0 J2.0
G3 X74.1486 Y21.3587 I-0.0004 J-0.4716
G2 X74.1442 Y21.3543 I-1.4232 J1.4051
G3 X74.0001 Y21.0046 I0.3519 J-0.3496
G1 F50.0 Z-5.0
G3 F120.0 Y21.0036 I0.496 J0.0001
G2 Y20.9966 I-2.0 J-0.0045
G3 X74.1456 Y20.6424 I0.5022 J-0.0006
G2 X74.1488 Y20.6392 I-1.4203 J-1.4081
G3 X74.4843 Y20.4991 I0.3351 J0.3307
G2 X74.4861 I0.0018 J-2.0
G1 X79.5135
G2 X79.5152 I0.0 J-2.0
G3 X79.8513 Y20.6394 I0.0004 J0.4718
G2 X79.8556 Y20.6437 I1.4231 J-1.4052
G3 X79.9998 Y20.9947 I-0.3522 J0.3499
G2 Y21.0018 I2.0 J0.0043
G3 X79.8544 Y21.3555 I-0.5014 J0.0007
G2 X79.8512 Y21.3587 I1.42 J1.4084
G3 X79.5152 Y21.499 I-0.3356 J-0.3313
G2 X79.5135 I-0.0018 J2.0
G1 X74.4861
G2 X74.4846 I0.0 J2.0
G3 X74.1486 Y21.3587 I-0.0004 J-0.4716
G2 X74.1442 Y21.3543 I-1.4232 J1.4051
G3 X74.0001 Y21.0046 I0.3519 J-0.3496
G1 F50.0 Z-6.0
G3 F120.0 Y21.0036 I0.496 J0.0001
G2 Y20.9966 I-2.0 J-0.0045
G3 X74.1456 Y20.6424 I0.5022 J-0.0006
G2 X74.1488 Y20.6392 I-1.4203 J-1.4081
G3 X74.4843 Y20.4991 I0.3351 J0.3307
G2 X74.4861 I0.0018 J-2.0
G1 X79.5135
G2 X79.5152 I0.0 J-2.0
G3 X79.8513 Y20.6394 I0.0004 J0.4718
G2 X79.8556 Y20.6437 I1.4231 J-1.4052
G3 X79.9998 Y20.9947 I-0.3522 J0.3499
G2 Y21.0018 I2.0 J0.0043
G3 X79.8544 Y21.3555 I-0.5014 J0.0007
G2 X79.8512 Y21.3587 I1.42 J1.4084
G3 X79.5152 Y21.499 I-0.3356 J-0.3313
G2 X79.5135 I-0.0018 J2.0
G1 X74.4861
G2 X74.4846 I0.0 J2.0
G3 X74.1486 Y21.3587 I-0.0004 J-0.4716
G2 X74.1442 Y21.3543 I-1.4232 J1.4051
G3 X74.0001 Y21.0046 I0.3519 J-0.3496
G1 F50.0 Z-7.0
G3 F120.0 Y21.0036 I0.496 J0.0001
G2 Y20.9966 I-2.0 J-0.0045
G3 X74.1456 Y20.6424 I0.5022 J-0.0006
G2 X74.1488 Y20.6392 I-1.4203 J-1.4081
G3 X74.4843 Y20.4991 I0.3351 J0.3307
G2 X74.4861 I0.0018 J-2.0
G1 X79.5135
G2 X79.5152 I0.0 J-2.0
G3 X79.8513 Y20.6394 I0.0004 J0.4718
G2 X79.8556 Y20.6437 I1.4231 J-1.4052
G3 X79.9998 Y20.9947 I-0.3522 J0.3499
G2 Y21.0018 I2.0 J0.0043
G3 X79.8544 Y21.3555 I-0.5014 J0.0007
G2 X79.8512 Y21.3587 I1.42 J1.4084
G3 X79.5152 Y21.499 I-0.3356 J-0.3313
G2 X79.5135 I-0.0018 J2.0
G1 X74.4861
G2 X74.4846 I0.0 J2.0
G3 X74.1486 Y21.3587 I-0.0004 J-0.4716
G2 X74.1442 Y21.3543 I-1.4232 J1.4051
G3 X74.0001 Y21.0046 I0.3519 J-0.3496
G0 Z3.0
G0 X21.4998 Y21.0073
G0 Z1.0
G1 F50.0 Z-1.0
G3 F120.0 X21.3589 Y21.3469 I-0.4796 J0.0
G2 X21.348 Y21.3578 I4.2371 J4.2482
G3 X21.0069 Y21.4991 I-0.3406 J-0.3397
G2 X20.9927 I-0.007 J6.0
G3 X20.6515 Y21.3578 I-0.0006 J-0.4811
G2 X20.6407 Y21.347 I-4.2478 J4.2375
G3 X20.4997 Y21.0066 I0.3389 J-0.3398
G2 Y20.9911 I-6.0 J-0.0075
G3 X20.6404 Y20.6514 I0.4789 J-0.0006
G2 X20.6523 Y20.6396 I-4.2367 J-4.2485
G3 X20.9916 Y20.499 I0.3387 J0.3377
G2 X21.0083 I0.0083 J-6.0
G3 X21.347 Y20.6393 I0.0007 J0.4774
G2 X21.3589 Y20.6512 I4.2489 J-4.2363
G3 X21.4998 Y20.9913 I-0.3386 J0.3395
G2 Y21.0067 I6.0 J0.0077
G3 Y21.0073 I-0.4796 J0.0006
G1 F50.0 X22.2998
G3 F120.0 X21.9238 Y21.9134 I-1.2796 J0.0001
G2 X21.9144 Y21.9228 I3.6721 J3.6818
G3 X21.006 Y22.2991 I-0.907 J-0.9047
G2 X20.9937 I-0.006 J5.2
G3 X20.0851 Y21.9228 I-0.0015 J-1.2811
G2 X20.0758 Y21.9134 I-3.6814 J3.6725
G3 X19.6997 Y21.0056 I0.9038 J-0.9062
G2 Y20.9922 I-5.2 J-0.0065
G3 X20.0755 Y20.085 I1.2789 J-0.0017
G2 X20.0858 Y20.0747 I-3.6718 J-3.6821
G3 X20.9927 Y19.699 I0.9052 J0.9026
G2 X21.0072 I0.0072 J-5.2
G3 X21.9136 Y20.0745 I0.0018 J1.2774
G2 X21.9239 Y20.0848 I3.6824 J-3.6715
G3 X22.2998 Y20.9923 I-0.9035 J0.9059
G2 Y21.0057 I5.2 J0.0067
G3 Y21.0073 I-1.2796 J0.0016
G1 F50.0 X23.8998 Y21.0072
G3 F120.0 X23.0537 Y23.0462 I-2.8796 J0.0001
G2 X23.0472 Y23.0527 I2.5423 J2.5489
G3 X21.0041 Y23.8991 I-2.0398 J-2.0347
G2 X20.9956 I-0.0042 J3.6
G3 X18.9524 Y23.0528 I-0.0035 J-2.8811
G2 X18.9459 Y23.0463 I-2.5487 J2.5425
G3 X18.0997 Y21.0036 I2.0337 J-2.0391
G2 Y20.9943 I-3.6 J-0.0045
G3 X18.9457 Y18.952 I2.8789 J-0.0038
G2 X18.9528 Y18.9449 I-2.542 J-2.5491
G3 X20.9949 Y18.099 I2.0381 J2.0324
G2 X21.005 I0.005 J-3.6
G3 X23.0466 Y18.9448 I0.004 J2.8774
G2 X23.0537 Y18.9519 I2.5494 J-2.5418
G3 X23.8998 Y20.9944 I-2.0334 J2.0388
G2 Y21.0037 I3.6 J0.0046
G3 Y21.0072 I-2.8796 J0.0037
G1 F50.0 X25.4998 Y21.0071
G3 F120.0 X24.1836 Y24.1791 I-4.4796 J0.0002
G2 X24.18 Y24.1827 I1.4124 J1.4161
G3 X21.0022 Y25.4991 I-3.1725 J-3.1647
G2 X20.9975 I-0.0023 J2.0
G3 X17.8196 Y24.1827 I-0.0054 J-4.4811
G2 X17.816 Y24.1792 I-1.4159 J1.4125
G3 X16.4997 Y21.0016 I3.1636 J-3.172
G2 Y20.9964 I-2.0 J-0.0025
G3 X17.8159 Y17.8191 I4.4789 J-0.0059
G2 X17.8199 Y17.8151 I-1.4122 J-1.4162
G3 X20.9972 Y16.499 I3.1711 J3.1622
G2 X21.0027 I0.0028 J-2.0
G3 X24.1796 Y17.8151 I0.0063 J4.4774
G2 X24.1836 Y17.8191 I1.4163 J-1.4121
G3 X25.4998 Y20.9965 I-3.1633 J3.1716
G2 Y21.0016 I2.0 J0.0026
G3 Y21.0071 I-4.4796 J0.0057
G0 Z3.0
G0 X21.4998 Y21.0073
G0 Z0.0
G1 F50.0 Z-2.0
G3 F120.0 X21.3589 Y21.3469 I-0.4796 J0.0
G2 X21.348 Y21.3578 I4.2371 J4.2482
G3 X21.0069 Y21.4991 I-0.3406 J-0.3397
G2 X20.9927 I-0.007 J6.0
G3 X20.6515 Y21.3578 I-0.0006 J-0.4811
G2 X20.6407 Y21.347 I-4.2478 J4.2375
G3 X20.4997 Y21.0066 I0.3389 J-0.3398
G2 Y20.9911 I-6.0 J-0.0075
G3 X20.6404 Y20.6514 I0.4789 J-0.0006
G2 X20.6523 Y20.6396 I-4.2367 J-4.2485
G3 X20.9916 Y20.499 I0.3387 J0.3377
G2 X21.0083 I0.0083 J-6.0
G3 X21.347 Y20.6393 I0.0007 J0.4774
G2 X21.3589 Y20.6512 I4.2489 J-4.2363
G3 X21.4998 Y20.9913 I-0.3386 J0.3395
G2 Y21.0067 I6.0 J0.0077
G3 Y21.0073 I-0.4796 J0.0006
G1 F50.0 X22.2998
G3 F120.0 X21.9238 Y21.9134 I-1.2796 J0.0001
G2 X21.9144 Y21.9228 I3.6721 J3.6818
G3 X21.006 Y22.2991 I-0.907 J-0.9047
G2 X20.9937 I-0.006 J5.2
G3 X20.0851 Y21.9228 I-0.0015 J-1.2811
G2 X20.0758 Y21.9134 I-3.6814 J3.6725
G3 X19.6997 Y21.0056 I0.9038 J-0.9062
G2 Y20.9922 I-5.2 J-0.0065
G3 X20.0755 Y20.085 I1.2789 J-0.0017
G2 X20.0858 Y20.0747 I-3.6718 J-3.6821
G3 X20.9927 Y19.699 I0.9052 J0.9026
G2 X21.0072 I0.0072 J-5.2
G3 X21.9136 Y20.0745 I0.0018 J1.2774
G2 X21.9239 Y20.0848 I3.6824 J-3.6715
G3 X22.2998 Y20.9923 I-0.9035 J0.9059
G2 Y21.0057 I5.2 J0.0067
G3 Y21.0073 I-1.2796 J0.0016
G1 F50.0 X23.8998 Y21.0072
G3 F120.0 X23.0537 Y23.0462 I-2.8796 J0.0001
G2 X23.0472 Y23.0527 I2.5423 J2.5489
G3 X21.0041 Y23.8991 I-2.0398 J-2.0347
G2 X20.9956 I-0.0042 J3.6
G3 X18.9524 Y23.0528 I-0.0035 J-2.8811
G2 X18.9459 Y23.0463 I-2.5487 J2.5425
G3 X18.0997 Y21.0036 I2.0337 J-2.0391
G2 Y20.9943 I-3.6 J-0.0045
G3 X18.9457 Y18.952 I2.8789 J-0.0038
G2 X18.9528 Y18.9449 I-2.542 J-2.5491
G3 X20.9949 Y18.099 I2.0381 J2.0324
G2 X21.005 I0.005 J-3.6
G3 X23.0466 Y18.9448 I0.004 J2.8774
G2 X23.0537 Y18.9519 I2.5494 J-2.5418
G3 X23.8998 Y20.9944 I-2.0334 J2.0388
G2 Y21.0037 I3.6 J0.0046
G3 Y21.0072 I-2.8796 J0.0037
G1 F50.0 X25.4998 Y21.0071
G3 F120.0 X24.1836 Y24.1791 I-4.4796 J0.0002
G2 X24.18 Y24.1827 I1.4124 J1.4161
G3 X21.0022 Y25.4991 I-3.1725 J-3.1647
G2 X20.9975 I-0.0023 J2.0
G3 X17.8196 Y24.1827 I-0.0054 J-4.4811
G2 X17.816 Y24.1792 I-1.4159 J1.4125
G3 X16.4997 Y21.0016 I3.1636 J-3.172
G2 Y20.9964 I-2.0 J-0.0025
G3 X17.8159 Y17.8191 I4.4789 J-0.0059
G2 X17.8199 Y17.8151 I-1.4122 J-1.4162
G3 X20.9972 Y16.499 I3.1711 J3.1622
G2 X21.0027 I0.0028 J-2.0
G3 X24.1796 Y17.8151 I0.0063 J4.4774
G2 X24.1836 Y17.8191 I1.4163 J-1.4121
G3 X25.4998 Y20.9965 I-3.1633 J3.1716
G2 Y21.0016 I2.0 J0.0026
G3 Y21.0071 I-4.4796 J0.0057
G0 Z3.0
G0 X21.4998 Y21.0073
G0 Z-1.0
G1 F50.0 Z-3.0
G3 F120.0 X21.3589 Y21.3469 I-0.4796 J0.0
G2 X21.348 Y21.3578 I4.2371 J4.2482
G3 X21.0069 Y21.4991 I-0.3406 J-0.3397
G2 X20.9927 I-0.007 J6.0
G3 X20.6515 Y21.3578 I-0.0006 J-0.4811
G2 X20.6407 Y21.347 I-4.2478 J4.2375
G3 X20.4997 Y21.0066 I0.3389 J-0.3398
G2 Y20.9911 I-6.0 J-0.0075
G3 X20.6404 Y20.6514 I0.4789 J-0.0006
G2 X20.6523 Y20.6396 I-4.2367 J-4.2485
G3 X20.9916 Y20.499 I0.3387 J0.3377
G2 X21.0083 I0.0083 J-6.0
G3 X21.347 Y20.6393 I0.0007 J0.4774
G2 X21.3589 Y20.6512 I4.2489 J-4.2363
G3 X21.4998 Y20.9913 I-0.3386 J0.3395
G2 Y21.0067 I6.0 J0.0077
G3 Y21.0073 I-0.4796 J0.0006
G1 F50.0 X22.2998
G3 F120.0 X21.9238 Y21.9134 I-1.2796 J0.0001
G2 X21.9144 Y21.9228 I3.6721 J3.6818
G3 X21.006 Y22.2991 I-0.907 J-0.9047
G2 X20.9937 I-0.006 J5.2
G3 X20.0851 Y21.9228 I-0.0015 J-1.2811
G2 X20.0758 Y21.9134 I-3.6814 J3.6725
G3 X19.6997 Y21.0056 I0.9038 J-0.9062
G2 Y20.9922 I-5.2 J-0.0065
G3 X20.0755 Y20.085 I1.2789 J-0.0017
G2 X20.0858 Y20.0747 I-3.6718 J-3.6821
G3 X20.9927 Y19.699 I0.9052 J0.9026
G2 X21.0072 I0.0072 J-5.2
G3 X21.9136 Y20.0745 I0.0018 J1.2774
G2 X21.9239 Y20.0848 I3.6824 J-3.6715
G3 X22.2998 Y20.9923 I-0.9035 J0.9059
G2 Y21.0057 I5.2 J0.0067
G3 Y21.0073 I-1.2796 J0.0016
G1 F50.0 X23.8998 Y21.0072
G3 F120.0 X23.0537 Y23.0462 I-2.8796 J0.0001
G2 X23.0472 Y23.0527 I2.5423 J2.5489
G3 X21.0041 Y23.8991 I-2.0398 J-2.0347
G2 X20.9956 I-0.0042 J3.6
G3 X18.9524 Y23.0528 I-0.0035 J-2.8811
G2 X18.9459 Y23.0463 I-2.5487 J2.5425
G3 X18.0997 Y21.0036 I2.0337 J-2.0391
G2 Y20.9943 I-3.6 J-0.0045
G3 X18.9457 Y18.952 I2.8789 J-0.0038
G2 X18.9528 Y18.9449 I-2.542 J-2.5491
G3 X20.9949 Y18.099 I2.0381 J2.0324
G2 X21.005 I0.005 J-3.6
G3 X23.0466 Y18.9448 I0.004 J2.8774
G2 X23.0537 Y18.9519 I2.5494 J-2.5418
G3 X23.8998 Y20.9944 I-2.0334 J2.0388
G2 Y21.0037 I3.6 J0.0046
G3 Y21.0072 I-2.8796 J0.0037
G1 F50.0 X25.4998 Y21.0071
G3 F120.0 X24.1836 Y24.1791 I-4.4796 J0.0002
G2 X24.18 Y24.1827 I1.4124 J1.4161
G3 X21.0022 Y25.4991 I-3.1725 J-3.1647
G2 X20.9975 I-0.0023 J2.0
G3 X17.8196 Y24.1827 I-0.0054 J-4.4811
G2 X17.816 Y24.1792 I-1.4159 J1.4125
G3 X16.4997 Y21.0016 I3.1636 J-3.172
G2 Y20.9964 I-2.0 J-0.0025
G3 X17.8159 Y17.8191 I4.4789 J-0.0059
G2 X17.8199 Y17.8151 I-1.4122 J-1.4162
G3 X20.9972 Y16.499 I3.1711 J3.1622
G2 X21.0027 I0.0028 J-2.0
G3 X24.1796 Y17.8151 I0.0063 J4.4774
G2 X24.1836 Y17.8191 I1.4163 J-1.4121
G3 X25.4998 Y20.9965 I-3.1633 J3.1716
G2 Y21.0016 I2.0 J0.0026
G3 Y21.0071 I-4.4796 J0.0057
G0 Z3.0
G0 X21.4998 Y21.0073
G0 Z-2.0
G1 F50.0 Z-4.0
G3 F120.0 X21.3589 Y21.3469 I-0.4796 J0.0
G2 X21.348 Y21.3578 I4.2371 J4.2482
G3 X21.0069 Y21.4991 I-0.3406 J-0.3397
G2 X20.9927 I-0.007 J6.0
G3 X20.6515 Y21.3578 I-0.0006 J-0.4811
G2 X20.6407 Y21.347 I-4.2478 J4.2375
G3 X20.4997 Y21.0066 I0.3389 J-0.3398
G2 Y20.9911 I-6.0 J-0.0075
G3 X20.6404 Y20.6514 I0.4789 J-0.0006
G2 X20.6523 Y20.6396 I-4.2367 J-4.2485
G3 X20.9916 Y20.499 I0.3387 J0.3377
G2 X21.0083 I0.0083 J-6.0
G3 X21.347 Y20.6393 I0.0007 J0.4774
G2 X21.3589 Y20.6512 I4.2489 J-4.2363
G3 X21.4998 Y20.9913 I-0.3386 J0.3395
G2 Y21.0067 I6.0 J0.0077
G3 Y21.0073 I-0.4796 J0.0006
G1 F50.0 X22.2998
G3 F120.0 X21.9238 Y21.9134 I-1.2796 J0.0001
G2 X21.9144 Y21.9228 I3.6721 J3.6818
G3 X21.006 Y22.2991 I-0.907 J-0.9047
G2 X20.9937 I-0.006 J5.2
G3 X20.0851 Y21.9228 I-0.0015 J-1.2811
G2 X20.0758 Y21.9134 I-3.6814 J3.6725
G3 X19.6997 Y21.0056 I0.9038 J-0.9062
G2 Y20.9922 I-5.2 J-0.0065
G3 X20.0755 Y20.085 I1.2789 J-0.0017
G2 X20.0858 Y20.0747 I-3.6718 J-3.6821
G3 X20.9927 Y19.699 I0.9052 J0.9026
G2 X21.0072 I0.0072 J-5.2
G3 X21.9136 Y20.0745 I0.0018 J1.2774
G2 X21.9239 Y20.0848 I3.6824 J-3.6715
G3 X22.2998 Y20.9923 I-0.9035 J0.9059
G2 Y21.0057 I5.2 J0.0067
G3 Y21.0073 I-1.2796 J0.0016
G1 F50.0 X23.8998 Y21.0072
G3 F120.0 X23.0537 Y23.0462 I-2.8796 J0.0001
G2 X23.0472 Y23.0527 I2.5423 J2.5489
G3 X21.0041 Y23.8991 I-2.0398 J-2.0347
G2 X20.9956 I-0.0042 J3.6
G3 X18.9524 Y23.0528 I-0.0035 J-2.8811
G2 X18.9459 Y23.0463 I-2.5487 J2.5425
G3 X18.0997 Y21.0036 I2.0337 J-2.0391
G2 Y20.9943 I-3.6 J-0.0045
G3 X18.9457 Y18.952 I2.8789 J-0.0038
G2 X18.9528 Y18.9449 I-2.542 J-2.5491
G3 X20.9949 Y18.099 I2.0381 J2.0324
G2 X21.005 I0.005 J-3.6
G3 X23.0466 Y18.9448 I0.004 J2.8774
G2 X23.0537 Y18.9519 I2.5494 J-2.5418
G3 X23.8998 Y20.9944 I-2.0334 J2.0388
G2 Y21.0037 I3.6 J0.0046
G3 Y21.0072 I-2.8796 J0.0037
G1 F50.0 X25.4998 Y21.0071
G3 F120.0 X24.1836 Y24.1791 I-4.4796 J0.0002
G2 X24.18 Y24.1827 I1.4124 J1.4161
G3 X21.0022 Y25.4991 I-3.1725 J-3.1647
G2 X20.9975 I-0.0023 J2.0
G3 X17.8196 Y24.1827 I-0.0054 J-4.4811
G2 X17.816 Y24.1792 I-1.4159 J1.4125
G3 X16.4997 Y21.0016 I3.1636 J-3.172
G2 Y20.9964 I-2.0 J-0.0025
G3 X17.8159 Y17.8191 I4.4789 J-0.0059
G2 X17.8199 Y17.8151 I-1.4122 J-1.4162
G3 X20.9972 Y16.499 I3.1711 J3.1622
G2 X21.0027 I0.0028 J-2.0
G3 X24.1796 Y17.8151 I0.0063 J4.4774
G2 X24.1836 Y17.8191 I1.4163 J-1.4121
G3 X25.4998 Y20.9965 I-3.1633 J3.1716
G2 Y21.0016 I2.0 J0.0026
G3 Y21.0071 I-4.4796 J0.0057
G0 Z3.0
G0 X21.4998 Y21.0073
G0 Z-3.0
G1 F50.0 Z-5.0
G3 F120.0 X21.3589 Y21.3469 I-0.4796 J0.0
G2 X21.348 Y21.3578 I4.2371 J4.2482
G3 X21.0069 Y21.4991 I-0.3406 J-0.3397
G2 X20.9927 I-0.007 J6.0
G3 X20.6515 Y21.3578 I-0.0006 J-0.4811
G2 X20.6407 Y21.347 I-4.2478 J4.2375
G3 X20.4997 Y21.0066 I0.3389 J-0.3398
G2 Y20.9911 I-6.0 J-0.0075
G3 X20.6404 Y20.6514 I0.4789 J-0.0006
G2 X20.6523 Y20.6396 I-4.2367 J-4.2485
G3 X20.9916 Y20.499 I0.3387 J0.3377
G2 X21.0083 I0.0083 J-6.0
G3 X21.347 Y20.6393 I0.0007 J0.4774
G2 X21.3589 Y20.6512 I4.2489 J-4.2363
G3 X21.4998 Y20.9913 I-0.3386 J0.3395
G2 Y21.0067 I6.0 J0.0077
G3 Y21.0073 I-0.4796 J0.0006
G1 F50.0 X22.2998
G3 F120.0 X21.9238 Y21.9134 I-1.2796 J0.0001
G2 X21.9144 Y21.9228 I3.6721 J3.6818
G3 X21.006 Y22.2991 I-0.907 J-0.9047
G2 X20.9937 I-0.006 J5.2
G3 X20.0851 Y21.9228 I-0.0015 J-1.2811
G2 X20.0758 Y21.9134 I-3.6814 J3.6725
G3 X19.6997 Y21.0056 I0.9038 J-0.9062
G2 Y20.9922 I-5.2 J-0.0065
G3 X20.0755 Y20.085 I1.2789 J-0.0017
G2 X20.0858 Y20.0747 I-3.6718 J-3.6821
G3 X20.9927 Y19.699 I0.9052 J0.9026
G2 X21.0072 I0.0072 J-5.2
G3 X21.9136 Y20.0745 I0.0018 J1.2774
G2 X21.9239 Y20.0848 I3.6824 J-3.6715
G3 X22.2998 Y20.9923 I-0.9035 J0.9059
G2 Y21.0057 I5.2 J0.0067
G3 Y21.0073 I-1.2796 J0.0016
G1 F50.0 X23.8998 Y21.0072
G3 F120.0 X23.0537 Y23.0462 I-2.8796 J0.0001
G2 X23.0472 Y23.0527 I2.5423 J2.5489
G3 X21.0041 Y23.8991 I-2.0398 J-2.0347
G2 X20.9956 I-0.0042 J3.6
G3 X18.9524 Y23.0528 I-0.0035 J-2.8811
G2 X18.9459 Y23.0463 I-2.5487 J2.5425
G3 X18.0997 Y21.0036 I2.0337 J-2.0391
G2 Y20.9943 I-3.6 J-0.0045
G3 X18.9457 Y18.952 I2.8789 J-0.0038
G2 X18.9528 Y18.9449 I-2.542 J-2.5491
G3 X20.9949 Y18.099 I2.0381 J2.0324
G2 X21.005 I0.005 J-3.6
G3 X23.0466 Y18.9448 I0.004 J2.8774
G2 X23.0537 Y18.9519 I2.5494 J-2.5418
G3 X23.8998 Y20.9944 I-2.0334 J2.0388
G2 Y21.0037 I3.6 J0.0046
G3 Y21.0072 I-2.8796 J0.0037
G1 F50.0 X25.4998 Y21.0071
G3 F120.0 X24.1836 Y24.1791 I-4.4796 J0.0002
G2 X24.18 Y24.1827 I1.4124 J1.4161
G3 X21.0022 Y25.4991 I-3.1725 J-3.1647
G2 X20.9975 I-0.0023 J2.0
G3 X17.8196 Y24.1827 I-0.0054 J-4.4811
G2 X17.816 Y24.1792 I-1.4159 J1.4125
G3 X16.4997 Y21.0016 I3.1636 J-3.172
G2 Y20.9964 I-2.0 J-0.0025
G3 X17.8159 Y17.8191 I4.4789 J-0.0059
G2 X17.8199 Y17.8151 I-1.4122 J-1.4162
G3 X20.9972 Y16.499 I3.1711 J3.1622
G2 X21.0027 I0.0028 J-2.0
G3 X24.1796 Y17.8151 I0.0063 J4.4774
G2 X24.1836 Y17.8191 I1.4163 J-1.4121
G3 X25.4998 Y20.9965 I-3.1633 J3.1716
G2 Y21.0016 I2.0 J0.0026
G3 Y21.0071 I-4.4796 J0.0057
G0 Z3.0
G0 X21.4998 Y21.0073
G0 Z-4.0
G1 F50.0 Z-6.0
G3 F120.0 X21.3589 Y21.3469 I-0.4796 J0.0
G2 X21.348 Y21.3578 I4.2371 J4.2482
G3 X21.0069 Y21.4991 I-0.3406 J-0.3397
G2 X20.9927 I-0.007 J6.0
G3 X20.6515 Y21.3578 I-0.0006 J-0.4811
G2 X20.6407 Y21.347 I-4.2478 J4.2375
G3 X20.4997 Y21.0066 I0.3389 J-0.3398
G2 Y20.9911 I-6.0 J-0.0075
G3 X20.6404 Y20.6514 I0.4789 J-0.0006
G2 X20.6523 Y20.6396 I-4.2367 J-4.2485
G3 X20.9916 Y20.499 I0.3387 J0.3377
G2 X21.0083 I0.0083 J-6.0
G3 X21.347 Y20.6393 I0.0007 J0.4774
G2 X21.3589 Y20.6512 I4.2489 J-4.2363
G3 X21.4998 Y20.9913 I-0.3386 J0.3395
G2 Y21.0067 I6.0 J0.0077
G3 Y21.0073 I-0.4796 J0.0006
G1 F50.0 X22.2998
G3 F120.0 X21.9238 Y21.9134 I-1.2796 J0.0001
G2 X21.9144 Y21.9228 I3.6721 J3.6818
G3 X21.006 Y22.2991 I-0.907 J-0.9047
G2 X20.9937 I-0.006 J5.2
G3 X20.0851 Y21.9228 I-0.0015 J-1.2811
G2 X20.0758 Y21.9134 I-3.6814 J3.6725
G3 X19.6997 Y21.0056 I0.9038 J-0.9062
G2 Y20.9922 I-5.2 J-0.0065
G3 X20.0755 Y20.085 I1.2789 J-0.0017
G2 X20.0858 Y20.0747 I-3.6718 J-3.6821
G3 X20.9927 Y19.699 I0.9052 J0.9026
G2 X21.0072 I0.0072 J-5.2
G3 X21.9136 Y20.0745 I0.0018 J1.2774
G2 X21.9239 Y20.0848 I3.6824 J-3.6715
G3 X22.2998 Y20.9923 I-0.9035 J0.9059
G2 Y21.0057 I5.2 J0.0067
G3 Y21.0073 I-1.2796 J0.0016
G1 F50.0 X23.8998 Y21.0072
G3 F120.0 X23.0537 Y23.0462 I-2.8796 J0.0001
G2 X23.0472 Y23.0527 I2.5423 J2.5489
G3 X21.0041 Y23.8991 I-2.0398 J-2.0347
G2 X20.9956 I-0.0042 J3.6
G3 X18.9524 Y23.0528 I-0.0035 J-2.8811
G2 X18.9459 Y23.0463 I-2.5487 J2.5425
G3 X18.0997 Y21.0036 I2.0337 J-2.0391
G2 Y20.9943 I-3.6 J-0.0045
G3 X18.9457 Y18.952 I2.8789 J-0.0038
G2 X18.9528 Y18.9449 I-2.542 J-2.5491
G3 X20.9949 Y18.099 I2.0381 J2.0324
G2 X21.005 I0.005 J-3.6
G3 X23.0466 Y18.9448 I0.004 J2.8774
G2 X23.0537 Y18.9519 I2.5494 J-2.5418
G3 X23.8998 Y20.9944 I-2.0334 J2.0388
G2 Y21.0037 I3.6 J0.0046
G3 Y21.0072 I-2.8796 J0.0037
G1 F50.0 X25.4998 Y21.0071
G3 F120.0 X24.1836 Y24.1791 I-4.4796 J0.0002
G2 X24.18 Y24.1827 I1.4124 J1.4161
G3 X21.0022 Y25.4991 I-3.1725 J-3.1647
G2 X20.9975 I-0.0023 J2.0
G3 X17.8196 Y24.1827 I-0.0054 J-4.4811
G2 X17.816 Y24.1792 I-1.4159 J1.4125
G3 X16.4997 Y21.0016 I3.1636 J-3.172
G2 Y20.9964 I-2.0 J-0.0025
G3 X17.8159 Y17.8191 I4.4789 J-0.0059
G2 X17.8199 Y17.8151 I-1.4122 J-1.4162
G3 X20.9972 Y16.499 I3.1711 J3.1622
G2 X21.0027 I0.0028 J-2.0
G3 X24.1796 Y17.8151 I0.0063 J4.4774
G2 X24.1836 Y17.8191 I1.4163 J-1.4121
G3 X25.4998 Y20.9965 I-3.1633 J3.1716
G2 Y21.0016 I2.0 J0.0026
G3 Y21.0071 I-4.4796 J0.0057
G0 Z3.0
G0 X21.4998 Y21.0073
G0 Z-5.0
G1 F50.0 Z-7.0
G3 F120.0 X21.3589 Y21.3469 I-0.4796 J0.0
G2 X21.348 Y21.3578 I4.2371 J4.2482
G3 X21.0069 Y21.4991 I-0.3406 J-0.3397
G2 X20.9927 I-0.007 J6.0
G3 X20.6515 Y21.3578 I-0.0006 J-0.4811
G2 X20.6407 Y21.347 I-4.2478 J4.2375
G3 X20.4997 Y21.0066 I0.3389 J-0.3398
G2 Y20.9911 I-6.0 J-0.0075
G3 X20.6404 Y20.6514 I0.4789 J-0.0006
G2 X20.6523 Y20.6396 I-4.2367 J-4.2485
G3 X20.9916 Y20.499 I0.3387 J0.3377
G2 X21.0083 I0.0083 J-6.0
G3 X21.347 Y20.6393 I0.0007 J0.4774
G2 X21.3589 Y20.6512 I4.2489 J-4.2363
G3 X21.4998 Y20.9913 I-0.3386 J0.3395
G2 Y21.0067 I6.0 J0.0077
G3 Y21.0073 I-0.4796 J0.0006
G1 F50.0 X22.2998
G3 F120.0 X21.9238 Y21.9134 I-1.2796 J0.0001
G2 X21.9144 Y21.9228 I3.6721 J3.6818
G3 X21.006 Y22.2991 I-0.907 J-0.9047
G2 X20.9937 I-0.006 J5.2
G3 X20.0851 Y21.9228 I-0.0015 J-1.2811
G2 X20.0758 Y21.9134 I-3.6814 J3.6725
G3 X19.6997 Y21.0056 I0.9038 J-0.9062
G2 Y20.9922 I-5.2 J-0.0065
G3 X20.0755 Y20.085 I1.2789 J-0.0017
G2 X20.0858 Y20.0747 I-3.6718 J-3.6821
G3 X20.9927 Y19.699 I0.9052 J0.9026
G2 X21.0072 I0.0072 J-5.2
G3 X21.9136 Y20.0745 I0.0018 J1.2774
G2 X21.9239 Y20.0848 I3.6824 J-3.6715
G3 X22.2998 Y20.9923 I-0.9035 J0.9059
G2 Y21.0057 I5.2 J0.0067
G3 Y21.0073 I-1.2796 J0.0016
G1 F50.0 X23.8998 Y21.0072
G3 F120.0 X23.0537 Y23.0462 I-2.8796 J0.0001
G2 X23.0472 Y23.0527 I2.5423 J2.5489
G3 X21.0041 Y23.8991 I-2.0398 J-2.0347
G2 X20.9956 I-0.0042 J3.6
G3 X18.9524 Y23.0528 I-0.0035 J-2.8811
G2 X18.9459 Y23.0463 I-2.5487 J2.5425
G3 X18.0997 Y21.0036 I2.0337 J-2.0391
G2 Y20.9943 I-3.6 J-0.0045
G3 X18.9457 Y18.952 I2.8789 J-0.0038
G2 X18.9528 Y18.9449 I-2.542 J-2.5491
G3 X20.9949 Y18.099 I2.0381 J2.0324
G2 X21.005 I0.005 J-3.6
G3 X23.0466 Y18.9448 I0.004 J2.8774
G2 X23.0537 Y18.9519 I2.5494 J-2.5418
G3 X23.8998 Y20.9944 I-2.0334 J2.0388
G2 Y21.0037 I3.6 J0.0046
G3 Y21.0072 I-2.8796 J0.0037
G1 F50.0 X25.4998 Y21.0071
G3 F120.0 X24.1836 Y24.1791 I-4.4796 J0.0002
G2 X24.18 Y24.1827 I1.4124 J1.4161
G3 X21.0022 Y25.4991 I-3.1725 J-3.1647
G2 X20.9975 I-0.0023 J2.0
G3 X17.8196 Y24.1827 I-0.0054 J-4.4811
G2 X17.816 Y24.1792 I-1.4159 J1.4125
G3 X16.4997 Y21.0016 I3.1636 J-3.172
G2 Y20.9964 I-2.0 J-0.0025
G3 X17.8159 Y17.8191 I4.4789 J-0.0059
G2 X17.8199 Y17.8151 I-1.4122 J-1.4162
G3 X20.9972 Y16.499 I3.1711 J3.1622
G2 X21.0027 I0.0028 J-2.0
G3 X24.1796 Y17.8151 I0.0063 J4.4774
G2 X24.1836 Y17.8191 I1.4163 J-1.4121
G3 X25.4998 Y20.9965 I-3.1633 J3.1716
G2 Y21.0016 I2.0 J0.0026
G3 Y21.0071 I-4.4796 J0.0057
G0 Z3.0
M5
M30
