( Made using CamBam - http://www.cambam.co.uk )
( head stepper mount 9/28/2013 11:03:58 AM )
( T4 : 3.8 )
G21 G90 G64 G40
G0 Z3.0
( T4 : 3.8 )
T4 M6
( Profile1 )
G17
M3 S1000
G0 X27.0998 Y21.0014
G0 Z1.0
G1 F50.0 Z-5.0
G3 F120.0 X25.3148 Y25.3106 I-6.0755 J0.0076
G2 X25.3112 Y25.3142 I1.3418 J1.3452
G3 X21.0024 Y27.0991 I-4.3008 J-4.2889
G2 X20.9976 I-0.0025 J1.9
G3 X16.6882 Y25.314 I-0.0074 J-6.0764
G2 X16.6848 Y25.3106 I-1.3452 J1.3418
G3 X14.8997 Y21.0015 I4.29 J-4.3015
G2 Y20.9966 I-1.9 J-0.0024
G3 X16.6847 Y16.6876 I6.0742 J-0.008
G2 X16.6884 Y16.6839 I-1.3416 J-1.3454
G3 X20.9973 Y14.899 I4.3005 J4.2886
G2 X21.0023 I0.0026 J-1.9
G3 X25.3113 Y16.684 I0.0076 J6.075
G2 X25.3149 Y16.6876 I1.3453 J-1.3417
G3 X27.0998 Y20.9965 I-4.2892 J4.3008
G2 Y21.0014 I1.9 J0.0025
G0 Z3.0
M5
M30
