( Made using CamBam - http://www.cambam.co.uk )
( head stepper mount 9/28/2013 11:01:13 AM )
( T4 : 3.9 )
G21 G90 G64 G40
G0 Z3.0
( T4 : 3.9 )
T4 M6
( Profile1 )
G17
M3 S1000
G0 X27.0498 Y21.0015
G0 Z1.0
G1 F50.0 Z-5.0
G3 F120.0 X25.2795 Y25.2752 I-6.0255 J0.0076
G2 X25.2758 Y25.2789 I1.3771 J1.3806
G3 X21.0025 Y27.0491 I-4.2654 J-4.2536
G2 X20.9976 I-0.0026 J1.95
G3 X16.7236 Y25.2787 I-0.0073 J-6.0264
G2 X16.7201 Y25.2752 I-1.3806 J1.3772
G3 X14.9497 Y21.0015 I4.2547 J-4.2661
G2 Y20.9965 I-1.95 J-0.0025
G3 X16.72 Y16.723 I6.0242 J-0.0079
G2 X16.7239 Y16.7192 I-1.377 J-1.3808
G3 X20.9973 Y14.949 I4.2651 J4.2533
G2 X21.0024 I0.0027 J-1.95
G3 X25.2759 Y16.7193 I0.0076 J6.025
G2 X25.2796 Y16.723 I1.3807 J-1.377
G3 X27.0498 Y20.9965 I-4.2539 J4.2654
G2 Y21.0015 I1.95 J0.0026
G0 Z3.0
M5
M30
