( Made using CamBam - http://www.cambam.co.uk )
( head stepper mount 9/28/2013 10:35:02 AM )
( T4 : 4.0 )
G21 G90 G64 G40
G0 Z3.0
( T4 : 4.0 )
T4 M6
( Profile2 )
G17
M3 S1000
G0 X42.928 Y39.8952
G0 Z1.0
G1 F50.0 Z-1.0
G1 F120.0 X92.2577 Y33.483
G2 X93.9999 Y31.4997 I-0.2578 J-1.9833
G1 Y10.4996
G2 X92.2577 Y8.5163 I-2.0 J0.0
G1 X42.9279 Y2.1029
G1 X39.3737 Y-1.4204
G2 X37.965 Y-2.0 I-1.408 J1.4204
G1 X3.981 Y-1.9893
G2 X2.5663 Y-1.4023 I0.0006 J2.0
G1 X-1.4154 Y2.586
G2 X-2.0 Y3.9991 I1.4154 J1.413
G1 Y37.9991
G2 X-1.4175 Y39.41 I2.0 J0.0
G1 X2.5642 Y43.4101
G2 X3.9817 Y43.9992 I1.4175 J-1.4109
G1 X37.9656
G2 X39.3738 Y43.4194 I0.0 J-2.0
G1 X42.928 Y39.8952
G1 F50.0 Z-2.0
G1 F120.0 X92.2577 Y33.483
G2 X93.9999 Y31.4997 I-0.2578 J-1.9833
G1 Y10.4996
G2 X92.2577 Y8.5163 I-2.0 J0.0
G1 X42.9279 Y2.1029
G1 X39.3737 Y-1.4204
G2 X37.965 Y-2.0 I-1.408 J1.4204
G1 X3.981 Y-1.9893
G2 X2.5663 Y-1.4023 I0.0006 J2.0
G1 X-1.4154 Y2.586
G2 X-2.0 Y3.9991 I1.4154 J1.413
G1 Y37.9991
G2 X-1.4175 Y39.41 I2.0 J0.0
G1 X2.5642 Y43.4101
G2 X3.9817 Y43.9992 I1.4175 J-1.4109
G1 X37.9656
G2 X39.3738 Y43.4194 I0.0 J-2.0
G1 X42.928 Y39.8952
G1 F50.0 Z-3.0
G1 F120.0 X92.2577 Y33.483
G2 X93.9999 Y31.4997 I-0.2578 J-1.9833
G1 Y10.4996
G2 X92.2577 Y8.5163 I-2.0 J0.0
G1 X42.9279 Y2.1029
G1 X39.3737 Y-1.4204
G2 X37.965 Y-2.0 I-1.408 J1.4204
G1 X3.981 Y-1.9893
G2 X2.5663 Y-1.4023 I0.0006 J2.0
G1 X-1.4154 Y2.586
G2 X-2.0 Y3.9991 I1.4154 J1.413
G1 Y37.9991
G2 X-1.4175 Y39.41 I2.0 J0.0
G1 X2.5642 Y43.4101
G2 X3.9817 Y43.9992 I1.4175 J-1.4109
G1 X37.9656
G2 X39.3738 Y43.4194 I0.0 J-2.0
G1 X42.928 Y39.8952
G1 F50.0 Z-4.0
G1 F120.0 X92.2577 Y33.483
G2 X93.9999 Y31.4997 I-0.2578 J-1.9833
G1 Y10.4996
G2 X92.2577 Y8.5163 I-2.0 J0.0
G1 X42.9279 Y2.1029
G1 X39.3737 Y-1.4204
G2 X37.965 Y-2.0 I-1.408 J1.4204
G1 X3.981 Y-1.9893
G2 X2.5663 Y-1.4023 I0.0006 J2.0
G1 X-1.4154 Y2.586
G2 X-2.0 Y3.9991 I1.4154 J1.413
G1 Y37.9991
G2 X-1.4175 Y39.41 I2.0 J0.0
G1 X2.5642 Y43.4101
G2 X3.9817 Y43.9992 I1.4175 J-1.4109
G1 X37.9656
G2 X39.3738 Y43.4194 I0.0 J-2.0
G1 X42.928 Y39.8952
G1 F50.0 Z-5.0
G1 F120.0 X92.2577 Y33.483
G2 X93.9999 Y31.4997 I-0.2578 J-1.9833
G1 Y10.4996
G2 X92.2577 Y8.5163 I-2.0 J0.0
G1 X42.9279 Y2.1029
G1 X39.3737 Y-1.4204
G2 X37.965 Y-2.0 I-1.408 J1.4204
G1 X3.981 Y-1.9893
G2 X2.5663 Y-1.4023 I0.0006 J2.0
G1 X-1.4154 Y2.586
G2 X-2.0 Y3.9991 I1.4154 J1.413
G1 Y37.9991
G2 X-1.4175 Y39.41 I2.0 J0.0
G1 X2.5642 Y43.4101
G2 X3.9817 Y43.9992 I1.4175 J-1.4109
G1 X37.9656
G2 X39.3738 Y43.4194 I0.0 J-2.0
G1 X42.928 Y39.8952
G1 F50.0 Z-6.0
G1 F120.0 X92.2577 Y33.483
G2 X93.9999 Y31.4997 I-0.2578 J-1.9833
G1 Y10.4996
G2 X92.2577 Y8.5163 I-2.0 J0.0
G1 X42.9279 Y2.1029
G1 X39.3737 Y-1.4204
G2 X37.965 Y-2.0 I-1.408 J1.4204
G1 X3.981 Y-1.9893
G2 X2.5663 Y-1.4023 I0.0006 J2.0
G1 X-1.4154 Y2.586
G2 X-2.0 Y3.9991 I1.4154 J1.413
G1 Y37.9991
G2 X-1.4175 Y39.41 I2.0 J0.0
G1 X2.5642 Y43.4101
G2 X3.9817 Y43.9992 I1.4175 J-1.4109
G1 X37.9656
G2 X39.3738 Y43.4194 I0.0 J-2.0
G1 X42.928 Y39.8952
G1 F50.0 Z-7.0
G1 F120.0 X92.2577 Y33.483
G2 X93.9999 Y31.4997 I-0.2578 J-1.9833
G1 Y10.4996
G2 X92.2577 Y8.5163 I-2.0 J0.0
G1 X42.9279 Y2.1029
G1 X39.3737 Y-1.4204
G2 X37.965 Y-2.0 I-1.408 J1.4204
G1 X3.981 Y-1.9893
G2 X2.5663 Y-1.4023 I0.0006 J2.0
G1 X-1.4154 Y2.586
G2 X-2.0 Y3.9991 I1.4154 J1.413
G1 Y37.9991
G2 X-1.4175 Y39.41 I2.0 J0.0
G1 X2.5642 Y43.4101
G2 X3.9817 Y43.9992 I1.4175 J-1.4109
G1 X37.9656
G2 X39.3738 Y43.4194 I0.0 J-2.0
G1 X42.928 Y39.8952
G0 Z3.0
M5
M30
