( Made using CamBam - http://www.cambam.co.uk )
( needle and leap mounts 10/25/2013 10:41:33 AM )
( T11 : 5.0 )
G21 G90 G91.1 G64 G40
G0 Z3.0
( T11 : 5.0 )
T11 M6
( Drill1 )
G17
M3 S1000
G0 X11.0001 Y57.0867
G98
G83 X11.0001 Y57.0867 Z-14.0 Q5.0 R3.0 F80.0
G83 X33.0 Z-14.0
G83 X53.0 Z-14.0
G83 X71.1615 Z-14.0
G83 X89.1618 Z-14.0
G83 X107.3109 Z-14.0
G83 X123.3112 Y57.1578 Z-14.0
G83 X137.311 Z-14.0
G83 X151.3108 Y57.0158 Z-14.0
G83 X165.3107 Z-14.0
G83 X179.3105 Z-14.0
G83 X193.3103 Z-14.0
G80
G0 Z3.0
M5
M30
