( Made using CamBam - http://www.cambam.co.uk )
( needle and leap mounts 10/25/2013 10:42:03 AM )
( T6 : 6.0 )
G21 G90 G91.1 G64 G40
G0 Z3.0
( T6 : 6.0 )
T6 M6
( Profile2 )
G17
M3 S1000
G0 X94.623 Y41.0001
G0 Z1.0
G1 F50.0 Z-4.0
G1 F150.0 X103.623
G2 X106.623 Y38.0001 I0.0 J-3.0
G1 Y29.0001
G1 Y19.0
G1 Y9.0005
G2 X104.5887 Y2.3307 I-11.9375 J-0.0042
G2 X99.2237 Y-2.0791 I-10.0341 J6.7389
G2 X99.2188 Y-2.0812 I-1.1589 J2.7671
G2 X94.6226 Y-3.0 I-4.5935 J11.0229
G1 X19.6237
G2 X12.9539 Y-0.9657 I-0.0042 J11.9375
G2 X8.544 Y4.3993 I6.7389 J10.0341
G2 X8.5419 Y4.4042 I2.7671 J1.1589
G2 X7.6231 Y9.0003 I11.0229 J4.5935
G1 Y19.0
G1 Y29.0001
G1 Y38.0001
G2 X10.6231 Y41.0001 I3.0 J0.0
G1 X19.6231
G1 X94.623
G1 F50.0 Z-8.0
G1 F150.0 X103.623
G2 X106.623 Y38.0001 I0.0 J-3.0
G1 Y29.0001
G1 Y19.0
G1 Y9.0005
G2 X104.5887 Y2.3307 I-11.9375 J-0.0042
G2 X99.2237 Y-2.0791 I-10.0341 J6.7389
G2 X99.2188 Y-2.0812 I-1.1589 J2.7671
G2 X94.6226 Y-3.0 I-4.5935 J11.0229
G1 X19.6237
G2 X12.9539 Y-0.9657 I-0.0042 J11.9375
G2 X8.544 Y4.3993 I6.7389 J10.0341
G2 X8.5419 Y4.4042 I2.7671 J1.1589
G2 X7.6231 Y9.0003 I11.0229 J4.5935
G1 Y19.0
G1 Y29.0001
G1 Y38.0001
G2 X10.6231 Y41.0001 I3.0 J0.0
G1 X19.6231
G1 X94.623
G1 F50.0 Z-12.0
G1 F150.0 X103.623
G2 X106.623 Y38.0001 I0.0 J-3.0
G1 Y29.0001
G1 Y19.0
G1 Y9.0005
G2 X104.5887 Y2.3307 I-11.9375 J-0.0042
G2 X99.2237 Y-2.0791 I-10.0341 J6.7389
G2 X99.2188 Y-2.0812 I-1.1589 J2.7671
G2 X94.6226 Y-3.0 I-4.5935 J11.0229
G1 X19.6237
G2 X12.9539 Y-0.9657 I-0.0042 J11.9375
G2 X8.544 Y4.3993 I6.7389 J10.0341
G2 X8.5419 Y4.4042 I2.7671 J1.1589
G2 X7.6231 Y9.0003 I11.0229 J4.5935
G1 Y19.0
G1 Y29.0001
G1 Y38.0001
G2 X10.6231 Y41.0001 I3.0 J0.0
G1 X19.6231
G1 X94.623
( Profile1 )
S1000
G0 Z3.0
G0 X189.3104 Y71.0158
G0 Z1.0
G1 F50.0 Z-4.0
G1 F150.0 X200.3103
G2 X203.3103 Y68.0158 I0.0 J-3.0
G1 Y57.0169
G2 X200.9372 Y49.2364 I-13.9145 J-0.0083
G2 X194.6759 Y44.0897 I-11.7105 J7.8647
G2 X194.6712 Y44.0877 I-1.1589 J2.7671
G2 X189.3099 Y43.016 I-5.3571 J12.8529
G1 X11.001
G2 X3.2204 Y45.389 I-0.0084 J13.9142
G2 X-1.9264 Y51.6506 I7.8633 J11.7093
G2 X-1.9283 Y51.6551 I2.7672 J1.1587
G2 X-3.0 Y57.0166 I12.85 J5.3565
G1 Y68.0158
G2 X0.0 Y71.0158 I3.0 J0.0
G1 X11.0
G1 X189.3104
G1 F50.0 Z-8.0
G1 F150.0 X200.3103
G2 X203.3103 Y68.0158 I0.0 J-3.0
G1 Y57.0169
G2 X200.9372 Y49.2364 I-13.9145 J-0.0083
G2 X194.6759 Y44.0897 I-11.7105 J7.8647
G2 X194.6712 Y44.0877 I-1.1589 J2.7671
G2 X189.3099 Y43.016 I-5.3571 J12.8529
G1 X11.001
G2 X3.2204 Y45.389 I-0.0084 J13.9142
G2 X-1.9264 Y51.6506 I7.8633 J11.7093
G2 X-1.9283 Y51.6551 I2.7672 J1.1587
G2 X-3.0 Y57.0166 I12.85 J5.3565
G1 Y68.0158
G2 X0.0 Y71.0158 I3.0 J0.0
G1 X11.0
G1 X189.3104
G1 F50.0 Z-12.0
G1 F150.0 X200.3103
G2 X203.3103 Y68.0158 I0.0 J-3.0
G1 Y57.0169
G2 X200.9372 Y49.2364 I-13.9145 J-0.0083
G2 X194.6759 Y44.0897 I-11.7105 J7.8647
G2 X194.6712 Y44.0877 I-1.1589 J2.7671
G2 X189.3099 Y43.016 I-5.3571 J12.8529
G1 X11.001
G2 X3.2204 Y45.389 I-0.0084 J13.9142
G2 X-1.9264 Y51.6506 I7.8633 J11.7093
G2 X-1.9283 Y51.6551 I2.7672 J1.1587
G2 X-3.0 Y57.0166 I12.85 J5.3565
G1 Y68.0158
G2 X0.0 Y71.0158 I3.0 J0.0
G1 X11.0
G1 X189.3104
G0 Z3.0
M5
M30
