( Made using CamBam - http://www.cambam.co.uk )
( needle and leap mounts 10/25/2013 10:41:45 AM )
( T6 : 6.0 )
G21 G90 G91.1 G64 G40
G0 Z3.0
( T6 : 6.0 )
T6 M6
( Pocket1 )
G17
M3 S1000
G0 X31.6385 Y16.0001
G0 Z1.0
G1 F50.0 Z-4.0
G1 F150.0 X87.6232
G1 Y19.9999
G1 X31.6385
G2 X29.9222 Y18.0 I-11.0539 J7.75
G2 X31.6385 Y16.0001 I-9.3374 J-9.75
G1 F50.0 X29.9191 Y14.7945
G2 F150.0 X30.4861 Y13.9001 I-9.3343 J-6.5446
G1 X89.7232
G1 Y22.0999
G1 X30.486
G2 X26.4922 Y18.0 I-9.9014 J5.65
G2 X29.9191 Y14.7945 I-5.9074 J-9.75
G0 Z3.0
G0 X26.4801 Y12.3834
G0 Z1.0
G1 F50.0 Z-4.0
G2 F150.0 X27.3904 Y10.6002 I-5.8953 J-4.1334
G3 X27.7086 Y10.0986 I1.2167 J0.4202
G2 X27.719 Y10.0885 I-5.0258 J-5.1557
G3 X28.2622 Y9.7579 I0.9838 J1.0052
G3 X28.6281 Y9.7001 I0.3687 J1.1465
G1 X92.6235
G2 X92.6355 I0.0 J-7.2
G3 X93.1081 Y9.7937 I0.002 J1.2298
G3 X93.5386 Y10.0826 I-0.5175 J1.2365
G2 X93.5484 Y10.0923 I5.0922 J-5.0901
G3 X93.9232 Y10.9958 I-0.8996 J0.9027
G2 Y10.9998 I7.2 J0.0041
G1 Y24.9999
G2 Y25.0118 I7.2 J0.0
G3 X93.8296 Y25.4845 I-1.231 J0.002
G3 X93.5403 Y25.9157 I-1.2395 J-0.5192
G2 X93.5312 Y25.9248 I5.0906 J5.0917
G3 X92.6271 Y26.2999 I-0.9034 J-0.9004
G2 X92.6235 I-0.0036 J7.2
G1 X28.6287
G3 X28.0793 Y26.1675 I0.0033 J-1.2189
G2 X28.0706 Y26.1631 I-3.2642 J6.4175
G3 X27.5741 Y25.7465 I0.6459 J-1.2742
G3 X27.5739 Y25.7462 I1.1425 J-0.8576
G1 X27.5742 Y25.7466
G3 X27.5741 Y25.7465 I1.0104 J-0.758
G3 X27.3906 Y25.4008 I1.0105 J-0.7578
G2 X20.5846 Y20.5499 I-6.806 J2.3491
G1 X9.5769
G1 Y15.45
G1 X20.5848
G2 X26.4801 Y12.3834 I0.0 J-7.2
G1 F50.0 X23.0412 Y9.9722
G2 F150.0 X23.4205 Y9.2292 I-2.4564 J-1.7223
G3 X24.7769 Y7.0911 I5.1867 J1.7911
G2 X24.7812 Y7.0869 I-2.0941 J-2.1482
G3 X26.9611 Y5.7645 I3.9216 J4.0067
G3 X28.6249 Y5.5001 I1.6698 J5.1399
G1 X92.6235
G2 X92.6285 I0.0 J-3.0
G3 X94.7226 Y5.9164 I0.009 J5.4298
G3 X96.5091 Y7.1133 I-2.132 J5.1139
G2 X96.5131 Y7.1174 I2.1218 J-2.1209
G3 X98.1232 Y10.9981 I-3.8644 J3.8776
G2 Y10.9998 I3.0 J0.0017
G1 Y24.9999
G2 Y25.0048 I3.0 J0.0
G3 X97.7069 Y27.099 I-5.431 J0.009
G3 X96.5098 Y28.8859 I-5.1168 J-2.1337
G2 X96.506 Y28.8897 I2.1211 J2.1215
G3 X92.625 Y30.4999 I-3.8783 J-3.8652
G2 X92.6235 I-0.0015 J3.0
G1 X28.6251
G3 X26.1752 Y29.911 I0.0069 J-5.4189
G2 X26.1716 Y29.9092 I-1.3601 J2.674
G3 X24.2145 Y28.267 I2.545 J-5.0203
G1 X24.2144 Y28.2669
G1 X24.2145 Y28.2671
G1 Y28.267
G3 X23.4204 Y26.7711 I4.3701 J-3.2783
G2 X20.5846 Y24.7499 I-2.8358 J0.9788
G1 X5.3769
G1 Y11.25
G1 X20.5848
G2 X23.0412 Y9.9722 I0.0 J-3.0
G0 Z3.0
G0 X31.6385 Y16.0001
G0 Z-3.0
G1 F50.0 Z-8.0
G1 F150.0 X87.6232
G1 Y19.9999
G1 X31.6385
G2 X29.9222 Y18.0 I-11.0539 J7.75
G2 X31.6385 Y16.0001 I-9.3374 J-9.75
G1 F50.0 X29.9191 Y14.7945
G2 F150.0 X30.4861 Y13.9001 I-9.3343 J-6.5446
G1 X89.7232
G1 Y22.0999
G1 X30.486
G2 X26.4922 Y18.0 I-9.9014 J5.65
G2 X29.9191 Y14.7945 I-5.9074 J-9.75
G0 Z3.0
G0 X26.4801 Y12.3834
G0 Z-3.0
G1 F50.0 Z-8.0
G2 F150.0 X27.3904 Y10.6002 I-5.8953 J-4.1334
G3 X27.7086 Y10.0986 I1.2167 J0.4202
G2 X27.719 Y10.0885 I-5.0258 J-5.1557
G3 X28.2622 Y9.7579 I0.9838 J1.0052
G3 X28.6281 Y9.7001 I0.3687 J1.1465
G1 X92.6235
G2 X92.6355 I0.0 J-7.2
G3 X93.1081 Y9.7937 I0.002 J1.2298
G3 X93.5386 Y10.0826 I-0.5175 J1.2365
G2 X93.5484 Y10.0923 I5.0922 J-5.0901
G3 X93.9232 Y10.9958 I-0.8996 J0.9027
G2 Y10.9998 I7.2 J0.0041
G1 Y24.9999
G2 Y25.0118 I7.2 J0.0
G3 X93.8296 Y25.4845 I-1.231 J0.002
G3 X93.5403 Y25.9157 I-1.2395 J-0.5192
G2 X93.5312 Y25.9248 I5.0906 J5.0917
G3 X92.6271 Y26.2999 I-0.9034 J-0.9004
G2 X92.6235 I-0.0036 J7.2
G1 X28.6287
G3 X28.0793 Y26.1675 I0.0033 J-1.2189
G2 X28.0706 Y26.1631 I-3.2642 J6.4175
G3 X27.5741 Y25.7465 I0.6459 J-1.2742
G3 X27.5739 Y25.7462 I1.1425 J-0.8576
G1 X27.5742 Y25.7466
G3 X27.5741 Y25.7465 I1.0104 J-0.758
G3 X27.3906 Y25.4008 I1.0105 J-0.7578
G2 X20.5846 Y20.5499 I-6.806 J2.3491
G1 X9.5769
G1 Y15.45
G1 X20.5848
G2 X26.4801 Y12.3834 I0.0 J-7.2
G1 F50.0 X23.0412 Y9.9722
G2 F150.0 X23.4205 Y9.2292 I-2.4564 J-1.7223
G3 X24.7769 Y7.0911 I5.1867 J1.7911
G2 X24.7812 Y7.0869 I-2.0941 J-2.1482
G3 X26.9611 Y5.7645 I3.9216 J4.0067
G3 X28.6249 Y5.5001 I1.6698 J5.1399
G1 X92.6235
G2 X92.6285 I0.0 J-3.0
G3 X94.7226 Y5.9164 I0.009 J5.4298
G3 X96.5091 Y7.1133 I-2.132 J5.1139
G2 X96.5131 Y7.1174 I2.1218 J-2.1209
G3 X98.1232 Y10.9981 I-3.8644 J3.8776
G2 Y10.9998 I3.0 J0.0017
G1 Y24.9999
G2 Y25.0048 I3.0 J0.0
G3 X97.7069 Y27.099 I-5.431 J0.009
G3 X96.5098 Y28.8859 I-5.1168 J-2.1337
G2 X96.506 Y28.8897 I2.1211 J2.1215
G3 X92.625 Y30.4999 I-3.8783 J-3.8652
G2 X92.6235 I-0.0015 J3.0
G1 X28.6251
G3 X26.1752 Y29.911 I0.0069 J-5.4189
G2 X26.1716 Y29.9092 I-1.3601 J2.674
G3 X24.2145 Y28.267 I2.545 J-5.0203
G1 X24.2144 Y28.2669
G1 X24.2145 Y28.2671
G1 Y28.267
G3 X23.4204 Y26.7711 I4.3701 J-3.2783
G2 X20.5846 Y24.7499 I-2.8358 J0.9788
G1 X5.3769
G1 Y11.25
G1 X20.5848
G2 X23.0412 Y9.9722 I0.0 J-3.0
G0 Z3.0
G0 X31.6385 Y16.0001
G0 Z-7.0
G1 F50.0 Z-9.0
G1 F150.0 X87.6232
G1 Y19.9999
G1 X31.6385
G2 X29.9222 Y18.0 I-11.0539 J7.75
G2 X31.6385 Y16.0001 I-9.3374 J-9.75
G1 F50.0 X29.9191 Y14.7945
G2 F150.0 X30.4861 Y13.9001 I-9.3343 J-6.5446
G1 X89.7232
G1 Y22.0999
G1 X30.486
G2 X26.4922 Y18.0 I-9.9014 J5.65
G2 X29.9191 Y14.7945 I-5.9074 J-9.75
G0 Z3.0
G0 X26.4801 Y12.3834
G0 Z-7.0
G1 F50.0 Z-9.0
G2 F150.0 X27.3904 Y10.6002 I-5.8953 J-4.1334
G3 X27.7086 Y10.0986 I1.2167 J0.4202
G2 X27.719 Y10.0885 I-5.0258 J-5.1557
G3 X28.2622 Y9.7579 I0.9838 J1.0052
G3 X28.6281 Y9.7001 I0.3687 J1.1465
G1 X92.6235
G2 X92.6355 I0.0 J-7.2
G3 X93.1081 Y9.7937 I0.002 J1.2298
G3 X93.5386 Y10.0826 I-0.5175 J1.2365
G2 X93.5484 Y10.0923 I5.0922 J-5.0901
G3 X93.9232 Y10.9958 I-0.8996 J0.9027
G2 Y10.9998 I7.2 J0.0041
G1 Y24.9999
G2 Y25.0118 I7.2 J0.0
G3 X93.8296 Y25.4845 I-1.231 J0.002
G3 X93.5403 Y25.9157 I-1.2395 J-0.5192
G2 X93.5312 Y25.9248 I5.0906 J5.0917
G3 X92.6271 Y26.2999 I-0.9034 J-0.9004
G2 X92.6235 I-0.0036 J7.2
G1 X28.6287
G3 X28.0793 Y26.1675 I0.0033 J-1.2189
G2 X28.0706 Y26.1631 I-3.2642 J6.4175
G3 X27.5741 Y25.7465 I0.6459 J-1.2742
G3 X27.5739 Y25.7462 I1.1425 J-0.8576
G1 X27.5742 Y25.7466
G3 X27.5741 Y25.7465 I1.0104 J-0.758
G3 X27.3906 Y25.4008 I1.0105 J-0.7578
G2 X20.5846 Y20.5499 I-6.806 J2.3491
G1 X9.5769
G1 Y15.45
G1 X20.5848
G2 X26.4801 Y12.3834 I0.0 J-7.2
G1 F50.0 X23.0412 Y9.9722
G2 F150.0 X23.4205 Y9.2292 I-2.4564 J-1.7223
G3 X24.7769 Y7.0911 I5.1867 J1.7911
G2 X24.7812 Y7.0869 I-2.0941 J-2.1482
G3 X26.9611 Y5.7645 I3.9216 J4.0067
G3 X28.6249 Y5.5001 I1.6698 J5.1399
G1 X92.6235
G2 X92.6285 I0.0 J-3.0
G3 X94.7226 Y5.9164 I0.009 J5.4298
G3 X96.5091 Y7.1133 I-2.132 J5.1139
G2 X96.5131 Y7.1174 I2.1218 J-2.1209
G3 X98.1232 Y10.9981 I-3.8644 J3.8776
G2 Y10.9998 I3.0 J0.0017
G1 Y24.9999
G2 Y25.0048 I3.0 J0.0
G3 X97.7069 Y27.099 I-5.431 J0.009
G3 X96.5098 Y28.8859 I-5.1168 J-2.1337
G2 X96.506 Y28.8897 I2.1211 J2.1215
G3 X92.625 Y30.4999 I-3.8783 J-3.8652
G2 X92.6235 I-0.0015 J3.0
G1 X28.6251
G3 X26.1752 Y29.911 I0.0069 J-5.4189
G2 X26.1716 Y29.9092 I-1.3601 J2.674
G3 X24.2145 Y28.267 I2.545 J-5.0203
G1 X24.2144 Y28.2669
G1 X24.2145 Y28.2671
G1 Y28.267
G3 X23.4204 Y26.7711 I4.3701 J-3.2783
G2 X20.5846 Y24.7499 I-2.8358 J0.9788
G1 X5.3769
G1 Y11.25
G1 X20.5848
G2 X23.0412 Y9.9722 I0.0 J-3.0
G0 Z3.0
M5
M30
