( Made using CamBam - http://www.cambam.co.uk )
( face plates 10/9/2013 1:55:01 PM )
( T16 : 1.0 )
G21 G90 G64 G40
G0 Z3.0
( T16 : 1.0 )
T16 M6
( Spot Drill )
G17
M3 S1000
G0 X3.0002 Y87.7001
G98
G81 X3.0002 Y87.7001 Z-1.0 R3.0 F80.0
G81 X5.9998 Y70.6999 Z-1.0
G81 Y61.6996 Z-1.0
G81 X3.0002 Y44.7001 Z-1.0
G81 X2.9984 Y23.3843 Z-1.0
G81 Y11.6179 Z-1.0
G81 X71.9999 Y61.6996 Z-1.0
G81 Y70.6999 Z-1.0
G81 X96.9998 Y66.1999 Z-1.0
G81 Y44.7001 Z-1.0
G81 Y23.3843 Z-1.0
G81 Y11.6179 Z-1.0
G81 Y87.7001 Z-1.0
G80
G0 Z3.0
M5
M30
