( Made using CamBam - http://www.cambam.co.uk )
( face plates 10/9/2013 1:55:10 PM )
( T9 : 3.0 )
G21 G90 G64 G40
G0 Z3.0
( T9 : 3.0 )
T9 M6
( 3mm Drill )
G17
M3 S1000
G0 X3.0002 Y87.7001
G98
G83 X3.0002 Y87.7001 Z-6.0 Q2.0 R3.0 F50.0
G83 X5.9998 Y70.6999 Z-6.0
G83 Y61.6996 Z-6.0
G83 X3.0002 Y44.7001 Z-6.0
G83 X2.9984 Y23.3843 Z-6.0
G83 Y11.6179 Z-6.0
G83 X71.9999 Y61.6996 Z-6.0
G83 Y70.6999 Z-6.0
G83 X96.9998 Y66.1999 Z-6.0
G83 Y44.7001 Z-6.0
G83 Y23.3843 Z-6.0
G83 Y11.6179 Z-6.0
G83 Y87.7001 Z-6.0
G80
G0 Z3.0
M5
M30
