( Made using CamBam - http://www.cambam.co.uk )
( face plates 10/9/2013 1:55:19 PM )
( T4 : 4.0 )
G21 G90 G64 G40
G0 Z3.0
( T4 : 4.0 )
T4 M6
( Pocket1 )
G17
M3 S1000
G0 X5.9998 Y61.4996
G0 Z1.0
G1 F25.0 Z-1.0
G3 F150.0 X6.1995 Y61.6994 I-0.0005 J0.2002
G3 X5.9996 Y61.8996 I-0.2007 J-0.0004
G3 X5.8002 Y61.6996 I0.0007 J-0.2001
G3 Y61.6995 I0.2001 J-0.0001
G1 Y61.6997
G3 Y61.6996 I0.2001 J0.0
G3 X5.9998 Y61.4996 I0.2001 J0.0001
G1 F25.0 X5.9978 Y60.6996
G3 F150.0 X5.9998 I0.0026 J1.0001
G3 X6.9995 Y61.6994 I-0.0005 J1.0002
G3 X5.9996 Y62.6996 I-1.0007 J-0.0005
G3 X5.0002 Y61.6996 I0.0006 J-1.0001
G1 Y61.6995
G1 Y61.6997
G1 Y61.6996
G3 X5.9978 Y60.6996 I1.0001 J0.0001
G1 F25.0 X5.9998 Y61.4996
G1 Z-2.0
G3 F150.0 X6.1995 Y61.6994 I-0.0005 J0.2002
G3 X5.9996 Y61.8996 I-0.2007 J-0.0004
G3 X5.8002 Y61.6996 I0.0007 J-0.2001
G3 Y61.6995 I0.2001 J-0.0001
G1 Y61.6997
G3 Y61.6996 I0.2001 J0.0
G3 X5.9998 Y61.4996 I0.2001 J0.0001
G1 F25.0 X5.9978 Y60.6996
G3 F150.0 X5.9998 I0.0026 J1.0001
G3 X6.9995 Y61.6994 I-0.0005 J1.0002
G3 X5.9996 Y62.6996 I-1.0007 J-0.0005
G3 X5.0002 Y61.6996 I0.0006 J-1.0001
G1 Y61.6995
G1 Y61.6997
G1 Y61.6996
G3 X5.9978 Y60.6996 I1.0001 J0.0001
G0 Z3.0
G0 X5.9998 Y70.4999
G0 Z1.0
G1 F25.0 Z-1.0
G3 F150.0 X6.1995 Y70.6998 I-0.0005 J0.2002
G3 X5.9998 Y70.8999 I-0.2005 J-0.0004
G3 X5.8002 Y70.6997 I0.0008 J-0.2005
G3 X5.9998 Y70.4999 I0.2001 J0.0003
G1 F25.0 X6.0018 Y69.6999
G3 F150.0 X6.9995 Y70.6998 I-0.0026 J1.0002
G3 X5.9998 Y71.6999 I-1.0005 J-0.0004
G3 X5.0002 Y70.6998 I0.0008 J-1.0005
G3 X5.9998 Y69.6999 I1.0001 J0.0003
G3 X6.0018 I-0.0005 J1.0002
G1 F25.0 X5.9998 Y70.4999
G1 Z-2.0
G3 F150.0 X6.1995 Y70.6998 I-0.0005 J0.2002
G3 X5.9998 Y70.8999 I-0.2005 J-0.0004
G3 X5.8002 Y70.6997 I0.0008 J-0.2005
G3 X5.9998 Y70.4999 I0.2001 J0.0003
G1 F25.0 X6.0018 Y69.6999
G3 F150.0 X6.9995 Y70.6998 I-0.0026 J1.0002
G3 X5.9998 Y71.6999 I-1.0005 J-0.0004
G3 X5.0002 Y70.6998 I0.0008 J-1.0005
G3 X5.9998 Y69.6999 I1.0001 J0.0003
G3 X6.0018 I-0.0005 J1.0002
G0 Z3.0
G0 X71.7999 Y70.6972
G0 Z1.0
G1 F25.0 Z-1.0
G3 F150.0 X72.0002 Y70.4999 I0.2003 J0.003
G1 X72.0001
G1 X72.0002
G3 X72.1999 Y70.6995 I0.0 J0.1997
G3 Y70.6997 I-0.1997 J0.0002
G1 Y70.6993
G3 Y70.6995 I-0.2006 J0.0
G3 X71.9996 Y70.8999 I-0.2006 J-0.0002
G3 X71.7999 Y70.7 I0.0003 J-0.2001
G3 Y70.6998 I0.2001 J-0.0002
G1 Y70.7002
G3 Y70.7 I0.2003 J0.0
G3 Y70.6972 I0.2003 J0.0002
G1 F25.0 X71.0 Y70.685
G3 F150.0 X72.0001 Y69.6999 I1.0002 J0.0152
G3 X72.9999 Y70.6996 I0.0001 J0.9997
G3 Y70.6997 I-0.9997 J0.0
G1 Y70.6995
G3 Y70.6996 I-1.0006 J-0.0002
G3 X71.9997 Y71.6999 I-1.0006 J-0.0003
G3 X70.9999 Y70.7 I0.0003 J-1.0001
G3 Y70.6999 I1.0001 J-0.0001
G1 Y70.7001
G3 Y70.7 I1.0003 J0.0001
G3 X71.0 Y70.685 I1.0003 J0.0002
G1 F25.0 X71.7999 Y70.6972
G1 Z-2.0
G3 F150.0 X72.0002 Y70.4999 I0.2003 J0.003
G1 X72.0001
G1 X72.0002
G3 X72.1999 Y70.6995 I0.0 J0.1997
G3 Y70.6997 I-0.1997 J0.0002
G1 Y70.6993
G3 Y70.6995 I-0.2006 J0.0
G3 X71.9996 Y70.8999 I-0.2006 J-0.0002
G3 X71.7999 Y70.7 I0.0003 J-0.2001
G3 Y70.6998 I0.2001 J-0.0002
G1 Y70.7002
G3 Y70.7 I0.2003 J0.0
G3 Y70.6972 I0.2003 J0.0002
G1 F25.0 X71.0 Y70.685
G3 F150.0 X72.0001 Y69.6999 I1.0002 J0.0152
G3 X72.9999 Y70.6996 I0.0001 J0.9997
G3 Y70.6997 I-0.9997 J0.0
G1 Y70.6995
G3 Y70.6996 I-1.0006 J-0.0002
G3 X71.9997 Y71.6999 I-1.0006 J-0.0003
G3 X70.9999 Y70.7 I0.0003 J-1.0001
G3 Y70.6999 I1.0001 J-0.0001
G1 Y70.7001
G3 Y70.7 I1.0003 J0.0001
G3 X71.0 Y70.685 I1.0003 J0.0002
G0 Z3.0
G0 X71.9781 Y61.8984
G0 Z1.0
G1 F25.0 Z-1.0
G3 F150.0 X71.7999 Y61.6994 I0.0222 J-0.1991
G1 Y61.6993
G1 Y61.6994
G3 X71.9998 Y61.4996 I0.1998 J0.0001
G1 X72.0001
G3 X72.1999 Y61.6994 I0.0 J0.1997
G1 Y61.6996
G3 X72.0001 Y61.8996 I-0.2 J0.0
G3 X71.9999 I-0.0002 J-0.2
G1 X72.0002
G3 X72.0001 I0.0 J-0.2003
G3 X71.9781 Y61.8984 I0.0002 J-0.2003
G1 F25.0 X71.8896 Y62.6934
G3 F150.0 X70.9999 Y61.6994 I0.1107 J-0.9942
G1 Y61.6995
G1 Y61.6994
G3 X71.9998 Y60.6996 I0.9998 J0.0
G1 X72.0001
G3 X72.9999 Y61.6994 I0.0001 J0.9997
G1 Y61.6996
G3 X72.0 Y62.6996 I-1.0 J0.0
G3 X71.9999 I-0.0001 J-1.0
G1 X72.0001
G3 X72.0 I0.0001 J-1.0003
G3 X71.8896 Y62.6934 I0.0002 J-1.0003
G1 F25.0 X71.9781 Y61.8984
G1 Z-2.0
G3 F150.0 X71.7999 Y61.6994 I0.0222 J-0.1991
G1 Y61.6993
G1 Y61.6994
G3 X71.9998 Y61.4996 I0.1998 J0.0001
G1 X72.0001
G3 X72.1999 Y61.6994 I0.0 J0.1997
G1 Y61.6996
G3 X72.0001 Y61.8996 I-0.2 J0.0
G3 X71.9999 I-0.0002 J-0.2
G1 X72.0002
G3 X72.0001 I0.0 J-0.2003
G3 X71.9781 Y61.8984 I0.0002 J-0.2003
G1 F25.0 X71.8896 Y62.6934
G3 F150.0 X70.9999 Y61.6994 I0.1107 J-0.9942
G1 Y61.6995
G1 Y61.6994
G3 X71.9998 Y60.6996 I0.9998 J0.0
G1 X72.0001
G3 X72.9999 Y61.6994 I0.0001 J0.9997
G1 Y61.6996
G3 X72.0 Y62.6996 I-1.0 J0.0
G3 X71.9999 I-0.0001 J-1.0
G1 X72.0001
G3 X72.0 I0.0001 J-1.0003
G3 X71.8896 Y62.6934 I0.0002 J-1.0003
G0 Z3.0
M5
M30
