( Made using CamBam - http://www.cambam.co.uk )
( face plates 10/9/2013 1:55:29 PM )
( T4 : 4.0 )
G21 G90 G64 G40
G0 Z3.0
( T4 : 4.0 )
T4 M6
( Profile1 )
G17
M3 S1000
G0 X-2.0 Y0.0
G0 Z1.0
G1 F25.0 Z-1.0
G1 F150.0 Y35.0004
G2 X0.0 Y37.0004 I2.0 J0.0
G1 X99.9999
G2 X101.9999 Y35.0004 I0.0 J-2.0
G1 Y0.0
G2 X99.9999 Y-2.0 I-2.0 J0.0
G1 X0.0
G2 X-2.0 Y0.0 I0.0 J2.0
G1 F25.0 Z-2.0
G1 F150.0 Y35.0004
G2 X0.0 Y37.0004 I2.0 J0.0
G1 X99.9999
G2 X101.9999 Y35.0004 I0.0 J-2.0
G1 Y0.0
G2 X99.9999 Y-2.0 I-2.0 J0.0
G1 X0.0
G2 X-2.0 Y0.0 I0.0 J2.0
G1 F25.0 Z-3.0
G1 F150.0 Y35.0004
G2 X0.0 Y37.0004 I2.0 J0.0
G1 X99.9999
G2 X101.9999 Y35.0004 I0.0 J-2.0
G1 Y0.0
G2 X99.9999 Y-2.0 I-2.0 J0.0
G1 X0.0
G2 X-2.0 Y0.0 I0.0 J2.0
G1 F25.0 Z-4.0
G1 F150.0 Y35.0004
G2 X0.0 Y37.0004 I2.0 J0.0
G1 X99.9999
G2 X101.9999 Y35.0004 I0.0 J-2.0
G1 Y0.0
G2 X99.9999 Y-2.0 I-2.0 J0.0
G1 X0.0
G2 X-2.0 Y0.0 I0.0 J2.0
G1 F25.0 Z-4.5
G1 F150.0 Y35.0004
G2 X0.0 Y37.0004 I2.0 J0.0
G1 X99.9999
G2 X101.9999 Y35.0004 I0.0 J-2.0
G1 Y0.0
G2 X99.9999 Y-2.0 I-2.0 J0.0
G1 X0.0
G2 X-2.0 Y0.0 I0.0 J2.0
( Profile2 )
S1000
G0 Z3.0
G0 X101.9998 Y91.1999
G0 Z1.0
G1 F25.0 Z-1.0
G1 F150.0 Y41.1999
G2 X99.9998 Y39.1999 I-2.0 J0.0
G1 X74.9999
G2 X73.4381 Y39.9505 I0.0 J2.0
G1 X64.0387 Y51.7001
G1 X35.9615
G1 X26.5623 Y39.9505
G2 X25.0005 Y39.1999 I-1.5618 J1.2494
G1 X0.0002
G2 X-1.9998 Y41.1999 I0.0 J2.0
G1 Y91.1999
G2 X0.0002 Y93.1999 I2.0 J0.0
G1 X25.0005
G2 X26.5623 Y92.4493 I0.0 J-2.0
G1 X35.9615 Y80.6999
G1 X64.0387 Y80.7001
G1 X73.4382 Y92.4495
G2 X74.9999 Y93.2001 I1.5617 J-1.2494
G1 X99.9998 Y93.1999
G2 X101.9998 Y91.1999 I0.0 J-2.0
G1 F25.0 Z-2.0
G1 F150.0 Y41.1999
G2 X99.9998 Y39.1999 I-2.0 J0.0
G1 X74.9999
G2 X73.4381 Y39.9505 I0.0 J2.0
G1 X64.0387 Y51.7001
G1 X35.9615
G1 X26.5623 Y39.9505
G2 X25.0005 Y39.1999 I-1.5618 J1.2494
G1 X0.0002
G2 X-1.9998 Y41.1999 I0.0 J2.0
G1 Y91.1999
G2 X0.0002 Y93.1999 I2.0 J0.0
G1 X25.0005
G2 X26.5623 Y92.4493 I0.0 J-2.0
G1 X35.9615 Y80.6999
G1 X64.0387 Y80.7001
G1 X73.4382 Y92.4495
G2 X74.9999 Y93.2001 I1.5617 J-1.2494
G1 X99.9998 Y93.1999
G2 X101.9998 Y91.1999 I0.0 J-2.0
G1 F25.0 Z-3.0
G1 F150.0 Y41.1999
G2 X99.9998 Y39.1999 I-2.0 J0.0
G1 X74.9999
G2 X73.4381 Y39.9505 I0.0 J2.0
G1 X64.0387 Y51.7001
G1 X35.9615
G1 X26.5623 Y39.9505
G2 X25.0005 Y39.1999 I-1.5618 J1.2494
G1 X0.0002
G2 X-1.9998 Y41.1999 I0.0 J2.0
G1 Y91.1999
G2 X0.0002 Y93.1999 I2.0 J0.0
G1 X25.0005
G2 X26.5623 Y92.4493 I0.0 J-2.0
G1 X35.9615 Y80.6999
G1 X64.0387 Y80.7001
G1 X73.4382 Y92.4495
G2 X74.9999 Y93.2001 I1.5617 J-1.2494
G1 X99.9998 Y93.1999
G2 X101.9998 Y91.1999 I0.0 J-2.0
G1 F25.0 Z-4.0
G1 F150.0 Y41.1999
G2 X99.9998 Y39.1999 I-2.0 J0.0
G1 X74.9999
G2 X73.4381 Y39.9505 I0.0 J2.0
G1 X64.0387 Y51.7001
G1 X35.9615
G1 X26.5623 Y39.9505
G2 X25.0005 Y39.1999 I-1.5618 J1.2494
G1 X0.0002
G2 X-1.9998 Y41.1999 I0.0 J2.0
G1 Y91.1999
G2 X0.0002 Y93.1999 I2.0 J0.0
G1 X25.0005
G2 X26.5623 Y92.4493 I0.0 J-2.0
G1 X35.9615 Y80.6999
G1 X64.0387 Y80.7001
G1 X73.4382 Y92.4495
G2 X74.9999 Y93.2001 I1.5617 J-1.2494
G1 X99.9998 Y93.1999
G2 X101.9998 Y91.1999 I0.0 J-2.0
G1 F25.0 Z-4.5
G1 F150.0 Y41.1999
G2 X99.9998 Y39.1999 I-2.0 J0.0
G1 X74.9999
G2 X73.4381 Y39.9505 I0.0 J2.0
G1 X64.0387 Y51.7001
G1 X35.9615
G1 X26.5623 Y39.9505
G2 X25.0005 Y39.1999 I-1.5618 J1.2494
G1 X0.0002
G2 X-1.9998 Y41.1999 I0.0 J2.0
G1 Y91.1999
G2 X0.0002 Y93.1999 I2.0 J0.0
G1 X25.0005
G2 X26.5623 Y92.4493 I0.0 J-2.0
G1 X35.9615 Y80.6999
G1 X64.0387 Y80.7001
G1 X73.4382 Y92.4495
G2 X74.9999 Y93.2001 I1.5617 J-1.2494
G1 X99.9998 Y93.1999
G2 X101.9998 Y91.1999 I0.0 J-2.0
G0 Z3.0
M5
M30
