( Made using CamBam - http://www.cambam.co.uk )
( face plate 11/18/2013 9:04:40 PM )
( T13 : 1.0 )
G21 G90 G91.1 G64 G40
G0 Z3.0
( T13 : 1.0 )
T13 M6
( 3mm Drill )
G17
M3 S1000
G0 X3.0 Y46.5
G98
G83 X3.0 Y46.5 Z-6.0 Q2.0 R3.0 F40.0
G83 X5.9996 Y29.5005 Z-6.0
G83 Y20.5002 Z-6.0
G83 X3.0 Y3.5 Z-6.0
G83 X48.9999 Y8.4389 Z-6.0
G83 X71.9996 Y20.5002 Z-6.0
G83 Y29.5005 Z-6.0
G83 X96.9996 Y25.0002 Z-6.0
G83 Y46.5 Z-6.0
G83 Y3.5 Z-6.0
G83 X48.9999 Y41.5611 Z-6.0
G83 X167.9994 Y41.5613 Z-6.0
G83 Y25.0004 Z-6.0
G83 Y8.4391 Z-6.0
G80
G0 Z3.0
M5
M30
