( Made using CamBam - http://www.cambam.co.uk )
( face plate 11/18/2013 9:04:52 PM )
( T4 : 4.0 )
G21 G90 G91.1 G64 G40
G0 Z3.0
( T4 : 4.0 )
T4 M6
( Pockets )
G17
M3 S1000
G0 X5.9994 Y21.2006
G0 Z1.0
G1 F25.0 Z-1.0
G3 F150.0 X5.2996 Y20.5005 I0.0005 J-0.7004
G3 X5.9997 Y19.7998 I0.7011 J0.0004
G3 X6.6997 Y20.5002 I-0.0009 J0.7008
G3 X5.9994 Y21.2006 I-0.7009 J-0.0005
G1 F25.0 X5.9988 Y22.0006
G3 F150.0 X4.4996 Y20.5004 I0.0012 J-1.5004
G3 X5.9997 Y18.9998 I1.5011 J0.0005
G3 X7.4997 Y20.5002 I-0.0009 J1.5008
G3 X5.9995 Y22.0006 I-1.5009 J-0.0005
G3 X5.9988 I0.0005 J-1.5004
G1 F25.0 X5.9994 Y21.2006
G1 Z-2.0
G3 F150.0 X5.2996 Y20.5005 I0.0005 J-0.7004
G3 X5.9997 Y19.7998 I0.7011 J0.0004
G3 X6.6997 Y20.5002 I-0.0009 J0.7008
G3 X5.9994 Y21.2006 I-0.7009 J-0.0005
G1 F25.0 X5.9988 Y22.0006
G3 F150.0 X4.4996 Y20.5004 I0.0012 J-1.5004
G3 X5.9997 Y18.9998 I1.5011 J0.0005
G3 X7.4997 Y20.5002 I-0.0009 J1.5008
G3 X5.9995 Y22.0006 I-1.5009 J-0.0005
G3 X5.9988 I0.0005 J-1.5004
G0 Z3.0
G0 X6.0036 Y28.8001
G0 Z1.0
G1 F25.0 Z-1.0
G3 F150.0 X6.4914 Y29.0024 I0.0005 J0.6881
G2 X6.4968 Y29.0078 I1.983 J-1.9768
G3 X6.6997 Y29.4976 I-0.488 J0.4891
G2 Y29.5001 I2.8 J0.0029
G3 X5.9994 Y30.2009 I-0.7009 J-0.0001
G3 X5.2996 Y29.5007 I0.0005 J-0.7004
G3 Y29.5006 I0.7004 J-0.0001
G1 Y29.5008
G3 Y29.5007 I0.7007 J0.0001
G3 X6.0002 Y28.8001 I0.7007 J0.0002
G2 X6.0032 I-0.0005 J-2.8
G3 X6.0036 I0.0009 J0.6881
G1 F25.0 X6.0031 Y28.0001
G3 F150.0 X7.058 Y28.4376 I0.0011 J1.4881
G2 X7.0618 Y28.4414 I1.4164 J-1.412
G3 X7.4997 Y29.4984 I-1.053 J1.0554
G2 Y29.5002 I2.0 J0.0021
G3 X5.9995 Y31.0009 I-1.5009 J-0.0002
G3 X4.4996 Y29.5006 I0.0005 J-1.5004
G1 Y29.5005
G1 Y29.5007
G1 Y29.5006
G3 X6.0 Y28.0001 I1.5007 J0.0002
G2 X6.0022 I-0.0004 J-2.0
G3 X6.0031 I0.0019 J1.4881
G1 F25.0 X6.0036 Y28.8001
G1 Z-2.0
G3 F150.0 X6.4914 Y29.0024 I0.0005 J0.6881
G2 X6.4968 Y29.0078 I1.983 J-1.9768
G3 X6.6997 Y29.4976 I-0.488 J0.4891
G2 Y29.5001 I2.8 J0.0029
G3 X5.9994 Y30.2009 I-0.7009 J-0.0001
G3 X5.2996 Y29.5007 I0.0005 J-0.7004
G3 Y29.5006 I0.7004 J-0.0001
G1 Y29.5008
G3 Y29.5007 I0.7007 J0.0001
G3 X6.0002 Y28.8001 I0.7007 J0.0002
G2 X6.0032 I-0.0005 J-2.8
G3 X6.0036 I0.0009 J0.6881
G1 F25.0 X6.0031 Y28.0001
G3 F150.0 X7.058 Y28.4376 I0.0011 J1.4881
G2 X7.0618 Y28.4414 I1.4164 J-1.412
G3 X7.4997 Y29.4984 I-1.053 J1.0554
G2 Y29.5002 I2.0 J0.0021
G3 X5.9995 Y31.0009 I-1.5009 J-0.0002
G3 X4.4996 Y29.5006 I0.0005 J-1.5004
G1 Y29.5005
G1 Y29.5007
G1 Y29.5006
G3 X6.0 Y28.0001 I1.5007 J0.0002
G2 X6.0022 I-0.0004 J-2.0
G3 X6.0031 I0.0019 J1.4881
G0 Z3.0
G0 X71.2995 Y29.4855
G0 Z1.0
G1 F25.0 Z-1.0
G3 F150.0 X71.9998 Y28.8005 I0.7007 J0.0159
G3 X72.6994 Y29.5004 I-0.0003 J0.6999
G2 Y29.5009 I2.8 J0.0001
G3 X71.9998 Y30.2006 I-0.6996 J0.0001
G3 X71.2994 Y29.5007 I0.0001 J-0.7006
G3 X71.2995 Y29.4855 I0.7009 J0.0007
G1 F25.0 X70.4997 Y29.4673
G3 F150.0 X71.9998 Y28.0005 I1.5005 J0.0341
G3 X73.4994 Y29.5004 I-0.0002 J1.4999
G2 Y29.5008 I2.0 J0.0001
G3 X71.9998 Y31.0006 I-1.4996 J0.0002
G1 X71.9997
G1 X71.9998
G3 X70.4994 Y29.5006 I0.0002 J-1.5006
G3 X70.4997 Y29.4673 I1.5009 J0.0008
G1 F25.0 X71.2995 Y29.4855
G1 Z-2.0
G3 F150.0 X71.9998 Y28.8005 I0.7007 J0.0159
G3 X72.6994 Y29.5004 I-0.0003 J0.6999
G2 Y29.5009 I2.8 J0.0001
G3 X71.9998 Y30.2006 I-0.6996 J0.0001
G3 X71.2994 Y29.5007 I0.0001 J-0.7006
G3 X71.2995 Y29.4855 I0.7009 J0.0007
G1 F25.0 X70.4997 Y29.4673
G3 F150.0 X71.9998 Y28.0005 I1.5005 J0.0341
G3 X73.4994 Y29.5004 I-0.0002 J1.4999
G2 Y29.5008 I2.0 J0.0001
G3 X71.9998 Y31.0006 I-1.4996 J0.0002
G1 X71.9997
G1 X71.9998
G3 X70.4994 Y29.5006 I0.0002 J-1.5006
G3 X70.4997 Y29.4673 I1.5009 J0.0008
G0 Z3.0
G0 X71.8843 Y21.1907
G0 Z1.0
G1 F25.0 Z-1.0
G3 F150.0 X71.2994 Y20.5003 I0.1156 J-0.691
G3 X71.9999 Y19.8002 I0.7008 J0.0007
G3 X72.0 I0.0003 J0.7008
G1 X71.9997
G3 X71.9999 I0.0 J0.6998
G3 X72.6994 Y20.5 I-0.0002 J0.6998
G2 Y20.5006 I2.8 J0.0002
G3 X71.9998 Y21.2003 I-0.6996 J0.0001
G3 X71.8843 Y21.1907 I0.0001 J-0.7006
G1 F25.0 X71.7523 Y21.9797
G3 F150.0 X70.4994 Y20.5003 I0.2476 J-1.48
G3 X71.9998 Y19.0002 I1.5008 J0.0007
G3 X71.9999 I0.0004 J1.5008
G1 X71.9996
G3 X71.9998 I0.0001 J1.4998
G3 X73.4994 Y20.5 I-0.0001 J1.4998
G2 Y20.5005 I2.0 J0.0002
G3 X71.9998 Y22.0003 I-1.4996 J0.0002
G1 X71.9997
G1 X71.9998
G3 X71.7523 Y21.9797 I0.0002 J-1.5006
G1 F25.0 X71.8843 Y21.1907
G1 Z-2.0
G3 F150.0 X71.2994 Y20.5003 I0.1156 J-0.691
G3 X71.9999 Y19.8002 I0.7008 J0.0007
G3 X72.0 I0.0003 J0.7008
G1 X71.9997
G3 X71.9999 I0.0 J0.6998
G3 X72.6994 Y20.5 I-0.0002 J0.6998
G2 Y20.5006 I2.8 J0.0002
G3 X71.9998 Y21.2003 I-0.6996 J0.0001
G3 X71.8843 Y21.1907 I0.0001 J-0.7006
G1 F25.0 X71.7523 Y21.9797
G3 F150.0 X70.4994 Y20.5003 I0.2476 J-1.48
G3 X71.9998 Y19.0002 I1.5008 J0.0007
G3 X71.9999 I0.0004 J1.5008
G1 X71.9996
G3 X71.9998 I0.0001 J1.4998
G3 X73.4994 Y20.5 I-0.0001 J1.4998
G2 Y20.5005 I2.0 J0.0002
G3 X71.9998 Y22.0003 I-1.4996 J0.0002
G1 X71.9997
G1 X71.9998
G3 X71.7523 Y21.9797 I0.0002 J-1.5006
( Profile1 )
S1000
G0 Z3.0
G0 X62.7993 Y31.0059
G0 Z1.0
G1 F25.0 Z-1.0
G3 F150.0 X62.2303 Y32.4229 I-2.0344 J0.0058
G2 X62.2295 Y32.4238 I1.4405 J1.3874
G3 X61.611 Y32.852 I-1.3705 J-1.3184
G3 X60.8869 Y33.0003 I-0.7233 J-1.6903
G2 X60.886 I-0.0009 J2.0
G1 X28.7133
G3 X27.3718 Y32.4268 I0.0022 J-1.8608
G2 X27.3684 Y32.4232 I-1.4442 J1.3836
G3 X26.7993 Y31.0059 I1.4659 J-1.4114
G2 Y31.0002 I-2.0 J-0.0057
G1 Y19.0002
G2 Y18.9938 I-2.0 J0.0
G3 X27.3679 Y17.5777 I2.0317 J-0.0065
G2 X27.3686 Y17.5769 I-1.4403 J-1.3876
G3 X27.9888 Y17.1477 I1.3738 J1.3222
G1 X27.9889 Y17.1476
G3 X28.7085 Y17.0001 I0.7161 J1.6642
G2 X28.7123 I0.0038 J-2.0
G1 X60.8849
G3 X62.2268 Y17.5738 I-0.0025 J1.862
G2 X62.2306 Y17.5779 I1.444 J-1.3838
G3 X62.7993 Y18.9939 I-1.4629 J1.4097
G2 Y19.0002 I2.0 J0.0063
G1 Y31.0002
G2 Y31.0059 I2.0 J0.0
G1 F25.0 Z-2.0
G3 F150.0 X62.2303 Y32.4229 I-2.0344 J0.0058
G2 X62.2295 Y32.4238 I1.4405 J1.3874
G3 X61.611 Y32.852 I-1.3705 J-1.3184
G3 X60.8869 Y33.0003 I-0.7233 J-1.6903
G2 X60.886 I-0.0009 J2.0
G1 X28.7133
G3 X27.3718 Y32.4268 I0.0022 J-1.8608
G2 X27.3684 Y32.4232 I-1.4442 J1.3836
G3 X26.7993 Y31.0059 I1.4659 J-1.4114
G2 Y31.0002 I-2.0 J-0.0057
G1 Y19.0002
G2 Y18.9938 I-2.0 J0.0
G3 X27.3679 Y17.5777 I2.0317 J-0.0065
G2 X27.3686 Y17.5769 I-1.4403 J-1.3876
G3 X27.9888 Y17.1477 I1.3738 J1.3222
G1 X27.9889 Y17.1476
G3 X28.7085 Y17.0001 I0.7161 J1.6642
G2 X28.7123 I0.0038 J-2.0
G1 X60.8849
G3 X62.2268 Y17.5738 I-0.0025 J1.862
G2 X62.2306 Y17.5779 I1.444 J-1.3838
G3 X62.7993 Y18.9939 I-1.4629 J1.4097
G2 Y19.0002 I2.0 J0.0063
G1 Y31.0002
G2 Y31.0059 I2.0 J0.0
G1 F25.0 Z-3.0
G3 F150.0 X62.2303 Y32.4229 I-2.0344 J0.0058
G2 X62.2295 Y32.4238 I1.4405 J1.3874
G3 X61.611 Y32.852 I-1.3705 J-1.3184
G3 X60.8869 Y33.0003 I-0.7233 J-1.6903
G2 X60.886 I-0.0009 J2.0
G1 X28.7133
G3 X27.3718 Y32.4268 I0.0022 J-1.8608
G2 X27.3684 Y32.4232 I-1.4442 J1.3836
G3 X26.7993 Y31.0059 I1.4659 J-1.4114
G2 Y31.0002 I-2.0 J-0.0057
G1 Y19.0002
G2 Y18.9938 I-2.0 J0.0
G3 X27.3679 Y17.5777 I2.0317 J-0.0065
G2 X27.3686 Y17.5769 I-1.4403 J-1.3876
G3 X27.9888 Y17.1477 I1.3738 J1.3222
G1 X27.9889 Y17.1476
G3 X28.7085 Y17.0001 I0.7161 J1.6642
G2 X28.7123 I0.0038 J-2.0
G1 X60.8849
G3 X62.2268 Y17.5738 I-0.0025 J1.862
G2 X62.2306 Y17.5779 I1.444 J-1.3838
G3 X62.7993 Y18.9939 I-1.4629 J1.4097
G2 Y19.0002 I2.0 J0.0063
G1 Y31.0002
G2 Y31.0059 I2.0 J0.0
G1 F25.0 Z-4.0
G3 F150.0 X62.2303 Y32.4229 I-2.0344 J0.0058
G2 X62.2295 Y32.4238 I1.4405 J1.3874
G3 X61.611 Y32.852 I-1.3705 J-1.3184
G3 X60.8869 Y33.0003 I-0.7233 J-1.6903
G2 X60.886 I-0.0009 J2.0
G1 X28.7133
G3 X27.3718 Y32.4268 I0.0022 J-1.8608
G2 X27.3684 Y32.4232 I-1.4442 J1.3836
G3 X26.7993 Y31.0059 I1.4659 J-1.4114
G2 Y31.0002 I-2.0 J-0.0057
G1 Y19.0002
G2 Y18.9938 I-2.0 J0.0
G3 X27.3679 Y17.5777 I2.0317 J-0.0065
G2 X27.3686 Y17.5769 I-1.4403 J-1.3876
G3 X27.9888 Y17.1477 I1.3738 J1.3222
G1 X27.9889 Y17.1476
G3 X28.7085 Y17.0001 I0.7161 J1.6642
G2 X28.7123 I0.0038 J-2.0
G1 X60.8849
G3 X62.2268 Y17.5738 I-0.0025 J1.862
G2 X62.2306 Y17.5779 I1.444 J-1.3838
G3 X62.7993 Y18.9939 I-1.4629 J1.4097
G2 Y19.0002 I2.0 J0.0063
G1 Y31.0002
G2 Y31.0059 I2.0 J0.0
G1 F25.0 Z-4.5
G3 F150.0 X62.2303 Y32.4229 I-2.0344 J0.0058
G2 X62.2295 Y32.4238 I1.4405 J1.3874
G3 X61.611 Y32.852 I-1.3705 J-1.3184
G3 X60.8869 Y33.0003 I-0.7233 J-1.6903
G2 X60.886 I-0.0009 J2.0
G1 X28.7133
G3 X27.3718 Y32.4268 I0.0022 J-1.8608
G2 X27.3684 Y32.4232 I-1.4442 J1.3836
G3 X26.7993 Y31.0059 I1.4659 J-1.4114
G2 Y31.0002 I-2.0 J-0.0057
G1 Y19.0002
G2 Y18.9938 I-2.0 J0.0
G3 X27.3679 Y17.5777 I2.0317 J-0.0065
G2 X27.3686 Y17.5769 I-1.4403 J-1.3876
G3 X27.9888 Y17.1477 I1.3738 J1.3222
G1 X27.9889 Y17.1476
G3 X28.7085 Y17.0001 I0.7161 J1.6642
G2 X28.7123 I0.0038 J-2.0
G1 X60.8849
G3 X62.2268 Y17.5738 I-0.0025 J1.862
G2 X62.2306 Y17.5779 I1.444 J-1.3838
G3 X62.7993 Y18.9939 I-1.4629 J1.4097
G2 Y19.0002 I2.0 J0.0063
G1 Y31.0002
G2 Y31.0059 I2.0 J0.0
G0 Z3.0
M5
M30
