( Made using CamBam - http://www.cambam.co.uk )
( face plate 11/18/2013 9:05:04 PM )
( T4 : 4.0 )
G21 G90 G91.1 G64 G40
G0 Z3.0
( T4 : 4.0 )
T4 M6
( Profile1 )
G17
M3 S1000
G0 X99.9733 Y-1.9998
G0 Z1.0
G1 F25.0 Z-1.0
G1 F150.0 X74.9996 Y-2.0
G2 X74.1347 Y-1.8034 I0.0 J2.0
G1 X64.5451 Y2.7954
G1 X35.4549 Y2.7956
G1 X25.8652 Y-1.8032
G2 X25.0004 Y-1.9998 I-0.8648 J1.8034
G1 X0.0
G2 X-2.0 Y0.0002 I0.0 J2.0
G1 Y50.0002
G2 X0.0 Y52.0002 I2.0 J0.0
G1 X25.0004
G2 X25.8931 Y51.7899 I0.0 J-2.0
G1 X35.4712 Y47.0121
G1 X64.5287
G1 X74.1068 Y51.7899
G2 X74.9996 Y52.0002 I0.8927 J-1.7897
G1 X99.9996
G2 X101.4166 Y51.4116 I0.0 J-2.0
G1 X114.7747 Y38.0002
G1 X149.0982
G1 X157.5668 Y46.475
G2 X158.9815 Y47.0613 I1.4147 J-1.4137
G1 X171.1492
G2 X173.1492 Y45.0613 I0.0 J-2.0
G1 Y4.9389
G2 X171.1467 Y2.9389 I-2.0 J0.0
G1 X159.8114 Y2.9533
G1 X155.4597 Y-1.412
G2 X154.0433 Y-2.0 I-1.4164 J1.412
G1 X99.9996
G2 X99.9733 Y-1.9998 I0.0 J2.0
G1 F25.0 Z-2.0
G1 F150.0 X74.9996 Y-2.0
G2 X74.1347 Y-1.8034 I0.0 J2.0
G1 X64.5451 Y2.7954
G1 X35.4549 Y2.7956
G1 X25.8652 Y-1.8032
G2 X25.0004 Y-1.9998 I-0.8648 J1.8034
G1 X0.0
G2 X-2.0 Y0.0002 I0.0 J2.0
G1 Y50.0002
G2 X0.0 Y52.0002 I2.0 J0.0
G1 X25.0004
G2 X25.8931 Y51.7899 I0.0 J-2.0
G1 X35.4712 Y47.0121
G1 X64.5287
G1 X74.1068 Y51.7899
G2 X74.9996 Y52.0002 I0.8927 J-1.7897
G1 X99.9996
G2 X101.4166 Y51.4116 I0.0 J-2.0
G1 X114.7747 Y38.0002
G1 X149.0982
G1 X157.5668 Y46.475
G2 X158.9815 Y47.0613 I1.4147 J-1.4137
G1 X171.1492
G2 X173.1492 Y45.0613 I0.0 J-2.0
G1 Y4.9389
G2 X171.1467 Y2.9389 I-2.0 J0.0
G1 X159.8114 Y2.9533
G1 X155.4597 Y-1.412
G2 X154.0433 Y-2.0 I-1.4164 J1.412
G1 X99.9996
G2 X99.9733 Y-1.9998 I0.0 J2.0
G1 F25.0 Z-3.0
G1 F150.0 X74.9996 Y-2.0
G2 X74.1347 Y-1.8034 I0.0 J2.0
G1 X64.5451 Y2.7954
G1 X35.4549 Y2.7956
G1 X25.8652 Y-1.8032
G2 X25.0004 Y-1.9998 I-0.8648 J1.8034
G1 X0.0
G2 X-2.0 Y0.0002 I0.0 J2.0
G1 Y50.0002
G2 X0.0 Y52.0002 I2.0 J0.0
G1 X25.0004
G2 X25.8931 Y51.7899 I0.0 J-2.0
G1 X35.4712 Y47.0121
G1 X64.5287
G1 X74.1068 Y51.7899
G2 X74.9996 Y52.0002 I0.8927 J-1.7897
G1 X99.9996
G2 X101.4166 Y51.4116 I0.0 J-2.0
G1 X114.7747 Y38.0002
G1 X149.0982
G1 X157.5668 Y46.475
G2 X158.9815 Y47.0613 I1.4147 J-1.4137
G1 X171.1492
G2 X173.1492 Y45.0613 I0.0 J-2.0
G1 Y4.9389
G2 X171.1467 Y2.9389 I-2.0 J0.0
G1 X159.8114 Y2.9533
G1 X155.4597 Y-1.412
G2 X154.0433 Y-2.0 I-1.4164 J1.412
G1 X99.9996
G2 X99.9733 Y-1.9998 I0.0 J2.0
G1 F25.0 Z-4.0
G1 F150.0 X74.9996 Y-2.0
G2 X74.1347 Y-1.8034 I0.0 J2.0
G1 X64.5451 Y2.7954
G1 X35.4549 Y2.7956
G1 X25.8652 Y-1.8032
G2 X25.0004 Y-1.9998 I-0.8648 J1.8034
G1 X0.0
G2 X-2.0 Y0.0002 I0.0 J2.0
G1 Y50.0002
G2 X0.0 Y52.0002 I2.0 J0.0
G1 X25.0004
G2 X25.8931 Y51.7899 I0.0 J-2.0
G1 X35.4712 Y47.0121
G1 X64.5287
G1 X74.1068 Y51.7899
G2 X74.9996 Y52.0002 I0.8927 J-1.7897
G1 X99.9996
G2 X101.4166 Y51.4116 I0.0 J-2.0
G1 X114.7747 Y38.0002
G1 X149.0982
G1 X157.5668 Y46.475
G2 X158.9815 Y47.0613 I1.4147 J-1.4137
G1 X171.1492
G2 X173.1492 Y45.0613 I0.0 J-2.0
G1 Y4.9389
G2 X171.1467 Y2.9389 I-2.0 J0.0
G1 X159.8114 Y2.9533
G1 X155.4597 Y-1.412
G2 X154.0433 Y-2.0 I-1.4164 J1.412
G1 X99.9996
G2 X99.9733 Y-1.9998 I0.0 J2.0
G1 F25.0 Z-4.5
G1 F150.0 X74.9996 Y-2.0
G2 X74.1347 Y-1.8034 I0.0 J2.0
G1 X64.5451 Y2.7954
G1 X35.4549 Y2.7956
G1 X25.8652 Y-1.8032
G2 X25.0004 Y-1.9998 I-0.8648 J1.8034
G1 X0.0
G2 X-2.0 Y0.0002 I0.0 J2.0
G1 Y50.0002
G2 X0.0 Y52.0002 I2.0 J0.0
G1 X25.0004
G2 X25.8931 Y51.7899 I0.0 J-2.0
G1 X35.4712 Y47.0121
G1 X64.5287
G1 X74.1068 Y51.7899
G2 X74.9996 Y52.0002 I0.8927 J-1.7897
G1 X99.9996
G2 X101.4166 Y51.4116 I0.0 J-2.0
G1 X114.7747 Y38.0002
G1 X149.0982
G1 X157.5668 Y46.475
G2 X158.9815 Y47.0613 I1.4147 J-1.4137
G1 X171.1492
G2 X173.1492 Y45.0613 I0.0 J-2.0
G1 Y4.9389
G2 X171.1467 Y2.9389 I-2.0 J0.0
G1 X159.8114 Y2.9533
G1 X155.4597 Y-1.412
G2 X154.0433 Y-2.0 I-1.4164 J1.412
G1 X99.9996
G2 X99.9733 Y-1.9998 I0.0 J2.0
G0 Z3.0
M5
M30
