( Made using CamBam - http://www.cambam.co.uk )
( motor mount 2 11/4/2013 8:09:44 PM )
( T6 : 6.0 )
G21 G90 G91.1 G64 G40
G0 Z3.0
( T6 : 6.0 )
T6 M6
( Profile1 )
G17
M3 S1000
G0 X33.9985 Y43.0704
G0 Z1.0
G1 F25.0 Z-1.0
G3 F150.0 X30.1853 Y42.3128 I-0.0052 J-9.9496
G3 X26.9423 Y40.1427 I3.8373 J-9.2424
G2 X26.9384 Y40.1387 I-2.1225 J2.1201
G3 X24.0122 Y33.0742 I7.0337 J-7.0517
G2 Y33.0658 I-3.0 J-0.0039
G3 X24.7694 Y29.2444 I9.9457 J-0.015
G3 X26.9411 Y25.9993 I9.2745 J3.8578
G2 X26.9439 Y25.9966 I-2.1213 J-2.1213
G3 X34.0083 Y23.0704 I7.0516 J7.0335
G2 X34.0172 I0.0039 J-3.0
G3 X39.5657 Y24.7526 I0.0164 J9.9375
G2 X39.5675 Y24.7538 I1.6701 J-2.4922
G3 X43.2547 Y29.2434 I-5.5835 J8.3445
G3 X44.0123 Y33.0673 I-9.2204 J3.8138
G2 Y33.0748 I3.0 J0.003
G3 X43.2547 Y36.8972 I-9.9483 J0.0147
G3 X41.0845 Y40.1402 I-9.242 J-3.8371
G2 X41.0804 Y40.1443 I2.1201 J2.1226
G3 X34.0163 Y43.0704 I-7.0507 J-7.0316
G2 X34.0078 I-0.0041 J3.0
G3 X33.9985 I-0.0145 J-9.9496
G1 F25.0 Z-2.0
G3 F150.0 X30.1853 Y42.3128 I-0.0052 J-9.9496
G3 X26.9423 Y40.1427 I3.8373 J-9.2424
G2 X26.9384 Y40.1387 I-2.1225 J2.1201
G3 X24.0122 Y33.0742 I7.0337 J-7.0517
G2 Y33.0658 I-3.0 J-0.0039
G3 X24.7694 Y29.2444 I9.9457 J-0.015
G3 X26.9411 Y25.9993 I9.2745 J3.8578
G2 X26.9439 Y25.9966 I-2.1213 J-2.1213
G3 X34.0083 Y23.0704 I7.0516 J7.0335
G2 X34.0172 I0.0039 J-3.0
G3 X39.5657 Y24.7526 I0.0164 J9.9375
G2 X39.5675 Y24.7538 I1.6701 J-2.4922
G3 X43.2547 Y29.2434 I-5.5835 J8.3445
G3 X44.0123 Y33.0673 I-9.2204 J3.8138
G2 Y33.0748 I3.0 J0.003
G3 X43.2547 Y36.8972 I-9.9483 J0.0147
G3 X41.0845 Y40.1402 I-9.242 J-3.8371
G2 X41.0804 Y40.1443 I2.1201 J2.1226
G3 X34.0163 Y43.0704 I-7.0507 J-7.0316
G2 X34.0078 I-0.0041 J3.0
G3 X33.9985 I-0.0145 J-9.9496
G1 F25.0 Z-3.0
G3 F150.0 X30.1853 Y42.3128 I-0.0052 J-9.9496
G3 X26.9423 Y40.1427 I3.8373 J-9.2424
G2 X26.9384 Y40.1387 I-2.1225 J2.1201
G3 X24.0122 Y33.0742 I7.0337 J-7.0517
G2 Y33.0658 I-3.0 J-0.0039
G3 X24.7694 Y29.2444 I9.9457 J-0.015
G3 X26.9411 Y25.9993 I9.2745 J3.8578
G2 X26.9439 Y25.9966 I-2.1213 J-2.1213
G3 X34.0083 Y23.0704 I7.0516 J7.0335
G2 X34.0172 I0.0039 J-3.0
G3 X39.5657 Y24.7526 I0.0164 J9.9375
G2 X39.5675 Y24.7538 I1.6701 J-2.4922
G3 X43.2547 Y29.2434 I-5.5835 J8.3445
G3 X44.0123 Y33.0673 I-9.2204 J3.8138
G2 Y33.0748 I3.0 J0.003
G3 X43.2547 Y36.8972 I-9.9483 J0.0147
G3 X41.0845 Y40.1402 I-9.242 J-3.8371
G2 X41.0804 Y40.1443 I2.1201 J2.1226
G3 X34.0163 Y43.0704 I-7.0507 J-7.0316
G2 X34.0078 I-0.0041 J3.0
G3 X33.9985 I-0.0145 J-9.9496
G1 F25.0 Z-4.0
G3 F150.0 X30.1853 Y42.3128 I-0.0052 J-9.9496
G3 X26.9423 Y40.1427 I3.8373 J-9.2424
G2 X26.9384 Y40.1387 I-2.1225 J2.1201
G3 X24.0122 Y33.0742 I7.0337 J-7.0517
G2 Y33.0658 I-3.0 J-0.0039
G3 X24.7694 Y29.2444 I9.9457 J-0.015
G3 X26.9411 Y25.9993 I9.2745 J3.8578
G2 X26.9439 Y25.9966 I-2.1213 J-2.1213
G3 X34.0083 Y23.0704 I7.0516 J7.0335
G2 X34.0172 I0.0039 J-3.0
G3 X39.5657 Y24.7526 I0.0164 J9.9375
G2 X39.5675 Y24.7538 I1.6701 J-2.4922
G3 X43.2547 Y29.2434 I-5.5835 J8.3445
G3 X44.0123 Y33.0673 I-9.2204 J3.8138
G2 Y33.0748 I3.0 J0.003
G3 X43.2547 Y36.8972 I-9.9483 J0.0147
G3 X41.0845 Y40.1402 I-9.242 J-3.8371
G2 X41.0804 Y40.1443 I2.1201 J2.1226
G3 X34.0163 Y43.0704 I-7.0507 J-7.0316
G2 X34.0078 I-0.0041 J3.0
G3 X33.9985 I-0.0145 J-9.9496
G1 F25.0 Z-5.0
G3 F150.0 X30.1853 Y42.3128 I-0.0052 J-9.9496
G3 X26.9423 Y40.1427 I3.8373 J-9.2424
G2 X26.9384 Y40.1387 I-2.1225 J2.1201
G3 X24.0122 Y33.0742 I7.0337 J-7.0517
G2 Y33.0658 I-3.0 J-0.0039
G3 X24.7694 Y29.2444 I9.9457 J-0.015
G3 X26.9411 Y25.9993 I9.2745 J3.8578
G2 X26.9439 Y25.9966 I-2.1213 J-2.1213
G3 X34.0083 Y23.0704 I7.0516 J7.0335
G2 X34.0172 I0.0039 J-3.0
G3 X39.5657 Y24.7526 I0.0164 J9.9375
G2 X39.5675 Y24.7538 I1.6701 J-2.4922
G3 X43.2547 Y29.2434 I-5.5835 J8.3445
G3 X44.0123 Y33.0673 I-9.2204 J3.8138
G2 Y33.0748 I3.0 J0.003
G3 X43.2547 Y36.8972 I-9.9483 J0.0147
G3 X41.0845 Y40.1402 I-9.242 J-3.8371
G2 X41.0804 Y40.1443 I2.1201 J2.1226
G3 X34.0163 Y43.0704 I-7.0507 J-7.0316
G2 X34.0078 I-0.0041 J3.0
G3 X33.9985 I-0.0145 J-9.9496
G1 F25.0 Z-6.0
G3 F150.0 X30.1853 Y42.3128 I-0.0052 J-9.9496
G3 X26.9423 Y40.1427 I3.8373 J-9.2424
G2 X26.9384 Y40.1387 I-2.1225 J2.1201
G3 X24.0122 Y33.0742 I7.0337 J-7.0517
G2 Y33.0658 I-3.0 J-0.0039
G3 X24.7694 Y29.2444 I9.9457 J-0.015
G3 X26.9411 Y25.9993 I9.2745 J3.8578
G2 X26.9439 Y25.9966 I-2.1213 J-2.1213
G3 X34.0083 Y23.0704 I7.0516 J7.0335
G2 X34.0172 I0.0039 J-3.0
G3 X39.5657 Y24.7526 I0.0164 J9.9375
G2 X39.5675 Y24.7538 I1.6701 J-2.4922
G3 X43.2547 Y29.2434 I-5.5835 J8.3445
G3 X44.0123 Y33.0673 I-9.2204 J3.8138
G2 Y33.0748 I3.0 J0.003
G3 X43.2547 Y36.8972 I-9.9483 J0.0147
G3 X41.0845 Y40.1402 I-9.242 J-3.8371
G2 X41.0804 Y40.1443 I2.1201 J2.1226
G3 X34.0163 Y43.0704 I-7.0507 J-7.0316
G2 X34.0078 I-0.0041 J3.0
G3 X33.9985 I-0.0145 J-9.9496
G1 F25.0 Z-7.0
G3 F150.0 X30.1853 Y42.3128 I-0.0052 J-9.9496
G3 X26.9423 Y40.1427 I3.8373 J-9.2424
G2 X26.9384 Y40.1387 I-2.1225 J2.1201
G3 X24.0122 Y33.0742 I7.0337 J-7.0517
G2 Y33.0658 I-3.0 J-0.0039
G3 X24.7694 Y29.2444 I9.9457 J-0.015
G3 X26.9411 Y25.9993 I9.2745 J3.8578
G2 X26.9439 Y25.9966 I-2.1213 J-2.1213
G3 X34.0083 Y23.0704 I7.0516 J7.0335
G2 X34.0172 I0.0039 J-3.0
G3 X39.5657 Y24.7526 I0.0164 J9.9375
G2 X39.5675 Y24.7538 I1.6701 J-2.4922
G3 X43.2547 Y29.2434 I-5.5835 J8.3445
G3 X44.0123 Y33.0673 I-9.2204 J3.8138
G2 Y33.0748 I3.0 J0.003
G3 X43.2547 Y36.8972 I-9.9483 J0.0147
G3 X41.0845 Y40.1402 I-9.242 J-3.8371
G2 X41.0804 Y40.1443 I2.1201 J2.1226
G3 X34.0163 Y43.0704 I-7.0507 J-7.0316
G2 X34.0078 I-0.0041 J3.0
G3 X33.9985 I-0.0145 J-9.9496
G1 F25.0 Z-8.0
G3 F150.0 X30.1853 Y42.3128 I-0.0052 J-9.9496
G3 X26.9423 Y40.1427 I3.8373 J-9.2424
G2 X26.9384 Y40.1387 I-2.1225 J2.1201
G3 X24.0122 Y33.0742 I7.0337 J-7.0517
G2 Y33.0658 I-3.0 J-0.0039
G3 X24.7694 Y29.2444 I9.9457 J-0.015
G3 X26.9411 Y25.9993 I9.2745 J3.8578
G2 X26.9439 Y25.9966 I-2.1213 J-2.1213
G3 X34.0083 Y23.0704 I7.0516 J7.0335
G2 X34.0172 I0.0039 J-3.0
G3 X39.5657 Y24.7526 I0.0164 J9.9375
G2 X39.5675 Y24.7538 I1.6701 J-2.4922
G3 X43.2547 Y29.2434 I-5.5835 J8.3445
G3 X44.0123 Y33.0673 I-9.2204 J3.8138
G2 Y33.0748 I3.0 J0.003
G3 X43.2547 Y36.8972 I-9.9483 J0.0147
G3 X41.0845 Y40.1402 I-9.242 J-3.8371
G2 X41.0804 Y40.1443 I2.1201 J2.1226
G3 X34.0163 Y43.0704 I-7.0507 J-7.0316
G2 X34.0078 I-0.0041 J3.0
G3 X33.9985 I-0.0145 J-9.9496
G1 F25.0 Z-9.0
G3 F150.0 X30.1853 Y42.3128 I-0.0052 J-9.9496
G3 X26.9423 Y40.1427 I3.8373 J-9.2424
G2 X26.9384 Y40.1387 I-2.1225 J2.1201
G3 X24.0122 Y33.0742 I7.0337 J-7.0517
G2 Y33.0658 I-3.0 J-0.0039
G3 X24.7694 Y29.2444 I9.9457 J-0.015
G3 X26.9411 Y25.9993 I9.2745 J3.8578
G2 X26.9439 Y25.9966 I-2.1213 J-2.1213
G3 X34.0083 Y23.0704 I7.0516 J7.0335
G2 X34.0172 I0.0039 J-3.0
G3 X39.5657 Y24.7526 I0.0164 J9.9375
G2 X39.5675 Y24.7538 I1.6701 J-2.4922
G3 X43.2547 Y29.2434 I-5.5835 J8.3445
G3 X44.0123 Y33.0673 I-9.2204 J3.8138
G2 Y33.0748 I3.0 J0.003
G3 X43.2547 Y36.8972 I-9.9483 J0.0147
G3 X41.0845 Y40.1402 I-9.242 J-3.8371
G2 X41.0804 Y40.1443 I2.1201 J2.1226
G3 X34.0163 Y43.0704 I-7.0507 J-7.0316
G2 X34.0078 I-0.0041 J3.0
G3 X33.9985 I-0.0145 J-9.9496
G1 F25.0 Z-10.0
G3 F150.0 X30.1853 Y42.3128 I-0.0052 J-9.9496
G3 X26.9423 Y40.1427 I3.8373 J-9.2424
G2 X26.9384 Y40.1387 I-2.1225 J2.1201
G3 X24.0122 Y33.0742 I7.0337 J-7.0517
G2 Y33.0658 I-3.0 J-0.0039
G3 X24.7694 Y29.2444 I9.9457 J-0.015
G3 X26.9411 Y25.9993 I9.2745 J3.8578
G2 X26.9439 Y25.9966 I-2.1213 J-2.1213
G3 X34.0083 Y23.0704 I7.0516 J7.0335
G2 X34.0172 I0.0039 J-3.0
G3 X39.5657 Y24.7526 I0.0164 J9.9375
G2 X39.5675 Y24.7538 I1.6701 J-2.4922
G3 X43.2547 Y29.2434 I-5.5835 J8.3445
G3 X44.0123 Y33.0673 I-9.2204 J3.8138
G2 Y33.0748 I3.0 J0.003
G3 X43.2547 Y36.8972 I-9.9483 J0.0147
G3 X41.0845 Y40.1402 I-9.242 J-3.8371
G2 X41.0804 Y40.1443 I2.1201 J2.1226
G3 X34.0163 Y43.0704 I-7.0507 J-7.0316
G2 X34.0078 I-0.0041 J3.0
G3 X33.9985 I-0.0145 J-9.9496
G1 F25.0 Z-11.0
G3 F150.0 X30.1853 Y42.3128 I-0.0052 J-9.9496
G3 X26.9423 Y40.1427 I3.8373 J-9.2424
G2 X26.9384 Y40.1387 I-2.1225 J2.1201
G3 X24.0122 Y33.0742 I7.0337 J-7.0517
G2 Y33.0658 I-3.0 J-0.0039
G3 X24.7694 Y29.2444 I9.9457 J-0.015
G3 X26.9411 Y25.9993 I9.2745 J3.8578
G2 X26.9439 Y25.9966 I-2.1213 J-2.1213
G3 X34.0083 Y23.0704 I7.0516 J7.0335
G2 X34.0172 I0.0039 J-3.0
G3 X39.5657 Y24.7526 I0.0164 J9.9375
G2 X39.5675 Y24.7538 I1.6701 J-2.4922
G3 X43.2547 Y29.2434 I-5.5835 J8.3445
G3 X44.0123 Y33.0673 I-9.2204 J3.8138
G2 Y33.0748 I3.0 J0.003
G3 X43.2547 Y36.8972 I-9.9483 J0.0147
G3 X41.0845 Y40.1402 I-9.242 J-3.8371
G2 X41.0804 Y40.1443 I2.1201 J2.1226
G3 X34.0163 Y43.0704 I-7.0507 J-7.0316
G2 X34.0078 I-0.0041 J3.0
G3 X33.9985 I-0.0145 J-9.9496
( Pocket1 )
S1000
G0 Z3.0
G0 X20.3778 Y16.3218
G0 Z1.0
G1 F25.0 Z-1.0
G3 F150.0 X20.294 Y16.5242 I-0.2854 J0.0004
G2 X20.2853 Y16.5329 I2.9659 J2.9738
G3 X20.0832 Y16.6166 I-0.2017 J-0.2011
G2 X20.0712 Y16.6167 I-0.0054 J4.2
G3 X19.8709 Y16.5336 I-0.0004 J-0.2822
G2 X19.8621 Y16.5248 I-2.9751 J2.9646
G3 X19.7779 Y16.3215 I0.2025 J-0.2029
G2 Y16.3102 I-4.2 J-0.0057
G3 X19.862 Y16.1071 I0.2863 J-0.0004
G2 X19.8694 Y16.0996 I-2.9662 J-2.9735
G3 X20.073 Y16.0153 I0.2032 J0.2027
G2 X20.0824 I0.0049 J-4.2
G3 X20.286 Y16.0997 I0.0003 J0.2871
G2 X20.2929 Y16.1066 I2.9737 J-2.966
G3 X20.3778 Y16.3115 I-0.2042 J0.2047
G2 Y16.3218 I4.2 J0.0043
G1 F25.0 X21.5778 Y16.3201
G3 F150.0 X21.1414 Y17.3739 I-1.4854 J0.0021
G2 X21.1352 Y17.3801 I2.1185 J2.1242
G3 X20.0817 Y17.8166 I-1.0516 J-1.0482
G2 X20.0731 I-0.0038 J3.0
G3 X19.0208 Y17.3807 I-0.0023 J-1.4822
G2 X19.0145 Y17.3744 I-2.1251 J2.1176
G3 X18.5779 Y16.3199 I1.05 J-1.0525
G2 Y16.3118 I-3.0 J-0.0041
G3 X19.0145 Y15.2575 I1.4863 J-0.002
G2 X19.0198 Y15.2522 I-2.1187 J-2.124
G3 X20.0744 Y14.8153 I1.0528 J1.0502
G2 X20.0811 I0.0035 J-3.0
G3 X21.1357 Y15.2522 I0.0016 J1.4871
G2 X21.1406 Y15.2572 I2.1241 J-2.1185
G3 X21.5778 Y16.3127 I-1.0519 J1.054
G2 Y16.3201 I3.0 J0.0031
G1 F25.0 X20.3778 Y16.3218
G1 Z-2.0
G3 F150.0 X20.294 Y16.5242 I-0.2854 J0.0004
G2 X20.2853 Y16.5329 I2.9659 J2.9738
G3 X20.0832 Y16.6166 I-0.2017 J-0.2011
G2 X20.0712 Y16.6167 I-0.0054 J4.2
G3 X19.8709 Y16.5336 I-0.0004 J-0.2822
G2 X19.8621 Y16.5248 I-2.9751 J2.9646
G3 X19.7779 Y16.3215 I0.2025 J-0.2029
G2 Y16.3102 I-4.2 J-0.0057
G3 X19.862 Y16.1071 I0.2863 J-0.0004
G2 X19.8694 Y16.0996 I-2.9662 J-2.9735
G3 X20.073 Y16.0153 I0.2032 J0.2027
G2 X20.0824 I0.0049 J-4.2
G3 X20.286 Y16.0997 I0.0003 J0.2871
G2 X20.2929 Y16.1066 I2.9737 J-2.966
G3 X20.3778 Y16.3115 I-0.2042 J0.2047
G2 Y16.3218 I4.2 J0.0043
G1 F25.0 X21.5778 Y16.3201
G3 F150.0 X21.1414 Y17.3739 I-1.4854 J0.0021
G2 X21.1352 Y17.3801 I2.1185 J2.1242
G3 X20.0817 Y17.8166 I-1.0516 J-1.0482
G2 X20.0731 I-0.0038 J3.0
G3 X19.0208 Y17.3807 I-0.0023 J-1.4822
G2 X19.0145 Y17.3744 I-2.1251 J2.1176
G3 X18.5779 Y16.3199 I1.05 J-1.0525
G2 Y16.3118 I-3.0 J-0.0041
G3 X19.0145 Y15.2575 I1.4863 J-0.002
G2 X19.0198 Y15.2522 I-2.1187 J-2.124
G3 X20.0744 Y14.8153 I1.0528 J1.0502
G2 X20.0811 I0.0035 J-3.0
G3 X21.1357 Y15.2522 I0.0016 J1.4871
G2 X21.1406 Y15.2572 I2.1241 J-2.1185
G3 X21.5778 Y16.3127 I-1.0519 J1.054
G2 Y16.3201 I3.0 J0.0031
G1 F25.0 X20.3778 Y16.3218
G1 Z-3.0
G3 F150.0 X20.294 Y16.5242 I-0.2854 J0.0004
G2 X20.2853 Y16.5329 I2.9659 J2.9738
G3 X20.0832 Y16.6166 I-0.2017 J-0.2011
G2 X20.0712 Y16.6167 I-0.0054 J4.2
G3 X19.8709 Y16.5336 I-0.0004 J-0.2822
G2 X19.8621 Y16.5248 I-2.9751 J2.9646
G3 X19.7779 Y16.3215 I0.2025 J-0.2029
G2 Y16.3102 I-4.2 J-0.0057
G3 X19.862 Y16.1071 I0.2863 J-0.0004
G2 X19.8694 Y16.0996 I-2.9662 J-2.9735
G3 X20.073 Y16.0153 I0.2032 J0.2027
G2 X20.0824 I0.0049 J-4.2
G3 X20.286 Y16.0997 I0.0003 J0.2871
G2 X20.2929 Y16.1066 I2.9737 J-2.966
G3 X20.3778 Y16.3115 I-0.2042 J0.2047
G2 Y16.3218 I4.2 J0.0043
G1 F25.0 X21.5778 Y16.3201
G3 F150.0 X21.1414 Y17.3739 I-1.4854 J0.0021
G2 X21.1352 Y17.3801 I2.1185 J2.1242
G3 X20.0817 Y17.8166 I-1.0516 J-1.0482
G2 X20.0731 I-0.0038 J3.0
G3 X19.0208 Y17.3807 I-0.0023 J-1.4822
G2 X19.0145 Y17.3744 I-2.1251 J2.1176
G3 X18.5779 Y16.3199 I1.05 J-1.0525
G2 Y16.3118 I-3.0 J-0.0041
G3 X19.0145 Y15.2575 I1.4863 J-0.002
G2 X19.0198 Y15.2522 I-2.1187 J-2.124
G3 X20.0744 Y14.8153 I1.0528 J1.0502
G2 X20.0811 I0.0035 J-3.0
G3 X21.1357 Y15.2522 I0.0016 J1.4871
G2 X21.1406 Y15.2572 I2.1241 J-2.1185
G3 X21.5778 Y16.3127 I-1.0519 J1.054
G2 Y16.3201 I3.0 J0.0031
G1 F25.0 X20.3778 Y16.3218
G1 Z-4.0
G3 F150.0 X20.294 Y16.5242 I-0.2854 J0.0004
G2 X20.2853 Y16.5329 I2.9659 J2.9738
G3 X20.0832 Y16.6166 I-0.2017 J-0.2011
G2 X20.0712 Y16.6167 I-0.0054 J4.2
G3 X19.8709 Y16.5336 I-0.0004 J-0.2822
G2 X19.8621 Y16.5248 I-2.9751 J2.9646
G3 X19.7779 Y16.3215 I0.2025 J-0.2029
G2 Y16.3102 I-4.2 J-0.0057
G3 X19.862 Y16.1071 I0.2863 J-0.0004
G2 X19.8694 Y16.0996 I-2.9662 J-2.9735
G3 X20.073 Y16.0153 I0.2032 J0.2027
G2 X20.0824 I0.0049 J-4.2
G3 X20.286 Y16.0997 I0.0003 J0.2871
G2 X20.2929 Y16.1066 I2.9737 J-2.966
G3 X20.3778 Y16.3115 I-0.2042 J0.2047
G2 Y16.3218 I4.2 J0.0043
G1 F25.0 X21.5778 Y16.3201
G3 F150.0 X21.1414 Y17.3739 I-1.4854 J0.0021
G2 X21.1352 Y17.3801 I2.1185 J2.1242
G3 X20.0817 Y17.8166 I-1.0516 J-1.0482
G2 X20.0731 I-0.0038 J3.0
G3 X19.0208 Y17.3807 I-0.0023 J-1.4822
G2 X19.0145 Y17.3744 I-2.1251 J2.1176
G3 X18.5779 Y16.3199 I1.05 J-1.0525
G2 Y16.3118 I-3.0 J-0.0041
G3 X19.0145 Y15.2575 I1.4863 J-0.002
G2 X19.0198 Y15.2522 I-2.1187 J-2.124
G3 X20.0744 Y14.8153 I1.0528 J1.0502
G2 X20.0811 I0.0035 J-3.0
G3 X21.1357 Y15.2522 I0.0016 J1.4871
G2 X21.1406 Y15.2572 I2.1241 J-2.1185
G3 X21.5778 Y16.3127 I-1.0519 J1.054
G2 Y16.3201 I3.0 J0.0031
G1 F25.0 X20.3778 Y16.3218
G1 Z-5.0
G3 F150.0 X20.294 Y16.5242 I-0.2854 J0.0004
G2 X20.2853 Y16.5329 I2.9659 J2.9738
G3 X20.0832 Y16.6166 I-0.2017 J-0.2011
G2 X20.0712 Y16.6167 I-0.0054 J4.2
G3 X19.8709 Y16.5336 I-0.0004 J-0.2822
G2 X19.8621 Y16.5248 I-2.9751 J2.9646
G3 X19.7779 Y16.3215 I0.2025 J-0.2029
G2 Y16.3102 I-4.2 J-0.0057
G3 X19.862 Y16.1071 I0.2863 J-0.0004
G2 X19.8694 Y16.0996 I-2.9662 J-2.9735
G3 X20.073 Y16.0153 I0.2032 J0.2027
G2 X20.0824 I0.0049 J-4.2
G3 X20.286 Y16.0997 I0.0003 J0.2871
G2 X20.2929 Y16.1066 I2.9737 J-2.966
G3 X20.3778 Y16.3115 I-0.2042 J0.2047
G2 Y16.3218 I4.2 J0.0043
G1 F25.0 X21.5778 Y16.3201
G3 F150.0 X21.1414 Y17.3739 I-1.4854 J0.0021
G2 X21.1352 Y17.3801 I2.1185 J2.1242
G3 X20.0817 Y17.8166 I-1.0516 J-1.0482
G2 X20.0731 I-0.0038 J3.0
G3 X19.0208 Y17.3807 I-0.0023 J-1.4822
G2 X19.0145 Y17.3744 I-2.1251 J2.1176
G3 X18.5779 Y16.3199 I1.05 J-1.0525
G2 Y16.3118 I-3.0 J-0.0041
G3 X19.0145 Y15.2575 I1.4863 J-0.002
G2 X19.0198 Y15.2522 I-2.1187 J-2.124
G3 X20.0744 Y14.8153 I1.0528 J1.0502
G2 X20.0811 I0.0035 J-3.0
G3 X21.1357 Y15.2522 I0.0016 J1.4871
G2 X21.1406 Y15.2572 I2.1241 J-2.1185
G3 X21.5778 Y16.3127 I-1.0519 J1.054
G2 Y16.3201 I3.0 J0.0031
G1 F25.0 X20.3778 Y16.3218
G1 Z-6.0
G3 F150.0 X20.294 Y16.5242 I-0.2854 J0.0004
G2 X20.2853 Y16.5329 I2.9659 J2.9738
G3 X20.0832 Y16.6166 I-0.2017 J-0.2011
G2 X20.0712 Y16.6167 I-0.0054 J4.2
G3 X19.8709 Y16.5336 I-0.0004 J-0.2822
G2 X19.8621 Y16.5248 I-2.9751 J2.9646
G3 X19.7779 Y16.3215 I0.2025 J-0.2029
G2 Y16.3102 I-4.2 J-0.0057
G3 X19.862 Y16.1071 I0.2863 J-0.0004
G2 X19.8694 Y16.0996 I-2.9662 J-2.9735
G3 X20.073 Y16.0153 I0.2032 J0.2027
G2 X20.0824 I0.0049 J-4.2
G3 X20.286 Y16.0997 I0.0003 J0.2871
G2 X20.2929 Y16.1066 I2.9737 J-2.966
G3 X20.3778 Y16.3115 I-0.2042 J0.2047
G2 Y16.3218 I4.2 J0.0043
G1 F25.0 X21.5778 Y16.3201
G3 F150.0 X21.1414 Y17.3739 I-1.4854 J0.0021
G2 X21.1352 Y17.3801 I2.1185 J2.1242
G3 X20.0817 Y17.8166 I-1.0516 J-1.0482
G2 X20.0731 I-0.0038 J3.0
G3 X19.0208 Y17.3807 I-0.0023 J-1.4822
G2 X19.0145 Y17.3744 I-2.1251 J2.1176
G3 X18.5779 Y16.3199 I1.05 J-1.0525
G2 Y16.3118 I-3.0 J-0.0041
G3 X19.0145 Y15.2575 I1.4863 J-0.002
G2 X19.0198 Y15.2522 I-2.1187 J-2.124
G3 X20.0744 Y14.8153 I1.0528 J1.0502
G2 X20.0811 I0.0035 J-3.0
G3 X21.1357 Y15.2522 I0.0016 J1.4871
G2 X21.1406 Y15.2572 I2.1241 J-2.1185
G3 X21.5778 Y16.3127 I-1.0519 J1.054
G2 Y16.3201 I3.0 J0.0031
G1 F25.0 X20.3778 Y16.3218
G1 Z-7.0
G3 F150.0 X20.294 Y16.5242 I-0.2854 J0.0004
G2 X20.2853 Y16.5329 I2.9659 J2.9738
G3 X20.0832 Y16.6166 I-0.2017 J-0.2011
G2 X20.0712 Y16.6167 I-0.0054 J4.2
G3 X19.8709 Y16.5336 I-0.0004 J-0.2822
G2 X19.8621 Y16.5248 I-2.9751 J2.9646
G3 X19.7779 Y16.3215 I0.2025 J-0.2029
G2 Y16.3102 I-4.2 J-0.0057
G3 X19.862 Y16.1071 I0.2863 J-0.0004
G2 X19.8694 Y16.0996 I-2.9662 J-2.9735
G3 X20.073 Y16.0153 I0.2032 J0.2027
G2 X20.0824 I0.0049 J-4.2
G3 X20.286 Y16.0997 I0.0003 J0.2871
G2 X20.2929 Y16.1066 I2.9737 J-2.966
G3 X20.3778 Y16.3115 I-0.2042 J0.2047
G2 Y16.3218 I4.2 J0.0043
G1 F25.0 X21.5778 Y16.3201
G3 F150.0 X21.1414 Y17.3739 I-1.4854 J0.0021
G2 X21.1352 Y17.3801 I2.1185 J2.1242
G3 X20.0817 Y17.8166 I-1.0516 J-1.0482
G2 X20.0731 I-0.0038 J3.0
G3 X19.0208 Y17.3807 I-0.0023 J-1.4822
G2 X19.0145 Y17.3744 I-2.1251 J2.1176
G3 X18.5779 Y16.3199 I1.05 J-1.0525
G2 Y16.3118 I-3.0 J-0.0041
G3 X19.0145 Y15.2575 I1.4863 J-0.002
G2 X19.0198 Y15.2522 I-2.1187 J-2.124
G3 X20.0744 Y14.8153 I1.0528 J1.0502
G2 X20.0811 I0.0035 J-3.0
G3 X21.1357 Y15.2522 I0.0016 J1.4871
G2 X21.1406 Y15.2572 I2.1241 J-2.1185
G3 X21.5778 Y16.3127 I-1.0519 J1.054
G2 Y16.3201 I3.0 J0.0031
G1 F25.0 X20.3778 Y16.3218
G1 Z-8.0
G3 F150.0 X20.294 Y16.5242 I-0.2854 J0.0004
G2 X20.2853 Y16.5329 I2.9659 J2.9738
G3 X20.0832 Y16.6166 I-0.2017 J-0.2011
G2 X20.0712 Y16.6167 I-0.0054 J4.2
G3 X19.8709 Y16.5336 I-0.0004 J-0.2822
G2 X19.8621 Y16.5248 I-2.9751 J2.9646
G3 X19.7779 Y16.3215 I0.2025 J-0.2029
G2 Y16.3102 I-4.2 J-0.0057
G3 X19.862 Y16.1071 I0.2863 J-0.0004
G2 X19.8694 Y16.0996 I-2.9662 J-2.9735
G3 X20.073 Y16.0153 I0.2032 J0.2027
G2 X20.0824 I0.0049 J-4.2
G3 X20.286 Y16.0997 I0.0003 J0.2871
G2 X20.2929 Y16.1066 I2.9737 J-2.966
G3 X20.3778 Y16.3115 I-0.2042 J0.2047
G2 Y16.3218 I4.2 J0.0043
G1 F25.0 X21.5778 Y16.3201
G3 F150.0 X21.1414 Y17.3739 I-1.4854 J0.0021
G2 X21.1352 Y17.3801 I2.1185 J2.1242
G3 X20.0817 Y17.8166 I-1.0516 J-1.0482
G2 X20.0731 I-0.0038 J3.0
G3 X19.0208 Y17.3807 I-0.0023 J-1.4822
G2 X19.0145 Y17.3744 I-2.1251 J2.1176
G3 X18.5779 Y16.3199 I1.05 J-1.0525
G2 Y16.3118 I-3.0 J-0.0041
G3 X19.0145 Y15.2575 I1.4863 J-0.002
G2 X19.0198 Y15.2522 I-2.1187 J-2.124
G3 X20.0744 Y14.8153 I1.0528 J1.0502
G2 X20.0811 I0.0035 J-3.0
G3 X21.1357 Y15.2522 I0.0016 J1.4871
G2 X21.1406 Y15.2572 I2.1241 J-2.1185
G3 X21.5778 Y16.3127 I-1.0519 J1.054
G2 Y16.3201 I3.0 J0.0031
G1 F25.0 X20.3778 Y16.3218
G1 Z-9.0
G3 F150.0 X20.294 Y16.5242 I-0.2854 J0.0004
G2 X20.2853 Y16.5329 I2.9659 J2.9738
G3 X20.0832 Y16.6166 I-0.2017 J-0.2011
G2 X20.0712 Y16.6167 I-0.0054 J4.2
G3 X19.8709 Y16.5336 I-0.0004 J-0.2822
G2 X19.8621 Y16.5248 I-2.9751 J2.9646
G3 X19.7779 Y16.3215 I0.2025 J-0.2029
G2 Y16.3102 I-4.2 J-0.0057
G3 X19.862 Y16.1071 I0.2863 J-0.0004
G2 X19.8694 Y16.0996 I-2.9662 J-2.9735
G3 X20.073 Y16.0153 I0.2032 J0.2027
G2 X20.0824 I0.0049 J-4.2
G3 X20.286 Y16.0997 I0.0003 J0.2871
G2 X20.2929 Y16.1066 I2.9737 J-2.966
G3 X20.3778 Y16.3115 I-0.2042 J0.2047
G2 Y16.3218 I4.2 J0.0043
G1 F25.0 X21.5778 Y16.3201
G3 F150.0 X21.1414 Y17.3739 I-1.4854 J0.0021
G2 X21.1352 Y17.3801 I2.1185 J2.1242
G3 X20.0817 Y17.8166 I-1.0516 J-1.0482
G2 X20.0731 I-0.0038 J3.0
G3 X19.0208 Y17.3807 I-0.0023 J-1.4822
G2 X19.0145 Y17.3744 I-2.1251 J2.1176
G3 X18.5779 Y16.3199 I1.05 J-1.0525
G2 Y16.3118 I-3.0 J-0.0041
G3 X19.0145 Y15.2575 I1.4863 J-0.002
G2 X19.0198 Y15.2522 I-2.1187 J-2.124
G3 X20.0744 Y14.8153 I1.0528 J1.0502
G2 X20.0811 I0.0035 J-3.0
G3 X21.1357 Y15.2522 I0.0016 J1.4871
G2 X21.1406 Y15.2572 I2.1241 J-2.1185
G3 X21.5778 Y16.3127 I-1.0519 J1.054
G2 Y16.3201 I3.0 J0.0031
G1 F25.0 X20.3778 Y16.3218
G1 Z-10.0
G3 F150.0 X20.294 Y16.5242 I-0.2854 J0.0004
G2 X20.2853 Y16.5329 I2.9659 J2.9738
G3 X20.0832 Y16.6166 I-0.2017 J-0.2011
G2 X20.0712 Y16.6167 I-0.0054 J4.2
G3 X19.8709 Y16.5336 I-0.0004 J-0.2822
G2 X19.8621 Y16.5248 I-2.9751 J2.9646
G3 X19.7779 Y16.3215 I0.2025 J-0.2029
G2 Y16.3102 I-4.2 J-0.0057
G3 X19.862 Y16.1071 I0.2863 J-0.0004
G2 X19.8694 Y16.0996 I-2.9662 J-2.9735
G3 X20.073 Y16.0153 I0.2032 J0.2027
G2 X20.0824 I0.0049 J-4.2
G3 X20.286 Y16.0997 I0.0003 J0.2871
G2 X20.2929 Y16.1066 I2.9737 J-2.966
G3 X20.3778 Y16.3115 I-0.2042 J0.2047
G2 Y16.3218 I4.2 J0.0043
G1 F25.0 X21.5778 Y16.3201
G3 F150.0 X21.1414 Y17.3739 I-1.4854 J0.0021
G2 X21.1352 Y17.3801 I2.1185 J2.1242
G3 X20.0817 Y17.8166 I-1.0516 J-1.0482
G2 X20.0731 I-0.0038 J3.0
G3 X19.0208 Y17.3807 I-0.0023 J-1.4822
G2 X19.0145 Y17.3744 I-2.1251 J2.1176
G3 X18.5779 Y16.3199 I1.05 J-1.0525
G2 Y16.3118 I-3.0 J-0.0041
G3 X19.0145 Y15.2575 I1.4863 J-0.002
G2 X19.0198 Y15.2522 I-2.1187 J-2.124
G3 X20.0744 Y14.8153 I1.0528 J1.0502
G2 X20.0811 I0.0035 J-3.0
G3 X21.1357 Y15.2522 I0.0016 J1.4871
G2 X21.1406 Y15.2572 I2.1241 J-2.1185
G3 X21.5778 Y16.3127 I-1.0519 J1.054
G2 Y16.3201 I3.0 J0.0031
G1 F25.0 X20.3778 Y16.3218
G1 Z-11.0
G3 F150.0 X20.294 Y16.5242 I-0.2854 J0.0004
G2 X20.2853 Y16.5329 I2.9659 J2.9738
G3 X20.0832 Y16.6166 I-0.2017 J-0.2011
G2 X20.0712 Y16.6167 I-0.0054 J4.2
G3 X19.8709 Y16.5336 I-0.0004 J-0.2822
G2 X19.8621 Y16.5248 I-2.9751 J2.9646
G3 X19.7779 Y16.3215 I0.2025 J-0.2029
G2 Y16.3102 I-4.2 J-0.0057
G3 X19.862 Y16.1071 I0.2863 J-0.0004
G2 X19.8694 Y16.0996 I-2.9662 J-2.9735
G3 X20.073 Y16.0153 I0.2032 J0.2027
G2 X20.0824 I0.0049 J-4.2
G3 X20.286 Y16.0997 I0.0003 J0.2871
G2 X20.2929 Y16.1066 I2.9737 J-2.966
G3 X20.3778 Y16.3115 I-0.2042 J0.2047
G2 Y16.3218 I4.2 J0.0043
G1 F25.0 X21.5778 Y16.3201
G3 F150.0 X21.1414 Y17.3739 I-1.4854 J0.0021
G2 X21.1352 Y17.3801 I2.1185 J2.1242
G3 X20.0817 Y17.8166 I-1.0516 J-1.0482
G2 X20.0731 I-0.0038 J3.0
G3 X19.0208 Y17.3807 I-0.0023 J-1.4822
G2 X19.0145 Y17.3744 I-2.1251 J2.1176
G3 X18.5779 Y16.3199 I1.05 J-1.0525
G2 Y16.3118 I-3.0 J-0.0041
G3 X19.0145 Y15.2575 I1.4863 J-0.002
G2 X19.0198 Y15.2522 I-2.1187 J-2.124
G3 X20.0744 Y14.8153 I1.0528 J1.0502
G2 X20.0811 I0.0035 J-3.0
G3 X21.1357 Y15.2522 I0.0016 J1.4871
G2 X21.1406 Y15.2572 I2.1241 J-2.1185
G3 X21.5778 Y16.3127 I-1.0519 J1.054
G2 Y16.3201 I3.0 J0.0031
G0 Z3.0
G0 X47.7965 Y16.3225
G0 Z1.0
G1 F25.0 Z-1.0
G3 F150.0 Y16.3221 I0.2855 J0.0
G2 Y16.3091 I-4.2 J-0.0063
G3 X47.88 Y16.1073 I0.2843 J-0.0005
G2 X47.8885 Y16.0989 I-2.9657 J-2.974
G3 X48.0914 Y16.0148 I0.2026 J0.202
G2 X48.1015 I0.005 J-4.2
G3 X48.3036 Y16.0985 I0.0003 J0.2849
G2 X48.3118 Y16.1068 I2.9748 J-2.9649
G3 X48.3964 Y16.3111 I-0.2035 J0.2039
G2 Y16.3222 I4.2 J0.0047
G3 X48.3129 Y16.5239 I-0.2842 J0.0004
G2 X48.3038 Y16.533 I2.9655 J2.9742
G3 X48.1016 Y16.6168 I-0.2019 J-0.2012
G2 X48.091 I-0.0051 J4.2
G3 X47.8885 Y16.5329 I-0.0004 J-0.2854
G2 X47.8804 Y16.5247 I-2.9743 J2.9654
G3 X47.7965 Y16.3225 I0.2017 J-0.2022
G1 F25.0 X46.5965 Y16.3224
G3 F150.0 Y16.3203 I1.4855 J0.0001
G2 Y16.311 I-3.0 J-0.0045
G3 X47.0327 Y15.2576 I1.4843 J-0.0024
G2 X47.0387 Y15.2516 I-2.1183 J-2.1243
G3 X48.0929 Y14.8148 I1.0524 J1.0493
G2 X48.1001 I0.0036 J-3.0
G3 X49.1535 Y15.2514 I0.0018 J1.4849
G2 X49.1594 Y15.2573 I2.1248 J-2.1178
G3 X49.5964 Y16.3124 I-1.0511 J1.0534
G2 Y16.3203 I3.0 J0.0034
G3 X49.1602 Y17.3736 I-1.4842 J0.0023
G2 X49.1537 Y17.3802 I2.1182 J2.1244
G3 X48.1001 Y17.8168 I-1.0518 J-1.0484
G2 X48.0926 I-0.0036 J3.0
G3 X47.0388 Y17.3802 I-0.0019 J-1.4854
G2 X47.0329 Y17.3743 I-2.1245 J2.1181
G3 X46.5965 Y16.3224 I1.0491 J-1.0518
G1 F25.0 X47.7965 Y16.3225
G1 Z-2.0
G3 F150.0 Y16.3221 I0.2855 J0.0
G2 Y16.3091 I-4.2 J-0.0063
G3 X47.88 Y16.1073 I0.2843 J-0.0005
G2 X47.8885 Y16.0989 I-2.9657 J-2.974
G3 X48.0914 Y16.0148 I0.2026 J0.202
G2 X48.1015 I0.005 J-4.2
G3 X48.3036 Y16.0985 I0.0003 J0.2849
G2 X48.3118 Y16.1068 I2.9748 J-2.9649
G3 X48.3964 Y16.3111 I-0.2035 J0.2039
G2 Y16.3222 I4.2 J0.0047
G3 X48.3129 Y16.5239 I-0.2842 J0.0004
G2 X48.3038 Y16.533 I2.9655 J2.9742
G3 X48.1016 Y16.6168 I-0.2019 J-0.2012
G2 X48.091 I-0.0051 J4.2
G3 X47.8885 Y16.5329 I-0.0004 J-0.2854
G2 X47.8804 Y16.5247 I-2.9743 J2.9654
G3 X47.7965 Y16.3225 I0.2017 J-0.2022
G1 F25.0 X46.5965 Y16.3224
G3 F150.0 Y16.3203 I1.4855 J0.0001
G2 Y16.311 I-3.0 J-0.0045
G3 X47.0327 Y15.2576 I1.4843 J-0.0024
G2 X47.0387 Y15.2516 I-2.1183 J-2.1243
G3 X48.0929 Y14.8148 I1.0524 J1.0493
G2 X48.1001 I0.0036 J-3.0
G3 X49.1535 Y15.2514 I0.0018 J1.4849
G2 X49.1594 Y15.2573 I2.1248 J-2.1178
G3 X49.5964 Y16.3124 I-1.0511 J1.0534
G2 Y16.3203 I3.0 J0.0034
G3 X49.1602 Y17.3736 I-1.4842 J0.0023
G2 X49.1537 Y17.3802 I2.1182 J2.1244
G3 X48.1001 Y17.8168 I-1.0518 J-1.0484
G2 X48.0926 I-0.0036 J3.0
G3 X47.0388 Y17.3802 I-0.0019 J-1.4854
G2 X47.0329 Y17.3743 I-2.1245 J2.1181
G3 X46.5965 Y16.3224 I1.0491 J-1.0518
G1 F25.0 X47.7965 Y16.3225
G1 Z-3.0
G3 F150.0 Y16.3221 I0.2855 J0.0
G2 Y16.3091 I-4.2 J-0.0063
G3 X47.88 Y16.1073 I0.2843 J-0.0005
G2 X47.8885 Y16.0989 I-2.9657 J-2.974
G3 X48.0914 Y16.0148 I0.2026 J0.202
G2 X48.1015 I0.005 J-4.2
G3 X48.3036 Y16.0985 I0.0003 J0.2849
G2 X48.3118 Y16.1068 I2.9748 J-2.9649
G3 X48.3964 Y16.3111 I-0.2035 J0.2039
G2 Y16.3222 I4.2 J0.0047
G3 X48.3129 Y16.5239 I-0.2842 J0.0004
G2 X48.3038 Y16.533 I2.9655 J2.9742
G3 X48.1016 Y16.6168 I-0.2019 J-0.2012
G2 X48.091 I-0.0051 J4.2
G3 X47.8885 Y16.5329 I-0.0004 J-0.2854
G2 X47.8804 Y16.5247 I-2.9743 J2.9654
G3 X47.7965 Y16.3225 I0.2017 J-0.2022
G1 F25.0 X46.5965 Y16.3224
G3 F150.0 Y16.3203 I1.4855 J0.0001
G2 Y16.311 I-3.0 J-0.0045
G3 X47.0327 Y15.2576 I1.4843 J-0.0024
G2 X47.0387 Y15.2516 I-2.1183 J-2.1243
G3 X48.0929 Y14.8148 I1.0524 J1.0493
G2 X48.1001 I0.0036 J-3.0
G3 X49.1535 Y15.2514 I0.0018 J1.4849
G2 X49.1594 Y15.2573 I2.1248 J-2.1178
G3 X49.5964 Y16.3124 I-1.0511 J1.0534
G2 Y16.3203 I3.0 J0.0034
G3 X49.1602 Y17.3736 I-1.4842 J0.0023
G2 X49.1537 Y17.3802 I2.1182 J2.1244
G3 X48.1001 Y17.8168 I-1.0518 J-1.0484
G2 X48.0926 I-0.0036 J3.0
G3 X47.0388 Y17.3802 I-0.0019 J-1.4854
G2 X47.0329 Y17.3743 I-2.1245 J2.1181
G3 X46.5965 Y16.3224 I1.0491 J-1.0518
G1 F25.0 X47.7965 Y16.3225
G1 Z-4.0
G3 F150.0 Y16.3221 I0.2855 J0.0
G2 Y16.3091 I-4.2 J-0.0063
G3 X47.88 Y16.1073 I0.2843 J-0.0005
G2 X47.8885 Y16.0989 I-2.9657 J-2.974
G3 X48.0914 Y16.0148 I0.2026 J0.202
G2 X48.1015 I0.005 J-4.2
G3 X48.3036 Y16.0985 I0.0003 J0.2849
G2 X48.3118 Y16.1068 I2.9748 J-2.9649
G3 X48.3964 Y16.3111 I-0.2035 J0.2039
G2 Y16.3222 I4.2 J0.0047
G3 X48.3129 Y16.5239 I-0.2842 J0.0004
G2 X48.3038 Y16.533 I2.9655 J2.9742
G3 X48.1016 Y16.6168 I-0.2019 J-0.2012
G2 X48.091 I-0.0051 J4.2
G3 X47.8885 Y16.5329 I-0.0004 J-0.2854
G2 X47.8804 Y16.5247 I-2.9743 J2.9654
G3 X47.7965 Y16.3225 I0.2017 J-0.2022
G1 F25.0 X46.5965 Y16.3224
G3 F150.0 Y16.3203 I1.4855 J0.0001
G2 Y16.311 I-3.0 J-0.0045
G3 X47.0327 Y15.2576 I1.4843 J-0.0024
G2 X47.0387 Y15.2516 I-2.1183 J-2.1243
G3 X48.0929 Y14.8148 I1.0524 J1.0493
G2 X48.1001 I0.0036 J-3.0
G3 X49.1535 Y15.2514 I0.0018 J1.4849
G2 X49.1594 Y15.2573 I2.1248 J-2.1178
G3 X49.5964 Y16.3124 I-1.0511 J1.0534
G2 Y16.3203 I3.0 J0.0034
G3 X49.1602 Y17.3736 I-1.4842 J0.0023
G2 X49.1537 Y17.3802 I2.1182 J2.1244
G3 X48.1001 Y17.8168 I-1.0518 J-1.0484
G2 X48.0926 I-0.0036 J3.0
G3 X47.0388 Y17.3802 I-0.0019 J-1.4854
G2 X47.0329 Y17.3743 I-2.1245 J2.1181
G3 X46.5965 Y16.3224 I1.0491 J-1.0518
G1 F25.0 X47.7965 Y16.3225
G1 Z-5.0
G3 F150.0 Y16.3221 I0.2855 J0.0
G2 Y16.3091 I-4.2 J-0.0063
G3 X47.88 Y16.1073 I0.2843 J-0.0005
G2 X47.8885 Y16.0989 I-2.9657 J-2.974
G3 X48.0914 Y16.0148 I0.2026 J0.202
G2 X48.1015 I0.005 J-4.2
G3 X48.3036 Y16.0985 I0.0003 J0.2849
G2 X48.3118 Y16.1068 I2.9748 J-2.9649
G3 X48.3964 Y16.3111 I-0.2035 J0.2039
G2 Y16.3222 I4.2 J0.0047
G3 X48.3129 Y16.5239 I-0.2842 J0.0004
G2 X48.3038 Y16.533 I2.9655 J2.9742
G3 X48.1016 Y16.6168 I-0.2019 J-0.2012
G2 X48.091 I-0.0051 J4.2
G3 X47.8885 Y16.5329 I-0.0004 J-0.2854
G2 X47.8804 Y16.5247 I-2.9743 J2.9654
G3 X47.7965 Y16.3225 I0.2017 J-0.2022
G1 F25.0 X46.5965 Y16.3224
G3 F150.0 Y16.3203 I1.4855 J0.0001
G2 Y16.311 I-3.0 J-0.0045
G3 X47.0327 Y15.2576 I1.4843 J-0.0024
G2 X47.0387 Y15.2516 I-2.1183 J-2.1243
G3 X48.0929 Y14.8148 I1.0524 J1.0493
G2 X48.1001 I0.0036 J-3.0
G3 X49.1535 Y15.2514 I0.0018 J1.4849
G2 X49.1594 Y15.2573 I2.1248 J-2.1178
G3 X49.5964 Y16.3124 I-1.0511 J1.0534
G2 Y16.3203 I3.0 J0.0034
G3 X49.1602 Y17.3736 I-1.4842 J0.0023
G2 X49.1537 Y17.3802 I2.1182 J2.1244
G3 X48.1001 Y17.8168 I-1.0518 J-1.0484
G2 X48.0926 I-0.0036 J3.0
G3 X47.0388 Y17.3802 I-0.0019 J-1.4854
G2 X47.0329 Y17.3743 I-2.1245 J2.1181
G3 X46.5965 Y16.3224 I1.0491 J-1.0518
G1 F25.0 X47.7965 Y16.3225
G1 Z-6.0
G3 F150.0 Y16.3221 I0.2855 J0.0
G2 Y16.3091 I-4.2 J-0.0063
G3 X47.88 Y16.1073 I0.2843 J-0.0005
G2 X47.8885 Y16.0989 I-2.9657 J-2.974
G3 X48.0914 Y16.0148 I0.2026 J0.202
G2 X48.1015 I0.005 J-4.2
G3 X48.3036 Y16.0985 I0.0003 J0.2849
G2 X48.3118 Y16.1068 I2.9748 J-2.9649
G3 X48.3964 Y16.3111 I-0.2035 J0.2039
G2 Y16.3222 I4.2 J0.0047
G3 X48.3129 Y16.5239 I-0.2842 J0.0004
G2 X48.3038 Y16.533 I2.9655 J2.9742
G3 X48.1016 Y16.6168 I-0.2019 J-0.2012
G2 X48.091 I-0.0051 J4.2
G3 X47.8885 Y16.5329 I-0.0004 J-0.2854
G2 X47.8804 Y16.5247 I-2.9743 J2.9654
G3 X47.7965 Y16.3225 I0.2017 J-0.2022
G1 F25.0 X46.5965 Y16.3224
G3 F150.0 Y16.3203 I1.4855 J0.0001
G2 Y16.311 I-3.0 J-0.0045
G3 X47.0327 Y15.2576 I1.4843 J-0.0024
G2 X47.0387 Y15.2516 I-2.1183 J-2.1243
G3 X48.0929 Y14.8148 I1.0524 J1.0493
G2 X48.1001 I0.0036 J-3.0
G3 X49.1535 Y15.2514 I0.0018 J1.4849
G2 X49.1594 Y15.2573 I2.1248 J-2.1178
G3 X49.5964 Y16.3124 I-1.0511 J1.0534
G2 Y16.3203 I3.0 J0.0034
G3 X49.1602 Y17.3736 I-1.4842 J0.0023
G2 X49.1537 Y17.3802 I2.1182 J2.1244
G3 X48.1001 Y17.8168 I-1.0518 J-1.0484
G2 X48.0926 I-0.0036 J3.0
G3 X47.0388 Y17.3802 I-0.0019 J-1.4854
G2 X47.0329 Y17.3743 I-2.1245 J2.1181
G3 X46.5965 Y16.3224 I1.0491 J-1.0518
G1 F25.0 X47.7965 Y16.3225
G1 Z-7.0
G3 F150.0 Y16.3221 I0.2855 J0.0
G2 Y16.3091 I-4.2 J-0.0063
G3 X47.88 Y16.1073 I0.2843 J-0.0005
G2 X47.8885 Y16.0989 I-2.9657 J-2.974
G3 X48.0914 Y16.0148 I0.2026 J0.202
G2 X48.1015 I0.005 J-4.2
G3 X48.3036 Y16.0985 I0.0003 J0.2849
G2 X48.3118 Y16.1068 I2.9748 J-2.9649
G3 X48.3964 Y16.3111 I-0.2035 J0.2039
G2 Y16.3222 I4.2 J0.0047
G3 X48.3129 Y16.5239 I-0.2842 J0.0004
G2 X48.3038 Y16.533 I2.9655 J2.9742
G3 X48.1016 Y16.6168 I-0.2019 J-0.2012
G2 X48.091 I-0.0051 J4.2
G3 X47.8885 Y16.5329 I-0.0004 J-0.2854
G2 X47.8804 Y16.5247 I-2.9743 J2.9654
G3 X47.7965 Y16.3225 I0.2017 J-0.2022
G1 F25.0 X46.5965 Y16.3224
G3 F150.0 Y16.3203 I1.4855 J0.0001
G2 Y16.311 I-3.0 J-0.0045
G3 X47.0327 Y15.2576 I1.4843 J-0.0024
G2 X47.0387 Y15.2516 I-2.1183 J-2.1243
G3 X48.0929 Y14.8148 I1.0524 J1.0493
G2 X48.1001 I0.0036 J-3.0
G3 X49.1535 Y15.2514 I0.0018 J1.4849
G2 X49.1594 Y15.2573 I2.1248 J-2.1178
G3 X49.5964 Y16.3124 I-1.0511 J1.0534
G2 Y16.3203 I3.0 J0.0034
G3 X49.1602 Y17.3736 I-1.4842 J0.0023
G2 X49.1537 Y17.3802 I2.1182 J2.1244
G3 X48.1001 Y17.8168 I-1.0518 J-1.0484
G2 X48.0926 I-0.0036 J3.0
G3 X47.0388 Y17.3802 I-0.0019 J-1.4854
G2 X47.0329 Y17.3743 I-2.1245 J2.1181
G3 X46.5965 Y16.3224 I1.0491 J-1.0518
G1 F25.0 X47.7965 Y16.3225
G1 Z-8.0
G3 F150.0 Y16.3221 I0.2855 J0.0
G2 Y16.3091 I-4.2 J-0.0063
G3 X47.88 Y16.1073 I0.2843 J-0.0005
G2 X47.8885 Y16.0989 I-2.9657 J-2.974
G3 X48.0914 Y16.0148 I0.2026 J0.202
G2 X48.1015 I0.005 J-4.2
G3 X48.3036 Y16.0985 I0.0003 J0.2849
G2 X48.3118 Y16.1068 I2.9748 J-2.9649
G3 X48.3964 Y16.3111 I-0.2035 J0.2039
G2 Y16.3222 I4.2 J0.0047
G3 X48.3129 Y16.5239 I-0.2842 J0.0004
G2 X48.3038 Y16.533 I2.9655 J2.9742
G3 X48.1016 Y16.6168 I-0.2019 J-0.2012
G2 X48.091 I-0.0051 J4.2
G3 X47.8885 Y16.5329 I-0.0004 J-0.2854
G2 X47.8804 Y16.5247 I-2.9743 J2.9654
G3 X47.7965 Y16.3225 I0.2017 J-0.2022
G1 F25.0 X46.5965 Y16.3224
G3 F150.0 Y16.3203 I1.4855 J0.0001
G2 Y16.311 I-3.0 J-0.0045
G3 X47.0327 Y15.2576 I1.4843 J-0.0024
G2 X47.0387 Y15.2516 I-2.1183 J-2.1243
G3 X48.0929 Y14.8148 I1.0524 J1.0493
G2 X48.1001 I0.0036 J-3.0
G3 X49.1535 Y15.2514 I0.0018 J1.4849
G2 X49.1594 Y15.2573 I2.1248 J-2.1178
G3 X49.5964 Y16.3124 I-1.0511 J1.0534
G2 Y16.3203 I3.0 J0.0034
G3 X49.1602 Y17.3736 I-1.4842 J0.0023
G2 X49.1537 Y17.3802 I2.1182 J2.1244
G3 X48.1001 Y17.8168 I-1.0518 J-1.0484
G2 X48.0926 I-0.0036 J3.0
G3 X47.0388 Y17.3802 I-0.0019 J-1.4854
G2 X47.0329 Y17.3743 I-2.1245 J2.1181
G3 X46.5965 Y16.3224 I1.0491 J-1.0518
G1 F25.0 X47.7965 Y16.3225
G1 Z-9.0
G3 F150.0 Y16.3221 I0.2855 J0.0
G2 Y16.3091 I-4.2 J-0.0063
G3 X47.88 Y16.1073 I0.2843 J-0.0005
G2 X47.8885 Y16.0989 I-2.9657 J-2.974
G3 X48.0914 Y16.0148 I0.2026 J0.202
G2 X48.1015 I0.005 J-4.2
G3 X48.3036 Y16.0985 I0.0003 J0.2849
G2 X48.3118 Y16.1068 I2.9748 J-2.9649
G3 X48.3964 Y16.3111 I-0.2035 J0.2039
G2 Y16.3222 I4.2 J0.0047
G3 X48.3129 Y16.5239 I-0.2842 J0.0004
G2 X48.3038 Y16.533 I2.9655 J2.9742
G3 X48.1016 Y16.6168 I-0.2019 J-0.2012
G2 X48.091 I-0.0051 J4.2
G3 X47.8885 Y16.5329 I-0.0004 J-0.2854
G2 X47.8804 Y16.5247 I-2.9743 J2.9654
G3 X47.7965 Y16.3225 I0.2017 J-0.2022
G1 F25.0 X46.5965 Y16.3224
G3 F150.0 Y16.3203 I1.4855 J0.0001
G2 Y16.311 I-3.0 J-0.0045
G3 X47.0327 Y15.2576 I1.4843 J-0.0024
G2 X47.0387 Y15.2516 I-2.1183 J-2.1243
G3 X48.0929 Y14.8148 I1.0524 J1.0493
G2 X48.1001 I0.0036 J-3.0
G3 X49.1535 Y15.2514 I0.0018 J1.4849
G2 X49.1594 Y15.2573 I2.1248 J-2.1178
G3 X49.5964 Y16.3124 I-1.0511 J1.0534
G2 Y16.3203 I3.0 J0.0034
G3 X49.1602 Y17.3736 I-1.4842 J0.0023
G2 X49.1537 Y17.3802 I2.1182 J2.1244
G3 X48.1001 Y17.8168 I-1.0518 J-1.0484
G2 X48.0926 I-0.0036 J3.0
G3 X47.0388 Y17.3802 I-0.0019 J-1.4854
G2 X47.0329 Y17.3743 I-2.1245 J2.1181
G3 X46.5965 Y16.3224 I1.0491 J-1.0518
G1 F25.0 X47.7965 Y16.3225
G1 Z-10.0
G3 F150.0 Y16.3221 I0.2855 J0.0
G2 Y16.3091 I-4.2 J-0.0063
G3 X47.88 Y16.1073 I0.2843 J-0.0005
G2 X47.8885 Y16.0989 I-2.9657 J-2.974
G3 X48.0914 Y16.0148 I0.2026 J0.202
G2 X48.1015 I0.005 J-4.2
G3 X48.3036 Y16.0985 I0.0003 J0.2849
G2 X48.3118 Y16.1068 I2.9748 J-2.9649
G3 X48.3964 Y16.3111 I-0.2035 J0.2039
G2 Y16.3222 I4.2 J0.0047
G3 X48.3129 Y16.5239 I-0.2842 J0.0004
G2 X48.3038 Y16.533 I2.9655 J2.9742
G3 X48.1016 Y16.6168 I-0.2019 J-0.2012
G2 X48.091 I-0.0051 J4.2
G3 X47.8885 Y16.5329 I-0.0004 J-0.2854
G2 X47.8804 Y16.5247 I-2.9743 J2.9654
G3 X47.7965 Y16.3225 I0.2017 J-0.2022
G1 F25.0 X46.5965 Y16.3224
G3 F150.0 Y16.3203 I1.4855 J0.0001
G2 Y16.311 I-3.0 J-0.0045
G3 X47.0327 Y15.2576 I1.4843 J-0.0024
G2 X47.0387 Y15.2516 I-2.1183 J-2.1243
G3 X48.0929 Y14.8148 I1.0524 J1.0493
G2 X48.1001 I0.0036 J-3.0
G3 X49.1535 Y15.2514 I0.0018 J1.4849
G2 X49.1594 Y15.2573 I2.1248 J-2.1178
G3 X49.5964 Y16.3124 I-1.0511 J1.0534
G2 Y16.3203 I3.0 J0.0034
G3 X49.1602 Y17.3736 I-1.4842 J0.0023
G2 X49.1537 Y17.3802 I2.1182 J2.1244
G3 X48.1001 Y17.8168 I-1.0518 J-1.0484
G2 X48.0926 I-0.0036 J3.0
G3 X47.0388 Y17.3802 I-0.0019 J-1.4854
G2 X47.0329 Y17.3743 I-2.1245 J2.1181
G3 X46.5965 Y16.3224 I1.0491 J-1.0518
G1 F25.0 X47.7965 Y16.3225
G1 Z-11.0
G3 F150.0 Y16.3221 I0.2855 J0.0
G2 Y16.3091 I-4.2 J-0.0063
G3 X47.88 Y16.1073 I0.2843 J-0.0005
G2 X47.8885 Y16.0989 I-2.9657 J-2.974
G3 X48.0914 Y16.0148 I0.2026 J0.202
G2 X48.1015 I0.005 J-4.2
G3 X48.3036 Y16.0985 I0.0003 J0.2849
G2 X48.3118 Y16.1068 I2.9748 J-2.9649
G3 X48.3964 Y16.3111 I-0.2035 J0.2039
G2 Y16.3222 I4.2 J0.0047
G3 X48.3129 Y16.5239 I-0.2842 J0.0004
G2 X48.3038 Y16.533 I2.9655 J2.9742
G3 X48.1016 Y16.6168 I-0.2019 J-0.2012
G2 X48.091 I-0.0051 J4.2
G3 X47.8885 Y16.5329 I-0.0004 J-0.2854
G2 X47.8804 Y16.5247 I-2.9743 J2.9654
G3 X47.7965 Y16.3225 I0.2017 J-0.2022
G1 F25.0 X46.5965 Y16.3224
G3 F150.0 Y16.3203 I1.4855 J0.0001
G2 Y16.311 I-3.0 J-0.0045
G3 X47.0327 Y15.2576 I1.4843 J-0.0024
G2 X47.0387 Y15.2516 I-2.1183 J-2.1243
G3 X48.0929 Y14.8148 I1.0524 J1.0493
G2 X48.1001 I0.0036 J-3.0
G3 X49.1535 Y15.2514 I0.0018 J1.4849
G2 X49.1594 Y15.2573 I2.1248 J-2.1178
G3 X49.5964 Y16.3124 I-1.0511 J1.0534
G2 Y16.3203 I3.0 J0.0034
G3 X49.1602 Y17.3736 I-1.4842 J0.0023
G2 X49.1537 Y17.3802 I2.1182 J2.1244
G3 X48.1001 Y17.8168 I-1.0518 J-1.0484
G2 X48.0926 I-0.0036 J3.0
G3 X47.0388 Y17.3802 I-0.0019 J-1.4854
G2 X47.0329 Y17.3743 I-2.1245 J2.1181
G3 X46.5965 Y16.3224 I1.0491 J-1.0518
( Pocket2 )
S1000
G0 Z3.0
G0 X56.7745 Y14.4677
G0 Z1.0
G1 F25.0 Z-1.0
G2 F150.0 X53.8774 Y11.4 I-22.8187 J18.648
G1 X56.7745
G1 Y14.4677
G1 F25.0 X55.8453 Y15.227
G2 F150.0 X50.5095 Y10.2 I-21.8895 J17.8886
G1 X57.9745
G1 Y18.2074
G2 X55.8453 Y15.227 I-24.0187 J14.9083
G1 F25.0 X53.9869 Y16.7457
G2 F150.0 X48.1579 Y11.4934 I-20.0311 J16.3699
G2 X39.2312 Y7.8 I-14.1173 J21.4861
G1 X60.3745
G1 Y24.8319
G1 X58.4606
G2 X57.6631 Y22.7628 I-24.3896 J8.2116
G2 X57.6597 Y22.7548 I-7.1506 J3.116
G2 X53.9869 Y16.7457 I-23.7039 J10.3609
G0 Z3.0
G0 X14.1466 Y11.4
G0 Z1.0
G1 F25.0 Z-1.0
G2 F150.0 X11.4 Y14.2847 I19.9054 J21.7021
G1 Y11.4
G1 X14.1466
G1 F25.0 X14.9577 Y12.2843
G2 F150.0 X10.8129 Y17.0423 I19.0943 J20.8177
G2 X10.2 Y17.9668 I23.1278 J15.9986
G1 Y10.2
G1 X17.5152
G2 X14.9577 Y12.2843 I16.5368 J22.9021
G1 F25.0 X16.58 Y14.053
G2 F150.0 X12.787 Y18.4072 I17.472 J19.0491
G2 X9.5637 Y24.8319 I21.1537 J14.6337
G1 X7.8
G1 Y7.8
G1 X28.7958
G2 X24.2835 Y9.1706 I5.1939 J25.2117
G2 X24.274 Y9.1745 I2.9411 J7.2242
G2 X16.58 Y14.053 I9.778 J23.9276
G1 F25.0 X18.2022 Y15.8217
G2 F150.0 X14.7611 Y19.7721 I15.8498 J17.2804
G2 X11.3537 Y27.2319 I19.1796 J13.2688
G1 X5.4
G1 Y5.4
G1 X62.7745
G1 Y27.2319
G1 X56.6706
G2 X55.463 Y23.7215 I-22.5995 J5.8116
G2 X55.4606 Y23.716 I-4.9504 J2.1572
G2 X46.8401 Y13.4993 I-21.5048 J9.3996
G2 X34.0113 Y9.6706 I-12.7996 J19.4802
G2 X25.1884 Y11.3935 I-0.0217 J23.3411
G2 X25.1819 Y11.3962 I2.0362 J5.0014
G2 X18.2022 Y15.8217 I8.8701 J21.7059
G1 F25.0 X19.8245 Y17.5904
G2 F150.0 X16.7352 Y21.137 I14.2275 J15.5117
G2 X13.2982 Y29.6319 I17.2055 J11.9039
G1 X3.0
G1 Y3.0
G1 X65.1745
G1 Y29.6319
G1 X54.726
G2 X53.2628 Y24.6803 I-20.655 J3.4116
G2 X53.2615 Y24.6773 I-2.7502 J1.1985
G2 X45.5224 Y15.5052 I-19.3057 J8.4384
G2 X34.0117 Y12.0706 I-11.4819 J17.4743
G2 X26.0934 Y13.6163 I-0.0221 J20.9411
G2 X26.0898 Y13.6178 I1.1312 J2.7786
G2 X19.8245 Y17.5904 I7.9622 J19.4843
G0 Z3.0
G0 X14.1466 Y11.4
G0 Z0.0
G1 F25.0 Z-2.0
G2 F150.0 X11.4 Y14.2847 I19.9054 J21.7021
G1 Y11.4
G1 X14.1466
G1 F25.0 X14.9577 Y12.2843
G2 F150.0 X10.8129 Y17.0423 I19.0943 J20.8177
G2 X10.2 Y17.9668 I23.1278 J15.9986
G1 Y10.2
G1 X17.5152
G2 X14.9577 Y12.2843 I16.5368 J22.9021
G1 F25.0 X16.58 Y14.053
G2 F150.0 X12.787 Y18.4072 I17.472 J19.0491
G2 X9.5637 Y24.8319 I21.1537 J14.6337
G1 X7.8
G1 Y7.8
G1 X28.7958
G2 X24.2835 Y9.1706 I5.1939 J25.2117
G2 X24.274 Y9.1745 I2.9411 J7.2242
G2 X16.58 Y14.053 I9.778 J23.9276
G0 Z3.0
G0 X53.8774 Y11.4
G0 Z0.0
G1 F25.0 Z-2.0
G1 F150.0 X56.7745
G1 Y14.4677
G2 X53.8774 Y11.4 I-22.8187 J18.648
G1 F25.0 Y10.2
G1 F150.0 X57.9745
G1 Y18.2074
G2 X50.5095 Y10.2 I-24.0187 J14.9083
G1 X53.8774
G1 F25.0 Y7.8
G1 F150.0 X60.3745
G1 Y24.8319
G1 X58.4606
G2 X57.6631 Y22.7628 I-24.3896 J8.2116
G2 X57.6597 Y22.7548 I-7.1506 J3.116
G2 X48.1579 Y11.4934 I-23.7039 J10.3609
G2 X39.2312 Y7.8 I-14.1173 J21.4861
G1 X53.8774
G1 F25.0 Y5.4
G1 F150.0 X62.7745
G1 Y27.2319
G1 X56.6706
G2 X55.463 Y23.7215 I-22.5995 J5.8116
G2 X55.4606 Y23.716 I-4.9504 J2.1572
G2 X46.8401 Y13.4993 I-21.5048 J9.3996
G2 X34.0113 Y9.6706 I-12.7996 J19.4802
G2 X25.1884 Y11.3935 I-0.0217 J23.3411
G2 X25.1819 Y11.3962 I2.0362 J5.0014
G2 X14.7611 Y19.7721 I8.8701 J21.7059
G2 X11.3537 Y27.2319 I19.1796 J13.2688
G1 X5.4
G1 Y5.4
G1 X53.8774
G1 F25.0 Y3.0
G1 F150.0 X65.1745
G1 Y29.6319
G1 X54.726
G2 X53.2628 Y24.6803 I-20.655 J3.4116
G2 X53.2615 Y24.6773 I-2.7502 J1.1985
G2 X45.5224 Y15.5052 I-19.3057 J8.4384
G2 X34.0117 Y12.0706 I-11.4819 J17.4743
G2 X26.0934 Y13.6163 I-0.0221 J20.9411
G2 X26.0898 Y13.6178 I1.1312 J2.7786
G2 X16.7352 Y21.137 I7.9622 J19.4843
G2 X13.2982 Y29.6319 I17.2055 J11.9039
G1 X3.0
G1 Y3.0
G1 X53.8774
G0 Z3.0
G0 Y11.4
G0 Z-1.0
G1 F25.0 Z-3.0
G1 F150.0 X56.7745
G1 Y14.4677
G2 X53.8774 Y11.4 I-22.8187 J18.648
G1 F25.0 Y10.2
G1 F150.0 X57.9745
G1 Y18.2074
G2 X50.5095 Y10.2 I-24.0187 J14.9083
G1 X53.8774
G1 F25.0 Y7.8
G1 F150.0 X60.3745
G1 Y24.8319
G1 X58.4606
G2 X57.6631 Y22.7628 I-24.3896 J8.2116
G2 X57.6597 Y22.7548 I-7.1506 J3.116
G2 X48.1579 Y11.4934 I-23.7039 J10.3609
G2 X39.2312 Y7.8 I-14.1173 J21.4861
G1 X53.8774
G0 Z3.0
G0 X14.1466 Y11.4
G0 Z-1.0
G1 F25.0 Z-3.0
G2 F150.0 X11.4 Y14.2847 I19.9054 J21.7021
G1 Y11.4
G1 X14.1466
G1 F25.0 X14.9577 Y12.2843
G2 F150.0 X10.8129 Y17.0423 I19.0943 J20.8177
G2 X10.2 Y17.9668 I23.1278 J15.9986
G1 Y10.2
G1 X17.5152
G2 X14.9577 Y12.2843 I16.5368 J22.9021
G1 F25.0 X16.58 Y14.053
G2 F150.0 X12.787 Y18.4072 I17.472 J19.0491
G2 X9.5637 Y24.8319 I21.1537 J14.6337
G1 X7.8
G1 Y7.8
G1 X28.7958
G2 X24.2835 Y9.1706 I5.1939 J25.2117
G2 X24.274 Y9.1745 I2.9411 J7.2242
G2 X16.58 Y14.053 I9.778 J23.9276
G1 F25.0 X18.2022 Y15.8217
G2 F150.0 X14.7611 Y19.7721 I15.8498 J17.2804
G2 X11.3537 Y27.2319 I19.1796 J13.2688
G1 X5.4
G1 Y5.4
G1 X62.7745
G1 Y27.2319
G1 X56.6706
G2 X55.463 Y23.7215 I-22.5995 J5.8116
G2 X55.4606 Y23.716 I-4.9504 J2.1572
G2 X46.8401 Y13.4993 I-21.5048 J9.3996
G2 X34.0113 Y9.6706 I-12.7996 J19.4802
G2 X25.1884 Y11.3935 I-0.0217 J23.3411
G2 X25.1819 Y11.3962 I2.0362 J5.0014
G2 X18.2022 Y15.8217 I8.8701 J21.7059
G1 F25.0 X19.8245 Y17.5904
G2 F150.0 X16.7352 Y21.137 I14.2275 J15.5117
G2 X13.2982 Y29.6319 I17.2055 J11.9039
G1 X3.0
G1 Y3.0
G1 X65.1745
G1 Y29.6319
G1 X54.726
G2 X53.2628 Y24.6803 I-20.655 J3.4116
G2 X53.2615 Y24.6773 I-2.7502 J1.1985
G2 X45.5224 Y15.5052 I-19.3057 J8.4384
G2 X34.0117 Y12.0706 I-11.4819 J17.4743
G2 X26.0934 Y13.6163 I-0.0221 J20.9411
G2 X26.0898 Y13.6178 I1.1312 J2.7786
G2 X19.8245 Y17.5904 I7.9622 J19.4843
G0 Z3.0
G0 X14.1466 Y11.4
G0 Z-2.0
G1 F25.0 Z-4.0
G2 F150.0 X11.4 Y14.2847 I19.9054 J21.7021
G1 Y11.4
G1 X14.1466
G1 F25.0 X14.9577 Y12.2843
G2 F150.0 X10.8129 Y17.0423 I19.0943 J20.8177
G2 X10.2 Y17.9668 I23.1278 J15.9986
G1 Y10.2
G1 X17.5152
G2 X14.9577 Y12.2843 I16.5368 J22.9021
G1 F25.0 X16.58 Y14.053
G2 F150.0 X12.787 Y18.4072 I17.472 J19.0491
G2 X9.5637 Y24.8319 I21.1537 J14.6337
G1 X7.8
G1 Y7.8
G1 X28.7958
G2 X24.2835 Y9.1706 I5.1939 J25.2117
G2 X24.274 Y9.1745 I2.9411 J7.2242
G2 X16.58 Y14.053 I9.778 J23.9276
G0 Z3.0
G0 X53.8774 Y11.4
G0 Z-2.0
G1 F25.0 Z-4.0
G1 F150.0 X56.7745
G1 Y14.4677
G2 X53.8774 Y11.4 I-22.8187 J18.648
G1 F25.0 Y10.2
G1 F150.0 X57.9745
G1 Y18.2074
G2 X50.5095 Y10.2 I-24.0187 J14.9083
G1 X53.8774
G1 F25.0 Y7.8
G1 F150.0 X60.3745
G1 Y24.8319
G1 X58.4606
G2 X57.6631 Y22.7628 I-24.3896 J8.2116
G2 X57.6597 Y22.7548 I-7.1506 J3.116
G2 X48.1579 Y11.4934 I-23.7039 J10.3609
G2 X39.2312 Y7.8 I-14.1173 J21.4861
G1 X53.8774
G1 F25.0 Y5.4
G1 F150.0 X62.7745
G1 Y27.2319
G1 X56.6706
G2 X55.463 Y23.7215 I-22.5995 J5.8116
G2 X55.4606 Y23.716 I-4.9504 J2.1572
G2 X46.8401 Y13.4993 I-21.5048 J9.3996
G2 X34.0113 Y9.6706 I-12.7996 J19.4802
G2 X25.1884 Y11.3935 I-0.0217 J23.3411
G2 X25.1819 Y11.3962 I2.0362 J5.0014
G2 X14.7611 Y19.7721 I8.8701 J21.7059
G2 X11.3537 Y27.2319 I19.1796 J13.2688
G1 X5.4
G1 Y5.4
G1 X53.8774
G1 F25.0 Y3.0
G1 F150.0 X65.1745
G1 Y29.6319
G1 X54.726
G2 X53.2628 Y24.6803 I-20.655 J3.4116
G2 X53.2615 Y24.6773 I-2.7502 J1.1985
G2 X45.5224 Y15.5052 I-19.3057 J8.4384
G2 X34.0117 Y12.0706 I-11.4819 J17.4743
G2 X26.0934 Y13.6163 I-0.0221 J20.9411
G2 X26.0898 Y13.6178 I1.1312 J2.7786
G2 X16.7352 Y21.137 I7.9622 J19.4843
G2 X13.2982 Y29.6319 I17.2055 J11.9039
G1 X3.0
G1 Y3.0
G1 X53.8774
G0 Z3.0
G0 Y11.4
G0 Z-3.0
G1 F25.0 Z-5.0
G1 F150.0 X56.7745
G1 Y14.4677
G2 X53.8774 Y11.4 I-22.8187 J18.648
G1 F25.0 Y10.2
G1 F150.0 X57.9745
G1 Y18.2074
G2 X50.5095 Y10.2 I-24.0187 J14.9083
G1 X53.8774
G1 F25.0 Y7.8
G1 F150.0 X60.3745
G1 Y24.8319
G1 X58.4606
G2 X57.6631 Y22.7628 I-24.3896 J8.2116
G2 X57.6597 Y22.7548 I-7.1506 J3.116
G2 X48.1579 Y11.4934 I-23.7039 J10.3609
G2 X39.2312 Y7.8 I-14.1173 J21.4861
G1 X53.8774
G0 Z3.0
G0 X14.1466 Y11.4
G0 Z-3.0
G1 F25.0 Z-5.0
G2 F150.0 X11.4 Y14.2847 I19.9054 J21.7021
G1 Y11.4
G1 X14.1466
G1 F25.0 X14.9577 Y12.2843
G2 F150.0 X10.8129 Y17.0423 I19.0943 J20.8177
G2 X10.2 Y17.9668 I23.1278 J15.9986
G1 Y10.2
G1 X17.5152
G2 X14.9577 Y12.2843 I16.5368 J22.9021
G1 F25.0 X16.58 Y14.053
G2 F150.0 X12.787 Y18.4072 I17.472 J19.0491
G2 X9.5637 Y24.8319 I21.1537 J14.6337
G1 X7.8
G1 Y7.8
G1 X28.7958
G2 X24.2835 Y9.1706 I5.1939 J25.2117
G2 X24.274 Y9.1745 I2.9411 J7.2242
G2 X16.58 Y14.053 I9.778 J23.9276
G1 F25.0 X18.2022 Y15.8217
G2 F150.0 X14.7611 Y19.7721 I15.8498 J17.2804
G2 X11.3537 Y27.2319 I19.1796 J13.2688
G1 X5.4
G1 Y5.4
G1 X62.7745
G1 Y27.2319
G1 X56.6706
G2 X55.463 Y23.7215 I-22.5995 J5.8116
G2 X55.4606 Y23.716 I-4.9504 J2.1572
G2 X46.8401 Y13.4993 I-21.5048 J9.3996
G2 X34.0113 Y9.6706 I-12.7996 J19.4802
G2 X25.1884 Y11.3935 I-0.0217 J23.3411
G2 X25.1819 Y11.3962 I2.0362 J5.0014
G2 X18.2022 Y15.8217 I8.8701 J21.7059
G1 F25.0 X19.8245 Y17.5904
G2 F150.0 X16.7352 Y21.137 I14.2275 J15.5117
G2 X13.2982 Y29.6319 I17.2055 J11.9039
G1 X3.0
G1 Y3.0
G1 X65.1745
G1 Y29.6319
G1 X54.726
G2 X53.2628 Y24.6803 I-20.655 J3.4116
G2 X53.2615 Y24.6773 I-2.7502 J1.1985
G2 X45.5224 Y15.5052 I-19.3057 J8.4384
G2 X34.0117 Y12.0706 I-11.4819 J17.4743
G2 X26.0934 Y13.6163 I-0.0221 J20.9411
G2 X26.0898 Y13.6178 I1.1312 J2.7786
G2 X19.8245 Y17.5904 I7.9622 J19.4843
G0 Z3.0
G0 X14.1466 Y11.4
G0 Z-4.0
G1 F25.0 Z-6.0
G2 F150.0 X11.4 Y14.2847 I19.9054 J21.7021
G1 Y11.4
G1 X14.1466
G1 F25.0 X14.9577 Y12.2843
G2 F150.0 X10.8129 Y17.0423 I19.0943 J20.8177
G2 X10.2 Y17.9668 I23.1278 J15.9986
G1 Y10.2
G1 X17.5152
G2 X14.9577 Y12.2843 I16.5368 J22.9021
G1 F25.0 X16.58 Y14.053
G2 F150.0 X12.787 Y18.4072 I17.472 J19.0491
G2 X9.5637 Y24.8319 I21.1537 J14.6337
G1 X7.8
G1 Y7.8
G1 X28.7958
G2 X24.2835 Y9.1706 I5.1939 J25.2117
G2 X24.274 Y9.1745 I2.9411 J7.2242
G2 X16.58 Y14.053 I9.778 J23.9276
G0 Z3.0
G0 X53.8774 Y11.4
G0 Z-4.0
G1 F25.0 Z-6.0
G1 F150.0 X56.7745
G1 Y14.4677
G2 X53.8774 Y11.4 I-22.8187 J18.648
G1 F25.0 Y10.2
G1 F150.0 X57.9745
G1 Y18.2074
G2 X50.5095 Y10.2 I-24.0187 J14.9083
G1 X53.8774
G1 F25.0 Y7.8
G1 F150.0 X60.3745
G1 Y24.8319
G1 X58.4606
G2 X57.6631 Y22.7628 I-24.3896 J8.2116
G2 X57.6597 Y22.7548 I-7.1506 J3.116
G2 X48.1579 Y11.4934 I-23.7039 J10.3609
G2 X39.2312 Y7.8 I-14.1173 J21.4861
G1 X53.8774
G1 F25.0 Y5.4
G1 F150.0 X62.7745
G1 Y27.2319
G1 X56.6706
G2 X55.463 Y23.7215 I-22.5995 J5.8116
G2 X55.4606 Y23.716 I-4.9504 J2.1572
G2 X46.8401 Y13.4993 I-21.5048 J9.3996
G2 X34.0113 Y9.6706 I-12.7996 J19.4802
G2 X25.1884 Y11.3935 I-0.0217 J23.3411
G2 X25.1819 Y11.3962 I2.0362 J5.0014
G2 X14.7611 Y19.7721 I8.8701 J21.7059
G2 X11.3537 Y27.2319 I19.1796 J13.2688
G1 X5.4
G1 Y5.4
G1 X53.8774
G1 F25.0 Y3.0
G1 F150.0 X65.1745
G1 Y29.6319
G1 X54.726
G2 X53.2628 Y24.6803 I-20.655 J3.4116
G2 X53.2615 Y24.6773 I-2.7502 J1.1985
G2 X45.5224 Y15.5052 I-19.3057 J8.4384
G2 X34.0117 Y12.0706 I-11.4819 J17.4743
G2 X26.0934 Y13.6163 I-0.0221 J20.9411
G2 X26.0898 Y13.6178 I1.1312 J2.7786
G2 X16.7352 Y21.137 I7.9622 J19.4843
G2 X13.2982 Y29.6319 I17.2055 J11.9039
G1 X3.0
G1 Y3.0
G1 X53.8774
G0 Z3.0
M5
M30
