( Made using CamBam - http://www.cambam.co.uk )
( motor mount 2 11/4/2013 8:09:55 PM )
( T4 : 4.0 )
G21 G90 G91.1 G64 G40
G0 Z3.0
( T4 : 4.0 )
T4 M6
( Pocket1 )
G17
M3 S1000
G0 X6.2106 Y25.1872
G0 Z1.0
G1 F25.0 Z-1.0
G1 F150.0 Y25.1873
G3 X6.0105 Y25.3874 I-0.2002 J-0.0001
G1 X6.0106
G1 X6.0105
G3 X5.8105 Y25.1873 I0.0001 J-0.2002
G1 Y25.1872
G3 X6.0101 Y24.9876 I0.1995 J0.0
G2 X6.0109 I0.0004 J-2.8
G3 X6.2106 Y25.1873 I0.0 J0.1998
G1 Y25.1874
G1 Y25.1872
G1 F25.0 X7.0106 Y25.1867
G3 F150.0 Y25.1873 I-0.9998 J0.0007
G1 Y25.1872
G1 Y25.1873
G3 X6.0105 Y26.1874 I-1.0002 J-0.0001
G1 X6.0106
G1 X6.0105
G3 X5.0105 Y25.1873 I0.0001 J-1.0002
G1 Y25.1872
G3 X6.0102 Y24.1876 I0.9995 J0.0
G2 X6.0108 I0.0003 J-2.0
G3 X7.0106 Y25.1867 I0.0001 J0.9998
G1 F25.0 X6.2106 Y25.1872
G1 Z-2.0
G1 F150.0 Y25.1873
G3 X6.0105 Y25.3874 I-0.2002 J-0.0001
G1 X6.0106
G1 X6.0105
G3 X5.8105 Y25.1873 I0.0001 J-0.2002
G1 Y25.1872
G3 X6.0101 Y24.9876 I0.1995 J0.0
G2 X6.0109 I0.0004 J-2.8
G3 X6.2106 Y25.1873 I0.0 J0.1998
G1 Y25.1874
G1 Y25.1872
G1 F25.0 X7.0106 Y25.1867
G3 F150.0 Y25.1873 I-0.9998 J0.0007
G1 Y25.1872
G1 Y25.1873
G3 X6.0105 Y26.1874 I-1.0002 J-0.0001
G1 X6.0106
G1 X6.0105
G3 X5.0105 Y25.1873 I0.0001 J-1.0002
G1 Y25.1872
G3 X6.0102 Y24.1876 I0.9995 J0.0
G2 X6.0108 I0.0003 J-2.0
G3 X7.0106 Y25.1867 I0.0001 J0.9998
G1 F25.0 X6.2106 Y25.1872
G1 Z-3.0
G1 F150.0 Y25.1873
G3 X6.0105 Y25.3874 I-0.2002 J-0.0001
G1 X6.0106
G1 X6.0105
G3 X5.8105 Y25.1873 I0.0001 J-0.2002
G1 Y25.1872
G3 X6.0101 Y24.9876 I0.1995 J0.0
G2 X6.0109 I0.0004 J-2.8
G3 X6.2106 Y25.1873 I0.0 J0.1998
G1 Y25.1874
G1 Y25.1872
G1 F25.0 X7.0106 Y25.1867
G3 F150.0 Y25.1873 I-0.9998 J0.0007
G1 Y25.1872
G1 Y25.1873
G3 X6.0105 Y26.1874 I-1.0002 J-0.0001
G1 X6.0106
G1 X6.0105
G3 X5.0105 Y25.1873 I0.0001 J-1.0002
G1 Y25.1872
G3 X6.0102 Y24.1876 I0.9995 J0.0
G2 X6.0108 I0.0003 J-2.0
G3 X7.0106 Y25.1867 I0.0001 J0.9998
G1 F25.0 X6.2106 Y25.1872
G1 Z-4.0
G1 F150.0 Y25.1873
G3 X6.0105 Y25.3874 I-0.2002 J-0.0001
G1 X6.0106
G1 X6.0105
G3 X5.8105 Y25.1873 I0.0001 J-0.2002
G1 Y25.1872
G3 X6.0101 Y24.9876 I0.1995 J0.0
G2 X6.0109 I0.0004 J-2.8
G3 X6.2106 Y25.1873 I0.0 J0.1998
G1 Y25.1874
G1 Y25.1872
G1 F25.0 X7.0106 Y25.1867
G3 F150.0 Y25.1873 I-0.9998 J0.0007
G1 Y25.1872
G1 Y25.1873
G3 X6.0105 Y26.1874 I-1.0002 J-0.0001
G1 X6.0106
G1 X6.0105
G3 X5.0105 Y25.1873 I0.0001 J-1.0002
G1 Y25.1872
G3 X6.0102 Y24.1876 I0.9995 J0.0
G2 X6.0108 I0.0003 J-2.0
G3 X7.0106 Y25.1867 I0.0001 J0.9998
G1 F25.0 X6.2106 Y25.1872
G1 Z-5.0
G1 F150.0 Y25.1873
G3 X6.0105 Y25.3874 I-0.2002 J-0.0001
G1 X6.0106
G1 X6.0105
G3 X5.8105 Y25.1873 I0.0001 J-0.2002
G1 Y25.1872
G3 X6.0101 Y24.9876 I0.1995 J0.0
G2 X6.0109 I0.0004 J-2.8
G3 X6.2106 Y25.1873 I0.0 J0.1998
G1 Y25.1874
G1 Y25.1872
G1 F25.0 X7.0106 Y25.1867
G3 F150.0 Y25.1873 I-0.9998 J0.0007
G1 Y25.1872
G1 Y25.1873
G3 X6.0105 Y26.1874 I-1.0002 J-0.0001
G1 X6.0106
G1 X6.0105
G3 X5.0105 Y25.1873 I0.0001 J-1.0002
G1 Y25.1872
G3 X6.0102 Y24.1876 I0.9995 J0.0
G2 X6.0108 I0.0003 J-2.0
G3 X7.0106 Y25.1867 I0.0001 J0.9998
G1 F25.0 X6.2106 Y25.1872
G1 Z-6.0
G1 F150.0 Y25.1873
G3 X6.0105 Y25.3874 I-0.2002 J-0.0001
G1 X6.0106
G1 X6.0105
G3 X5.8105 Y25.1873 I0.0001 J-0.2002
G1 Y25.1872
G3 X6.0101 Y24.9876 I0.1995 J0.0
G2 X6.0109 I0.0004 J-2.8
G3 X6.2106 Y25.1873 I0.0 J0.1998
G1 Y25.1874
G1 Y25.1872
G1 F25.0 X7.0106 Y25.1867
G3 F150.0 Y25.1873 I-0.9998 J0.0007
G1 Y25.1872
G1 Y25.1873
G3 X6.0105 Y26.1874 I-1.0002 J-0.0001
G1 X6.0106
G1 X6.0105
G3 X5.0105 Y25.1873 I0.0001 J-1.0002
G1 Y25.1872
G3 X6.0102 Y24.1876 I0.9995 J0.0
G2 X6.0108 I0.0003 J-2.0
G3 X7.0106 Y25.1867 I0.0001 J0.9998
G1 F25.0 X6.2106 Y25.1872
G1 Z-7.0
G1 F150.0 Y25.1873
G3 X6.0105 Y25.3874 I-0.2002 J-0.0001
G1 X6.0106
G1 X6.0105
G3 X5.8105 Y25.1873 I0.0001 J-0.2002
G1 Y25.1872
G3 X6.0101 Y24.9876 I0.1995 J0.0
G2 X6.0109 I0.0004 J-2.8
G3 X6.2106 Y25.1873 I0.0 J0.1998
G1 Y25.1874
G1 Y25.1872
G1 F25.0 X7.0106 Y25.1867
G3 F150.0 Y25.1873 I-0.9998 J0.0007
G1 Y25.1872
G1 Y25.1873
G3 X6.0105 Y26.1874 I-1.0002 J-0.0001
G1 X6.0106
G1 X6.0105
G3 X5.0105 Y25.1873 I0.0001 J-1.0002
G1 Y25.1872
G3 X6.0102 Y24.1876 I0.9995 J0.0
G2 X6.0108 I0.0003 J-2.0
G3 X7.0106 Y25.1867 I0.0001 J0.9998
G1 F25.0 X6.2106 Y25.1872
G1 Z-8.0
G1 F150.0 Y25.1873
G3 X6.0105 Y25.3874 I-0.2002 J-0.0001
G1 X6.0106
G1 X6.0105
G3 X5.8105 Y25.1873 I0.0001 J-0.2002
G1 Y25.1872
G3 X6.0101 Y24.9876 I0.1995 J0.0
G2 X6.0109 I0.0004 J-2.8
G3 X6.2106 Y25.1873 I0.0 J0.1998
G1 Y25.1874
G1 Y25.1872
G1 F25.0 X7.0106 Y25.1867
G3 F150.0 Y25.1873 I-0.9998 J0.0007
G1 Y25.1872
G1 Y25.1873
G3 X6.0105 Y26.1874 I-1.0002 J-0.0001
G1 X6.0106
G1 X6.0105
G3 X5.0105 Y25.1873 I0.0001 J-1.0002
G1 Y25.1872
G3 X6.0102 Y24.1876 I0.9995 J0.0
G2 X6.0108 I0.0003 J-2.0
G3 X7.0106 Y25.1867 I0.0001 J0.9998
G0 Z3.0
G0 X6.0213 Y7.2211
G0 Z1.0
G1 F25.0 Z-1.0
G3 F150.0 X6.0107 Y7.2214 I-0.011 J-0.2001
G3 X5.8105 Y7.0213 I0.0005 J-0.2006
G3 X6.0106 Y6.8211 I0.2007 J0.0005
G3 X6.2106 Y7.0214 I-0.0006 J0.2007
G3 X6.0213 Y7.2211 I-0.2004 J-0.0004
G1 F25.0 X6.0652 Y8.0199
G3 F150.0 X6.0106 Y8.0214 I-0.055 J-0.9989
G3 X5.0105 Y7.0213 I0.0005 J-1.0006
G3 X6.0105 Y6.0211 I1.0007 J0.0005
G3 X7.0106 Y7.0214 I-0.0006 J1.0007
G3 X6.0652 Y8.0199 I-1.0004 J-0.0004
G1 F25.0 X6.0213 Y7.2211
G1 Z-2.0
G3 F150.0 X6.0107 Y7.2214 I-0.011 J-0.2001
G3 X5.8105 Y7.0213 I0.0005 J-0.2006
G3 X6.0106 Y6.8211 I0.2007 J0.0005
G3 X6.2106 Y7.0214 I-0.0006 J0.2007
G3 X6.0213 Y7.2211 I-0.2004 J-0.0004
G1 F25.0 X6.0652 Y8.0199
G3 F150.0 X6.0106 Y8.0214 I-0.055 J-0.9989
G3 X5.0105 Y7.0213 I0.0005 J-1.0006
G3 X6.0105 Y6.0211 I1.0007 J0.0005
G3 X7.0106 Y7.0214 I-0.0006 J1.0007
G3 X6.0652 Y8.0199 I-1.0004 J-0.0004
G1 F25.0 X6.0213 Y7.2211
G1 Z-3.0
G3 F150.0 X6.0107 Y7.2214 I-0.011 J-0.2001
G3 X5.8105 Y7.0213 I0.0005 J-0.2006
G3 X6.0106 Y6.8211 I0.2007 J0.0005
G3 X6.2106 Y7.0214 I-0.0006 J0.2007
G3 X6.0213 Y7.2211 I-0.2004 J-0.0004
G1 F25.0 X6.0652 Y8.0199
G3 F150.0 X6.0106 Y8.0214 I-0.055 J-0.9989
G3 X5.0105 Y7.0213 I0.0005 J-1.0006
G3 X6.0105 Y6.0211 I1.0007 J0.0005
G3 X7.0106 Y7.0214 I-0.0006 J1.0007
G3 X6.0652 Y8.0199 I-1.0004 J-0.0004
G1 F25.0 X6.0213 Y7.2211
G1 Z-4.0
G3 F150.0 X6.0107 Y7.2214 I-0.011 J-0.2001
G3 X5.8105 Y7.0213 I0.0005 J-0.2006
G3 X6.0106 Y6.8211 I0.2007 J0.0005
G3 X6.2106 Y7.0214 I-0.0006 J0.2007
G3 X6.0213 Y7.2211 I-0.2004 J-0.0004
G1 F25.0 X6.0652 Y8.0199
G3 F150.0 X6.0106 Y8.0214 I-0.055 J-0.9989
G3 X5.0105 Y7.0213 I0.0005 J-1.0006
G3 X6.0105 Y6.0211 I1.0007 J0.0005
G3 X7.0106 Y7.0214 I-0.0006 J1.0007
G3 X6.0652 Y8.0199 I-1.0004 J-0.0004
G1 F25.0 X6.0213 Y7.2211
G1 Z-5.0
G3 F150.0 X6.0107 Y7.2214 I-0.011 J-0.2001
G3 X5.8105 Y7.0213 I0.0005 J-0.2006
G3 X6.0106 Y6.8211 I0.2007 J0.0005
G3 X6.2106 Y7.0214 I-0.0006 J0.2007
G3 X6.0213 Y7.2211 I-0.2004 J-0.0004
G1 F25.0 X6.0652 Y8.0199
G3 F150.0 X6.0106 Y8.0214 I-0.055 J-0.9989
G3 X5.0105 Y7.0213 I0.0005 J-1.0006
G3 X6.0105 Y6.0211 I1.0007 J0.0005
G3 X7.0106 Y7.0214 I-0.0006 J1.0007
G3 X6.0652 Y8.0199 I-1.0004 J-0.0004
G1 F25.0 X6.0213 Y7.2211
G1 Z-6.0
G3 F150.0 X6.0107 Y7.2214 I-0.011 J-0.2001
G3 X5.8105 Y7.0213 I0.0005 J-0.2006
G3 X6.0106 Y6.8211 I0.2007 J0.0005
G3 X6.2106 Y7.0214 I-0.0006 J0.2007
G3 X6.0213 Y7.2211 I-0.2004 J-0.0004
G1 F25.0 X6.0652 Y8.0199
G3 F150.0 X6.0106 Y8.0214 I-0.055 J-0.9989
G3 X5.0105 Y7.0213 I0.0005 J-1.0006
G3 X6.0105 Y6.0211 I1.0007 J0.0005
G3 X7.0106 Y7.0214 I-0.0006 J1.0007
G3 X6.0652 Y8.0199 I-1.0004 J-0.0004
G1 F25.0 X6.0213 Y7.2211
G1 Z-7.0
G3 F150.0 X6.0107 Y7.2214 I-0.011 J-0.2001
G3 X5.8105 Y7.0213 I0.0005 J-0.2006
G3 X6.0106 Y6.8211 I0.2007 J0.0005
G3 X6.2106 Y7.0214 I-0.0006 J0.2007
G3 X6.0213 Y7.2211 I-0.2004 J-0.0004
G1 F25.0 X6.0652 Y8.0199
G3 F150.0 X6.0106 Y8.0214 I-0.055 J-0.9989
G3 X5.0105 Y7.0213 I0.0005 J-1.0006
G3 X6.0105 Y6.0211 I1.0007 J0.0005
G3 X7.0106 Y7.0214 I-0.0006 J1.0007
G3 X6.0652 Y8.0199 I-1.0004 J-0.0004
G1 F25.0 X6.0213 Y7.2211
G1 Z-8.0
G3 F150.0 X6.0107 Y7.2214 I-0.011 J-0.2001
G3 X5.8105 Y7.0213 I0.0005 J-0.2006
G3 X6.0106 Y6.8211 I0.2007 J0.0005
G3 X6.2106 Y7.0214 I-0.0006 J0.2007
G3 X6.0213 Y7.2211 I-0.2004 J-0.0004
G1 F25.0 X6.0652 Y8.0199
G3 F150.0 X6.0106 Y8.0214 I-0.055 J-0.9989
G3 X5.0105 Y7.0213 I0.0005 J-1.0006
G3 X6.0105 Y6.0211 I1.0007 J0.0005
G3 X7.0106 Y7.0214 I-0.0006 J1.0007
G3 X6.0652 Y8.0199 I-1.0004 J-0.0004
G0 Z3.0
G0 X33.8125 Y7.0282
G0 Z1.0
G1 F25.0 Z-1.0
G3 F150.0 X33.8124 Y7.0216 I0.2001 J-0.0072
G3 X34.0125 Y6.8211 I0.2011 J0.0006
G3 X34.2126 Y7.0213 I-0.001 J0.201
G3 X34.0122 Y7.2213 I-0.2008 J-0.0008
G3 X33.8125 Y7.0282 I0.0004 J-0.2003
G1 F25.0 X33.013 Y7.0567
G3 F150.0 X33.0124 Y7.0215 I0.9996 J-0.0357
G3 X34.0125 Y6.0211 I1.0011 J0.0007
G3 X35.0126 Y7.0213 I-0.001 J1.001
G3 X34.0123 Y8.0213 I-1.0008 J-0.0008
G3 X33.013 Y7.0567 I0.0003 J-1.0003
G1 F25.0 X33.8125 Y7.0282
G1 Z-2.0
G3 F150.0 X33.8124 Y7.0216 I0.2001 J-0.0072
G3 X34.0125 Y6.8211 I0.2011 J0.0006
G3 X34.2126 Y7.0213 I-0.001 J0.201
G3 X34.0122 Y7.2213 I-0.2008 J-0.0008
G3 X33.8125 Y7.0282 I0.0004 J-0.2003
G1 F25.0 X33.013 Y7.0567
G3 F150.0 X33.0124 Y7.0215 I0.9996 J-0.0357
G3 X34.0125 Y6.0211 I1.0011 J0.0007
G3 X35.0126 Y7.0213 I-0.001 J1.001
G3 X34.0123 Y8.0213 I-1.0008 J-0.0008
G3 X33.013 Y7.0567 I0.0003 J-1.0003
G1 F25.0 X33.8125 Y7.0282
G1 Z-3.0
G3 F150.0 X33.8124 Y7.0216 I0.2001 J-0.0072
G3 X34.0125 Y6.8211 I0.2011 J0.0006
G3 X34.2126 Y7.0213 I-0.001 J0.201
G3 X34.0122 Y7.2213 I-0.2008 J-0.0008
G3 X33.8125 Y7.0282 I0.0004 J-0.2003
G1 F25.0 X33.013 Y7.0567
G3 F150.0 X33.0124 Y7.0215 I0.9996 J-0.0357
G3 X34.0125 Y6.0211 I1.0011 J0.0007
G3 X35.0126 Y7.0213 I-0.001 J1.001
G3 X34.0123 Y8.0213 I-1.0008 J-0.0008
G3 X33.013 Y7.0567 I0.0003 J-1.0003
G1 F25.0 X33.8125 Y7.0282
G1 Z-4.0
G3 F150.0 X33.8124 Y7.0216 I0.2001 J-0.0072
G3 X34.0125 Y6.8211 I0.2011 J0.0006
G3 X34.2126 Y7.0213 I-0.001 J0.201
G3 X34.0122 Y7.2213 I-0.2008 J-0.0008
G3 X33.8125 Y7.0282 I0.0004 J-0.2003
G1 F25.0 X33.013 Y7.0567
G3 F150.0 X33.0124 Y7.0215 I0.9996 J-0.0357
G3 X34.0125 Y6.0211 I1.0011 J0.0007
G3 X35.0126 Y7.0213 I-0.001 J1.001
G3 X34.0123 Y8.0213 I-1.0008 J-0.0008
G3 X33.013 Y7.0567 I0.0003 J-1.0003
G1 F25.0 X33.8125 Y7.0282
G1 Z-5.0
G3 F150.0 X33.8124 Y7.0216 I0.2001 J-0.0072
G3 X34.0125 Y6.8211 I0.2011 J0.0006
G3 X34.2126 Y7.0213 I-0.001 J0.201
G3 X34.0122 Y7.2213 I-0.2008 J-0.0008
G3 X33.8125 Y7.0282 I0.0004 J-0.2003
G1 F25.0 X33.013 Y7.0567
G3 F150.0 X33.0124 Y7.0215 I0.9996 J-0.0357
G3 X34.0125 Y6.0211 I1.0011 J0.0007
G3 X35.0126 Y7.0213 I-0.001 J1.001
G3 X34.0123 Y8.0213 I-1.0008 J-0.0008
G3 X33.013 Y7.0567 I0.0003 J-1.0003
G1 F25.0 X33.8125 Y7.0282
G1 Z-6.0
G3 F150.0 X33.8124 Y7.0216 I0.2001 J-0.0072
G3 X34.0125 Y6.8211 I0.2011 J0.0006
G3 X34.2126 Y7.0213 I-0.001 J0.201
G3 X34.0122 Y7.2213 I-0.2008 J-0.0008
G3 X33.8125 Y7.0282 I0.0004 J-0.2003
G1 F25.0 X33.013 Y7.0567
G3 F150.0 X33.0124 Y7.0215 I0.9996 J-0.0357
G3 X34.0125 Y6.0211 I1.0011 J0.0007
G3 X35.0126 Y7.0213 I-0.001 J1.001
G3 X34.0123 Y8.0213 I-1.0008 J-0.0008
G3 X33.013 Y7.0567 I0.0003 J-1.0003
G1 F25.0 X33.8125 Y7.0282
G1 Z-7.0
G3 F150.0 X33.8124 Y7.0216 I0.2001 J-0.0072
G3 X34.0125 Y6.8211 I0.2011 J0.0006
G3 X34.2126 Y7.0213 I-0.001 J0.201
G3 X34.0122 Y7.2213 I-0.2008 J-0.0008
G3 X33.8125 Y7.0282 I0.0004 J-0.2003
G1 F25.0 X33.013 Y7.0567
G3 F150.0 X33.0124 Y7.0215 I0.9996 J-0.0357
G3 X34.0125 Y6.0211 I1.0011 J0.0007
G3 X35.0126 Y7.0213 I-0.001 J1.001
G3 X34.0123 Y8.0213 I-1.0008 J-0.0008
G3 X33.013 Y7.0567 I0.0003 J-1.0003
G1 F25.0 X33.8125 Y7.0282
G1 Z-8.0
G3 F150.0 X33.8124 Y7.0216 I0.2001 J-0.0072
G3 X34.0125 Y6.8211 I0.2011 J0.0006
G3 X34.2126 Y7.0213 I-0.001 J0.201
G3 X34.0122 Y7.2213 I-0.2008 J-0.0008
G3 X33.8125 Y7.0282 I0.0004 J-0.2003
G1 F25.0 X33.013 Y7.0567
G3 F150.0 X33.0124 Y7.0215 I0.9996 J-0.0357
G3 X34.0125 Y6.0211 I1.0011 J0.0007
G3 X35.0126 Y7.0213 I-0.001 J1.001
G3 X34.0123 Y8.0213 I-1.0008 J-0.0008
G3 X33.013 Y7.0567 I0.0003 J-1.0003
G0 Z3.0
G0 X61.8147 Y7.0214
G0 Z1.0
G1 F25.0 Z-1.0
G3 F150.0 X62.0144 Y6.8211 I0.2006 J0.0003
G3 X62.2146 Y7.0214 I-0.0009 J0.2011
G3 X62.0143 Y7.2213 I-0.2007 J-0.0008
G3 X61.8147 Y7.0214 I0.0004 J-0.2001
G1 F25.0 X61.0147 Y7.0202
G3 F150.0 X62.0144 Y6.0211 I1.0006 J0.0015
G3 X63.0146 Y7.0214 I-0.0009 J1.0011
G3 X62.0143 Y8.0213 I-1.0007 J-0.0008
G3 X61.0147 Y7.0214 I0.0004 J-1.0001
G3 Y7.0202 I1.0006 J0.0004
G1 F25.0 X61.8147 Y7.0214
G1 Z-2.0
G3 F150.0 X62.0144 Y6.8211 I0.2006 J0.0003
G3 X62.2146 Y7.0214 I-0.0009 J0.2011
G3 X62.0143 Y7.2213 I-0.2007 J-0.0008
G3 X61.8147 Y7.0214 I0.0004 J-0.2001
G1 F25.0 X61.0147 Y7.0202
G3 F150.0 X62.0144 Y6.0211 I1.0006 J0.0015
G3 X63.0146 Y7.0214 I-0.0009 J1.0011
G3 X62.0143 Y8.0213 I-1.0007 J-0.0008
G3 X61.0147 Y7.0214 I0.0004 J-1.0001
G3 Y7.0202 I1.0006 J0.0004
G1 F25.0 X61.8147 Y7.0214
G1 Z-3.0
G3 F150.0 X62.0144 Y6.8211 I0.2006 J0.0003
G3 X62.2146 Y7.0214 I-0.0009 J0.2011
G3 X62.0143 Y7.2213 I-0.2007 J-0.0008
G3 X61.8147 Y7.0214 I0.0004 J-0.2001
G1 F25.0 X61.0147 Y7.0202
G3 F150.0 X62.0144 Y6.0211 I1.0006 J0.0015
G3 X63.0146 Y7.0214 I-0.0009 J1.0011
G3 X62.0143 Y8.0213 I-1.0007 J-0.0008
G3 X61.0147 Y7.0214 I0.0004 J-1.0001
G3 Y7.0202 I1.0006 J0.0004
G1 F25.0 X61.8147 Y7.0214
G1 Z-4.0
G3 F150.0 X62.0144 Y6.8211 I0.2006 J0.0003
G3 X62.2146 Y7.0214 I-0.0009 J0.2011
G3 X62.0143 Y7.2213 I-0.2007 J-0.0008
G3 X61.8147 Y7.0214 I0.0004 J-0.2001
G1 F25.0 X61.0147 Y7.0202
G3 F150.0 X62.0144 Y6.0211 I1.0006 J0.0015
G3 X63.0146 Y7.0214 I-0.0009 J1.0011
G3 X62.0143 Y8.0213 I-1.0007 J-0.0008
G3 X61.0147 Y7.0214 I0.0004 J-1.0001
G3 Y7.0202 I1.0006 J0.0004
G1 F25.0 X61.8147 Y7.0214
G1 Z-5.0
G3 F150.0 X62.0144 Y6.8211 I0.2006 J0.0003
G3 X62.2146 Y7.0214 I-0.0009 J0.2011
G3 X62.0143 Y7.2213 I-0.2007 J-0.0008
G3 X61.8147 Y7.0214 I0.0004 J-0.2001
G1 F25.0 X61.0147 Y7.0202
G3 F150.0 X62.0144 Y6.0211 I1.0006 J0.0015
G3 X63.0146 Y7.0214 I-0.0009 J1.0011
G3 X62.0143 Y8.0213 I-1.0007 J-0.0008
G3 X61.0147 Y7.0214 I0.0004 J-1.0001
G3 Y7.0202 I1.0006 J0.0004
G1 F25.0 X61.8147 Y7.0214
G1 Z-6.0
G3 F150.0 X62.0144 Y6.8211 I0.2006 J0.0003
G3 X62.2146 Y7.0214 I-0.0009 J0.2011
G3 X62.0143 Y7.2213 I-0.2007 J-0.0008
G3 X61.8147 Y7.0214 I0.0004 J-0.2001
G1 F25.0 X61.0147 Y7.0202
G3 F150.0 X62.0144 Y6.0211 I1.0006 J0.0015
G3 X63.0146 Y7.0214 I-0.0009 J1.0011
G3 X62.0143 Y8.0213 I-1.0007 J-0.0008
G3 X61.0147 Y7.0214 I0.0004 J-1.0001
G3 Y7.0202 I1.0006 J0.0004
G1 F25.0 X61.8147 Y7.0214
G1 Z-7.0
G3 F150.0 X62.0144 Y6.8211 I0.2006 J0.0003
G3 X62.2146 Y7.0214 I-0.0009 J0.2011
G3 X62.0143 Y7.2213 I-0.2007 J-0.0008
G3 X61.8147 Y7.0214 I0.0004 J-0.2001
G1 F25.0 X61.0147 Y7.0202
G3 F150.0 X62.0144 Y6.0211 I1.0006 J0.0015
G3 X63.0146 Y7.0214 I-0.0009 J1.0011
G3 X62.0143 Y8.0213 I-1.0007 J-0.0008
G3 X61.0147 Y7.0214 I0.0004 J-1.0001
G3 Y7.0202 I1.0006 J0.0004
G1 F25.0 X61.8147 Y7.0214
G1 Z-8.0
G3 F150.0 X62.0144 Y6.8211 I0.2006 J0.0003
G3 X62.2146 Y7.0214 I-0.0009 J0.2011
G3 X62.0143 Y7.2213 I-0.2007 J-0.0008
G3 X61.8147 Y7.0214 I0.0004 J-0.2001
G1 F25.0 X61.0147 Y7.0202
G3 F150.0 X62.0144 Y6.0211 I1.0006 J0.0015
G3 X63.0146 Y7.0214 I-0.0009 J1.0011
G3 X62.0143 Y8.0213 I-1.0007 J-0.0008
G3 X61.0147 Y7.0214 I0.0004 J-1.0001
G3 Y7.0202 I1.0006 J0.0004
G0 Z3.0
G0 X62.0036 Y24.9879
G0 Z1.0
G1 F25.0 Z-1.0
G3 F150.0 X62.0144 Y24.9876 I0.011 J0.1996
G3 X62.0145 I0.0001 J0.1999
G1 X62.0143
G3 X62.0144 I0.0 J0.2003
G3 X62.2146 Y25.1873 I-0.0001 J0.2003
G3 X62.0146 Y25.3873 I-0.2006 J-0.0006
G3 X61.8147 Y25.1872 I0.0006 J-0.2005
G3 X62.0036 Y24.9879 I0.1999 J0.0004
G1 F25.0 X61.9596 Y24.1891
G3 F150.0 X62.0144 Y24.1876 I0.055 J0.9984
G1 X62.0145
G1 X62.0143
G1 X62.0144
G3 X63.0146 Y25.1873 I-0.0001 J1.0003
G3 X62.0145 Y26.1873 I-1.0006 J-0.0006
G3 X61.0147 Y25.1872 I0.0006 J-1.0005
G3 X61.9596 Y24.1891 I0.9999 J0.0003
G1 F25.0 X62.0036 Y24.9879
G1 Z-2.0
G3 F150.0 X62.0144 Y24.9876 I0.011 J0.1996
G3 X62.0145 I0.0001 J0.1999
G1 X62.0143
G3 X62.0144 I0.0 J0.2003
G3 X62.2146 Y25.1873 I-0.0001 J0.2003
G3 X62.0146 Y25.3873 I-0.2006 J-0.0006
G3 X61.8147 Y25.1872 I0.0006 J-0.2005
G3 X62.0036 Y24.9879 I0.1999 J0.0004
G1 F25.0 X61.9596 Y24.1891
G3 F150.0 X62.0144 Y24.1876 I0.055 J0.9984
G1 X62.0145
G1 X62.0143
G1 X62.0144
G3 X63.0146 Y25.1873 I-0.0001 J1.0003
G3 X62.0145 Y26.1873 I-1.0006 J-0.0006
G3 X61.0147 Y25.1872 I0.0006 J-1.0005
G3 X61.9596 Y24.1891 I0.9999 J0.0003
G1 F25.0 X62.0036 Y24.9879
G1 Z-3.0
G3 F150.0 X62.0144 Y24.9876 I0.011 J0.1996
G3 X62.0145 I0.0001 J0.1999
G1 X62.0143
G3 X62.0144 I0.0 J0.2003
G3 X62.2146 Y25.1873 I-0.0001 J0.2003
G3 X62.0146 Y25.3873 I-0.2006 J-0.0006
G3 X61.8147 Y25.1872 I0.0006 J-0.2005
G3 X62.0036 Y24.9879 I0.1999 J0.0004
G1 F25.0 X61.9596 Y24.1891
G3 F150.0 X62.0144 Y24.1876 I0.055 J0.9984
G1 X62.0145
G1 X62.0143
G1 X62.0144
G3 X63.0146 Y25.1873 I-0.0001 J1.0003
G3 X62.0145 Y26.1873 I-1.0006 J-0.0006
G3 X61.0147 Y25.1872 I0.0006 J-1.0005
G3 X61.9596 Y24.1891 I0.9999 J0.0003
G1 F25.0 X62.0036 Y24.9879
G1 Z-4.0
G3 F150.0 X62.0144 Y24.9876 I0.011 J0.1996
G3 X62.0145 I0.0001 J0.1999
G1 X62.0143
G3 X62.0144 I0.0 J0.2003
G3 X62.2146 Y25.1873 I-0.0001 J0.2003
G3 X62.0146 Y25.3873 I-0.2006 J-0.0006
G3 X61.8147 Y25.1872 I0.0006 J-0.2005
G3 X62.0036 Y24.9879 I0.1999 J0.0004
G1 F25.0 X61.9596 Y24.1891
G3 F150.0 X62.0144 Y24.1876 I0.055 J0.9984
G1 X62.0145
G1 X62.0143
G1 X62.0144
G3 X63.0146 Y25.1873 I-0.0001 J1.0003
G3 X62.0145 Y26.1873 I-1.0006 J-0.0006
G3 X61.0147 Y25.1872 I0.0006 J-1.0005
G3 X61.9596 Y24.1891 I0.9999 J0.0003
G1 F25.0 X62.0036 Y24.9879
G1 Z-5.0
G3 F150.0 X62.0144 Y24.9876 I0.011 J0.1996
G3 X62.0145 I0.0001 J0.1999
G1 X62.0143
G3 X62.0144 I0.0 J0.2003
G3 X62.2146 Y25.1873 I-0.0001 J0.2003
G3 X62.0146 Y25.3873 I-0.2006 J-0.0006
G3 X61.8147 Y25.1872 I0.0006 J-0.2005
G3 X62.0036 Y24.9879 I0.1999 J0.0004
G1 F25.0 X61.9596 Y24.1891
G3 F150.0 X62.0144 Y24.1876 I0.055 J0.9984
G1 X62.0145
G1 X62.0143
G1 X62.0144
G3 X63.0146 Y25.1873 I-0.0001 J1.0003
G3 X62.0145 Y26.1873 I-1.0006 J-0.0006
G3 X61.0147 Y25.1872 I0.0006 J-1.0005
G3 X61.9596 Y24.1891 I0.9999 J0.0003
G1 F25.0 X62.0036 Y24.9879
G1 Z-6.0
G3 F150.0 X62.0144 Y24.9876 I0.011 J0.1996
G3 X62.0145 I0.0001 J0.1999
G1 X62.0143
G3 X62.0144 I0.0 J0.2003
G3 X62.2146 Y25.1873 I-0.0001 J0.2003
G3 X62.0146 Y25.3873 I-0.2006 J-0.0006
G3 X61.8147 Y25.1872 I0.0006 J-0.2005
G3 X62.0036 Y24.9879 I0.1999 J0.0004
G1 F25.0 X61.9596 Y24.1891
G3 F150.0 X62.0144 Y24.1876 I0.055 J0.9984
G1 X62.0145
G1 X62.0143
G1 X62.0144
G3 X63.0146 Y25.1873 I-0.0001 J1.0003
G3 X62.0145 Y26.1873 I-1.0006 J-0.0006
G3 X61.0147 Y25.1872 I0.0006 J-1.0005
G3 X61.9596 Y24.1891 I0.9999 J0.0003
G1 F25.0 X62.0036 Y24.9879
G1 Z-7.0
G3 F150.0 X62.0144 Y24.9876 I0.011 J0.1996
G3 X62.0145 I0.0001 J0.1999
G1 X62.0143
G3 X62.0144 I0.0 J0.2003
G3 X62.2146 Y25.1873 I-0.0001 J0.2003
G3 X62.0146 Y25.3873 I-0.2006 J-0.0006
G3 X61.8147 Y25.1872 I0.0006 J-0.2005
G3 X62.0036 Y24.9879 I0.1999 J0.0004
G1 F25.0 X61.9596 Y24.1891
G3 F150.0 X62.0144 Y24.1876 I0.055 J0.9984
G1 X62.0145
G1 X62.0143
G1 X62.0144
G3 X63.0146 Y25.1873 I-0.0001 J1.0003
G3 X62.0145 Y26.1873 I-1.0006 J-0.0006
G3 X61.0147 Y25.1872 I0.0006 J-1.0005
G3 X61.9596 Y24.1891 I0.9999 J0.0003
G1 F25.0 X62.0036 Y24.9879
G1 Z-8.0
G3 F150.0 X62.0144 Y24.9876 I0.011 J0.1996
G3 X62.0145 I0.0001 J0.1999
G1 X62.0143
G3 X62.0144 I0.0 J0.2003
G3 X62.2146 Y25.1873 I-0.0001 J0.2003
G3 X62.0146 Y25.3873 I-0.2006 J-0.0006
G3 X61.8147 Y25.1872 I0.0006 J-0.2005
G3 X62.0036 Y24.9879 I0.1999 J0.0004
G1 F25.0 X61.9596 Y24.1891
G3 F150.0 X62.0144 Y24.1876 I0.055 J0.9984
G1 X62.0145
G1 X62.0143
G1 X62.0144
G3 X63.0146 Y25.1873 I-0.0001 J1.0003
G3 X62.0145 Y26.1873 I-1.0006 J-0.0006
G3 X61.0147 Y25.1872 I0.0006 J-1.0005
G3 X61.9596 Y24.1891 I0.9999 J0.0003
G0 Z3.0
M5
M30
