( Made using CamBam - http://www.cambam.co.uk )
( motor mount 2 11/4/2013 8:10:06 PM )
( T4 : 4.0 )
G21 G90 G91.1 G64 G40
G0 Z3.0
( T4 : 4.0 )
T4 M6
( Profile1 )
G17
M3 S1000
G0 X62.0 Y32.3663
G0 Z1.0
G1 F25.0 Z-1.0
G1 F150.0 X62.1141
G2 X63.9361 Y32.1421 I0.003 J-7.4922
G2 X65.7213 Y31.4067 I-1.594 J-6.4038
G2 X66.8348 Y30.5313 I-2.8112 J-4.7217
G2 X66.8465 Y30.5192 I-1.4284 J-1.3999
G2 X67.387 Y29.8533 I-3.6323 J-3.5002
G2 X67.3923 Y29.8454 I-1.6544 J-1.1238
G2 X67.8868 Y28.8579 I-3.5999 J-2.4201
G2 X67.8879 Y28.8548 I-1.8878 J-0.6605
G2 X68.1146 Y27.5233 I-3.8541 J-1.3414
G2 X68.1147 Y27.5184 I-2.0 J-0.0049
G1 Y20.6707
G1 Y11.3273
G1 Y4.6412
G2 X68.1146 Y4.6349 I-2.0 J0.0
G2 X67.7151 Y2.9335 I-3.875 J0.0123
G2 X67.7136 Y2.9303 I-1.7938 J0.8845
G2 X66.8169 Y1.7018 I-4.013 J1.9875
G2 X66.1242 Y1.1312 I-3.6981 J3.7841
G2 X65.1553 Y0.586 I-3.4235 J4.9497
G2 X63.8426 Y0.1478 I-2.8184 J6.2584
G2 X62.1139 Y-0.0449 I-1.724 J7.6152
G1 X62.0994
G2 X60.3514 Y0.1494 I-0.0226 J7.7552
G2 X58.6222 Y0.7921 I1.5078 J6.7054
G2 X58.6211 Y0.7926 I0.942 J1.7643
G2 X57.5033 Y1.5805 I2.628 J4.9152
G2 X57.5013 Y1.5823 I1.3441 J1.481
G2 X56.9113 Y2.23 I3.1529 J3.4648
G2 X56.3667 Y3.1954 I3.336 J2.518
G2 X56.0966 Y4.5462 I3.5062 J1.4037
G3 X56.0243 Y4.6342 I-0.3769 J-0.2359
G2 X56.0191 Y4.6392 I1.3704 J1.4567
G3 X55.8348 Y4.7878 I-1.0221 J-1.0787
G3 X55.5098 Y4.9663 I-1.1325 J-1.6774
G2 X55.5045 Y4.9685 I0.7979 J1.8339
G3 X54.9435 Y5.1518 I-1.2178 J-2.7775
G2 X54.94 Y5.1526 I0.4331 J1.9525
G3 X54.1013 Y5.2442 I-0.8288 J-3.7048
G2 X54.0961 I-0.0052 J2.0
G1 X42.0961
G2 X42.0894 I0.0 J2.0
G3 X41.2391 Y5.1496 I-0.0127 J-3.756
G2 X41.2305 Y5.1477 I-0.446 J1.9496
G3 X40.5064 Y4.8789 I0.6282 J-2.8024
G3 X40.1924 Y4.6576 I0.7406 J-1.3846
G3 X40.1071 Y4.5639 I0.4575 J-0.5016
G2 X40.1035 Y4.559 I-1.5989 J1.2014
G3 X40.0956 Y4.5477 I0.1393 J-0.1053
G2 X39.6823 Y2.8762 I-3.8177 J0.0571
G1 Y2.8761
G1 Y2.8762
G2 X38.7675 Y1.6539 I-3.9598 J2.0105
G2 X38.0828 Y1.103 I-3.7672 J3.9806
G2 X38.0792 Y1.1005 I-1.1249 J1.6537
G2 X37.1079 Y0.5662 I-3.3748 J4.9844
G2 X35.8113 Y0.1427 I-2.8212 J6.4416
G2 X34.0936 Y-0.0449 I-1.7004 J7.61
G1 X34.0792
G2 X32.3191 Y0.1549 I-0.0113 J7.7538
G2 X30.5747 Y0.8173 I1.5135 J6.6138
G2 X30.5674 Y0.8213 I0.9603 J1.7543
G2 X29.4644 Y1.6168 I2.7527 J4.9791
G2 X29.4439 Y1.636 I1.3554 J1.4707
G2 X28.8804 Y2.2701 I3.413 J3.6006
G2 X28.8778 Y2.2735 I1.6031 J1.1959
G2 X28.3369 Y3.2556 I3.3346 J2.4765
G2 X28.078 Y4.6035 I3.582 J1.3871
G3 X27.9957 Y4.7088 I-0.4155 J-0.2396
G2 X27.9857 Y4.7186 I1.3896 J1.4384
G3 X27.8149 Y4.8594 I-0.9056 J-0.9243
G2 X27.8125 Y4.861 I1.1357 J1.6463
G3 X27.4855 Y5.045 I-1.1507 J-1.663
G2 X27.4779 Y5.0484 I0.8146 J1.8266
G3 X26.9271 Y5.2324 I-1.1803 J-2.6174
G2 X26.9239 Y5.2331 I0.4385 J1.9513
G3 X26.0788 Y5.3274 I-0.8433 J-3.7236
G2 X26.0778 I-0.001 J2.0
G1 X14.0775
G2 X14.0741 I0.0 J2.0
G3 X13.2195 Y5.2303 I-0.0063 J-3.7539
G2 X13.2127 Y5.2287 I-0.452 J1.9483
G3 X12.4991 Y4.9586 I0.6198 J-2.715
G3 X12.1863 Y4.7346 I0.8208 J-1.4766
G3 X12.0881 Y4.623 I0.6705 J-0.6886
G3 X12.0774 Y4.606 I0.1241 J-0.0905
G2 X11.6781 Y2.9336 I-3.875 J0.0412
G2 X11.6765 Y2.9302 I-1.7938 J0.8844
G2 X10.78 Y1.702 I-4.0141 J1.9884
G2 X10.0873 Y1.1313 I-3.7002 J3.7862
G2 X9.1183 Y0.586 I-3.4256 J4.953
G2 X7.8056 Y0.1478 I-2.8209 J6.2655
G2 X6.0772 Y-0.0449 I-1.7252 J7.6251
G1 X6.06
G2 X4.3099 Y0.1517 I-0.0033 J7.859
G2 X2.571 Y0.8046 I1.5087 J6.6597
G2 X2.5668 Y0.8069 I0.9512 J1.7593
G2 X1.4564 Y1.5987 I2.6899 J4.9469
G2 X1.4454 Y1.6088 I1.3498 J1.4758
G2 X0.8678 Y2.251 I3.2725 J3.5247
G2 X0.3237 Y3.2275 I3.3315 J2.4961
G2 X0.3233 Y3.2286 I1.862 J0.7301
G2 X0.0597 Y4.615 I3.5687 J1.3968
G2 Y4.6204 I2.0 J0.0054
G1 Y11.2856
G1 Y20.6291
G1 Y27.4977
G2 Y27.4998 I2.0 J0.0
G2 X0.4081 Y29.1503 I4.1031 J-0.0043
G2 X0.4087 Y29.1516 I1.8301 J-0.8066
G2 X1.2513 Y30.4292 I4.2054 J-1.857
G2 X1.2522 Y30.4301 I1.463 J-1.3637
G2 X1.9173 Y31.0362 I4.0706 J-3.7992
G2 X1.9207 Y31.0387 I1.2232 J-1.5823
G2 X2.9105 Y31.6526 I3.5272 J-4.5826
G2 X4.2523 Y32.1445 I2.9921 J-6.0851
G1 X4.2525 Y32.1446
G2 X6.0616 Y32.3663 I1.7954 J-7.159
G1 X14.0123
G1 Y33.0688
G2 X17.3829 Y44.1851 I19.9151 J0.0306
G2 X26.3544 Y51.5512 I16.6749 J-11.1627
G2 X26.3573 Y51.5524 I0.7678 J-1.8467
G2 X34.0117 Y53.0703 I7.6365 J-18.4507
G2 X45.127 Y49.6997 I0.0285 J-19.919
G2 X52.4931 Y40.7281 I-11.1625 J-16.6748
G2 X52.4943 Y40.7252 I-1.8468 J-0.7678
G2 X54.0122 Y33.0693 I-18.45 J-7.6362
G1 Y32.3663
G1 X62.0
G1 F25.0 Z-2.0
G1 F150.0 X62.1141
G2 X63.9361 Y32.1421 I0.003 J-7.4922
G2 X65.7213 Y31.4067 I-1.594 J-6.4038
G2 X66.8348 Y30.5313 I-2.8112 J-4.7217
G2 X66.8465 Y30.5192 I-1.4284 J-1.3999
G2 X67.387 Y29.8533 I-3.6323 J-3.5002
G2 X67.3923 Y29.8454 I-1.6544 J-1.1238
G2 X67.8868 Y28.8579 I-3.5999 J-2.4201
G2 X67.8879 Y28.8548 I-1.8878 J-0.6605
G2 X68.1146 Y27.5233 I-3.8541 J-1.3414
G2 X68.1147 Y27.5184 I-2.0 J-0.0049
G1 Y20.6707
G1 Y11.3273
G1 Y4.6412
G2 X68.1146 Y4.6349 I-2.0 J0.0
G2 X67.7151 Y2.9335 I-3.875 J0.0123
G2 X67.7136 Y2.9303 I-1.7938 J0.8845
G2 X66.8169 Y1.7018 I-4.013 J1.9875
G2 X66.1242 Y1.1312 I-3.6981 J3.7841
G2 X65.1553 Y0.586 I-3.4235 J4.9497
G2 X63.8426 Y0.1478 I-2.8184 J6.2584
G2 X62.1139 Y-0.0449 I-1.724 J7.6152
G1 X62.0994
G2 X60.3514 Y0.1494 I-0.0226 J7.7552
G2 X58.6222 Y0.7921 I1.5078 J6.7054
G2 X58.6211 Y0.7926 I0.942 J1.7643
G2 X57.5033 Y1.5805 I2.628 J4.9152
G2 X57.5013 Y1.5823 I1.3441 J1.481
G2 X56.9113 Y2.23 I3.1529 J3.4648
G2 X56.3667 Y3.1954 I3.336 J2.518
G2 X56.0966 Y4.5462 I3.5062 J1.4037
G3 X56.0243 Y4.6342 I-0.3769 J-0.2359
G2 X56.0191 Y4.6392 I1.3704 J1.4567
G3 X55.8348 Y4.7878 I-1.0221 J-1.0787
G3 X55.5098 Y4.9663 I-1.1325 J-1.6774
G2 X55.5045 Y4.9685 I0.7979 J1.8339
G3 X54.9435 Y5.1518 I-1.2178 J-2.7775
G2 X54.94 Y5.1526 I0.4331 J1.9525
G3 X54.1013 Y5.2442 I-0.8288 J-3.7048
G2 X54.0961 I-0.0052 J2.0
G1 X42.0961
G2 X42.0894 I0.0 J2.0
G3 X41.2391 Y5.1496 I-0.0127 J-3.756
G2 X41.2305 Y5.1477 I-0.446 J1.9496
G3 X40.5064 Y4.8789 I0.6282 J-2.8024
G3 X40.1924 Y4.6576 I0.7406 J-1.3846
G3 X40.1071 Y4.5639 I0.4575 J-0.5016
G2 X40.1035 Y4.559 I-1.5989 J1.2014
G3 X40.0956 Y4.5477 I0.1393 J-0.1053
G2 X39.6823 Y2.8762 I-3.8177 J0.0571
G1 Y2.8761
G1 Y2.8762
G2 X38.7675 Y1.6539 I-3.9598 J2.0105
G2 X38.0828 Y1.103 I-3.7672 J3.9806
G2 X38.0792 Y1.1005 I-1.1249 J1.6537
G2 X37.1079 Y0.5662 I-3.3748 J4.9844
G2 X35.8113 Y0.1427 I-2.8212 J6.4416
G2 X34.0936 Y-0.0449 I-1.7004 J7.61
G1 X34.0792
G2 X32.3191 Y0.1549 I-0.0113 J7.7538
G2 X30.5747 Y0.8173 I1.5135 J6.6138
G2 X30.5674 Y0.8213 I0.9603 J1.7543
G2 X29.4644 Y1.6168 I2.7527 J4.9791
G2 X29.4439 Y1.636 I1.3554 J1.4707
G2 X28.8804 Y2.2701 I3.413 J3.6006
G2 X28.8778 Y2.2735 I1.6031 J1.1959
G2 X28.3369 Y3.2556 I3.3346 J2.4765
G2 X28.078 Y4.6035 I3.582 J1.3871
G3 X27.9957 Y4.7088 I-0.4155 J-0.2396
G2 X27.9857 Y4.7186 I1.3896 J1.4384
G3 X27.8149 Y4.8594 I-0.9056 J-0.9243
G2 X27.8125 Y4.861 I1.1357 J1.6463
G3 X27.4855 Y5.045 I-1.1507 J-1.663
G2 X27.4779 Y5.0484 I0.8146 J1.8266
G3 X26.9271 Y5.2324 I-1.1803 J-2.6174
G2 X26.9239 Y5.2331 I0.4385 J1.9513
G3 X26.0788 Y5.3274 I-0.8433 J-3.7236
G2 X26.0778 I-0.001 J2.0
G1 X14.0775
G2 X14.0741 I0.0 J2.0
G3 X13.2195 Y5.2303 I-0.0063 J-3.7539
G2 X13.2127 Y5.2287 I-0.452 J1.9483
G3 X12.4991 Y4.9586 I0.6198 J-2.715
G3 X12.1863 Y4.7346 I0.8208 J-1.4766
G3 X12.0881 Y4.623 I0.6705 J-0.6886
G3 X12.0774 Y4.606 I0.1241 J-0.0905
G2 X11.6781 Y2.9336 I-3.875 J0.0412
G2 X11.6765 Y2.9302 I-1.7938 J0.8844
G2 X10.78 Y1.702 I-4.0141 J1.9884
G2 X10.0873 Y1.1313 I-3.7002 J3.7862
G2 X9.1183 Y0.586 I-3.4256 J4.953
G2 X7.8056 Y0.1478 I-2.8209 J6.2655
G2 X6.0772 Y-0.0449 I-1.7252 J7.6251
G1 X6.06
G2 X4.3099 Y0.1517 I-0.0033 J7.859
G2 X2.571 Y0.8046 I1.5087 J6.6597
G2 X2.5668 Y0.8069 I0.9512 J1.7593
G2 X1.4564 Y1.5987 I2.6899 J4.9469
G2 X1.4454 Y1.6088 I1.3498 J1.4758
G2 X0.8678 Y2.251 I3.2725 J3.5247
G2 X0.3237 Y3.2275 I3.3315 J2.4961
G2 X0.3233 Y3.2286 I1.862 J0.7301
G2 X0.0597 Y4.615 I3.5687 J1.3968
G2 Y4.6204 I2.0 J0.0054
G1 Y11.2856
G1 Y20.6291
G1 Y27.4977
G2 Y27.4998 I2.0 J0.0
G2 X0.4081 Y29.1503 I4.1031 J-0.0043
G2 X0.4087 Y29.1516 I1.8301 J-0.8066
G2 X1.2513 Y30.4292 I4.2054 J-1.857
G2 X1.2522 Y30.4301 I1.463 J-1.3637
G2 X1.9173 Y31.0362 I4.0706 J-3.7992
G2 X1.9207 Y31.0387 I1.2232 J-1.5823
G2 X2.9105 Y31.6526 I3.5272 J-4.5826
G2 X4.2523 Y32.1445 I2.9921 J-6.0851
G1 X4.2525 Y32.1446
G2 X6.0616 Y32.3663 I1.7954 J-7.159
G1 X14.0123
G1 Y33.0688
G2 X17.3829 Y44.1851 I19.9151 J0.0306
G2 X26.3544 Y51.5512 I16.6749 J-11.1627
G2 X26.3573 Y51.5524 I0.7678 J-1.8467
G2 X34.0117 Y53.0703 I7.6365 J-18.4507
G2 X45.127 Y49.6997 I0.0285 J-19.919
G2 X52.4931 Y40.7281 I-11.1625 J-16.6748
G2 X52.4943 Y40.7252 I-1.8468 J-0.7678
G2 X54.0122 Y33.0693 I-18.45 J-7.6362
G1 Y32.3663
G1 X62.0
G1 F25.0 Z-3.0
G1 F150.0 X62.1141
G2 X63.9361 Y32.1421 I0.003 J-7.4922
G2 X65.7213 Y31.4067 I-1.594 J-6.4038
G2 X66.8348 Y30.5313 I-2.8112 J-4.7217
G2 X66.8465 Y30.5192 I-1.4284 J-1.3999
G2 X67.387 Y29.8533 I-3.6323 J-3.5002
G2 X67.3923 Y29.8454 I-1.6544 J-1.1238
G2 X67.8868 Y28.8579 I-3.5999 J-2.4201
G2 X67.8879 Y28.8548 I-1.8878 J-0.6605
G2 X68.1146 Y27.5233 I-3.8541 J-1.3414
G2 X68.1147 Y27.5184 I-2.0 J-0.0049
G1 Y20.6707
G1 Y11.3273
G1 Y4.6412
G2 X68.1146 Y4.6349 I-2.0 J0.0
G2 X67.7151 Y2.9335 I-3.875 J0.0123
G2 X67.7136 Y2.9303 I-1.7938 J0.8845
G2 X66.8169 Y1.7018 I-4.013 J1.9875
G2 X66.1242 Y1.1312 I-3.6981 J3.7841
G2 X65.1553 Y0.586 I-3.4235 J4.9497
G2 X63.8426 Y0.1478 I-2.8184 J6.2584
G2 X62.1139 Y-0.0449 I-1.724 J7.6152
G1 X62.0994
G2 X60.3514 Y0.1494 I-0.0226 J7.7552
G2 X58.6222 Y0.7921 I1.5078 J6.7054
G2 X58.6211 Y0.7926 I0.942 J1.7643
G2 X57.5033 Y1.5805 I2.628 J4.9152
G2 X57.5013 Y1.5823 I1.3441 J1.481
G2 X56.9113 Y2.23 I3.1529 J3.4648
G2 X56.3667 Y3.1954 I3.336 J2.518
G2 X56.0966 Y4.5462 I3.5062 J1.4037
G3 X56.0243 Y4.6342 I-0.3769 J-0.2359
G2 X56.0191 Y4.6392 I1.3704 J1.4567
G3 X55.8348 Y4.7878 I-1.0221 J-1.0787
G3 X55.5098 Y4.9663 I-1.1325 J-1.6774
G2 X55.5045 Y4.9685 I0.7979 J1.8339
G3 X54.9435 Y5.1518 I-1.2178 J-2.7775
G2 X54.94 Y5.1526 I0.4331 J1.9525
G3 X54.1013 Y5.2442 I-0.8288 J-3.7048
G2 X54.0961 I-0.0052 J2.0
G1 X42.0961
G2 X42.0894 I0.0 J2.0
G3 X41.2391 Y5.1496 I-0.0127 J-3.756
G2 X41.2305 Y5.1477 I-0.446 J1.9496
G3 X40.5064 Y4.8789 I0.6282 J-2.8024
G3 X40.1924 Y4.6576 I0.7406 J-1.3846
G3 X40.1071 Y4.5639 I0.4575 J-0.5016
G2 X40.1035 Y4.559 I-1.5989 J1.2014
G3 X40.0956 Y4.5477 I0.1393 J-0.1053
G2 X39.6823 Y2.8762 I-3.8177 J0.0571
G1 Y2.8761
G1 Y2.8762
G2 X38.7675 Y1.6539 I-3.9598 J2.0105
G2 X38.0828 Y1.103 I-3.7672 J3.9806
G2 X38.0792 Y1.1005 I-1.1249 J1.6537
G2 X37.1079 Y0.5662 I-3.3748 J4.9844
G2 X35.8113 Y0.1427 I-2.8212 J6.4416
G2 X34.0936 Y-0.0449 I-1.7004 J7.61
G1 X34.0792
G2 X32.3191 Y0.1549 I-0.0113 J7.7538
G2 X30.5747 Y0.8173 I1.5135 J6.6138
G2 X30.5674 Y0.8213 I0.9603 J1.7543
G2 X29.4644 Y1.6168 I2.7527 J4.9791
G2 X29.4439 Y1.636 I1.3554 J1.4707
G2 X28.8804 Y2.2701 I3.413 J3.6006
G2 X28.8778 Y2.2735 I1.6031 J1.1959
G2 X28.3369 Y3.2556 I3.3346 J2.4765
G2 X28.078 Y4.6035 I3.582 J1.3871
G3 X27.9957 Y4.7088 I-0.4155 J-0.2396
G2 X27.9857 Y4.7186 I1.3896 J1.4384
G3 X27.8149 Y4.8594 I-0.9056 J-0.9243
G2 X27.8125 Y4.861 I1.1357 J1.6463
G3 X27.4855 Y5.045 I-1.1507 J-1.663
G2 X27.4779 Y5.0484 I0.8146 J1.8266
G3 X26.9271 Y5.2324 I-1.1803 J-2.6174
G2 X26.9239 Y5.2331 I0.4385 J1.9513
G3 X26.0788 Y5.3274 I-0.8433 J-3.7236
G2 X26.0778 I-0.001 J2.0
G1 X14.0775
G2 X14.0741 I0.0 J2.0
G3 X13.2195 Y5.2303 I-0.0063 J-3.7539
G2 X13.2127 Y5.2287 I-0.452 J1.9483
G3 X12.4991 Y4.9586 I0.6198 J-2.715
G3 X12.1863 Y4.7346 I0.8208 J-1.4766
G3 X12.0881 Y4.623 I0.6705 J-0.6886
G3 X12.0774 Y4.606 I0.1241 J-0.0905
G2 X11.6781 Y2.9336 I-3.875 J0.0412
G2 X11.6765 Y2.9302 I-1.7938 J0.8844
G2 X10.78 Y1.702 I-4.0141 J1.9884
G2 X10.0873 Y1.1313 I-3.7002 J3.7862
G2 X9.1183 Y0.586 I-3.4256 J4.953
G2 X7.8056 Y0.1478 I-2.8209 J6.2655
G2 X6.0772 Y-0.0449 I-1.7252 J7.6251
G1 X6.06
G2 X4.3099 Y0.1517 I-0.0033 J7.859
G2 X2.571 Y0.8046 I1.5087 J6.6597
G2 X2.5668 Y0.8069 I0.9512 J1.7593
G2 X1.4564 Y1.5987 I2.6899 J4.9469
G2 X1.4454 Y1.6088 I1.3498 J1.4758
G2 X0.8678 Y2.251 I3.2725 J3.5247
G2 X0.3237 Y3.2275 I3.3315 J2.4961
G2 X0.3233 Y3.2286 I1.862 J0.7301
G2 X0.0597 Y4.615 I3.5687 J1.3968
G2 Y4.6204 I2.0 J0.0054
G1 Y11.2856
G1 Y20.6291
G1 Y27.4977
G2 Y27.4998 I2.0 J0.0
G2 X0.4081 Y29.1503 I4.1031 J-0.0043
G2 X0.4087 Y29.1516 I1.8301 J-0.8066
G2 X1.2513 Y30.4292 I4.2054 J-1.857
G2 X1.2522 Y30.4301 I1.463 J-1.3637
G2 X1.9173 Y31.0362 I4.0706 J-3.7992
G2 X1.9207 Y31.0387 I1.2232 J-1.5823
G2 X2.9105 Y31.6526 I3.5272 J-4.5826
G2 X4.2523 Y32.1445 I2.9921 J-6.0851
G1 X4.2525 Y32.1446
G2 X6.0616 Y32.3663 I1.7954 J-7.159
G1 X14.0123
G1 Y33.0688
G2 X17.3829 Y44.1851 I19.9151 J0.0306
G2 X26.3544 Y51.5512 I16.6749 J-11.1627
G2 X26.3573 Y51.5524 I0.7678 J-1.8467
G2 X34.0117 Y53.0703 I7.6365 J-18.4507
G2 X45.127 Y49.6997 I0.0285 J-19.919
G2 X52.4931 Y40.7281 I-11.1625 J-16.6748
G2 X52.4943 Y40.7252 I-1.8468 J-0.7678
G2 X54.0122 Y33.0693 I-18.45 J-7.6362
G1 Y32.3663
G1 X62.0
G1 F25.0 Z-4.0
G1 F150.0 X62.1141
G2 X63.9361 Y32.1421 I0.003 J-7.4922
G2 X65.7213 Y31.4067 I-1.594 J-6.4038
G2 X66.8348 Y30.5313 I-2.8112 J-4.7217
G2 X66.8465 Y30.5192 I-1.4284 J-1.3999
G2 X67.387 Y29.8533 I-3.6323 J-3.5002
G2 X67.3923 Y29.8454 I-1.6544 J-1.1238
G2 X67.8868 Y28.8579 I-3.5999 J-2.4201
G2 X67.8879 Y28.8548 I-1.8878 J-0.6605
G2 X68.1146 Y27.5233 I-3.8541 J-1.3414
G2 X68.1147 Y27.5184 I-2.0 J-0.0049
G1 Y20.6707
G1 Y11.3273
G1 Y4.6412
G2 X68.1146 Y4.6349 I-2.0 J0.0
G2 X67.7151 Y2.9335 I-3.875 J0.0123
G2 X67.7136 Y2.9303 I-1.7938 J0.8845
G2 X66.8169 Y1.7018 I-4.013 J1.9875
G2 X66.1242 Y1.1312 I-3.6981 J3.7841
G2 X65.1553 Y0.586 I-3.4235 J4.9497
G2 X63.8426 Y0.1478 I-2.8184 J6.2584
G2 X62.1139 Y-0.0449 I-1.724 J7.6152
G1 X62.0994
G2 X60.3514 Y0.1494 I-0.0226 J7.7552
G2 X58.6222 Y0.7921 I1.5078 J6.7054
G2 X58.6211 Y0.7926 I0.942 J1.7643
G2 X57.5033 Y1.5805 I2.628 J4.9152
G2 X57.5013 Y1.5823 I1.3441 J1.481
G2 X56.9113 Y2.23 I3.1529 J3.4648
G2 X56.3667 Y3.1954 I3.336 J2.518
G2 X56.0966 Y4.5462 I3.5062 J1.4037
G3 X56.0243 Y4.6342 I-0.3769 J-0.2359
G2 X56.0191 Y4.6392 I1.3704 J1.4567
G3 X55.8348 Y4.7878 I-1.0221 J-1.0787
G3 X55.5098 Y4.9663 I-1.1325 J-1.6774
G2 X55.5045 Y4.9685 I0.7979 J1.8339
G3 X54.9435 Y5.1518 I-1.2178 J-2.7775
G2 X54.94 Y5.1526 I0.4331 J1.9525
G3 X54.1013 Y5.2442 I-0.8288 J-3.7048
G2 X54.0961 I-0.0052 J2.0
G1 X42.0961
G2 X42.0894 I0.0 J2.0
G3 X41.2391 Y5.1496 I-0.0127 J-3.756
G2 X41.2305 Y5.1477 I-0.446 J1.9496
G3 X40.5064 Y4.8789 I0.6282 J-2.8024
G3 X40.1924 Y4.6576 I0.7406 J-1.3846
G3 X40.1071 Y4.5639 I0.4575 J-0.5016
G2 X40.1035 Y4.559 I-1.5989 J1.2014
G3 X40.0956 Y4.5477 I0.1393 J-0.1053
G2 X39.6823 Y2.8762 I-3.8177 J0.0571
G1 Y2.8761
G1 Y2.8762
G2 X38.7675 Y1.6539 I-3.9598 J2.0105
G2 X38.0828 Y1.103 I-3.7672 J3.9806
G2 X38.0792 Y1.1005 I-1.1249 J1.6537
G2 X37.1079 Y0.5662 I-3.3748 J4.9844
G2 X35.8113 Y0.1427 I-2.8212 J6.4416
G2 X34.0936 Y-0.0449 I-1.7004 J7.61
G1 X34.0792
G2 X32.3191 Y0.1549 I-0.0113 J7.7538
G2 X30.5747 Y0.8173 I1.5135 J6.6138
G2 X30.5674 Y0.8213 I0.9603 J1.7543
G2 X29.4644 Y1.6168 I2.7527 J4.9791
G2 X29.4439 Y1.636 I1.3554 J1.4707
G2 X28.8804 Y2.2701 I3.413 J3.6006
G2 X28.8778 Y2.2735 I1.6031 J1.1959
G2 X28.3369 Y3.2556 I3.3346 J2.4765
G2 X28.078 Y4.6035 I3.582 J1.3871
G3 X27.9957 Y4.7088 I-0.4155 J-0.2396
G2 X27.9857 Y4.7186 I1.3896 J1.4384
G3 X27.8149 Y4.8594 I-0.9056 J-0.9243
G2 X27.8125 Y4.861 I1.1357 J1.6463
G3 X27.4855 Y5.045 I-1.1507 J-1.663
G2 X27.4779 Y5.0484 I0.8146 J1.8266
G3 X26.9271 Y5.2324 I-1.1803 J-2.6174
G2 X26.9239 Y5.2331 I0.4385 J1.9513
G3 X26.0788 Y5.3274 I-0.8433 J-3.7236
G2 X26.0778 I-0.001 J2.0
G1 X14.0775
G2 X14.0741 I0.0 J2.0
G3 X13.2195 Y5.2303 I-0.0063 J-3.7539
G2 X13.2127 Y5.2287 I-0.452 J1.9483
G3 X12.4991 Y4.9586 I0.6198 J-2.715
G3 X12.1863 Y4.7346 I0.8208 J-1.4766
G3 X12.0881 Y4.623 I0.6705 J-0.6886
G3 X12.0774 Y4.606 I0.1241 J-0.0905
G2 X11.6781 Y2.9336 I-3.875 J0.0412
G2 X11.6765 Y2.9302 I-1.7938 J0.8844
G2 X10.78 Y1.702 I-4.0141 J1.9884
G2 X10.0873 Y1.1313 I-3.7002 J3.7862
G2 X9.1183 Y0.586 I-3.4256 J4.953
G2 X7.8056 Y0.1478 I-2.8209 J6.2655
G2 X6.0772 Y-0.0449 I-1.7252 J7.6251
G1 X6.06
G2 X4.3099 Y0.1517 I-0.0033 J7.859
G2 X2.571 Y0.8046 I1.5087 J6.6597
G2 X2.5668 Y0.8069 I0.9512 J1.7593
G2 X1.4564 Y1.5987 I2.6899 J4.9469
G2 X1.4454 Y1.6088 I1.3498 J1.4758
G2 X0.8678 Y2.251 I3.2725 J3.5247
G2 X0.3237 Y3.2275 I3.3315 J2.4961
G2 X0.3233 Y3.2286 I1.862 J0.7301
G2 X0.0597 Y4.615 I3.5687 J1.3968
G2 Y4.6204 I2.0 J0.0054
G1 Y11.2856
G1 Y20.6291
G1 Y27.4977
G2 Y27.4998 I2.0 J0.0
G2 X0.4081 Y29.1503 I4.1031 J-0.0043
G2 X0.4087 Y29.1516 I1.8301 J-0.8066
G2 X1.2513 Y30.4292 I4.2054 J-1.857
G2 X1.2522 Y30.4301 I1.463 J-1.3637
G2 X1.9173 Y31.0362 I4.0706 J-3.7992
G2 X1.9207 Y31.0387 I1.2232 J-1.5823
G2 X2.9105 Y31.6526 I3.5272 J-4.5826
G2 X4.2523 Y32.1445 I2.9921 J-6.0851
G1 X4.2525 Y32.1446
G2 X6.0616 Y32.3663 I1.7954 J-7.159
G1 X14.0123
G1 Y33.0688
G2 X17.3829 Y44.1851 I19.9151 J0.0306
G2 X26.3544 Y51.5512 I16.6749 J-11.1627
G2 X26.3573 Y51.5524 I0.7678 J-1.8467
G2 X34.0117 Y53.0703 I7.6365 J-18.4507
G2 X45.127 Y49.6997 I0.0285 J-19.919
G2 X52.4931 Y40.7281 I-11.1625 J-16.6748
G2 X52.4943 Y40.7252 I-1.8468 J-0.7678
G2 X54.0122 Y33.0693 I-18.45 J-7.6362
G1 Y32.3663
G1 X62.0
G1 F25.0 Z-5.0
G1 F150.0 X62.1141
G2 X63.9361 Y32.1421 I0.003 J-7.4922
G2 X65.7213 Y31.4067 I-1.594 J-6.4038
G2 X66.8348 Y30.5313 I-2.8112 J-4.7217
G2 X66.8465 Y30.5192 I-1.4284 J-1.3999
G2 X67.387 Y29.8533 I-3.6323 J-3.5002
G2 X67.3923 Y29.8454 I-1.6544 J-1.1238
G2 X67.8868 Y28.8579 I-3.5999 J-2.4201
G2 X67.8879 Y28.8548 I-1.8878 J-0.6605
G2 X68.1146 Y27.5233 I-3.8541 J-1.3414
G2 X68.1147 Y27.5184 I-2.0 J-0.0049
G1 Y20.6707
G1 Y11.3273
G1 Y4.6412
G2 X68.1146 Y4.6349 I-2.0 J0.0
G2 X67.7151 Y2.9335 I-3.875 J0.0123
G2 X67.7136 Y2.9303 I-1.7938 J0.8845
G2 X66.8169 Y1.7018 I-4.013 J1.9875
G2 X66.1242 Y1.1312 I-3.6981 J3.7841
G2 X65.1553 Y0.586 I-3.4235 J4.9497
G2 X63.8426 Y0.1478 I-2.8184 J6.2584
G2 X62.1139 Y-0.0449 I-1.724 J7.6152
G1 X62.0994
G2 X60.3514 Y0.1494 I-0.0226 J7.7552
G2 X58.6222 Y0.7921 I1.5078 J6.7054
G2 X58.6211 Y0.7926 I0.942 J1.7643
G2 X57.5033 Y1.5805 I2.628 J4.9152
G2 X57.5013 Y1.5823 I1.3441 J1.481
G2 X56.9113 Y2.23 I3.1529 J3.4648
G2 X56.3667 Y3.1954 I3.336 J2.518
G2 X56.0966 Y4.5462 I3.5062 J1.4037
G3 X56.0243 Y4.6342 I-0.3769 J-0.2359
G2 X56.0191 Y4.6392 I1.3704 J1.4567
G3 X55.8348 Y4.7878 I-1.0221 J-1.0787
G3 X55.5098 Y4.9663 I-1.1325 J-1.6774
G2 X55.5045 Y4.9685 I0.7979 J1.8339
G3 X54.9435 Y5.1518 I-1.2178 J-2.7775
G2 X54.94 Y5.1526 I0.4331 J1.9525
G3 X54.1013 Y5.2442 I-0.8288 J-3.7048
G2 X54.0961 I-0.0052 J2.0
G1 X42.0961
G2 X42.0894 I0.0 J2.0
G3 X41.2391 Y5.1496 I-0.0127 J-3.756
G2 X41.2305 Y5.1477 I-0.446 J1.9496
G3 X40.5064 Y4.8789 I0.6282 J-2.8024
G3 X40.1924 Y4.6576 I0.7406 J-1.3846
G3 X40.1071 Y4.5639 I0.4575 J-0.5016
G2 X40.1035 Y4.559 I-1.5989 J1.2014
G3 X40.0956 Y4.5477 I0.1393 J-0.1053
G2 X39.6823 Y2.8762 I-3.8177 J0.0571
G1 Y2.8761
G1 Y2.8762
G2 X38.7675 Y1.6539 I-3.9598 J2.0105
G2 X38.0828 Y1.103 I-3.7672 J3.9806
G2 X38.0792 Y1.1005 I-1.1249 J1.6537
G2 X37.1079 Y0.5662 I-3.3748 J4.9844
G2 X35.8113 Y0.1427 I-2.8212 J6.4416
G2 X34.0936 Y-0.0449 I-1.7004 J7.61
G1 X34.0792
G2 X32.3191 Y0.1549 I-0.0113 J7.7538
G2 X30.5747 Y0.8173 I1.5135 J6.6138
G2 X30.5674 Y0.8213 I0.9603 J1.7543
G2 X29.4644 Y1.6168 I2.7527 J4.9791
G2 X29.4439 Y1.636 I1.3554 J1.4707
G2 X28.8804 Y2.2701 I3.413 J3.6006
G2 X28.8778 Y2.2735 I1.6031 J1.1959
G2 X28.3369 Y3.2556 I3.3346 J2.4765
G2 X28.078 Y4.6035 I3.582 J1.3871
G3 X27.9957 Y4.7088 I-0.4155 J-0.2396
G2 X27.9857 Y4.7186 I1.3896 J1.4384
G3 X27.8149 Y4.8594 I-0.9056 J-0.9243
G2 X27.8125 Y4.861 I1.1357 J1.6463
G3 X27.4855 Y5.045 I-1.1507 J-1.663
G2 X27.4779 Y5.0484 I0.8146 J1.8266
G3 X26.9271 Y5.2324 I-1.1803 J-2.6174
G2 X26.9239 Y5.2331 I0.4385 J1.9513
G3 X26.0788 Y5.3274 I-0.8433 J-3.7236
G2 X26.0778 I-0.001 J2.0
G1 X14.0775
G2 X14.0741 I0.0 J2.0
G3 X13.2195 Y5.2303 I-0.0063 J-3.7539
G2 X13.2127 Y5.2287 I-0.452 J1.9483
G3 X12.4991 Y4.9586 I0.6198 J-2.715
G3 X12.1863 Y4.7346 I0.8208 J-1.4766
G3 X12.0881 Y4.623 I0.6705 J-0.6886
G3 X12.0774 Y4.606 I0.1241 J-0.0905
G2 X11.6781 Y2.9336 I-3.875 J0.0412
G2 X11.6765 Y2.9302 I-1.7938 J0.8844
G2 X10.78 Y1.702 I-4.0141 J1.9884
G2 X10.0873 Y1.1313 I-3.7002 J3.7862
G2 X9.1183 Y0.586 I-3.4256 J4.953
G2 X7.8056 Y0.1478 I-2.8209 J6.2655
G2 X6.0772 Y-0.0449 I-1.7252 J7.6251
G1 X6.06
G2 X4.3099 Y0.1517 I-0.0033 J7.859
G2 X2.571 Y0.8046 I1.5087 J6.6597
G2 X2.5668 Y0.8069 I0.9512 J1.7593
G2 X1.4564 Y1.5987 I2.6899 J4.9469
G2 X1.4454 Y1.6088 I1.3498 J1.4758
G2 X0.8678 Y2.251 I3.2725 J3.5247
G2 X0.3237 Y3.2275 I3.3315 J2.4961
G2 X0.3233 Y3.2286 I1.862 J0.7301
G2 X0.0597 Y4.615 I3.5687 J1.3968
G2 Y4.6204 I2.0 J0.0054
G1 Y11.2856
G1 Y20.6291
G1 Y27.4977
G2 Y27.4998 I2.0 J0.0
G2 X0.4081 Y29.1503 I4.1031 J-0.0043
G2 X0.4087 Y29.1516 I1.8301 J-0.8066
G2 X1.2513 Y30.4292 I4.2054 J-1.857
G2 X1.2522 Y30.4301 I1.463 J-1.3637
G2 X1.9173 Y31.0362 I4.0706 J-3.7992
G2 X1.9207 Y31.0387 I1.2232 J-1.5823
G2 X2.9105 Y31.6526 I3.5272 J-4.5826
G2 X4.2523 Y32.1445 I2.9921 J-6.0851
G1 X4.2525 Y32.1446
G2 X6.0616 Y32.3663 I1.7954 J-7.159
G1 X14.0123
G1 Y33.0688
G2 X17.3829 Y44.1851 I19.9151 J0.0306
G2 X26.3544 Y51.5512 I16.6749 J-11.1627
G2 X26.3573 Y51.5524 I0.7678 J-1.8467
G2 X34.0117 Y53.0703 I7.6365 J-18.4507
G2 X45.127 Y49.6997 I0.0285 J-19.919
G2 X52.4931 Y40.7281 I-11.1625 J-16.6748
G2 X52.4943 Y40.7252 I-1.8468 J-0.7678
G2 X54.0122 Y33.0693 I-18.45 J-7.6362
G1 Y32.3663
G1 X62.0
G1 F25.0 Z-6.0
G1 F150.0 X62.1141
G2 X63.9361 Y32.1421 I0.003 J-7.4922
G2 X65.7213 Y31.4067 I-1.594 J-6.4038
G2 X66.8348 Y30.5313 I-2.8112 J-4.7217
G2 X66.8465 Y30.5192 I-1.4284 J-1.3999
G2 X67.387 Y29.8533 I-3.6323 J-3.5002
G2 X67.3923 Y29.8454 I-1.6544 J-1.1238
G2 X67.8868 Y28.8579 I-3.5999 J-2.4201
G2 X67.8879 Y28.8548 I-1.8878 J-0.6605
G2 X68.1146 Y27.5233 I-3.8541 J-1.3414
G2 X68.1147 Y27.5184 I-2.0 J-0.0049
G1 Y20.6707
G1 Y11.3273
G1 Y4.6412
G2 X68.1146 Y4.6349 I-2.0 J0.0
G2 X67.7151 Y2.9335 I-3.875 J0.0123
G2 X67.7136 Y2.9303 I-1.7938 J0.8845
G2 X66.8169 Y1.7018 I-4.013 J1.9875
G2 X66.1242 Y1.1312 I-3.6981 J3.7841
G2 X65.1553 Y0.586 I-3.4235 J4.9497
G2 X63.8426 Y0.1478 I-2.8184 J6.2584
G2 X62.1139 Y-0.0449 I-1.724 J7.6152
G1 X62.0994
G2 X60.3514 Y0.1494 I-0.0226 J7.7552
G2 X58.6222 Y0.7921 I1.5078 J6.7054
G2 X58.6211 Y0.7926 I0.942 J1.7643
G2 X57.5033 Y1.5805 I2.628 J4.9152
G2 X57.5013 Y1.5823 I1.3441 J1.481
G2 X56.9113 Y2.23 I3.1529 J3.4648
G2 X56.3667 Y3.1954 I3.336 J2.518
G2 X56.0966 Y4.5462 I3.5062 J1.4037
G3 X56.0243 Y4.6342 I-0.3769 J-0.2359
G2 X56.0191 Y4.6392 I1.3704 J1.4567
G3 X55.8348 Y4.7878 I-1.0221 J-1.0787
G3 X55.5098 Y4.9663 I-1.1325 J-1.6774
G2 X55.5045 Y4.9685 I0.7979 J1.8339
G3 X54.9435 Y5.1518 I-1.2178 J-2.7775
G2 X54.94 Y5.1526 I0.4331 J1.9525
G3 X54.1013 Y5.2442 I-0.8288 J-3.7048
G2 X54.0961 I-0.0052 J2.0
G1 X42.0961
G2 X42.0894 I0.0 J2.0
G3 X41.2391 Y5.1496 I-0.0127 J-3.756
G2 X41.2305 Y5.1477 I-0.446 J1.9496
G3 X40.5064 Y4.8789 I0.6282 J-2.8024
G3 X40.1924 Y4.6576 I0.7406 J-1.3846
G3 X40.1071 Y4.5639 I0.4575 J-0.5016
G2 X40.1035 Y4.559 I-1.5989 J1.2014
G3 X40.0956 Y4.5477 I0.1393 J-0.1053
G2 X39.6823 Y2.8762 I-3.8177 J0.0571
G1 Y2.8761
G1 Y2.8762
G2 X38.7675 Y1.6539 I-3.9598 J2.0105
G2 X38.0828 Y1.103 I-3.7672 J3.9806
G2 X38.0792 Y1.1005 I-1.1249 J1.6537
G2 X37.1079 Y0.5662 I-3.3748 J4.9844
G2 X35.8113 Y0.1427 I-2.8212 J6.4416
G2 X34.0936 Y-0.0449 I-1.7004 J7.61
G1 X34.0792
G2 X32.3191 Y0.1549 I-0.0113 J7.7538
G2 X30.5747 Y0.8173 I1.5135 J6.6138
G2 X30.5674 Y0.8213 I0.9603 J1.7543
G2 X29.4644 Y1.6168 I2.7527 J4.9791
G2 X29.4439 Y1.636 I1.3554 J1.4707
G2 X28.8804 Y2.2701 I3.413 J3.6006
G2 X28.8778 Y2.2735 I1.6031 J1.1959
G2 X28.3369 Y3.2556 I3.3346 J2.4765
G2 X28.078 Y4.6035 I3.582 J1.3871
G3 X27.9957 Y4.7088 I-0.4155 J-0.2396
G2 X27.9857 Y4.7186 I1.3896 J1.4384
G3 X27.8149 Y4.8594 I-0.9056 J-0.9243
G2 X27.8125 Y4.861 I1.1357 J1.6463
G3 X27.4855 Y5.045 I-1.1507 J-1.663
G2 X27.4779 Y5.0484 I0.8146 J1.8266
G3 X26.9271 Y5.2324 I-1.1803 J-2.6174
G2 X26.9239 Y5.2331 I0.4385 J1.9513
G3 X26.0788 Y5.3274 I-0.8433 J-3.7236
G2 X26.0778 I-0.001 J2.0
G1 X14.0775
G2 X14.0741 I0.0 J2.0
G3 X13.2195 Y5.2303 I-0.0063 J-3.7539
G2 X13.2127 Y5.2287 I-0.452 J1.9483
G3 X12.4991 Y4.9586 I0.6198 J-2.715
G3 X12.1863 Y4.7346 I0.8208 J-1.4766
G3 X12.0881 Y4.623 I0.6705 J-0.6886
G3 X12.0774 Y4.606 I0.1241 J-0.0905
G2 X11.6781 Y2.9336 I-3.875 J0.0412
G2 X11.6765 Y2.9302 I-1.7938 J0.8844
G2 X10.78 Y1.702 I-4.0141 J1.9884
G2 X10.0873 Y1.1313 I-3.7002 J3.7862
G2 X9.1183 Y0.586 I-3.4256 J4.953
G2 X7.8056 Y0.1478 I-2.8209 J6.2655
G2 X6.0772 Y-0.0449 I-1.7252 J7.6251
G1 X6.06
G2 X4.3099 Y0.1517 I-0.0033 J7.859
G2 X2.571 Y0.8046 I1.5087 J6.6597
G2 X2.5668 Y0.8069 I0.9512 J1.7593
G2 X1.4564 Y1.5987 I2.6899 J4.9469
G2 X1.4454 Y1.6088 I1.3498 J1.4758
G2 X0.8678 Y2.251 I3.2725 J3.5247
G2 X0.3237 Y3.2275 I3.3315 J2.4961
G2 X0.3233 Y3.2286 I1.862 J0.7301
G2 X0.0597 Y4.615 I3.5687 J1.3968
G2 Y4.6204 I2.0 J0.0054
G1 Y11.2856
G1 Y20.6291
G1 Y27.4977
G2 Y27.4998 I2.0 J0.0
G2 X0.4081 Y29.1503 I4.1031 J-0.0043
G2 X0.4087 Y29.1516 I1.8301 J-0.8066
G2 X1.2513 Y30.4292 I4.2054 J-1.857
G2 X1.2522 Y30.4301 I1.463 J-1.3637
G2 X1.9173 Y31.0362 I4.0706 J-3.7992
G2 X1.9207 Y31.0387 I1.2232 J-1.5823
G2 X2.9105 Y31.6526 I3.5272 J-4.5826
G2 X4.2523 Y32.1445 I2.9921 J-6.0851
G1 X4.2525 Y32.1446
G2 X6.0616 Y32.3663 I1.7954 J-7.159
G1 X14.0123
G1 Y33.0688
G2 X17.3829 Y44.1851 I19.9151 J0.0306
G2 X26.3544 Y51.5512 I16.6749 J-11.1627
G2 X26.3573 Y51.5524 I0.7678 J-1.8467
G2 X34.0117 Y53.0703 I7.6365 J-18.4507
G2 X45.127 Y49.6997 I0.0285 J-19.919
G2 X52.4931 Y40.7281 I-11.1625 J-16.6748
G2 X52.4943 Y40.7252 I-1.8468 J-0.7678
G2 X54.0122 Y33.0693 I-18.45 J-7.6362
G1 Y32.3663
G1 X62.0
G1 F25.0 Z-7.0
G1 F150.0 X62.1141
G2 X63.9361 Y32.1421 I0.003 J-7.4922
G2 X65.7213 Y31.4067 I-1.594 J-6.4038
G2 X66.8348 Y30.5313 I-2.8112 J-4.7217
G2 X66.8465 Y30.5192 I-1.4284 J-1.3999
G2 X67.387 Y29.8533 I-3.6323 J-3.5002
G2 X67.3923 Y29.8454 I-1.6544 J-1.1238
G2 X67.8868 Y28.8579 I-3.5999 J-2.4201
G2 X67.8879 Y28.8548 I-1.8878 J-0.6605
G2 X68.1146 Y27.5233 I-3.8541 J-1.3414
G2 X68.1147 Y27.5184 I-2.0 J-0.0049
G1 Y20.6707
G1 Y11.3273
G1 Y4.6412
G2 X68.1146 Y4.6349 I-2.0 J0.0
G2 X67.7151 Y2.9335 I-3.875 J0.0123
G2 X67.7136 Y2.9303 I-1.7938 J0.8845
G2 X66.8169 Y1.7018 I-4.013 J1.9875
G2 X66.1242 Y1.1312 I-3.6981 J3.7841
G2 X65.1553 Y0.586 I-3.4235 J4.9497
G2 X63.8426 Y0.1478 I-2.8184 J6.2584
G2 X62.1139 Y-0.0449 I-1.724 J7.6152
G1 X62.0994
G2 X60.3514 Y0.1494 I-0.0226 J7.7552
G2 X58.6222 Y0.7921 I1.5078 J6.7054
G2 X58.6211 Y0.7926 I0.942 J1.7643
G2 X57.5033 Y1.5805 I2.628 J4.9152
G2 X57.5013 Y1.5823 I1.3441 J1.481
G2 X56.9113 Y2.23 I3.1529 J3.4648
G2 X56.3667 Y3.1954 I3.336 J2.518
G2 X56.0966 Y4.5462 I3.5062 J1.4037
G3 X56.0243 Y4.6342 I-0.3769 J-0.2359
G2 X56.0191 Y4.6392 I1.3704 J1.4567
G3 X55.8348 Y4.7878 I-1.0221 J-1.0787
G3 X55.5098 Y4.9663 I-1.1325 J-1.6774
G2 X55.5045 Y4.9685 I0.7979 J1.8339
G3 X54.9435 Y5.1518 I-1.2178 J-2.7775
G2 X54.94 Y5.1526 I0.4331 J1.9525
G3 X54.1013 Y5.2442 I-0.8288 J-3.7048
G2 X54.0961 I-0.0052 J2.0
G1 X42.0961
G2 X42.0894 I0.0 J2.0
G3 X41.2391 Y5.1496 I-0.0127 J-3.756
G2 X41.2305 Y5.1477 I-0.446 J1.9496
G3 X40.5064 Y4.8789 I0.6282 J-2.8024
G3 X40.1924 Y4.6576 I0.7406 J-1.3846
G3 X40.1071 Y4.5639 I0.4575 J-0.5016
G2 X40.1035 Y4.559 I-1.5989 J1.2014
G3 X40.0956 Y4.5477 I0.1393 J-0.1053
G2 X39.6823 Y2.8762 I-3.8177 J0.0571
G1 Y2.8761
G1 Y2.8762
G2 X38.7675 Y1.6539 I-3.9598 J2.0105
G2 X38.0828 Y1.103 I-3.7672 J3.9806
G2 X38.0792 Y1.1005 I-1.1249 J1.6537
G2 X37.1079 Y0.5662 I-3.3748 J4.9844
G2 X35.8113 Y0.1427 I-2.8212 J6.4416
G2 X34.0936 Y-0.0449 I-1.7004 J7.61
G1 X34.0792
G2 X32.3191 Y0.1549 I-0.0113 J7.7538
G2 X30.5747 Y0.8173 I1.5135 J6.6138
G2 X30.5674 Y0.8213 I0.9603 J1.7543
G2 X29.4644 Y1.6168 I2.7527 J4.9791
G2 X29.4439 Y1.636 I1.3554 J1.4707
G2 X28.8804 Y2.2701 I3.413 J3.6006
G2 X28.8778 Y2.2735 I1.6031 J1.1959
G2 X28.3369 Y3.2556 I3.3346 J2.4765
G2 X28.078 Y4.6035 I3.582 J1.3871
G3 X27.9957 Y4.7088 I-0.4155 J-0.2396
G2 X27.9857 Y4.7186 I1.3896 J1.4384
G3 X27.8149 Y4.8594 I-0.9056 J-0.9243
G2 X27.8125 Y4.861 I1.1357 J1.6463
G3 X27.4855 Y5.045 I-1.1507 J-1.663
G2 X27.4779 Y5.0484 I0.8146 J1.8266
G3 X26.9271 Y5.2324 I-1.1803 J-2.6174
G2 X26.9239 Y5.2331 I0.4385 J1.9513
G3 X26.0788 Y5.3274 I-0.8433 J-3.7236
G2 X26.0778 I-0.001 J2.0
G1 X14.0775
G2 X14.0741 I0.0 J2.0
G3 X13.2195 Y5.2303 I-0.0063 J-3.7539
G2 X13.2127 Y5.2287 I-0.452 J1.9483
G3 X12.4991 Y4.9586 I0.6198 J-2.715
G3 X12.1863 Y4.7346 I0.8208 J-1.4766
G3 X12.0881 Y4.623 I0.6705 J-0.6886
G3 X12.0774 Y4.606 I0.1241 J-0.0905
G2 X11.6781 Y2.9336 I-3.875 J0.0412
G2 X11.6765 Y2.9302 I-1.7938 J0.8844
G2 X10.78 Y1.702 I-4.0141 J1.9884
G2 X10.0873 Y1.1313 I-3.7002 J3.7862
G2 X9.1183 Y0.586 I-3.4256 J4.953
G2 X7.8056 Y0.1478 I-2.8209 J6.2655
G2 X6.0772 Y-0.0449 I-1.7252 J7.6251
G1 X6.06
G2 X4.3099 Y0.1517 I-0.0033 J7.859
G2 X2.571 Y0.8046 I1.5087 J6.6597
G2 X2.5668 Y0.8069 I0.9512 J1.7593
G2 X1.4564 Y1.5987 I2.6899 J4.9469
G2 X1.4454 Y1.6088 I1.3498 J1.4758
G2 X0.8678 Y2.251 I3.2725 J3.5247
G2 X0.3237 Y3.2275 I3.3315 J2.4961
G2 X0.3233 Y3.2286 I1.862 J0.7301
G2 X0.0597 Y4.615 I3.5687 J1.3968
G2 Y4.6204 I2.0 J0.0054
G1 Y11.2856
G1 Y20.6291
G1 Y27.4977
G2 Y27.4998 I2.0 J0.0
G2 X0.4081 Y29.1503 I4.1031 J-0.0043
G2 X0.4087 Y29.1516 I1.8301 J-0.8066
G2 X1.2513 Y30.4292 I4.2054 J-1.857
G2 X1.2522 Y30.4301 I1.463 J-1.3637
G2 X1.9173 Y31.0362 I4.0706 J-3.7992
G2 X1.9207 Y31.0387 I1.2232 J-1.5823
G2 X2.9105 Y31.6526 I3.5272 J-4.5826
G2 X4.2523 Y32.1445 I2.9921 J-6.0851
G1 X4.2525 Y32.1446
G2 X6.0616 Y32.3663 I1.7954 J-7.159
G1 X14.0123
G1 Y33.0688
G2 X17.3829 Y44.1851 I19.9151 J0.0306
G2 X26.3544 Y51.5512 I16.6749 J-11.1627
G2 X26.3573 Y51.5524 I0.7678 J-1.8467
G2 X34.0117 Y53.0703 I7.6365 J-18.4507
G2 X45.127 Y49.6997 I0.0285 J-19.919
G2 X52.4931 Y40.7281 I-11.1625 J-16.6748
G2 X52.4943 Y40.7252 I-1.8468 J-0.7678
G2 X54.0122 Y33.0693 I-18.45 J-7.6362
G1 Y32.3663
G1 X62.0
G1 F25.0 Z-8.0
G1 F150.0 X62.1141
G2 X63.9361 Y32.1421 I0.003 J-7.4922
G2 X65.7213 Y31.4067 I-1.594 J-6.4038
G2 X66.8348 Y30.5313 I-2.8112 J-4.7217
G2 X66.8465 Y30.5192 I-1.4284 J-1.3999
G2 X67.387 Y29.8533 I-3.6323 J-3.5002
G2 X67.3923 Y29.8454 I-1.6544 J-1.1238
G2 X67.8868 Y28.8579 I-3.5999 J-2.4201
G2 X67.8879 Y28.8548 I-1.8878 J-0.6605
G2 X68.1146 Y27.5233 I-3.8541 J-1.3414
G2 X68.1147 Y27.5184 I-2.0 J-0.0049
G1 Y20.6707
G1 Y11.3273
G1 Y4.6412
G2 X68.1146 Y4.6349 I-2.0 J0.0
G2 X67.7151 Y2.9335 I-3.875 J0.0123
G2 X67.7136 Y2.9303 I-1.7938 J0.8845
G2 X66.8169 Y1.7018 I-4.013 J1.9875
G2 X66.1242 Y1.1312 I-3.6981 J3.7841
G2 X65.1553 Y0.586 I-3.4235 J4.9497
G2 X63.8426 Y0.1478 I-2.8184 J6.2584
G2 X62.1139 Y-0.0449 I-1.724 J7.6152
G1 X62.0994
G2 X60.3514 Y0.1494 I-0.0226 J7.7552
G2 X58.6222 Y0.7921 I1.5078 J6.7054
G2 X58.6211 Y0.7926 I0.942 J1.7643
G2 X57.5033 Y1.5805 I2.628 J4.9152
G2 X57.5013 Y1.5823 I1.3441 J1.481
G2 X56.9113 Y2.23 I3.1529 J3.4648
G2 X56.3667 Y3.1954 I3.336 J2.518
G2 X56.0966 Y4.5462 I3.5062 J1.4037
G3 X56.0243 Y4.6342 I-0.3769 J-0.2359
G2 X56.0191 Y4.6392 I1.3704 J1.4567
G3 X55.8348 Y4.7878 I-1.0221 J-1.0787
G3 X55.5098 Y4.9663 I-1.1325 J-1.6774
G2 X55.5045 Y4.9685 I0.7979 J1.8339
G3 X54.9435 Y5.1518 I-1.2178 J-2.7775
G2 X54.94 Y5.1526 I0.4331 J1.9525
G3 X54.1013 Y5.2442 I-0.8288 J-3.7048
G2 X54.0961 I-0.0052 J2.0
G1 X42.0961
G2 X42.0894 I0.0 J2.0
G3 X41.2391 Y5.1496 I-0.0127 J-3.756
G2 X41.2305 Y5.1477 I-0.446 J1.9496
G3 X40.5064 Y4.8789 I0.6282 J-2.8024
G3 X40.1924 Y4.6576 I0.7406 J-1.3846
G3 X40.1071 Y4.5639 I0.4575 J-0.5016
G2 X40.1035 Y4.559 I-1.5989 J1.2014
G3 X40.0956 Y4.5477 I0.1393 J-0.1053
G2 X39.6823 Y2.8762 I-3.8177 J0.0571
G1 Y2.8761
G1 Y2.8762
G2 X38.7675 Y1.6539 I-3.9598 J2.0105
G2 X38.0828 Y1.103 I-3.7672 J3.9806
G2 X38.0792 Y1.1005 I-1.1249 J1.6537
G2 X37.1079 Y0.5662 I-3.3748 J4.9844
G2 X35.8113 Y0.1427 I-2.8212 J6.4416
G2 X34.0936 Y-0.0449 I-1.7004 J7.61
G1 X34.0792
G2 X32.3191 Y0.1549 I-0.0113 J7.7538
G2 X30.5747 Y0.8173 I1.5135 J6.6138
G2 X30.5674 Y0.8213 I0.9603 J1.7543
G2 X29.4644 Y1.6168 I2.7527 J4.9791
G2 X29.4439 Y1.636 I1.3554 J1.4707
G2 X28.8804 Y2.2701 I3.413 J3.6006
G2 X28.8778 Y2.2735 I1.6031 J1.1959
G2 X28.3369 Y3.2556 I3.3346 J2.4765
G2 X28.078 Y4.6035 I3.582 J1.3871
G3 X27.9957 Y4.7088 I-0.4155 J-0.2396
G2 X27.9857 Y4.7186 I1.3896 J1.4384
G3 X27.8149 Y4.8594 I-0.9056 J-0.9243
G2 X27.8125 Y4.861 I1.1357 J1.6463
G3 X27.4855 Y5.045 I-1.1507 J-1.663
G2 X27.4779 Y5.0484 I0.8146 J1.8266
G3 X26.9271 Y5.2324 I-1.1803 J-2.6174
G2 X26.9239 Y5.2331 I0.4385 J1.9513
G3 X26.0788 Y5.3274 I-0.8433 J-3.7236
G2 X26.0778 I-0.001 J2.0
G1 X14.0775
G2 X14.0741 I0.0 J2.0
G3 X13.2195 Y5.2303 I-0.0063 J-3.7539
G2 X13.2127 Y5.2287 I-0.452 J1.9483
G3 X12.4991 Y4.9586 I0.6198 J-2.715
G3 X12.1863 Y4.7346 I0.8208 J-1.4766
G3 X12.0881 Y4.623 I0.6705 J-0.6886
G3 X12.0774 Y4.606 I0.1241 J-0.0905
G2 X11.6781 Y2.9336 I-3.875 J0.0412
G2 X11.6765 Y2.9302 I-1.7938 J0.8844
G2 X10.78 Y1.702 I-4.0141 J1.9884
G2 X10.0873 Y1.1313 I-3.7002 J3.7862
G2 X9.1183 Y0.586 I-3.4256 J4.953
G2 X7.8056 Y0.1478 I-2.8209 J6.2655
G2 X6.0772 Y-0.0449 I-1.7252 J7.6251
G1 X6.06
G2 X4.3099 Y0.1517 I-0.0033 J7.859
G2 X2.571 Y0.8046 I1.5087 J6.6597
G2 X2.5668 Y0.8069 I0.9512 J1.7593
G2 X1.4564 Y1.5987 I2.6899 J4.9469
G2 X1.4454 Y1.6088 I1.3498 J1.4758
G2 X0.8678 Y2.251 I3.2725 J3.5247
G2 X0.3237 Y3.2275 I3.3315 J2.4961
G2 X0.3233 Y3.2286 I1.862 J0.7301
G2 X0.0597 Y4.615 I3.5687 J1.3968
G2 Y4.6204 I2.0 J0.0054
G1 Y11.2856
G1 Y20.6291
G1 Y27.4977
G2 Y27.4998 I2.0 J0.0
G2 X0.4081 Y29.1503 I4.1031 J-0.0043
G2 X0.4087 Y29.1516 I1.8301 J-0.8066
G2 X1.2513 Y30.4292 I4.2054 J-1.857
G2 X1.2522 Y30.4301 I1.463 J-1.3637
G2 X1.9173 Y31.0362 I4.0706 J-3.7992
G2 X1.9207 Y31.0387 I1.2232 J-1.5823
G2 X2.9105 Y31.6526 I3.5272 J-4.5826
G2 X4.2523 Y32.1445 I2.9921 J-6.0851
G1 X4.2525 Y32.1446
G2 X6.0616 Y32.3663 I1.7954 J-7.159
G1 X14.0123
G1 Y33.0688
G2 X17.3829 Y44.1851 I19.9151 J0.0306
G2 X26.3544 Y51.5512 I16.6749 J-11.1627
G2 X26.3573 Y51.5524 I0.7678 J-1.8467
G2 X34.0117 Y53.0703 I7.6365 J-18.4507
G2 X45.127 Y49.6997 I0.0285 J-19.919
G2 X52.4931 Y40.7281 I-11.1625 J-16.6748
G2 X52.4943 Y40.7252 I-1.8468 J-0.7678
G2 X54.0122 Y33.0693 I-18.45 J-7.6362
G1 Y32.3663
G1 X62.0
G1 F25.0 Z-9.0
G1 F150.0 X62.1141
G2 X63.9361 Y32.1421 I0.003 J-7.4922
G2 X65.7213 Y31.4067 I-1.594 J-6.4038
G2 X66.8348 Y30.5313 I-2.8112 J-4.7217
G2 X66.8465 Y30.5192 I-1.4284 J-1.3999
G2 X67.387 Y29.8533 I-3.6323 J-3.5002
G2 X67.3923 Y29.8454 I-1.6544 J-1.1238
G2 X67.8868 Y28.8579 I-3.5999 J-2.4201
G2 X67.8879 Y28.8548 I-1.8878 J-0.6605
G2 X68.1146 Y27.5233 I-3.8541 J-1.3414
G2 X68.1147 Y27.5184 I-2.0 J-0.0049
G1 Y20.6707
G1 Y11.3273
G1 Y4.6412
G2 X68.1146 Y4.6349 I-2.0 J0.0
G2 X67.7151 Y2.9335 I-3.875 J0.0123
G2 X67.7136 Y2.9303 I-1.7938 J0.8845
G2 X66.8169 Y1.7018 I-4.013 J1.9875
G2 X66.1242 Y1.1312 I-3.6981 J3.7841
G2 X65.1553 Y0.586 I-3.4235 J4.9497
G2 X63.8426 Y0.1478 I-2.8184 J6.2584
G2 X62.1139 Y-0.0449 I-1.724 J7.6152
G1 X62.0994
G2 X60.3514 Y0.1494 I-0.0226 J7.7552
G2 X58.6222 Y0.7921 I1.5078 J6.7054
G2 X58.6211 Y0.7926 I0.942 J1.7643
G2 X57.5033 Y1.5805 I2.628 J4.9152
G2 X57.5013 Y1.5823 I1.3441 J1.481
G2 X56.9113 Y2.23 I3.1529 J3.4648
G2 X56.3667 Y3.1954 I3.336 J2.518
G2 X56.0966 Y4.5462 I3.5062 J1.4037
G3 X56.0243 Y4.6342 I-0.3769 J-0.2359
G2 X56.0191 Y4.6392 I1.3704 J1.4567
G3 X55.8348 Y4.7878 I-1.0221 J-1.0787
G3 X55.5098 Y4.9663 I-1.1325 J-1.6774
G2 X55.5045 Y4.9685 I0.7979 J1.8339
G3 X54.9435 Y5.1518 I-1.2178 J-2.7775
G2 X54.94 Y5.1526 I0.4331 J1.9525
G3 X54.1013 Y5.2442 I-0.8288 J-3.7048
G2 X54.0961 I-0.0052 J2.0
G1 X42.0961
G2 X42.0894 I0.0 J2.0
G3 X41.2391 Y5.1496 I-0.0127 J-3.756
G2 X41.2305 Y5.1477 I-0.446 J1.9496
G3 X40.5064 Y4.8789 I0.6282 J-2.8024
G3 X40.1924 Y4.6576 I0.7406 J-1.3846
G3 X40.1071 Y4.5639 I0.4575 J-0.5016
G2 X40.1035 Y4.559 I-1.5989 J1.2014
G3 X40.0956 Y4.5477 I0.1393 J-0.1053
G2 X39.6823 Y2.8762 I-3.8177 J0.0571
G1 Y2.8761
G1 Y2.8762
G2 X38.7675 Y1.6539 I-3.9598 J2.0105
G2 X38.0828 Y1.103 I-3.7672 J3.9806
G2 X38.0792 Y1.1005 I-1.1249 J1.6537
G2 X37.1079 Y0.5662 I-3.3748 J4.9844
G2 X35.8113 Y0.1427 I-2.8212 J6.4416
G2 X34.0936 Y-0.0449 I-1.7004 J7.61
G1 X34.0792
G2 X32.3191 Y0.1549 I-0.0113 J7.7538
G2 X30.5747 Y0.8173 I1.5135 J6.6138
G2 X30.5674 Y0.8213 I0.9603 J1.7543
G2 X29.4644 Y1.6168 I2.7527 J4.9791
G2 X29.4439 Y1.636 I1.3554 J1.4707
G2 X28.8804 Y2.2701 I3.413 J3.6006
G2 X28.8778 Y2.2735 I1.6031 J1.1959
G2 X28.3369 Y3.2556 I3.3346 J2.4765
G2 X28.078 Y4.6035 I3.582 J1.3871
G3 X27.9957 Y4.7088 I-0.4155 J-0.2396
G2 X27.9857 Y4.7186 I1.3896 J1.4384
G3 X27.8149 Y4.8594 I-0.9056 J-0.9243
G2 X27.8125 Y4.861 I1.1357 J1.6463
G3 X27.4855 Y5.045 I-1.1507 J-1.663
G2 X27.4779 Y5.0484 I0.8146 J1.8266
G3 X26.9271 Y5.2324 I-1.1803 J-2.6174
G2 X26.9239 Y5.2331 I0.4385 J1.9513
G3 X26.0788 Y5.3274 I-0.8433 J-3.7236
G2 X26.0778 I-0.001 J2.0
G1 X14.0775
G2 X14.0741 I0.0 J2.0
G3 X13.2195 Y5.2303 I-0.0063 J-3.7539
G2 X13.2127 Y5.2287 I-0.452 J1.9483
G3 X12.4991 Y4.9586 I0.6198 J-2.715
G3 X12.1863 Y4.7346 I0.8208 J-1.4766
G3 X12.0881 Y4.623 I0.6705 J-0.6886
G3 X12.0774 Y4.606 I0.1241 J-0.0905
G2 X11.6781 Y2.9336 I-3.875 J0.0412
G2 X11.6765 Y2.9302 I-1.7938 J0.8844
G2 X10.78 Y1.702 I-4.0141 J1.9884
G2 X10.0873 Y1.1313 I-3.7002 J3.7862
G2 X9.1183 Y0.586 I-3.4256 J4.953
G2 X7.8056 Y0.1478 I-2.8209 J6.2655
G2 X6.0772 Y-0.0449 I-1.7252 J7.6251
G1 X6.06
G2 X4.3099 Y0.1517 I-0.0033 J7.859
G2 X2.571 Y0.8046 I1.5087 J6.6597
G2 X2.5668 Y0.8069 I0.9512 J1.7593
G2 X1.4564 Y1.5987 I2.6899 J4.9469
G2 X1.4454 Y1.6088 I1.3498 J1.4758
G2 X0.8678 Y2.251 I3.2725 J3.5247
G2 X0.3237 Y3.2275 I3.3315 J2.4961
G2 X0.3233 Y3.2286 I1.862 J0.7301
G2 X0.0597 Y4.615 I3.5687 J1.3968
G2 Y4.6204 I2.0 J0.0054
G1 Y11.2856
G1 Y20.6291
G1 Y27.4977
G2 Y27.4998 I2.0 J0.0
G2 X0.4081 Y29.1503 I4.1031 J-0.0043
G2 X0.4087 Y29.1516 I1.8301 J-0.8066
G2 X1.2513 Y30.4292 I4.2054 J-1.857
G2 X1.2522 Y30.4301 I1.463 J-1.3637
G2 X1.9173 Y31.0362 I4.0706 J-3.7992
G2 X1.9207 Y31.0387 I1.2232 J-1.5823
G2 X2.9105 Y31.6526 I3.5272 J-4.5826
G2 X4.2523 Y32.1445 I2.9921 J-6.0851
G1 X4.2525 Y32.1446
G2 X6.0616 Y32.3663 I1.7954 J-7.159
G1 X14.0123
G1 Y33.0688
G2 X17.3829 Y44.1851 I19.9151 J0.0306
G2 X26.3544 Y51.5512 I16.6749 J-11.1627
G2 X26.3573 Y51.5524 I0.7678 J-1.8467
G2 X34.0117 Y53.0703 I7.6365 J-18.4507
G2 X45.127 Y49.6997 I0.0285 J-19.919
G2 X52.4931 Y40.7281 I-11.1625 J-16.6748
G2 X52.4943 Y40.7252 I-1.8468 J-0.7678
G2 X54.0122 Y33.0693 I-18.45 J-7.6362
G1 Y32.3663
G1 X62.0
G1 F25.0 Z-10.0
G1 F150.0 X62.1141
G2 X63.9361 Y32.1421 I0.003 J-7.4922
G2 X65.7213 Y31.4067 I-1.594 J-6.4038
G2 X66.8348 Y30.5313 I-2.8112 J-4.7217
G2 X66.8465 Y30.5192 I-1.4284 J-1.3999
G2 X67.387 Y29.8533 I-3.6323 J-3.5002
G2 X67.3923 Y29.8454 I-1.6544 J-1.1238
G2 X67.8868 Y28.8579 I-3.5999 J-2.4201
G2 X67.8879 Y28.8548 I-1.8878 J-0.6605
G2 X68.1146 Y27.5233 I-3.8541 J-1.3414
G2 X68.1147 Y27.5184 I-2.0 J-0.0049
G1 Y20.6707
G1 Y11.3273
G1 Y4.6412
G2 X68.1146 Y4.6349 I-2.0 J0.0
G2 X67.7151 Y2.9335 I-3.875 J0.0123
G2 X67.7136 Y2.9303 I-1.7938 J0.8845
G2 X66.8169 Y1.7018 I-4.013 J1.9875
G2 X66.1242 Y1.1312 I-3.6981 J3.7841
G2 X65.1553 Y0.586 I-3.4235 J4.9497
G2 X63.8426 Y0.1478 I-2.8184 J6.2584
G2 X62.1139 Y-0.0449 I-1.724 J7.6152
G1 X62.0994
G2 X60.3514 Y0.1494 I-0.0226 J7.7552
G2 X58.6222 Y0.7921 I1.5078 J6.7054
G2 X58.6211 Y0.7926 I0.942 J1.7643
G2 X57.5033 Y1.5805 I2.628 J4.9152
G2 X57.5013 Y1.5823 I1.3441 J1.481
G2 X56.9113 Y2.23 I3.1529 J3.4648
G2 X56.3667 Y3.1954 I3.336 J2.518
G2 X56.0966 Y4.5462 I3.5062 J1.4037
G3 X56.0243 Y4.6342 I-0.3769 J-0.2359
G2 X56.0191 Y4.6392 I1.3704 J1.4567
G3 X55.8348 Y4.7878 I-1.0221 J-1.0787
G3 X55.5098 Y4.9663 I-1.1325 J-1.6774
G2 X55.5045 Y4.9685 I0.7979 J1.8339
G3 X54.9435 Y5.1518 I-1.2178 J-2.7775
G2 X54.94 Y5.1526 I0.4331 J1.9525
G3 X54.1013 Y5.2442 I-0.8288 J-3.7048
G2 X54.0961 I-0.0052 J2.0
G1 X42.0961
G2 X42.0894 I0.0 J2.0
G3 X41.2391 Y5.1496 I-0.0127 J-3.756
G2 X41.2305 Y5.1477 I-0.446 J1.9496
G3 X40.5064 Y4.8789 I0.6282 J-2.8024
G3 X40.1924 Y4.6576 I0.7406 J-1.3846
G3 X40.1071 Y4.5639 I0.4575 J-0.5016
G2 X40.1035 Y4.559 I-1.5989 J1.2014
G3 X40.0956 Y4.5477 I0.1393 J-0.1053
G2 X39.6823 Y2.8762 I-3.8177 J0.0571
G1 Y2.8761
G1 Y2.8762
G2 X38.7675 Y1.6539 I-3.9598 J2.0105
G2 X38.0828 Y1.103 I-3.7672 J3.9806
G2 X38.0792 Y1.1005 I-1.1249 J1.6537
G2 X37.1079 Y0.5662 I-3.3748 J4.9844
G2 X35.8113 Y0.1427 I-2.8212 J6.4416
G2 X34.0936 Y-0.0449 I-1.7004 J7.61
G1 X34.0792
G2 X32.3191 Y0.1549 I-0.0113 J7.7538
G2 X30.5747 Y0.8173 I1.5135 J6.6138
G2 X30.5674 Y0.8213 I0.9603 J1.7543
G2 X29.4644 Y1.6168 I2.7527 J4.9791
G2 X29.4439 Y1.636 I1.3554 J1.4707
G2 X28.8804 Y2.2701 I3.413 J3.6006
G2 X28.8778 Y2.2735 I1.6031 J1.1959
G2 X28.3369 Y3.2556 I3.3346 J2.4765
G2 X28.078 Y4.6035 I3.582 J1.3871
G3 X27.9957 Y4.7088 I-0.4155 J-0.2396
G2 X27.9857 Y4.7186 I1.3896 J1.4384
G3 X27.8149 Y4.8594 I-0.9056 J-0.9243
G2 X27.8125 Y4.861 I1.1357 J1.6463
G3 X27.4855 Y5.045 I-1.1507 J-1.663
G2 X27.4779 Y5.0484 I0.8146 J1.8266
G3 X26.9271 Y5.2324 I-1.1803 J-2.6174
G2 X26.9239 Y5.2331 I0.4385 J1.9513
G3 X26.0788 Y5.3274 I-0.8433 J-3.7236
G2 X26.0778 I-0.001 J2.0
G1 X14.0775
G2 X14.0741 I0.0 J2.0
G3 X13.2195 Y5.2303 I-0.0063 J-3.7539
G2 X13.2127 Y5.2287 I-0.452 J1.9483
G3 X12.4991 Y4.9586 I0.6198 J-2.715
G3 X12.1863 Y4.7346 I0.8208 J-1.4766
G3 X12.0881 Y4.623 I0.6705 J-0.6886
G3 X12.0774 Y4.606 I0.1241 J-0.0905
G2 X11.6781 Y2.9336 I-3.875 J0.0412
G2 X11.6765 Y2.9302 I-1.7938 J0.8844
G2 X10.78 Y1.702 I-4.0141 J1.9884
G2 X10.0873 Y1.1313 I-3.7002 J3.7862
G2 X9.1183 Y0.586 I-3.4256 J4.953
G2 X7.8056 Y0.1478 I-2.8209 J6.2655
G2 X6.0772 Y-0.0449 I-1.7252 J7.6251
G1 X6.06
G2 X4.3099 Y0.1517 I-0.0033 J7.859
G2 X2.571 Y0.8046 I1.5087 J6.6597
G2 X2.5668 Y0.8069 I0.9512 J1.7593
G2 X1.4564 Y1.5987 I2.6899 J4.9469
G2 X1.4454 Y1.6088 I1.3498 J1.4758
G2 X0.8678 Y2.251 I3.2725 J3.5247
G2 X0.3237 Y3.2275 I3.3315 J2.4961
G2 X0.3233 Y3.2286 I1.862 J0.7301
G2 X0.0597 Y4.615 I3.5687 J1.3968
G2 Y4.6204 I2.0 J0.0054
G1 Y11.2856
G1 Y20.6291
G1 Y27.4977
G2 Y27.4998 I2.0 J0.0
G2 X0.4081 Y29.1503 I4.1031 J-0.0043
G2 X0.4087 Y29.1516 I1.8301 J-0.8066
G2 X1.2513 Y30.4292 I4.2054 J-1.857
G2 X1.2522 Y30.4301 I1.463 J-1.3637
G2 X1.9173 Y31.0362 I4.0706 J-3.7992
G2 X1.9207 Y31.0387 I1.2232 J-1.5823
G2 X2.9105 Y31.6526 I3.5272 J-4.5826
G2 X4.2523 Y32.1445 I2.9921 J-6.0851
G1 X4.2525 Y32.1446
G2 X6.0616 Y32.3663 I1.7954 J-7.159
G1 X14.0123
G1 Y33.0688
G2 X17.3829 Y44.1851 I19.9151 J0.0306
G2 X26.3544 Y51.5512 I16.6749 J-11.1627
G2 X26.3573 Y51.5524 I0.7678 J-1.8467
G2 X34.0117 Y53.0703 I7.6365 J-18.4507
G2 X45.127 Y49.6997 I0.0285 J-19.919
G2 X52.4931 Y40.7281 I-11.1625 J-16.6748
G2 X52.4943 Y40.7252 I-1.8468 J-0.7678
G2 X54.0122 Y33.0693 I-18.45 J-7.6362
G1 Y32.3663
G1 X62.0
G1 F25.0 Z-11.0
G1 F150.0 X62.1141
G2 X63.9361 Y32.1421 I0.003 J-7.4922
G2 X65.7213 Y31.4067 I-1.594 J-6.4038
G2 X66.8348 Y30.5313 I-2.8112 J-4.7217
G2 X66.8465 Y30.5192 I-1.4284 J-1.3999
G2 X67.387 Y29.8533 I-3.6323 J-3.5002
G2 X67.3923 Y29.8454 I-1.6544 J-1.1238
G2 X67.8868 Y28.8579 I-3.5999 J-2.4201
G2 X67.8879 Y28.8548 I-1.8878 J-0.6605
G2 X68.1146 Y27.5233 I-3.8541 J-1.3414
G2 X68.1147 Y27.5184 I-2.0 J-0.0049
G1 Y20.6707
G1 Y11.3273
G1 Y4.6412
G2 X68.1146 Y4.6349 I-2.0 J0.0
G2 X67.7151 Y2.9335 I-3.875 J0.0123
G2 X67.7136 Y2.9303 I-1.7938 J0.8845
G2 X66.8169 Y1.7018 I-4.013 J1.9875
G2 X66.1242 Y1.1312 I-3.6981 J3.7841
G2 X65.1553 Y0.586 I-3.4235 J4.9497
G2 X63.8426 Y0.1478 I-2.8184 J6.2584
G2 X62.1139 Y-0.0449 I-1.724 J7.6152
G1 X62.0994
G2 X60.3514 Y0.1494 I-0.0226 J7.7552
G2 X58.6222 Y0.7921 I1.5078 J6.7054
G2 X58.6211 Y0.7926 I0.942 J1.7643
G2 X57.5033 Y1.5805 I2.628 J4.9152
G2 X57.5013 Y1.5823 I1.3441 J1.481
G2 X56.9113 Y2.23 I3.1529 J3.4648
G2 X56.3667 Y3.1954 I3.336 J2.518
G2 X56.0966 Y4.5462 I3.5062 J1.4037
G3 X56.0243 Y4.6342 I-0.3769 J-0.2359
G2 X56.0191 Y4.6392 I1.3704 J1.4567
G3 X55.8348 Y4.7878 I-1.0221 J-1.0787
G3 X55.5098 Y4.9663 I-1.1325 J-1.6774
G2 X55.5045 Y4.9685 I0.7979 J1.8339
G3 X54.9435 Y5.1518 I-1.2178 J-2.7775
G2 X54.94 Y5.1526 I0.4331 J1.9525
G3 X54.1013 Y5.2442 I-0.8288 J-3.7048
G2 X54.0961 I-0.0052 J2.0
G1 X42.0961
G2 X42.0894 I0.0 J2.0
G3 X41.2391 Y5.1496 I-0.0127 J-3.756
G2 X41.2305 Y5.1477 I-0.446 J1.9496
G3 X40.5064 Y4.8789 I0.6282 J-2.8024
G3 X40.1924 Y4.6576 I0.7406 J-1.3846
G3 X40.1071 Y4.5639 I0.4575 J-0.5016
G2 X40.1035 Y4.559 I-1.5989 J1.2014
G3 X40.0956 Y4.5477 I0.1393 J-0.1053
G2 X39.6823 Y2.8762 I-3.8177 J0.0571
G1 Y2.8761
G1 Y2.8762
G2 X38.7675 Y1.6539 I-3.9598 J2.0105
G2 X38.0828 Y1.103 I-3.7672 J3.9806
G2 X38.0792 Y1.1005 I-1.1249 J1.6537
G2 X37.1079 Y0.5662 I-3.3748 J4.9844
G2 X35.8113 Y0.1427 I-2.8212 J6.4416
G2 X34.0936 Y-0.0449 I-1.7004 J7.61
G1 X34.0792
G2 X32.3191 Y0.1549 I-0.0113 J7.7538
G2 X30.5747 Y0.8173 I1.5135 J6.6138
G2 X30.5674 Y0.8213 I0.9603 J1.7543
G2 X29.4644 Y1.6168 I2.7527 J4.9791
G2 X29.4439 Y1.636 I1.3554 J1.4707
G2 X28.8804 Y2.2701 I3.413 J3.6006
G2 X28.8778 Y2.2735 I1.6031 J1.1959
G2 X28.3369 Y3.2556 I3.3346 J2.4765
G2 X28.078 Y4.6035 I3.582 J1.3871
G3 X27.9957 Y4.7088 I-0.4155 J-0.2396
G2 X27.9857 Y4.7186 I1.3896 J1.4384
G3 X27.8149 Y4.8594 I-0.9056 J-0.9243
G2 X27.8125 Y4.861 I1.1357 J1.6463
G3 X27.4855 Y5.045 I-1.1507 J-1.663
G2 X27.4779 Y5.0484 I0.8146 J1.8266
G3 X26.9271 Y5.2324 I-1.1803 J-2.6174
G2 X26.9239 Y5.2331 I0.4385 J1.9513
G3 X26.0788 Y5.3274 I-0.8433 J-3.7236
G2 X26.0778 I-0.001 J2.0
G1 X14.0775
G2 X14.0741 I0.0 J2.0
G3 X13.2195 Y5.2303 I-0.0063 J-3.7539
G2 X13.2127 Y5.2287 I-0.452 J1.9483
G3 X12.4991 Y4.9586 I0.6198 J-2.715
G3 X12.1863 Y4.7346 I0.8208 J-1.4766
G3 X12.0881 Y4.623 I0.6705 J-0.6886
G3 X12.0774 Y4.606 I0.1241 J-0.0905
G2 X11.6781 Y2.9336 I-3.875 J0.0412
G2 X11.6765 Y2.9302 I-1.7938 J0.8844
G2 X10.78 Y1.702 I-4.0141 J1.9884
G2 X10.0873 Y1.1313 I-3.7002 J3.7862
G2 X9.1183 Y0.586 I-3.4256 J4.953
G2 X7.8056 Y0.1478 I-2.8209 J6.2655
G2 X6.0772 Y-0.0449 I-1.7252 J7.6251
G1 X6.06
G2 X4.3099 Y0.1517 I-0.0033 J7.859
G2 X2.571 Y0.8046 I1.5087 J6.6597
G2 X2.5668 Y0.8069 I0.9512 J1.7593
G2 X1.4564 Y1.5987 I2.6899 J4.9469
G2 X1.4454 Y1.6088 I1.3498 J1.4758
G2 X0.8678 Y2.251 I3.2725 J3.5247
G2 X0.3237 Y3.2275 I3.3315 J2.4961
G2 X0.3233 Y3.2286 I1.862 J0.7301
G2 X0.0597 Y4.615 I3.5687 J1.3968
G2 Y4.6204 I2.0 J0.0054
G1 Y11.2856
G1 Y20.6291
G1 Y27.4977
G2 Y27.4998 I2.0 J0.0
G2 X0.4081 Y29.1503 I4.1031 J-0.0043
G2 X0.4087 Y29.1516 I1.8301 J-0.8066
G2 X1.2513 Y30.4292 I4.2054 J-1.857
G2 X1.2522 Y30.4301 I1.463 J-1.3637
G2 X1.9173 Y31.0362 I4.0706 J-3.7992
G2 X1.9207 Y31.0387 I1.2232 J-1.5823
G2 X2.9105 Y31.6526 I3.5272 J-4.5826
G2 X4.2523 Y32.1445 I2.9921 J-6.0851
G1 X4.2525 Y32.1446
G2 X6.0616 Y32.3663 I1.7954 J-7.159
G1 X14.0123
G1 Y33.0688
G2 X17.3829 Y44.1851 I19.9151 J0.0306
G2 X26.3544 Y51.5512 I16.6749 J-11.1627
G2 X26.3573 Y51.5524 I0.7678 J-1.8467
G2 X34.0117 Y53.0703 I7.6365 J-18.4507
G2 X45.127 Y49.6997 I0.0285 J-19.919
G2 X52.4931 Y40.7281 I-11.1625 J-16.6748
G2 X52.4943 Y40.7252 I-1.8468 J-0.7678
G2 X54.0122 Y33.0693 I-18.45 J-7.6362
G1 Y32.3663
G1 X62.0
G0 Z3.0
M5
M30
