( Made using CamBam - http://www.cambam.co.uk )
( vertical slide mount 2 12/1/2012 2:20:32 PM )
( T6 : 6.0 )
G21 G90 G64 G40
G0 Z3.0
( T6 : 6.0 )
T6 M6
( Pocket1 )
G17
M3 S1000
G0 X8.9929 Y20.6
G1 F30.0 Z-1.0
G3 F120.0 X8.5805 Y20.4291 I-0.0008 J-0.5814
G2 X8.5705 Y20.4191 I-3.8233 J3.8134
G3 X8.3998 Y20.007 I0.4102 J-0.4113
G2 Y19.9933 I-5.4 J-0.0072
G3 X8.5708 Y19.5805 I0.582 J-0.0007
G2 X8.5807 Y19.5706 I-3.8135 J-3.8233
G3 X8.9925 Y19.4 I0.411 J0.4099
G2 X9.0063 I0.0074 J-5.4
G3 X9.4195 Y19.5712 I0.0007 J0.5827
G2 X9.4296 Y19.5813 I3.8229 J-3.8138
G3 X9.5998 Y19.9921 I-0.4087 J0.4099
G2 Y20.0066 I5.4 J0.0077
G3 X9.4288 Y20.4195 I-0.5822 J0.0007
G2 X9.4186 Y20.4297 I3.8138 J3.823
G3 X9.0075 Y20.6 I-0.4103 J-0.4091
G2 X8.9929 I-0.0075 J5.4
G1 F30.0 X8.9961 Y23.0
G3 F120.0 X6.8813 Y22.124 I-0.0039 J-2.9814
G2 X6.8757 Y22.1184 I-2.1241 J2.1186
G3 X5.9998 Y20.0038 I2.105 J-2.1106
G2 Y19.9962 I-3.0 J-0.004
G3 X6.8759 Y17.8813 I2.982 J-0.0036
G2 X6.8814 Y17.8758 I-2.1186 J-2.124
G3 X8.9958 Y17.0 I2.1103 J2.1047
G2 X9.0035 I0.0041 J-3.0
G3 X11.1186 Y17.8761 I0.0035 J2.9827
G2 X11.1242 Y17.8818 I2.1238 J-2.1188
G3 X11.9998 Y19.9955 I-2.1033 J2.1095
G2 Y20.0036 I3.0 J0.0043
G3 X11.1238 Y22.1186 I-2.9822 J0.0038
G2 X11.1181 Y22.1243 I2.1188 J2.1239
G3 X9.0041 Y23.0 I-2.1098 J-2.1037
G2 X8.9961 I-0.0042 J3.0
G1 F30.0 X8.9929 Y20.6
G1 Z-2.0
G3 F120.0 X8.5805 Y20.4291 I-0.0008 J-0.5814
G2 X8.5705 Y20.4191 I-3.8233 J3.8134
G3 X8.3998 Y20.007 I0.4102 J-0.4113
G2 Y19.9933 I-5.4 J-0.0072
G3 X8.5708 Y19.5805 I0.582 J-0.0007
G2 X8.5807 Y19.5706 I-3.8135 J-3.8233
G3 X8.9925 Y19.4 I0.411 J0.4099
G2 X9.0063 I0.0074 J-5.4
G3 X9.4195 Y19.5712 I0.0007 J0.5827
G2 X9.4296 Y19.5813 I3.8229 J-3.8138
G3 X9.5998 Y19.9921 I-0.4087 J0.4099
G2 Y20.0066 I5.4 J0.0077
G3 X9.4288 Y20.4195 I-0.5822 J0.0007
G2 X9.4186 Y20.4297 I3.8138 J3.823
G3 X9.0075 Y20.6 I-0.4103 J-0.4091
G2 X8.9929 I-0.0075 J5.4
G1 F30.0 X8.9961 Y23.0
G3 F120.0 X6.8813 Y22.124 I-0.0039 J-2.9814
G2 X6.8757 Y22.1184 I-2.1241 J2.1186
G3 X5.9998 Y20.0038 I2.105 J-2.1106
G2 Y19.9962 I-3.0 J-0.004
G3 X6.8759 Y17.8813 I2.982 J-0.0036
G2 X6.8814 Y17.8758 I-2.1186 J-2.124
G3 X8.9958 Y17.0 I2.1103 J2.1047
G2 X9.0035 I0.0041 J-3.0
G3 X11.1186 Y17.8761 I0.0035 J2.9827
G2 X11.1242 Y17.8818 I2.1238 J-2.1188
G3 X11.9998 Y19.9955 I-2.1033 J2.1095
G2 Y20.0036 I3.0 J0.0043
G3 X11.1238 Y22.1186 I-2.9822 J0.0038
G2 X11.1181 Y22.1243 I2.1188 J2.1239
G3 X9.0041 Y23.0 I-2.1098 J-2.1037
G2 X8.9961 I-0.0042 J3.0
G1 F30.0 X8.9929 Y20.6
G1 Z-3.0
G3 F120.0 X8.5805 Y20.4291 I-0.0008 J-0.5814
G2 X8.5705 Y20.4191 I-3.8233 J3.8134
G3 X8.3998 Y20.007 I0.4102 J-0.4113
G2 Y19.9933 I-5.4 J-0.0072
G3 X8.5708 Y19.5805 I0.582 J-0.0007
G2 X8.5807 Y19.5706 I-3.8135 J-3.8233
G3 X8.9925 Y19.4 I0.411 J0.4099
G2 X9.0063 I0.0074 J-5.4
G3 X9.4195 Y19.5712 I0.0007 J0.5827
G2 X9.4296 Y19.5813 I3.8229 J-3.8138
G3 X9.5998 Y19.9921 I-0.4087 J0.4099
G2 Y20.0066 I5.4 J0.0077
G3 X9.4288 Y20.4195 I-0.5822 J0.0007
G2 X9.4186 Y20.4297 I3.8138 J3.823
G3 X9.0075 Y20.6 I-0.4103 J-0.4091
G2 X8.9929 I-0.0075 J5.4
G1 F30.0 X8.9961 Y23.0
G3 F120.0 X6.8813 Y22.124 I-0.0039 J-2.9814
G2 X6.8757 Y22.1184 I-2.1241 J2.1186
G3 X5.9998 Y20.0038 I2.105 J-2.1106
G2 Y19.9962 I-3.0 J-0.004
G3 X6.8759 Y17.8813 I2.982 J-0.0036
G2 X6.8814 Y17.8758 I-2.1186 J-2.124
G3 X8.9958 Y17.0 I2.1103 J2.1047
G2 X9.0035 I0.0041 J-3.0
G3 X11.1186 Y17.8761 I0.0035 J2.9827
G2 X11.1242 Y17.8818 I2.1238 J-2.1188
G3 X11.9998 Y19.9955 I-2.1033 J2.1095
G2 Y20.0036 I3.0 J0.0043
G3 X11.1238 Y22.1186 I-2.9822 J0.0038
G2 X11.1181 Y22.1243 I2.1188 J2.1239
G3 X9.0041 Y23.0 I-2.1098 J-2.1037
G2 X8.9961 I-0.0042 J3.0
G1 F30.0 X8.9929 Y20.6
G1 Z-3.5
G3 F120.0 X8.5805 Y20.4291 I-0.0008 J-0.5814
G2 X8.5705 Y20.4191 I-3.8233 J3.8134
G3 X8.3998 Y20.007 I0.4102 J-0.4113
G2 Y19.9933 I-5.4 J-0.0072
G3 X8.5708 Y19.5805 I0.582 J-0.0007
G2 X8.5807 Y19.5706 I-3.8135 J-3.8233
G3 X8.9925 Y19.4 I0.411 J0.4099
G2 X9.0063 I0.0074 J-5.4
G3 X9.4195 Y19.5712 I0.0007 J0.5827
G2 X9.4296 Y19.5813 I3.8229 J-3.8138
G3 X9.5998 Y19.9921 I-0.4087 J0.4099
G2 Y20.0066 I5.4 J0.0077
G3 X9.4288 Y20.4195 I-0.5822 J0.0007
G2 X9.4186 Y20.4297 I3.8138 J3.823
G3 X9.0075 Y20.6 I-0.4103 J-0.4091
G2 X8.9929 I-0.0075 J5.4
G1 F30.0 X8.9961 Y23.0
G3 F120.0 X6.8813 Y22.124 I-0.0039 J-2.9814
G2 X6.8757 Y22.1184 I-2.1241 J2.1186
G3 X5.9998 Y20.0038 I2.105 J-2.1106
G2 Y19.9962 I-3.0 J-0.004
G3 X6.8759 Y17.8813 I2.982 J-0.0036
G2 X6.8814 Y17.8758 I-2.1186 J-2.124
G3 X8.9958 Y17.0 I2.1103 J2.1047
G2 X9.0035 I0.0041 J-3.0
G3 X11.1186 Y17.8761 I0.0035 J2.9827
G2 X11.1242 Y17.8818 I2.1238 J-2.1188
G3 X11.9998 Y19.9955 I-2.1033 J2.1095
G2 Y20.0036 I3.0 J0.0043
G3 X11.1238 Y22.1186 I-2.9822 J0.0038
G2 X11.1181 Y22.1243 I2.1188 J2.1239
G3 X9.0041 Y23.0 I-2.1098 J-2.1037
G2 X8.9961 I-0.0042 J3.0
G0 Z3.0
G0 X22.9738 Y20.3779
G1 F30.0 Z-1.0
G1 F120.0 Y19.622
G1 X59.446
G1 Y20.3779
G1 X22.9738
G1 F30.0 X20.5738
G1 F120.0 Y17.7143
G3 X20.6552 Y17.611 I0.3714 J0.2091
G2 X20.6607 Y17.6059 I-2.0408 J-2.1989
G3 X20.8407 Y17.4692 I0.763 J0.818
G3 X21.2004 Y17.3098 I0.8526 J1.4388
G3 X21.8035 Y17.222 I0.6006 J2.0102
G2 X21.8071 I0.0036 J-3.0
G1 X60.6127
G2 X60.6179 I0.0 J-3.0
G3 X61.1346 Y17.286 I0.0036 J2.09
G2 X61.1434 Y17.2882 I0.7365 J-2.9082
G3 X61.5513 Y17.4528 I-0.3863 J1.5453
G2 X61.5607 Y17.4581 I1.4958 J-2.6005
G3 X61.7343 Y17.5832 I-0.502 J0.8801
G2 X61.7486 Y17.5959 I2.0004 J-2.2357
G3 X61.846 Y17.7128 I-0.3316 J0.3754
G1 Y22.2856
G3 X61.7653 Y22.388 I-0.366 J-0.2053
G2 X61.7594 Y22.3935 I2.0399 J2.1997
G3 X61.5745 Y22.5333 I-0.7689 J-0.8246
G3 X61.2241 Y22.6886 I-0.7972 J-1.3258
G2 X61.2169 Y22.6908 I0.8663 J2.8722
G3 X60.6236 Y22.7779 I-0.5859 J-1.9255
G2 X60.6127 I-0.011 J3.0
G1 X21.8071
G2 X21.8037 I0.0 J3.0
G3 X21.2834 Y22.7135 I-0.0024 J-2.1147
G2 X21.2774 Y22.712 I-0.7347 J2.9086
G3 X20.8676 Y22.5467 I0.3899 J-1.557
G2 X20.8597 Y22.5421 I-1.4949 J2.601
G3 X20.6851 Y22.4164 I0.506 J-0.8866
G2 X20.6718 Y22.4046 I-2.0 J2.2361
G3 X20.5738 Y22.2871 I0.3355 J-0.3796
G1 Y20.3779
G1 F30.0 X22.9738
G1 Z-2.0
G1 F120.0 Y19.622
G1 X59.446
G1 Y20.3779
G1 X22.9738
G1 F30.0 X20.5738
G1 F120.0 Y17.7143
G3 X20.6552 Y17.611 I0.3714 J0.2091
G2 X20.6607 Y17.6059 I-2.0408 J-2.1989
G3 X20.8407 Y17.4692 I0.763 J0.818
G3 X21.2004 Y17.3098 I0.8526 J1.4388
G3 X21.8035 Y17.222 I0.6006 J2.0102
G2 X21.8071 I0.0036 J-3.0
G1 X60.6127
G2 X60.6179 I0.0 J-3.0
G3 X61.1346 Y17.286 I0.0036 J2.09
G2 X61.1434 Y17.2882 I0.7365 J-2.9082
G3 X61.5513 Y17.4528 I-0.3863 J1.5453
G2 X61.5607 Y17.4581 I1.4958 J-2.6005
G3 X61.7343 Y17.5832 I-0.502 J0.8801
G2 X61.7486 Y17.5959 I2.0004 J-2.2357
G3 X61.846 Y17.7128 I-0.3316 J0.3754
G1 Y22.2856
G3 X61.7653 Y22.388 I-0.366 J-0.2053
G2 X61.7594 Y22.3935 I2.0399 J2.1997
G3 X61.5745 Y22.5333 I-0.7689 J-0.8246
G3 X61.2241 Y22.6886 I-0.7972 J-1.3258
G2 X61.2169 Y22.6908 I0.8663 J2.8722
G3 X60.6236 Y22.7779 I-0.5859 J-1.9255
G2 X60.6127 I-0.011 J3.0
G1 X21.8071
G2 X21.8037 I0.0 J3.0
G3 X21.2834 Y22.7135 I-0.0024 J-2.1147
G2 X21.2774 Y22.712 I-0.7347 J2.9086
G3 X20.8676 Y22.5467 I0.3899 J-1.557
G2 X20.8597 Y22.5421 I-1.4949 J2.601
G3 X20.6851 Y22.4164 I0.506 J-0.8866
G2 X20.6718 Y22.4046 I-2.0 J2.2361
G3 X20.5738 Y22.2871 I0.3355 J-0.3796
G1 Y20.3779
G1 F30.0 X22.9738
G1 Z-3.0
G1 F120.0 Y19.622
G1 X59.446
G1 Y20.3779
G1 X22.9738
G1 F30.0 X20.5738
G1 F120.0 Y17.7143
G3 X20.6552 Y17.611 I0.3714 J0.2091
G2 X20.6607 Y17.6059 I-2.0408 J-2.1989
G3 X20.8407 Y17.4692 I0.763 J0.818
G3 X21.2004 Y17.3098 I0.8526 J1.4388
G3 X21.8035 Y17.222 I0.6006 J2.0102
G2 X21.8071 I0.0036 J-3.0
G1 X60.6127
G2 X60.6179 I0.0 J-3.0
G3 X61.1346 Y17.286 I0.0036 J2.09
G2 X61.1434 Y17.2882 I0.7365 J-2.9082
G3 X61.5513 Y17.4528 I-0.3863 J1.5453
G2 X61.5607 Y17.4581 I1.4958 J-2.6005
G3 X61.7343 Y17.5832 I-0.502 J0.8801
G2 X61.7486 Y17.5959 I2.0004 J-2.2357
G3 X61.846 Y17.7128 I-0.3316 J0.3754
G1 Y22.2856
G3 X61.7653 Y22.388 I-0.366 J-0.2053
G2 X61.7594 Y22.3935 I2.0399 J2.1997
G3 X61.5745 Y22.5333 I-0.7689 J-0.8246
G3 X61.2241 Y22.6886 I-0.7972 J-1.3258
G2 X61.2169 Y22.6908 I0.8663 J2.8722
G3 X60.6236 Y22.7779 I-0.5859 J-1.9255
G2 X60.6127 I-0.011 J3.0
G1 X21.8071
G2 X21.8037 I0.0 J3.0
G3 X21.2834 Y22.7135 I-0.0024 J-2.1147
G2 X21.2774 Y22.712 I-0.7347 J2.9086
G3 X20.8676 Y22.5467 I0.3899 J-1.557
G2 X20.8597 Y22.5421 I-1.4949 J2.601
G3 X20.6851 Y22.4164 I0.506 J-0.8866
G2 X20.6718 Y22.4046 I-2.0 J2.2361
G3 X20.5738 Y22.2871 I0.3355 J-0.3796
G1 Y20.3779
G1 F30.0 X22.9738
G1 Z-3.5
G1 F120.0 Y19.622
G1 X59.446
G1 Y20.3779
G1 X22.9738
G1 F30.0 X20.5738
G1 F120.0 Y17.7143
G3 X20.6552 Y17.611 I0.3714 J0.2091
G2 X20.6607 Y17.6059 I-2.0408 J-2.1989
G3 X20.8407 Y17.4692 I0.763 J0.818
G3 X21.2004 Y17.3098 I0.8526 J1.4388
G3 X21.8035 Y17.222 I0.6006 J2.0102
G2 X21.8071 I0.0036 J-3.0
G1 X60.6127
G2 X60.6179 I0.0 J-3.0
G3 X61.1346 Y17.286 I0.0036 J2.09
G2 X61.1434 Y17.2882 I0.7365 J-2.9082
G3 X61.5513 Y17.4528 I-0.3863 J1.5453
G2 X61.5607 Y17.4581 I1.4958 J-2.6005
G3 X61.7343 Y17.5832 I-0.502 J0.8801
G2 X61.7486 Y17.5959 I2.0004 J-2.2357
G3 X61.846 Y17.7128 I-0.3316 J0.3754
G1 Y22.2856
G3 X61.7653 Y22.388 I-0.366 J-0.2053
G2 X61.7594 Y22.3935 I2.0399 J2.1997
G3 X61.5745 Y22.5333 I-0.7689 J-0.8246
G3 X61.2241 Y22.6886 I-0.7972 J-1.3258
G2 X61.2169 Y22.6908 I0.8663 J2.8722
G3 X60.6236 Y22.7779 I-0.5859 J-1.9255
G2 X60.6127 I-0.011 J3.0
G1 X21.8071
G2 X21.8037 I0.0 J3.0
G3 X21.2834 Y22.7135 I-0.0024 J-2.1147
G2 X21.2774 Y22.712 I-0.7347 J2.9086
G3 X20.8676 Y22.5467 I0.3899 J-1.557
G2 X20.8597 Y22.5421 I-1.4949 J2.601
G3 X20.6851 Y22.4164 I0.506 J-0.8866
G2 X20.6718 Y22.4046 I-2.0 J2.2361
G3 X20.5738 Y22.2871 I0.3355 J-0.3796
G1 Y20.3779
G0 Z3.0
G0 X73.3998 Y20.0118
G1 F30.0 Z-1.0
G3 F120.0 Y20.007 I0.5809 J-0.004
G2 Y19.9933 I-5.4 J-0.0072
G3 X73.5708 Y19.5805 I0.582 J-0.0007
G2 X73.5807 Y19.5706 I-3.8135 J-3.8233
G3 X73.9925 Y19.4 I0.411 J0.4099
G2 X74.007 I0.0074 J-5.4
G3 X74.4193 Y19.5707 I0.0008 J0.5812
G2 X74.4289 Y19.5804 I3.8233 J-3.8135
G3 X74.5998 Y19.9929 I-0.4108 J0.4118
G2 Y20.0077 I5.4 J0.0069
G3 X74.4294 Y20.419 I-0.5797 J0.0008
G2 X74.4191 Y20.4293 I3.8132 J3.8236
G3 X74.0071 Y20.6 I-0.4112 J-0.4101
G2 X73.9929 I-0.0072 J5.4
G3 X73.5805 Y20.4291 I-0.0008 J-0.5814
G2 X73.5705 Y20.4191 I-3.8233 J3.8134
G3 X73.3998 Y20.0118 I0.4102 J-0.4113
G1 F30.0 X70.9999 Y20.0285
G3 F120.0 X70.9998 Y20.0038 I2.9809 J-0.0207
G2 Y19.9962 I-3.0 J-0.004
G3 X71.8759 Y17.8813 I2.982 J-0.0036
G2 X71.8814 Y17.8758 I-2.1186 J-2.124
G3 X73.9958 Y17.0 I2.1103 J2.1047
G2 X74.0039 I0.0041 J-3.0
G3 X76.1185 Y17.8759 I0.0039 J2.9812
G2 X76.1238 Y17.8812 I2.124 J-2.1186
G3 X76.9998 Y19.996 I-2.1057 J2.111
G2 Y20.0042 I3.0 J0.0038
G3 X76.1242 Y22.1184 I-2.9797 J0.0044
G2 X76.1185 Y22.1241 I2.1184 J2.1242
G3 X74.004 Y23.0 I-2.1105 J-2.1049
G2 X73.996 I-0.004 J3.0
G3 X71.8813 Y22.124 I-0.0039 J-2.9814
G2 X71.8757 Y22.1184 I-2.1241 J2.1186
G3 X70.9999 Y20.0285 I2.105 J-2.1106
G1 F30.0 X73.3998 Y20.0118
G1 Z-2.0
G3 F120.0 Y20.007 I0.5809 J-0.004
G2 Y19.9933 I-5.4 J-0.0072
G3 X73.5708 Y19.5805 I0.582 J-0.0007
G2 X73.5807 Y19.5706 I-3.8135 J-3.8233
G3 X73.9925 Y19.4 I0.411 J0.4099
G2 X74.007 I0.0074 J-5.4
G3 X74.4193 Y19.5707 I0.0008 J0.5812
G2 X74.4289 Y19.5804 I3.8233 J-3.8135
G3 X74.5998 Y19.9929 I-0.4108 J0.4118
G2 Y20.0077 I5.4 J0.0069
G3 X74.4294 Y20.419 I-0.5797 J0.0008
G2 X74.4191 Y20.4293 I3.8132 J3.8236
G3 X74.0071 Y20.6 I-0.4112 J-0.4101
G2 X73.9929 I-0.0072 J5.4
G3 X73.5805 Y20.4291 I-0.0008 J-0.5814
G2 X73.5705 Y20.4191 I-3.8233 J3.8134
G3 X73.3998 Y20.0118 I0.4102 J-0.4113
G1 F30.0 X70.9999 Y20.0285
G3 F120.0 X70.9998 Y20.0038 I2.9809 J-0.0207
G2 Y19.9962 I-3.0 J-0.004
G3 X71.8759 Y17.8813 I2.982 J-0.0036
G2 X71.8814 Y17.8758 I-2.1186 J-2.124
G3 X73.9958 Y17.0 I2.1103 J2.1047
G2 X74.0039 I0.0041 J-3.0
G3 X76.1185 Y17.8759 I0.0039 J2.9812
G2 X76.1238 Y17.8812 I2.124 J-2.1186
G3 X76.9998 Y19.996 I-2.1057 J2.111
G2 Y20.0042 I3.0 J0.0038
G3 X76.1242 Y22.1184 I-2.9797 J0.0044
G2 X76.1185 Y22.1241 I2.1184 J2.1242
G3 X74.004 Y23.0 I-2.1105 J-2.1049
G2 X73.996 I-0.004 J3.0
G3 X71.8813 Y22.124 I-0.0039 J-2.9814
G2 X71.8757 Y22.1184 I-2.1241 J2.1186
G3 X70.9999 Y20.0285 I2.105 J-2.1106
G1 F30.0 X73.3998 Y20.0118
G1 Z-3.0
G3 F120.0 Y20.007 I0.5809 J-0.004
G2 Y19.9933 I-5.4 J-0.0072
G3 X73.5708 Y19.5805 I0.582 J-0.0007
G2 X73.5807 Y19.5706 I-3.8135 J-3.8233
G3 X73.9925 Y19.4 I0.411 J0.4099
G2 X74.007 I0.0074 J-5.4
G3 X74.4193 Y19.5707 I0.0008 J0.5812
G2 X74.4289 Y19.5804 I3.8233 J-3.8135
G3 X74.5998 Y19.9929 I-0.4108 J0.4118
G2 Y20.0077 I5.4 J0.0069
G3 X74.4294 Y20.419 I-0.5797 J0.0008
G2 X74.4191 Y20.4293 I3.8132 J3.8236
G3 X74.0071 Y20.6 I-0.4112 J-0.4101
G2 X73.9929 I-0.0072 J5.4
G3 X73.5805 Y20.4291 I-0.0008 J-0.5814
G2 X73.5705 Y20.4191 I-3.8233 J3.8134
G3 X73.3998 Y20.0118 I0.4102 J-0.4113
G1 F30.0 X70.9999 Y20.0285
G3 F120.0 X70.9998 Y20.0038 I2.9809 J-0.0207
G2 Y19.9962 I-3.0 J-0.004
G3 X71.8759 Y17.8813 I2.982 J-0.0036
G2 X71.8814 Y17.8758 I-2.1186 J-2.124
G3 X73.9958 Y17.0 I2.1103 J2.1047
G2 X74.0039 I0.0041 J-3.0
G3 X76.1185 Y17.8759 I0.0039 J2.9812
G2 X76.1238 Y17.8812 I2.124 J-2.1186
G3 X76.9998 Y19.996 I-2.1057 J2.111
G2 Y20.0042 I3.0 J0.0038
G3 X76.1242 Y22.1184 I-2.9797 J0.0044
G2 X76.1185 Y22.1241 I2.1184 J2.1242
G3 X74.004 Y23.0 I-2.1105 J-2.1049
G2 X73.996 I-0.004 J3.0
G3 X71.8813 Y22.124 I-0.0039 J-2.9814
G2 X71.8757 Y22.1184 I-2.1241 J2.1186
G3 X70.9999 Y20.0285 I2.105 J-2.1106
G1 F30.0 X73.3998 Y20.0118
G1 Z-3.5
G3 F120.0 Y20.007 I0.5809 J-0.004
G2 Y19.9933 I-5.4 J-0.0072
G3 X73.5708 Y19.5805 I0.582 J-0.0007
G2 X73.5807 Y19.5706 I-3.8135 J-3.8233
G3 X73.9925 Y19.4 I0.411 J0.4099
G2 X74.007 I0.0074 J-5.4
G3 X74.4193 Y19.5707 I0.0008 J0.5812
G2 X74.4289 Y19.5804 I3.8233 J-3.8135
G3 X74.5998 Y19.9929 I-0.4108 J0.4118
G2 Y20.0077 I5.4 J0.0069
G3 X74.4294 Y20.419 I-0.5797 J0.0008
G2 X74.4191 Y20.4293 I3.8132 J3.8236
G3 X74.0071 Y20.6 I-0.4112 J-0.4101
G2 X73.9929 I-0.0072 J5.4
G3 X73.5805 Y20.4291 I-0.0008 J-0.5814
G2 X73.5705 Y20.4191 I-3.8233 J3.8134
G3 X73.3998 Y20.0118 I0.4102 J-0.4113
G1 F30.0 X70.9999 Y20.0285
G3 F120.0 X70.9998 Y20.0038 I2.9809 J-0.0207
G2 Y19.9962 I-3.0 J-0.004
G3 X71.8759 Y17.8813 I2.982 J-0.0036
G2 X71.8814 Y17.8758 I-2.1186 J-2.124
G3 X73.9958 Y17.0 I2.1103 J2.1047
G2 X74.0039 I0.0041 J-3.0
G3 X76.1185 Y17.8759 I0.0039 J2.9812
G2 X76.1238 Y17.8812 I2.124 J-2.1186
G3 X76.9998 Y19.996 I-2.1057 J2.111
G2 Y20.0042 I3.0 J0.0038
G3 X76.1242 Y22.1184 I-2.9797 J0.0044
G2 X76.1185 Y22.1241 I2.1184 J2.1242
G3 X74.004 Y23.0 I-2.1105 J-2.1049
G2 X73.996 I-0.004 J3.0
G3 X71.8813 Y22.124 I-0.0039 J-2.9814
G2 X71.8757 Y22.1184 I-2.1241 J2.1186
G3 X70.9999 Y20.0285 I2.105 J-2.1106
G0 Z3.0
G0 X88.9465
G1 F30.0 Z-1.0
G1 F120.0 Y19.622
G1 X93.6687
G1 Y20.3779
G1 X88.9465
G1 Y20.0285
G1 F30.0 X86.5465
G1 F120.0 Y17.7143
G3 X86.6279 Y17.611 I0.3714 J0.2091
G2 X86.6334 Y17.6059 I-2.0408 J-2.1989
G3 X86.8135 Y17.4692 I0.763 J0.818
G3 X87.1732 Y17.3098 I0.8526 J1.4388
G3 X87.7763 Y17.222 I0.6006 J2.0102
G2 X87.7798 I0.0036 J-3.0
G1 X94.8354
G2 X94.8406 I0.0 J-3.0
G3 X95.3573 Y17.286 I0.0036 J2.09
G2 X95.3662 Y17.2882 I0.7365 J-2.9082
G3 X95.774 Y17.4528 I-0.3863 J1.5453
G2 X95.7834 Y17.4581 I1.4958 J-2.6005
G3 X95.957 Y17.5832 I-0.502 J0.8801
G2 X95.9713 Y17.5959 I2.0004 J-2.2357
G3 X96.0687 Y17.7128 I-0.3316 J0.3754
G1 Y22.2856
G3 X95.9881 Y22.388 I-0.366 J-0.2053
G2 X95.9821 Y22.3935 I2.0399 J2.1997
G3 X95.7972 Y22.5333 I-0.7689 J-0.8246
G3 X95.4468 Y22.6886 I-0.7972 J-1.3258
G2 X95.4397 Y22.6908 I0.8663 J2.8722
G3 X94.8464 Y22.7779 I-0.5859 J-1.9255
G2 X94.8354 I-0.011 J3.0
G1 X87.7798
G2 X87.7764 I0.0 J3.0
G3 X87.2561 Y22.7135 I-0.0024 J-2.1147
G2 X87.2502 Y22.712 I-0.7347 J2.9086
G3 X86.8403 Y22.5467 I0.3899 J-1.557
G2 X86.8324 Y22.5421 I-1.4949 J2.601
G3 X86.6578 Y22.4164 I0.506 J-0.8866
G2 X86.6445 Y22.4046 I-2.0 J2.2361
G3 X86.5465 Y22.2871 I0.3355 J-0.3796
G1 Y20.0285
G1 F30.0 X88.9465
G1 Z-2.0
G1 F120.0 Y19.622
G1 X93.6687
G1 Y20.3779
G1 X88.9465
G1 Y20.0285
G1 F30.0 X86.5465
G1 F120.0 Y17.7143
G3 X86.6279 Y17.611 I0.3714 J0.2091
G2 X86.6334 Y17.6059 I-2.0408 J-2.1989
G3 X86.8135 Y17.4692 I0.763 J0.818
G3 X87.1732 Y17.3098 I0.8526 J1.4388
G3 X87.7763 Y17.222 I0.6006 J2.0102
G2 X87.7798 I0.0036 J-3.0
G1 X94.8354
G2 X94.8406 I0.0 J-3.0
G3 X95.3573 Y17.286 I0.0036 J2.09
G2 X95.3662 Y17.2882 I0.7365 J-2.9082
G3 X95.774 Y17.4528 I-0.3863 J1.5453
G2 X95.7834 Y17.4581 I1.4958 J-2.6005
G3 X95.957 Y17.5832 I-0.502 J0.8801
G2 X95.9713 Y17.5959 I2.0004 J-2.2357
G3 X96.0687 Y17.7128 I-0.3316 J0.3754
G1 Y22.2856
G3 X95.9881 Y22.388 I-0.366 J-0.2053
G2 X95.9821 Y22.3935 I2.0399 J2.1997
G3 X95.7972 Y22.5333 I-0.7689 J-0.8246
G3 X95.4468 Y22.6886 I-0.7972 J-1.3258
G2 X95.4397 Y22.6908 I0.8663 J2.8722
G3 X94.8464 Y22.7779 I-0.5859 J-1.9255
G2 X94.8354 I-0.011 J3.0
G1 X87.7798
G2 X87.7764 I0.0 J3.0
G3 X87.2561 Y22.7135 I-0.0024 J-2.1147
G2 X87.2502 Y22.712 I-0.7347 J2.9086
G3 X86.8403 Y22.5467 I0.3899 J-1.557
G2 X86.8324 Y22.5421 I-1.4949 J2.601
G3 X86.6578 Y22.4164 I0.506 J-0.8866
G2 X86.6445 Y22.4046 I-2.0 J2.2361
G3 X86.5465 Y22.2871 I0.3355 J-0.3796
G1 Y20.0285
G1 F30.0 X88.9465
G1 Z-3.0
G1 F120.0 Y19.622
G1 X93.6687
G1 Y20.3779
G1 X88.9465
G1 Y20.0285
G1 F30.0 X86.5465
G1 F120.0 Y17.7143
G3 X86.6279 Y17.611 I0.3714 J0.2091
G2 X86.6334 Y17.6059 I-2.0408 J-2.1989
G3 X86.8135 Y17.4692 I0.763 J0.818
G3 X87.1732 Y17.3098 I0.8526 J1.4388
G3 X87.7763 Y17.222 I0.6006 J2.0102
G2 X87.7798 I0.0036 J-3.0
G1 X94.8354
G2 X94.8406 I0.0 J-3.0
G3 X95.3573 Y17.286 I0.0036 J2.09
G2 X95.3662 Y17.2882 I0.7365 J-2.9082
G3 X95.774 Y17.4528 I-0.3863 J1.5453
G2 X95.7834 Y17.4581 I1.4958 J-2.6005
G3 X95.957 Y17.5832 I-0.502 J0.8801
G2 X95.9713 Y17.5959 I2.0004 J-2.2357
G3 X96.0687 Y17.7128 I-0.3316 J0.3754
G1 Y22.2856
G3 X95.9881 Y22.388 I-0.366 J-0.2053
G2 X95.9821 Y22.3935 I2.0399 J2.1997
G3 X95.7972 Y22.5333 I-0.7689 J-0.8246
G3 X95.4468 Y22.6886 I-0.7972 J-1.3258
G2 X95.4397 Y22.6908 I0.8663 J2.8722
G3 X94.8464 Y22.7779 I-0.5859 J-1.9255
G2 X94.8354 I-0.011 J3.0
G1 X87.7798
G2 X87.7764 I0.0 J3.0
G3 X87.2561 Y22.7135 I-0.0024 J-2.1147
G2 X87.2502 Y22.712 I-0.7347 J2.9086
G3 X86.8403 Y22.5467 I0.3899 J-1.557
G2 X86.8324 Y22.5421 I-1.4949 J2.601
G3 X86.6578 Y22.4164 I0.506 J-0.8866
G2 X86.6445 Y22.4046 I-2.0 J2.2361
G3 X86.5465 Y22.2871 I0.3355 J-0.3796
G1 Y20.0285
G1 F30.0 X88.9465
G1 Z-3.5
G1 F120.0 Y19.622
G1 X93.6687
G1 Y20.3779
G1 X88.9465
G1 Y20.0285
G1 F30.0 X86.5465
G1 F120.0 Y17.7143
G3 X86.6279 Y17.611 I0.3714 J0.2091
G2 X86.6334 Y17.6059 I-2.0408 J-2.1989
G3 X86.8135 Y17.4692 I0.763 J0.818
G3 X87.1732 Y17.3098 I0.8526 J1.4388
G3 X87.7763 Y17.222 I0.6006 J2.0102
G2 X87.7798 I0.0036 J-3.0
G1 X94.8354
G2 X94.8406 I0.0 J-3.0
G3 X95.3573 Y17.286 I0.0036 J2.09
G2 X95.3662 Y17.2882 I0.7365 J-2.9082
G3 X95.774 Y17.4528 I-0.3863 J1.5453
G2 X95.7834 Y17.4581 I1.4958 J-2.6005
G3 X95.957 Y17.5832 I-0.502 J0.8801
G2 X95.9713 Y17.5959 I2.0004 J-2.2357
G3 X96.0687 Y17.7128 I-0.3316 J0.3754
G1 Y22.2856
G3 X95.9881 Y22.388 I-0.366 J-0.2053
G2 X95.9821 Y22.3935 I2.0399 J2.1997
G3 X95.7972 Y22.5333 I-0.7689 J-0.8246
G3 X95.4468 Y22.6886 I-0.7972 J-1.3258
G2 X95.4397 Y22.6908 I0.8663 J2.8722
G3 X94.8464 Y22.7779 I-0.5859 J-1.9255
G2 X94.8354 I-0.011 J3.0
G1 X87.7798
G2 X87.7764 I0.0 J3.0
G3 X87.2561 Y22.7135 I-0.0024 J-2.1147
G2 X87.2502 Y22.712 I-0.7347 J2.9086
G3 X86.8403 Y22.5467 I0.3899 J-1.557
G2 X86.8324 Y22.5421 I-1.4949 J2.601
G3 X86.6578 Y22.4164 I0.506 J-0.8866
G2 X86.6445 Y22.4046 I-2.0 J2.2361
G3 X86.5465 Y22.2871 I0.3355 J-0.3796
G1 Y20.0285
( Profile1 )
S1000
G0 Z3.0
G0 X0.0 Y33.9463
G1 F30.0 Z-1.0
G1 F120.0 X11.0227
G1 Y40.0
G2 X14.0227 Y43.0 I3.0 J0.0
G1 X40.1361
G2 X43.1361 Y40.0 I0.0 J-3.0
G1 Y34.0
G1 X113.1163
G2 X116.1163 Y31.0 I0.0 J-3.0
G1 Y24.2001
G2 X113.1163 Y21.2001 I-3.0 J0.0
G1 X106.5003
G1 Y18.7999
G1 X113.1163
G2 X116.1163 Y15.7999 I0.0 J-3.0
G1 Y9.0
G2 X113.1163 Y6.0 I-3.0 J0.0
G1 X43.1361
G1 Y0.0
G2 X40.1361 Y-3.0 I-3.0 J0.0
G1 X14.046
G2 X11.046 Y0.0 I0.0 J3.0
G1 Y6.0268
G1 X0.0
G2 X-3.0 Y9.0268 I0.0 J3.0
G1 Y30.9463
G2 X0.0 Y33.9463 I3.0 J0.0
G1 F30.0 Z-2.0
G1 F120.0 X11.0227
G1 Y40.0
G2 X14.0227 Y43.0 I3.0 J0.0
G1 X40.1361
G2 X43.1361 Y40.0 I0.0 J-3.0
G1 Y34.0
G1 X113.1163
G2 X116.1163 Y31.0 I0.0 J-3.0
G1 Y24.2001
G2 X113.1163 Y21.2001 I-3.0 J0.0
G1 X106.5003
G1 Y18.7999
G1 X113.1163
G2 X116.1163 Y15.7999 I0.0 J-3.0
G1 Y9.0
G2 X113.1163 Y6.0 I-3.0 J0.0
G1 X43.1361
G1 Y0.0
G2 X40.1361 Y-3.0 I-3.0 J0.0
G1 X14.046
G2 X11.046 Y0.0 I0.0 J3.0
G1 Y6.0268
G1 X0.0
G2 X-3.0 Y9.0268 I0.0 J3.0
G1 Y30.9463
G2 X0.0 Y33.9463 I3.0 J0.0
G1 F30.0 Z-3.0
G1 F120.0 X11.0227
G1 Y40.0
G2 X14.0227 Y43.0 I3.0 J0.0
G1 X40.1361
G2 X43.1361 Y40.0 I0.0 J-3.0
G1 Y34.0
G1 X113.1163
G2 X116.1163 Y31.0 I0.0 J-3.0
G1 Y24.2001
G2 X113.1163 Y21.2001 I-3.0 J0.0
G1 X106.5003
G1 Y18.7999
G1 X113.1163
G2 X116.1163 Y15.7999 I0.0 J-3.0
G1 Y9.0
G2 X113.1163 Y6.0 I-3.0 J0.0
G1 X43.1361
G1 Y0.0
G2 X40.1361 Y-3.0 I-3.0 J0.0
G1 X14.046
G2 X11.046 Y0.0 I0.0 J3.0
G1 Y6.0268
G1 X0.0
G2 X-3.0 Y9.0268 I0.0 J3.0
G1 Y30.9463
G2 X0.0 Y33.9463 I3.0 J0.0
G1 F30.0 Z-4.0
G1 F120.0 X11.0227
G1 Y40.0
G2 X14.0227 Y43.0 I3.0 J0.0
G1 X40.1361
G2 X43.1361 Y40.0 I0.0 J-3.0
G1 Y34.0
G1 X113.1163
G2 X116.1163 Y31.0 I0.0 J-3.0
G1 Y24.2001
G2 X113.1163 Y21.2001 I-3.0 J0.0
G1 X106.5003
G1 Y18.7999
G1 X113.1163
G2 X116.1163 Y15.7999 I0.0 J-3.0
G1 Y9.0
G2 X113.1163 Y6.0 I-3.0 J0.0
G1 X43.1361
G1 Y0.0
G2 X40.1361 Y-3.0 I-3.0 J0.0
G1 X14.046
G2 X11.046 Y0.0 I0.0 J3.0
G1 Y6.0268
G1 X0.0
G2 X-3.0 Y9.0268 I0.0 J3.0
G1 Y30.9463
G2 X0.0 Y33.9463 I3.0 J0.0
G1 F30.0 Z-5.0
G1 F120.0 X11.0227
G1 Y40.0
G2 X14.0227 Y43.0 I3.0 J0.0
G1 X40.1361
G2 X43.1361 Y40.0 I0.0 J-3.0
G1 Y34.0
G1 X113.1163
G2 X116.1163 Y31.0 I0.0 J-3.0
G1 Y24.2001
G2 X113.1163 Y21.2001 I-3.0 J0.0
G1 X106.5003
G1 Y18.7999
G1 X113.1163
G2 X116.1163 Y15.7999 I0.0 J-3.0
G1 Y9.0
G2 X113.1163 Y6.0 I-3.0 J0.0
G1 X43.1361
G1 Y0.0
G2 X40.1361 Y-3.0 I-3.0 J0.0
G1 X14.046
G2 X11.046 Y0.0 I0.0 J3.0
G1 Y6.0268
G1 X0.0
G2 X-3.0 Y9.0268 I0.0 J3.0
G1 Y30.9463
G2 X0.0 Y33.9463 I3.0 J0.0
G1 F30.0 Z-6.0
G1 F120.0 X11.0227
G1 Y40.0
G2 X14.0227 Y43.0 I3.0 J0.0
G1 X40.1361
G2 X43.1361 Y40.0 I0.0 J-3.0
G1 Y34.0
G1 X113.1163
G2 X116.1163 Y31.0 I0.0 J-3.0
G1 Y24.2001
G2 X113.1163 Y21.2001 I-3.0 J0.0
G1 X106.5003
G1 Y18.7999
G1 X113.1163
G2 X116.1163 Y15.7999 I0.0 J-3.0
G1 Y9.0
G2 X113.1163 Y6.0 I-3.0 J0.0
G1 X43.1361
G1 Y0.0
G2 X40.1361 Y-3.0 I-3.0 J0.0
G1 X14.046
G2 X11.046 Y0.0 I0.0 J3.0
G1 Y6.0268
G1 X0.0
G2 X-3.0 Y9.0268 I0.0 J3.0
G1 Y30.9463
G2 X0.0 Y33.9463 I3.0 J0.0
G1 F30.0 Z-6.5
G1 F120.0 X11.0227
G1 Y40.0
G2 X14.0227 Y43.0 I3.0 J0.0
G1 X40.1361
G2 X43.1361 Y40.0 I0.0 J-3.0
G1 Y34.0
G1 X113.1163
G2 X116.1163 Y31.0 I0.0 J-3.0
G1 Y24.2001
G2 X113.1163 Y21.2001 I-3.0 J0.0
G1 X106.5003
G1 Y18.7999
G1 X113.1163
G2 X116.1163 Y15.7999 I0.0 J-3.0
G1 Y9.0
G2 X113.1163 Y6.0 I-3.0 J0.0
G1 X43.1361
G1 Y0.0
G2 X40.1361 Y-3.0 I-3.0 J0.0
G1 X14.046
G2 X11.046 Y0.0 I0.0 J3.0
G1 Y6.0268
G1 X0.0
G2 X-3.0 Y9.0268 I0.0 J3.0
G1 Y30.9463
G2 X0.0 Y33.9463 I3.0 J0.0
G0 Z3.0
M5
M30
