( Made using CamBam - http://www.cambam.co.uk )
( belt clamp 12/27/2012 12:05:28 PM )
( T13 : 3.0 )
G21 G90 G64 G40
G0 Z3.0
( T13 : 3.0 )
T13 M6
( Drill 3mm )
G17
M3 S1000
G0 X7.9997 Y18.7971
G98
G83 X7.9997 Y18.7971 Z-5.0 Q1.0 R3.0 F50.0
G83 X4.8278 Y27.2969 Z-5.0
G83 X16.172 Z-5.0
G83 X25.8277 Y27.297 Z-5.0
G83 X37.1719 Z-5.0
G83 X33.9998 Y18.7971 Z-5.0
G83 X52.3839 Y16.1341 Z-5.0
G83 Y27.2567 Z-5.0
G83 X63.7279 Z-5.0
G83 Y16.1341 Z-5.0
G83 Y3.0537 Z-5.0
G83 X52.3839 Z-5.0
G83 Y40.3374 Z-5.0
G83 X63.7279 Z-5.0
G83 X37.1719 Y40.3776 Z-5.0
G83 X25.8277 Z-5.0
G83 X16.172 Z-5.0
G83 X4.8278 Z-5.0
G80
M5
M30
