( Made using CamBam - http://www.cambam.co.uk )
( belt clamp 12/27/2012 12:05:34 PM )
( T1 : 1.0 )
G21 G90 G64 G40
G0 Z3.0
( T1 : 1.0 )
T1 M6
( Engrave 1mm Mill )
G17
M3 S1000
G0 X48.0556 Y13.9244
G1 F30.0 Z-0.5
G1 F50.0 Y5.3695
G0 Z3.0
G0 X50.5556
G1 F30.0 Z-0.5
G1 F50.0 Y13.9244
G0 Z3.0
G0 X53.0557
G1 F30.0 Z-0.5
G1 F50.0 Y5.3695
G0 Z3.0
G0 X55.5556
G1 F30.0 Z-0.5
G1 F50.0 Y13.9244
G0 Z3.0
G0 X58.0557
G1 F30.0 Z-0.5
G1 F50.0 Y5.3695
G0 Z3.0
G0 X60.5556
G1 F30.0 Z-0.5
G1 F50.0 Y13.9244
G0 Z3.0
G0 X63.0558
G1 F30.0 Z-0.5
G1 F50.0 Y5.3695
G0 Z3.0
G0 X65.5555
G1 F30.0 Z-0.5
G1 F50.0 Y13.9244
G0 Z3.0
G0 X68.0556
G1 F30.0 Z-0.5
G1 F50.0 Y5.3695
G0 Z3.0
G0 Y29.7112
G1 F30.0 Z-0.5
G1 F50.0 Y38.2661
G0 Z3.0
G0 X65.5555
G1 F30.0 Z-0.5
G1 F50.0 Y29.7112
G0 Z3.0
G0 X63.0558
G1 F30.0 Z-0.5
G1 F50.0 Y38.2661
G0 Z3.0
G0 X60.5556
G1 F30.0 Z-0.5
G1 F50.0 Y29.7112
G0 Z3.0
G0 X58.0557
G1 F30.0 Z-0.5
G1 F50.0 Y38.2661
G0 Z3.0
G0 X55.5556
G1 F30.0 Z-0.5
G1 F50.0 Y29.7112
G0 Z3.0
G0 X53.0557
G1 F30.0 Z-0.5
G1 F50.0 Y38.2661
G0 Z3.0
G0 X50.5556
G1 F30.0 Z-0.5
G1 F50.0 Y29.7112
G0 Z3.0
G0 X48.0556
G1 F30.0 Z-0.5
G1 F50.0 Y38.2661
G0 Z3.0
M5
M30
