( Made using CamBam - http://www.cambam.co.uk )
( belt clamp 12/27/2012 12:05:51 PM )
( T4 : 4.0 )
G21 G90 G64 G40
G0 Z3.0
( T4 : 4.0 )
T4 M6
( Profile 4mm mill )
G17
M3 S1000
G0 X41.9998 Y4.7972
G1 F50.0 Z-1.0
G1 F70.0 X-0.0002
G2 X-2.0002 Y6.7972 I0.0 J2.0
G1 Y43.7972
G2 X-0.0002 Y45.7972 I2.0 J0.0
G1 X41.9998
G2 X43.9998 Y43.7972 I0.0 J-2.0
G1 Y6.7972
G2 X41.9998 Y4.7972 I-2.0 J0.0
G0 Z3.0
G0 X45.5559
G1 F50.0 Z-1.0
G1 F70.0 Y19.594
G2 X47.5559 Y21.594 I2.0 J0.0
G1 X68.5558
G2 X70.5558 Y19.594 I0.0 J-2.0
G1 Y0.0
G2 X68.5558 Y-2.0 I-2.0 J0.0
G1 X47.5559
G2 X45.5559 Y0.0 I0.0 J2.0
G1 Y4.7972
G0 Z3.0
G0 X47.3509 Y22.2135
G1 F50.0 Z-1.0
G2 F70.0 X45.5559 Y24.203 I0.205 J1.9895
G1 Y43.7972
G2 X47.5559 Y45.7972 I2.0 J0.0
G1 X68.5558
G2 X70.5558 Y43.7972 I0.0 J-2.0
G1 Y24.203
G2 X68.5558 Y22.203 I-2.0 J0.0
G1 X47.5559
G2 X47.3509 Y22.2135 I0.0 J2.0
G1 F50.0 Z-2.0
G2 F70.0 X45.5559 Y24.203 I0.205 J1.9895
G1 Y43.7972
G2 X47.5559 Y45.7972 I2.0 J0.0
G1 X68.5558
G2 X70.5558 Y43.7972 I0.0 J-2.0
G1 Y24.203
G2 X68.5558 Y22.203 I-2.0 J0.0
G1 X47.5559
G2 X47.3509 Y22.2135 I0.0 J2.0
G1 F50.0 X47.3999 Y21.5879
G2 F70.0 X47.5559 Y21.594 I0.1561 J-1.9939
G1 X68.5558
G2 X70.5558 Y19.594 I0.0 J-2.0
G1 Y0.0
G2 X68.5558 Y-2.0 I-2.0 J0.0
G1 X47.5559
G2 X45.5559 Y0.0 I0.0 J2.0
G1 Y19.594
G2 X47.3999 Y21.5879 I2.0 J0.0
G0 Z3.0
G0 X43.9998
G1 F50.0 Z-2.0
G1 F70.0 Y6.7972
G2 X41.9998 Y4.7972 I-2.0 J0.0
G1 X-0.0002
G2 X-2.0002 Y6.7972 I0.0 J2.0
G1 Y43.7972
G2 X-0.0002 Y45.7972 I2.0 J0.0
G1 X41.9998
G2 X43.9998 Y43.7972 I0.0 J-2.0
G1 Y21.5879
G1 F50.0 Z-3.0
G1 F70.0 Y6.7972
G2 X41.9998 Y4.7972 I-2.0 J0.0
G1 X-0.0002
G2 X-2.0002 Y6.7972 I0.0 J2.0
G1 Y43.7972
G2 X-0.0002 Y45.7972 I2.0 J0.0
G1 X41.9998
G2 X43.9998 Y43.7972 I0.0 J-2.0
G1 Y21.5879
G1 F50.0 X45.8114 Y20.5721
G2 F70.0 X47.5559 Y21.594 I1.7445 J-0.9781
G1 X68.5558
G2 X70.5558 Y19.594 I0.0 J-2.0
G1 Y0.0
G2 X68.5558 Y-2.0 I-2.0 J0.0
G1 X47.5559
G2 X45.5559 Y0.0 I0.0 J2.0
G1 Y19.594
G2 X45.8114 Y20.5721 I2.0 J0.0
G1 F50.0 X46.6898 Y22.4003
G2 F70.0 X45.5559 Y24.203 I0.8661 J1.8027
G1 Y43.7972
G2 X47.5559 Y45.7972 I2.0 J0.0
G1 X68.5558
G2 X70.5558 Y43.7972 I0.0 J-2.0
G1 Y24.203
G2 X68.5558 Y22.203 I-2.0 J0.0
G1 X47.5559
G2 X46.6898 Y22.4003 I0.0 J2.0
G1 F50.0 Z-4.0
G2 F70.0 X45.5559 Y24.203 I0.8661 J1.8027
G1 Y43.7972
G2 X47.5559 Y45.7972 I2.0 J0.0
G1 X68.5558
G2 X70.5558 Y43.7972 I0.0 J-2.0
G1 Y24.203
G2 X68.5558 Y22.203 I-2.0 J0.0
G1 X47.5559
G2 X46.6898 Y22.4003 I0.0 J2.0
G1 F50.0 X46.9661 Y21.505
G2 F70.0 X47.5559 Y21.594 I0.5898 J-1.911
G1 X68.5558
G2 X70.5558 Y19.594 I0.0 J-2.0
G1 Y0.0
G2 X68.5558 Y-2.0 I-2.0 J0.0
G1 X47.5559
G2 X45.5559 Y0.0 I0.0 J2.0
G1 Y19.594
G2 X46.9661 Y21.505 I2.0 J0.0
G0 Z3.0
G0 X43.9998
G1 F50.0 Z-4.0
G1 F70.0 Y6.7972
G2 X41.9998 Y4.7972 I-2.0 J0.0
G1 X-0.0002
G2 X-2.0002 Y6.7972 I0.0 J2.0
G1 Y43.7972
G2 X-0.0002 Y45.7972 I2.0 J0.0
G1 X41.9998
G2 X43.9998 Y43.7972 I0.0 J-2.0
G1 Y21.505
G1 F50.0 Z-4.5
G1 F70.0 Y6.7972
G2 X41.9998 Y4.7972 I-2.0 J0.0
G1 X-0.0002
G2 X-2.0002 Y6.7972 I0.0 J2.0
G1 Y43.7972
G2 X-0.0002 Y45.7972 I2.0 J0.0
G1 X41.9998
G2 X43.9998 Y43.7972 I0.0 J-2.0
G1 Y21.505
G1 F50.0 X45.7942 Y20.5407
G2 F70.0 X47.5559 Y21.594 I1.7617 J-0.9468
G1 X68.5558
G2 X70.5558 Y19.594 I0.0 J-2.0
G1 Y0.0
G2 X68.5558 Y-2.0 I-2.0 J0.0
G1 X47.5559
G2 X45.5559 Y0.0 I0.0 J2.0
G1 Y19.594
G2 X45.7942 Y20.5407 I2.0 J0.0
G1 F50.0 X46.6889 Y22.4007
G2 F70.0 X45.5559 Y24.203 I0.867 J1.8023
G1 Y43.7972
G2 X47.5559 Y45.7972 I2.0 J0.0
G1 X68.5558
G2 X70.5558 Y43.7972 I0.0 J-2.0
G1 Y24.203
G2 X68.5558 Y22.203 I-2.0 J0.0
G1 X47.5559
G2 X46.6889 Y22.4007 I0.0 J2.0
G0 Z3.0
M5
M30
