( Made using CamBam - http://www.cambam.co.uk )
( back plate 10/23/2013 12:46:46 PM )
( T7 : 1.0 )
G21 G90 G64 G40
G0 Z3.0
( T7 : 1.0 )
T7 M6
( Spot Drill )
G17
M3 S1000
G0 X3.0002 Y50.7841
G98
G81 X3.0002 Y50.7841 Z-1.0 R3.0 F50.0
G81 X17.0002 Z-1.0
G81 X28.0 Y50.7839 Z-1.0
G81 X42.0002 Z-1.0
G81 X34.9999 Y65.7663 Z-1.0
G81 X10.0 Y65.7664 Z-1.0
G81 X3.0002 Y17.7791 Z-1.0
G81 X10.0 Y5.7664 Z-1.0
G81 X17.0002 Y17.7791 Z-1.0
G81 X28.0 Z-1.0
G81 X34.9999 Y5.7664 Z-1.0
G81 X42.0002 Y17.7791 Z-1.0
G80
G0 Z3.0
M5
M30
