( Made using CamBam - http://www.cambam.co.uk )
( back plate 10/23/2013 12:47:03 PM )
( T9 : 3.0 )
G21 G90 G64 G40
G0 Z3.0
( T9 : 3.0 )
T9 M6
( 3mm Drill )
G17
M3 S1000
G0 X3.0002 Y50.7841
G98
G81 X3.0002 Y50.7841 Z-6.0 R3.0 F50.0
G81 X17.0002 Z-6.0
G81 X28.0 Y50.7839 Z-6.0
G81 X42.0002 Z-6.0
G81 Y17.7791 Z-6.0
G81 X28.0 Z-6.0
G81 X17.0002 Z-6.0
G81 X3.0002 Z-6.0
G80
G0 Z3.0
M5
M30
