( Made using CamBam - http://www.cambam.co.uk )
( back plate 10/23/2013 12:49:52 PM )
( T4 : 4.0 )
G21 G90 G91.1 G64 G40
G0 Z3.0
( T4 : 4.0 )
T4 M6
( Inside 1 )
G17
M3 S1000
G0 X15.0002 Y42.4295
G0 Z1.0
G1 F25.0 Z-1.0
G2 F150.0 X14.9967 Y42.4329 I1.4125 J1.4159
G1 X14.5002
G2 X14.4985 I0.0 J2.0
G2 X11.6741 Y43.6056 I0.0034 J3.9959
G2 X10.5002 Y46.433 I2.8176 J2.8273
G1 Y46.4331
G1 Y46.433
G1 Y57.5045
G2 X10.4967 Y57.508 I1.4125 J1.4159
G1 X9.5036
G2 X9.5001 Y57.5045 I-1.4159 J1.4125
G1 Y46.433
G2 Y46.4313 I-2.0 J0.0
G2 X8.3275 Y43.6069 I-3.9959 J0.0034
G2 X5.5001 Y42.4329 I-2.8273 J2.8176
G1 X5.5
G1 X5.5001
G1 X5.0036
G2 X5.0002 Y42.4295 I-1.4159 J1.4125
G1 Y31.4401
G3 X5.0144 Y31.2067 I1.9241 J0.0005
G1 X5.0238 Y31.132
G1 X5.0469 Y30.9816
G3 X5.3483 Y29.9173 I5.5747 J1.0039
G2 X5.3539 Y29.9029 I-1.8619 J-0.7302
G3 X5.5749 Y29.4109 I4.4841 J1.7188
G2 X5.5912 Y29.3787 I-1.7755 J-0.9207
G3 X5.6168 Y29.3312 I0.7065 J0.3503
G2 X5.6277 Y29.3125 I-1.7268 J-1.0091
G1 X5.6537 Y29.2668
G1 X5.7013 Y29.1869
G3 X5.8031 Y29.0367 I1.8207 J1.124
G1 X7.8996 Y26.2428
G2 X7.9005 Y26.2415 I-1.5997 J-1.2004
G2 X8.2984 Y25.6371 I-4.7675 J-3.5716
G2 X8.3009 Y25.6327 I-1.7342 J-0.9962
G1 X8.3531 Y25.5414
G2 X8.3797 Y25.4933 I-1.7367 J-0.9918
G1 X8.4758 Y25.3137
G2 X8.4965 Y25.2739 I-1.7634 J-0.9437
G2 X9.1886 Y23.4892 I-8.6368 J-4.3755
G2 X9.4007 Y22.5493 I-8.4985 J-2.4122
G2 X9.4446 Y22.2555 I-4.7092 J-0.854
G1 X9.4524 Y22.1937
G2 X9.4569 Y22.1557 I-1.9842 J-0.2505
G1 X9.4702 Y22.031
G2 X9.4726 Y22.0069 I-1.9887 J-0.2125
G2 X9.5001 Y21.4522 I-6.1769 J-0.5843
G2 Y21.4426 I-2.0 J-0.0096
G1 Y15.3919
G2 X9.5037 Y15.3883 I-1.4125 J-1.4159
G1 X10.4966
G2 X10.5002 Y15.3919 I1.416 J-1.4124
G1 Y21.4426
G2 Y21.443 I2.0 J0.0
G2 X10.5448 Y22.1673 I5.9241 J-0.001
G2 X10.5453 Y22.1713 I1.985 J-0.2449
G1 X10.5584 Y22.2757
G2 X10.5659 Y22.3302 I1.9844 J-0.2489
G1 X10.5968 Y22.5314
G2 X10.6041 Y22.5753 I1.9769 J-0.3034
G2 X11.1217 Y24.4186 I9.5176 J-1.6782
G2 X11.5162 Y25.2981 I8.2163 J-3.1577
G2 X11.6572 Y25.559 I4.2815 J-2.1446
G1 X11.6881 Y25.6132
G2 X11.7073 Y25.6463 I1.7376 J-0.9904
G1 X11.7715 Y25.754
G2 X11.7833 Y25.7735 I1.7183 J-1.0235
G2 X12.0957 Y26.2361 I5.2387 J-3.2019
G2 X12.1008 Y26.2428 I1.6047 J-1.1937
G1 X14.1996 Y29.0398
G3 X14.3289 Y29.2361 I-1.5666 J1.1728
G1 X14.366 Y29.3009
G1 X14.4377 Y29.4349
G3 X14.8356 Y30.4678 I-5.0779 J2.5493
G2 X14.8395 Y30.4817 I1.9275 J-0.5338
G3 X14.9582 Y31.0089 I-4.6494 J1.3238
G2 X14.9644 Y31.0439 I1.9727 J-0.3296
G3 X14.9724 Y31.0973 I-0.7728 J0.1433
G2 X14.975 Y31.1188 I1.9868 J-0.229
G1 X14.9816 Y31.1709
G1 X14.9914 Y31.2626
G3 X15.0002 Y31.4455 I-2.1956 J0.1975
G1 Y42.4295
G1 F25.0 Z-2.0
G2 F150.0 X14.9967 Y42.4329 I1.4125 J1.4159
G1 X14.5002
G2 X14.4985 I0.0 J2.0
G2 X11.6741 Y43.6056 I0.0034 J3.9959
G2 X10.5002 Y46.433 I2.8176 J2.8273
G1 Y46.4331
G1 Y46.433
G1 Y57.5045
G2 X10.4967 Y57.508 I1.4125 J1.4159
G1 X9.5036
G2 X9.5001 Y57.5045 I-1.4159 J1.4125
G1 Y46.433
G2 Y46.4313 I-2.0 J0.0
G2 X8.3275 Y43.6069 I-3.9959 J0.0034
G2 X5.5001 Y42.4329 I-2.8273 J2.8176
G1 X5.5
G1 X5.5001
G1 X5.0036
G2 X5.0002 Y42.4295 I-1.4159 J1.4125
G1 Y31.4401
G3 X5.0144 Y31.2067 I1.9241 J0.0005
G1 X5.0238 Y31.132
G1 X5.0469 Y30.9816
G3 X5.3483 Y29.9173 I5.5747 J1.0039
G2 X5.3539 Y29.9029 I-1.8619 J-0.7302
G3 X5.5749 Y29.4109 I4.4841 J1.7188
G2 X5.5912 Y29.3787 I-1.7755 J-0.9207
G3 X5.6168 Y29.3312 I0.7065 J0.3503
G2 X5.6277 Y29.3125 I-1.7268 J-1.0091
G1 X5.6537 Y29.2668
G1 X5.7013 Y29.1869
G3 X5.8031 Y29.0367 I1.8207 J1.124
G1 X7.8996 Y26.2428
G2 X7.9005 Y26.2415 I-1.5997 J-1.2004
G2 X8.2984 Y25.6371 I-4.7675 J-3.5716
G2 X8.3009 Y25.6327 I-1.7342 J-0.9962
G1 X8.3531 Y25.5414
G2 X8.3797 Y25.4933 I-1.7367 J-0.9918
G1 X8.4758 Y25.3137
G2 X8.4965 Y25.2739 I-1.7634 J-0.9437
G2 X9.1886 Y23.4892 I-8.6368 J-4.3755
G2 X9.4007 Y22.5493 I-8.4985 J-2.4122
G2 X9.4446 Y22.2555 I-4.7092 J-0.854
G1 X9.4524 Y22.1937
G2 X9.4569 Y22.1557 I-1.9842 J-0.2505
G1 X9.4702 Y22.031
G2 X9.4726 Y22.0069 I-1.9887 J-0.2125
G2 X9.5001 Y21.4522 I-6.1769 J-0.5843
G2 Y21.4426 I-2.0 J-0.0096
G1 Y15.3919
G2 X9.5037 Y15.3883 I-1.4125 J-1.4159
G1 X10.4966
G2 X10.5002 Y15.3919 I1.416 J-1.4124
G1 Y21.4426
G2 Y21.443 I2.0 J0.0
G2 X10.5448 Y22.1673 I5.9241 J-0.001
G2 X10.5453 Y22.1713 I1.985 J-0.2449
G1 X10.5584 Y22.2757
G2 X10.5659 Y22.3302 I1.9844 J-0.2489
G1 X10.5968 Y22.5314
G2 X10.6041 Y22.5753 I1.9769 J-0.3034
G2 X11.1217 Y24.4186 I9.5176 J-1.6782
G2 X11.5162 Y25.2981 I8.2163 J-3.1577
G2 X11.6572 Y25.559 I4.2815 J-2.1446
G1 X11.6881 Y25.6132
G2 X11.7073 Y25.6463 I1.7376 J-0.9904
G1 X11.7715 Y25.754
G2 X11.7833 Y25.7735 I1.7183 J-1.0235
G2 X12.0957 Y26.2361 I5.2387 J-3.2019
G2 X12.1008 Y26.2428 I1.6047 J-1.1937
G1 X14.1996 Y29.0398
G3 X14.3289 Y29.2361 I-1.5666 J1.1728
G1 X14.366 Y29.3009
G1 X14.4377 Y29.4349
G3 X14.8356 Y30.4678 I-5.0779 J2.5493
G2 X14.8395 Y30.4817 I1.9275 J-0.5338
G3 X14.9582 Y31.0089 I-4.6494 J1.3238
G2 X14.9644 Y31.0439 I1.9727 J-0.3296
G3 X14.9724 Y31.0973 I-0.7728 J0.1433
G2 X14.975 Y31.1188 I1.9868 J-0.229
G1 X14.9816 Y31.1709
G1 X14.9914 Y31.2626
G3 X15.0002 Y31.4455 I-2.1956 J0.1975
G1 Y42.4295
G1 F25.0 Z-3.0
G2 F150.0 X14.9967 Y42.4329 I1.4125 J1.4159
G1 X14.5002
G2 X14.4985 I0.0 J2.0
G2 X11.6741 Y43.6056 I0.0034 J3.9959
G2 X10.5002 Y46.433 I2.8176 J2.8273
G1 Y46.4331
G1 Y46.433
G1 Y57.5045
G2 X10.4967 Y57.508 I1.4125 J1.4159
G1 X9.5036
G2 X9.5001 Y57.5045 I-1.4159 J1.4125
G1 Y46.433
G2 Y46.4313 I-2.0 J0.0
G2 X8.3275 Y43.6069 I-3.9959 J0.0034
G2 X5.5001 Y42.4329 I-2.8273 J2.8176
G1 X5.5
G1 X5.5001
G1 X5.0036
G2 X5.0002 Y42.4295 I-1.4159 J1.4125
G1 Y31.4401
G3 X5.0144 Y31.2067 I1.9241 J0.0005
G1 X5.0238 Y31.132
G1 X5.0469 Y30.9816
G3 X5.3483 Y29.9173 I5.5747 J1.0039
G2 X5.3539 Y29.9029 I-1.8619 J-0.7302
G3 X5.5749 Y29.4109 I4.4841 J1.7188
G2 X5.5912 Y29.3787 I-1.7755 J-0.9207
G3 X5.6168 Y29.3312 I0.7065 J0.3503
G2 X5.6277 Y29.3125 I-1.7268 J-1.0091
G1 X5.6537 Y29.2668
G1 X5.7013 Y29.1869
G3 X5.8031 Y29.0367 I1.8207 J1.124
G1 X7.8996 Y26.2428
G2 X7.9005 Y26.2415 I-1.5997 J-1.2004
G2 X8.2984 Y25.6371 I-4.7675 J-3.5716
G2 X8.3009 Y25.6327 I-1.7342 J-0.9962
G1 X8.3531 Y25.5414
G2 X8.3797 Y25.4933 I-1.7367 J-0.9918
G1 X8.4758 Y25.3137
G2 X8.4965 Y25.2739 I-1.7634 J-0.9437
G2 X9.1886 Y23.4892 I-8.6368 J-4.3755
G2 X9.4007 Y22.5493 I-8.4985 J-2.4122
G2 X9.4446 Y22.2555 I-4.7092 J-0.854
G1 X9.4524 Y22.1937
G2 X9.4569 Y22.1557 I-1.9842 J-0.2505
G1 X9.4702 Y22.031
G2 X9.4726 Y22.0069 I-1.9887 J-0.2125
G2 X9.5001 Y21.4522 I-6.1769 J-0.5843
G2 Y21.4426 I-2.0 J-0.0096
G1 Y15.3919
G2 X9.5037 Y15.3883 I-1.4125 J-1.4159
G1 X10.4966
G2 X10.5002 Y15.3919 I1.416 J-1.4124
G1 Y21.4426
G2 Y21.443 I2.0 J0.0
G2 X10.5448 Y22.1673 I5.9241 J-0.001
G2 X10.5453 Y22.1713 I1.985 J-0.2449
G1 X10.5584 Y22.2757
G2 X10.5659 Y22.3302 I1.9844 J-0.2489
G1 X10.5968 Y22.5314
G2 X10.6041 Y22.5753 I1.9769 J-0.3034
G2 X11.1217 Y24.4186 I9.5176 J-1.6782
G2 X11.5162 Y25.2981 I8.2163 J-3.1577
G2 X11.6572 Y25.559 I4.2815 J-2.1446
G1 X11.6881 Y25.6132
G2 X11.7073 Y25.6463 I1.7376 J-0.9904
G1 X11.7715 Y25.754
G2 X11.7833 Y25.7735 I1.7183 J-1.0235
G2 X12.0957 Y26.2361 I5.2387 J-3.2019
G2 X12.1008 Y26.2428 I1.6047 J-1.1937
G1 X14.1996 Y29.0398
G3 X14.3289 Y29.2361 I-1.5666 J1.1728
G1 X14.366 Y29.3009
G1 X14.4377 Y29.4349
G3 X14.8356 Y30.4678 I-5.0779 J2.5493
G2 X14.8395 Y30.4817 I1.9275 J-0.5338
G3 X14.9582 Y31.0089 I-4.6494 J1.3238
G2 X14.9644 Y31.0439 I1.9727 J-0.3296
G3 X14.9724 Y31.0973 I-0.7728 J0.1433
G2 X14.975 Y31.1188 I1.9868 J-0.229
G1 X14.9816 Y31.1709
G1 X14.9914 Y31.2626
G3 X15.0002 Y31.4455 I-2.1956 J0.1975
G1 Y42.4295
G1 F25.0 Z-4.0
G2 F150.0 X14.9967 Y42.4329 I1.4125 J1.4159
G1 X14.5002
G2 X14.4985 I0.0 J2.0
G2 X11.6741 Y43.6056 I0.0034 J3.9959
G2 X10.5002 Y46.433 I2.8176 J2.8273
G1 Y46.4331
G1 Y46.433
G1 Y57.5045
G2 X10.4967 Y57.508 I1.4125 J1.4159
G1 X9.5036
G2 X9.5001 Y57.5045 I-1.4159 J1.4125
G1 Y46.433
G2 Y46.4313 I-2.0 J0.0
G2 X8.3275 Y43.6069 I-3.9959 J0.0034
G2 X5.5001 Y42.4329 I-2.8273 J2.8176
G1 X5.5
G1 X5.5001
G1 X5.0036
G2 X5.0002 Y42.4295 I-1.4159 J1.4125
G1 Y31.4401
G3 X5.0144 Y31.2067 I1.9241 J0.0005
G1 X5.0238 Y31.132
G1 X5.0469 Y30.9816
G3 X5.3483 Y29.9173 I5.5747 J1.0039
G2 X5.3539 Y29.9029 I-1.8619 J-0.7302
G3 X5.5749 Y29.4109 I4.4841 J1.7188
G2 X5.5912 Y29.3787 I-1.7755 J-0.9207
G3 X5.6168 Y29.3312 I0.7065 J0.3503
G2 X5.6277 Y29.3125 I-1.7268 J-1.0091
G1 X5.6537 Y29.2668
G1 X5.7013 Y29.1869
G3 X5.8031 Y29.0367 I1.8207 J1.124
G1 X7.8996 Y26.2428
G2 X7.9005 Y26.2415 I-1.5997 J-1.2004
G2 X8.2984 Y25.6371 I-4.7675 J-3.5716
G2 X8.3009 Y25.6327 I-1.7342 J-0.9962
G1 X8.3531 Y25.5414
G2 X8.3797 Y25.4933 I-1.7367 J-0.9918
G1 X8.4758 Y25.3137
G2 X8.4965 Y25.2739 I-1.7634 J-0.9437
G2 X9.1886 Y23.4892 I-8.6368 J-4.3755
G2 X9.4007 Y22.5493 I-8.4985 J-2.4122
G2 X9.4446 Y22.2555 I-4.7092 J-0.854
G1 X9.4524 Y22.1937
G2 X9.4569 Y22.1557 I-1.9842 J-0.2505
G1 X9.4702 Y22.031
G2 X9.4726 Y22.0069 I-1.9887 J-0.2125
G2 X9.5001 Y21.4522 I-6.1769 J-0.5843
G2 Y21.4426 I-2.0 J-0.0096
G1 Y15.3919
G2 X9.5037 Y15.3883 I-1.4125 J-1.4159
G1 X10.4966
G2 X10.5002 Y15.3919 I1.416 J-1.4124
G1 Y21.4426
G2 Y21.443 I2.0 J0.0
G2 X10.5448 Y22.1673 I5.9241 J-0.001
G2 X10.5453 Y22.1713 I1.985 J-0.2449
G1 X10.5584 Y22.2757
G2 X10.5659 Y22.3302 I1.9844 J-0.2489
G1 X10.5968 Y22.5314
G2 X10.6041 Y22.5753 I1.9769 J-0.3034
G2 X11.1217 Y24.4186 I9.5176 J-1.6782
G2 X11.5162 Y25.2981 I8.2163 J-3.1577
G2 X11.6572 Y25.559 I4.2815 J-2.1446
G1 X11.6881 Y25.6132
G2 X11.7073 Y25.6463 I1.7376 J-0.9904
G1 X11.7715 Y25.754
G2 X11.7833 Y25.7735 I1.7183 J-1.0235
G2 X12.0957 Y26.2361 I5.2387 J-3.2019
G2 X12.1008 Y26.2428 I1.6047 J-1.1937
G1 X14.1996 Y29.0398
G3 X14.3289 Y29.2361 I-1.5666 J1.1728
G1 X14.366 Y29.3009
G1 X14.4377 Y29.4349
G3 X14.8356 Y30.4678 I-5.0779 J2.5493
G2 X14.8395 Y30.4817 I1.9275 J-0.5338
G3 X14.9582 Y31.0089 I-4.6494 J1.3238
G2 X14.9644 Y31.0439 I1.9727 J-0.3296
G3 X14.9724 Y31.0973 I-0.7728 J0.1433
G2 X14.975 Y31.1188 I1.9868 J-0.229
G1 X14.9816 Y31.1709
G1 X14.9914 Y31.2626
G3 X15.0002 Y31.4455 I-2.1956 J0.1975
G1 Y42.4295
G1 F25.0 Z-5.0
G2 F150.0 X14.9967 Y42.4329 I1.4125 J1.4159
G1 X14.5002
G2 X14.4985 I0.0 J2.0
G2 X11.6741 Y43.6056 I0.0034 J3.9959
G2 X10.5002 Y46.433 I2.8176 J2.8273
G1 Y46.4331
G1 Y46.433
G1 Y57.5045
G2 X10.4967 Y57.508 I1.4125 J1.4159
G1 X9.5036
G2 X9.5001 Y57.5045 I-1.4159 J1.4125
G1 Y46.433
G2 Y46.4313 I-2.0 J0.0
G2 X8.3275 Y43.6069 I-3.9959 J0.0034
G2 X5.5001 Y42.4329 I-2.8273 J2.8176
G1 X5.5
G1 X5.5001
G1 X5.0036
G2 X5.0002 Y42.4295 I-1.4159 J1.4125
G1 Y31.4401
G3 X5.0144 Y31.2067 I1.9241 J0.0005
G1 X5.0238 Y31.132
G1 X5.0469 Y30.9816
G3 X5.3483 Y29.9173 I5.5747 J1.0039
G2 X5.3539 Y29.9029 I-1.8619 J-0.7302
G3 X5.5749 Y29.4109 I4.4841 J1.7188
G2 X5.5912 Y29.3787 I-1.7755 J-0.9207
G3 X5.6168 Y29.3312 I0.7065 J0.3503
G2 X5.6277 Y29.3125 I-1.7268 J-1.0091
G1 X5.6537 Y29.2668
G1 X5.7013 Y29.1869
G3 X5.8031 Y29.0367 I1.8207 J1.124
G1 X7.8996 Y26.2428
G2 X7.9005 Y26.2415 I-1.5997 J-1.2004
G2 X8.2984 Y25.6371 I-4.7675 J-3.5716
G2 X8.3009 Y25.6327 I-1.7342 J-0.9962
G1 X8.3531 Y25.5414
G2 X8.3797 Y25.4933 I-1.7367 J-0.9918
G1 X8.4758 Y25.3137
G2 X8.4965 Y25.2739 I-1.7634 J-0.9437
G2 X9.1886 Y23.4892 I-8.6368 J-4.3755
G2 X9.4007 Y22.5493 I-8.4985 J-2.4122
G2 X9.4446 Y22.2555 I-4.7092 J-0.854
G1 X9.4524 Y22.1937
G2 X9.4569 Y22.1557 I-1.9842 J-0.2505
G1 X9.4702 Y22.031
G2 X9.4726 Y22.0069 I-1.9887 J-0.2125
G2 X9.5001 Y21.4522 I-6.1769 J-0.5843
G2 Y21.4426 I-2.0 J-0.0096
G1 Y15.3919
G2 X9.5037 Y15.3883 I-1.4125 J-1.4159
G1 X10.4966
G2 X10.5002 Y15.3919 I1.416 J-1.4124
G1 Y21.4426
G2 Y21.443 I2.0 J0.0
G2 X10.5448 Y22.1673 I5.9241 J-0.001
G2 X10.5453 Y22.1713 I1.985 J-0.2449
G1 X10.5584 Y22.2757
G2 X10.5659 Y22.3302 I1.9844 J-0.2489
G1 X10.5968 Y22.5314
G2 X10.6041 Y22.5753 I1.9769 J-0.3034
G2 X11.1217 Y24.4186 I9.5176 J-1.6782
G2 X11.5162 Y25.2981 I8.2163 J-3.1577
G2 X11.6572 Y25.559 I4.2815 J-2.1446
G1 X11.6881 Y25.6132
G2 X11.7073 Y25.6463 I1.7376 J-0.9904
G1 X11.7715 Y25.754
G2 X11.7833 Y25.7735 I1.7183 J-1.0235
G2 X12.0957 Y26.2361 I5.2387 J-3.2019
G2 X12.1008 Y26.2428 I1.6047 J-1.1937
G1 X14.1996 Y29.0398
G3 X14.3289 Y29.2361 I-1.5666 J1.1728
G1 X14.366 Y29.3009
G1 X14.4377 Y29.4349
G3 X14.8356 Y30.4678 I-5.0779 J2.5493
G2 X14.8395 Y30.4817 I1.9275 J-0.5338
G3 X14.9582 Y31.0089 I-4.6494 J1.3238
G2 X14.9644 Y31.0439 I1.9727 J-0.3296
G3 X14.9724 Y31.0973 I-0.7728 J0.1433
G2 X14.975 Y31.1188 I1.9868 J-0.229
G1 X14.9816 Y31.1709
G1 X14.9914 Y31.2626
G3 X15.0002 Y31.4455 I-2.1956 J0.1975
G1 Y42.4295
( Inside 2 )
S1000
G0 Z3.0
G0 X40.0002 Y42.4294
G0 Z1.0
G1 F25.0 Z-1.0
G2 F150.0 X39.9968 Y42.4328 I1.4125 J1.416
G1 X39.5005
G1 X39.5004
G1 X39.5005
G2 X36.6736 Y43.6059 I-0.0002 J3.992
G2 X35.5002 Y46.4328 I2.8184 J2.8269
G1 Y46.4329
G1 Y46.4328
G1 Y57.5044
G2 X35.4968 Y57.5078 I1.4125 J1.416
G1 X34.5035
G2 X34.5 Y57.5043 I-1.4159 J1.4125
G1 Y46.4328
G2 Y46.4315 I-2.0 J0.0
G2 X33.3273 Y43.6066 I-3.9951 J0.0026
G2 X30.5003 Y42.4328 I-2.8273 J2.8183
G1 X30.5001
G1 X30.0036
G2 X30.0 Y42.4292 I-1.4159 J1.4125
G1 Y31.4399
G2 Y31.4364 I-2.0 J0.0
G3 X30.014 Y31.2088 I1.8053 J-0.0032
G2 X30.0152 Y31.1993 I-1.9845 J-0.2486
G3 X30.1219 Y30.6281 I4.4505 J0.5362
G2 X30.1227 Y30.6253 I-1.938 J-0.4941
G3 X30.4258 Y29.7265 I5.9583 J1.5096
G3 X30.6186 Y29.3284 I4.479 J1.9224
G3 X30.8077 Y29.03 I2.4207 J1.3248
G1 X32.8993 Y26.2429
G2 X32.9006 Y26.2413 I-1.5996 J-1.2005
G2 X33.2981 Y25.6373 I-4.7768 J-3.5773
G2 X33.3008 Y25.6327 I-1.7341 J-0.9965
G1 X33.353 Y25.5413
G2 X33.3796 Y25.4932 I-1.7368 J-0.9918
G1 X33.4757 Y25.3137
G2 X33.497 Y25.2727 I-1.7634 J-0.9437
G2 X34.1886 Y23.4883 I-8.683 J-4.3919
G2 X34.4015 Y22.5437 I-8.6632 J-2.4483
G2 X34.5 Y21.4544 I-6.4102 J-1.1287
G2 Y21.4423 I-2.0 J-0.0121
G1 Y15.3918
G2 X34.5035 Y15.3883 I-1.4125 J-1.416
G1 X35.4968
G2 X35.5002 Y15.3917 I1.4159 J-1.4125
G1 Y21.4407
G2 X35.5446 Y22.1659 I5.8053 J0.0083
G2 X35.7457 Y23.2408 I8.4212 J-1.0192
G2 X36.2472 Y24.7261 I9.8354 J-2.4934
G2 X36.2489 Y24.7299 I1.8398 J-0.7843
G2 X36.6039 Y25.4631 I8.1562 J-3.4967
G2 X36.6066 Y25.4682 I1.7582 J-0.9533
G2 X37.0873 Y26.2246 I5.9328 J-3.2392
G2 X37.1009 Y26.2429 I1.6132 J-1.1822
G1 X39.1996 Y29.0394
G3 X39.3291 Y29.2359 I-1.5756 J1.1789
G1 X39.366 Y29.3006
G1 X39.4374 Y29.434
G3 X39.836 Y30.4688 I-5.1233 J2.5674
G2 X39.8388 Y30.4789 I1.9271 J-0.5349
G3 X39.9587 Y31.0113 I-4.8132 J1.3633
G2 X39.9617 Y31.0287 I1.9722 J-0.3322
G3 X40.0002 Y31.4469 I-2.4702 J0.4385
G1 Y42.4294
G1 F25.0 Z-2.0
G2 F150.0 X39.9968 Y42.4328 I1.4125 J1.416
G1 X39.5005
G1 X39.5004
G1 X39.5005
G2 X36.6736 Y43.6059 I-0.0002 J3.992
G2 X35.5002 Y46.4328 I2.8184 J2.8269
G1 Y46.4329
G1 Y46.4328
G1 Y57.5044
G2 X35.4968 Y57.5078 I1.4125 J1.416
G1 X34.5035
G2 X34.5 Y57.5043 I-1.4159 J1.4125
G1 Y46.4328
G2 Y46.4315 I-2.0 J0.0
G2 X33.3273 Y43.6066 I-3.9951 J0.0026
G2 X30.5003 Y42.4328 I-2.8273 J2.8183
G1 X30.5001
G1 X30.0036
G2 X30.0 Y42.4292 I-1.4159 J1.4125
G1 Y31.4399
G2 Y31.4364 I-2.0 J0.0
G3 X30.014 Y31.2088 I1.8053 J-0.0032
G2 X30.0152 Y31.1993 I-1.9845 J-0.2486
G3 X30.1219 Y30.6281 I4.4505 J0.5362
G2 X30.1227 Y30.6253 I-1.938 J-0.4941
G3 X30.4258 Y29.7265 I5.9583 J1.5096
G3 X30.6186 Y29.3284 I4.479 J1.9224
G3 X30.8077 Y29.03 I2.4207 J1.3248
G1 X32.8993 Y26.2429
G2 X32.9006 Y26.2413 I-1.5996 J-1.2005
G2 X33.2981 Y25.6373 I-4.7768 J-3.5773
G2 X33.3008 Y25.6327 I-1.7341 J-0.9965
G1 X33.353 Y25.5413
G2 X33.3796 Y25.4932 I-1.7368 J-0.9918
G1 X33.4757 Y25.3137
G2 X33.497 Y25.2727 I-1.7634 J-0.9437
G2 X34.1886 Y23.4883 I-8.683 J-4.3919
G2 X34.4015 Y22.5437 I-8.6632 J-2.4483
G2 X34.5 Y21.4544 I-6.4102 J-1.1287
G2 Y21.4423 I-2.0 J-0.0121
G1 Y15.3918
G2 X34.5035 Y15.3883 I-1.4125 J-1.416
G1 X35.4968
G2 X35.5002 Y15.3917 I1.4159 J-1.4125
G1 Y21.4407
G2 X35.5446 Y22.1659 I5.8053 J0.0083
G2 X35.7457 Y23.2408 I8.4212 J-1.0192
G2 X36.2472 Y24.7261 I9.8354 J-2.4934
G2 X36.2489 Y24.7299 I1.8398 J-0.7843
G2 X36.6039 Y25.4631 I8.1562 J-3.4967
G2 X36.6066 Y25.4682 I1.7582 J-0.9533
G2 X37.0873 Y26.2246 I5.9328 J-3.2392
G2 X37.1009 Y26.2429 I1.6132 J-1.1822
G1 X39.1996 Y29.0394
G3 X39.3291 Y29.2359 I-1.5756 J1.1789
G1 X39.366 Y29.3006
G1 X39.4374 Y29.434
G3 X39.836 Y30.4688 I-5.1233 J2.5674
G2 X39.8388 Y30.4789 I1.9271 J-0.5349
G3 X39.9587 Y31.0113 I-4.8132 J1.3633
G2 X39.9617 Y31.0287 I1.9722 J-0.3322
G3 X40.0002 Y31.4469 I-2.4702 J0.4385
G1 Y42.4294
G1 F25.0 Z-3.0
G2 F150.0 X39.9968 Y42.4328 I1.4125 J1.416
G1 X39.5005
G1 X39.5004
G1 X39.5005
G2 X36.6736 Y43.6059 I-0.0002 J3.992
G2 X35.5002 Y46.4328 I2.8184 J2.8269
G1 Y46.4329
G1 Y46.4328
G1 Y57.5044
G2 X35.4968 Y57.5078 I1.4125 J1.416
G1 X34.5035
G2 X34.5 Y57.5043 I-1.4159 J1.4125
G1 Y46.4328
G2 Y46.4315 I-2.0 J0.0
G2 X33.3273 Y43.6066 I-3.9951 J0.0026
G2 X30.5003 Y42.4328 I-2.8273 J2.8183
G1 X30.5001
G1 X30.0036
G2 X30.0 Y42.4292 I-1.4159 J1.4125
G1 Y31.4399
G2 Y31.4364 I-2.0 J0.0
G3 X30.014 Y31.2088 I1.8053 J-0.0032
G2 X30.0152 Y31.1993 I-1.9845 J-0.2486
G3 X30.1219 Y30.6281 I4.4505 J0.5362
G2 X30.1227 Y30.6253 I-1.938 J-0.4941
G3 X30.4258 Y29.7265 I5.9583 J1.5096
G3 X30.6186 Y29.3284 I4.479 J1.9224
G3 X30.8077 Y29.03 I2.4207 J1.3248
G1 X32.8993 Y26.2429
G2 X32.9006 Y26.2413 I-1.5996 J-1.2005
G2 X33.2981 Y25.6373 I-4.7768 J-3.5773
G2 X33.3008 Y25.6327 I-1.7341 J-0.9965
G1 X33.353 Y25.5413
G2 X33.3796 Y25.4932 I-1.7368 J-0.9918
G1 X33.4757 Y25.3137
G2 X33.497 Y25.2727 I-1.7634 J-0.9437
G2 X34.1886 Y23.4883 I-8.683 J-4.3919
G2 X34.4015 Y22.5437 I-8.6632 J-2.4483
G2 X34.5 Y21.4544 I-6.4102 J-1.1287
G2 Y21.4423 I-2.0 J-0.0121
G1 Y15.3918
G2 X34.5035 Y15.3883 I-1.4125 J-1.416
G1 X35.4968
G2 X35.5002 Y15.3917 I1.4159 J-1.4125
G1 Y21.4407
G2 X35.5446 Y22.1659 I5.8053 J0.0083
G2 X35.7457 Y23.2408 I8.4212 J-1.0192
G2 X36.2472 Y24.7261 I9.8354 J-2.4934
G2 X36.2489 Y24.7299 I1.8398 J-0.7843
G2 X36.6039 Y25.4631 I8.1562 J-3.4967
G2 X36.6066 Y25.4682 I1.7582 J-0.9533
G2 X37.0873 Y26.2246 I5.9328 J-3.2392
G2 X37.1009 Y26.2429 I1.6132 J-1.1822
G1 X39.1996 Y29.0394
G3 X39.3291 Y29.2359 I-1.5756 J1.1789
G1 X39.366 Y29.3006
G1 X39.4374 Y29.434
G3 X39.836 Y30.4688 I-5.1233 J2.5674
G2 X39.8388 Y30.4789 I1.9271 J-0.5349
G3 X39.9587 Y31.0113 I-4.8132 J1.3633
G2 X39.9617 Y31.0287 I1.9722 J-0.3322
G3 X40.0002 Y31.4469 I-2.4702 J0.4385
G1 Y42.4294
G1 F25.0 Z-4.0
G2 F150.0 X39.9968 Y42.4328 I1.4125 J1.416
G1 X39.5005
G1 X39.5004
G1 X39.5005
G2 X36.6736 Y43.6059 I-0.0002 J3.992
G2 X35.5002 Y46.4328 I2.8184 J2.8269
G1 Y46.4329
G1 Y46.4328
G1 Y57.5044
G2 X35.4968 Y57.5078 I1.4125 J1.416
G1 X34.5035
G2 X34.5 Y57.5043 I-1.4159 J1.4125
G1 Y46.4328
G2 Y46.4315 I-2.0 J0.0
G2 X33.3273 Y43.6066 I-3.9951 J0.0026
G2 X30.5003 Y42.4328 I-2.8273 J2.8183
G1 X30.5001
G1 X30.0036
G2 X30.0 Y42.4292 I-1.4159 J1.4125
G1 Y31.4399
G2 Y31.4364 I-2.0 J0.0
G3 X30.014 Y31.2088 I1.8053 J-0.0032
G2 X30.0152 Y31.1993 I-1.9845 J-0.2486
G3 X30.1219 Y30.6281 I4.4505 J0.5362
G2 X30.1227 Y30.6253 I-1.938 J-0.4941
G3 X30.4258 Y29.7265 I5.9583 J1.5096
G3 X30.6186 Y29.3284 I4.479 J1.9224
G3 X30.8077 Y29.03 I2.4207 J1.3248
G1 X32.8993 Y26.2429
G2 X32.9006 Y26.2413 I-1.5996 J-1.2005
G2 X33.2981 Y25.6373 I-4.7768 J-3.5773
G2 X33.3008 Y25.6327 I-1.7341 J-0.9965
G1 X33.353 Y25.5413
G2 X33.3796 Y25.4932 I-1.7368 J-0.9918
G1 X33.4757 Y25.3137
G2 X33.497 Y25.2727 I-1.7634 J-0.9437
G2 X34.1886 Y23.4883 I-8.683 J-4.3919
G2 X34.4015 Y22.5437 I-8.6632 J-2.4483
G2 X34.5 Y21.4544 I-6.4102 J-1.1287
G2 Y21.4423 I-2.0 J-0.0121
G1 Y15.3918
G2 X34.5035 Y15.3883 I-1.4125 J-1.416
G1 X35.4968
G2 X35.5002 Y15.3917 I1.4159 J-1.4125
G1 Y21.4407
G2 X35.5446 Y22.1659 I5.8053 J0.0083
G2 X35.7457 Y23.2408 I8.4212 J-1.0192
G2 X36.2472 Y24.7261 I9.8354 J-2.4934
G2 X36.2489 Y24.7299 I1.8398 J-0.7843
G2 X36.6039 Y25.4631 I8.1562 J-3.4967
G2 X36.6066 Y25.4682 I1.7582 J-0.9533
G2 X37.0873 Y26.2246 I5.9328 J-3.2392
G2 X37.1009 Y26.2429 I1.6132 J-1.1822
G1 X39.1996 Y29.0394
G3 X39.3291 Y29.2359 I-1.5756 J1.1789
G1 X39.366 Y29.3006
G1 X39.4374 Y29.434
G3 X39.836 Y30.4688 I-5.1233 J2.5674
G2 X39.8388 Y30.4789 I1.9271 J-0.5349
G3 X39.9587 Y31.0113 I-4.8132 J1.3633
G2 X39.9617 Y31.0287 I1.9722 J-0.3322
G3 X40.0002 Y31.4469 I-2.4702 J0.4385
G1 Y42.4294
G1 F25.0 Z-5.0
G2 F150.0 X39.9968 Y42.4328 I1.4125 J1.416
G1 X39.5005
G1 X39.5004
G1 X39.5005
G2 X36.6736 Y43.6059 I-0.0002 J3.992
G2 X35.5002 Y46.4328 I2.8184 J2.8269
G1 Y46.4329
G1 Y46.4328
G1 Y57.5044
G2 X35.4968 Y57.5078 I1.4125 J1.416
G1 X34.5035
G2 X34.5 Y57.5043 I-1.4159 J1.4125
G1 Y46.4328
G2 Y46.4315 I-2.0 J0.0
G2 X33.3273 Y43.6066 I-3.9951 J0.0026
G2 X30.5003 Y42.4328 I-2.8273 J2.8183
G1 X30.5001
G1 X30.0036
G2 X30.0 Y42.4292 I-1.4159 J1.4125
G1 Y31.4399
G2 Y31.4364 I-2.0 J0.0
G3 X30.014 Y31.2088 I1.8053 J-0.0032
G2 X30.0152 Y31.1993 I-1.9845 J-0.2486
G3 X30.1219 Y30.6281 I4.4505 J0.5362
G2 X30.1227 Y30.6253 I-1.938 J-0.4941
G3 X30.4258 Y29.7265 I5.9583 J1.5096
G3 X30.6186 Y29.3284 I4.479 J1.9224
G3 X30.8077 Y29.03 I2.4207 J1.3248
G1 X32.8993 Y26.2429
G2 X32.9006 Y26.2413 I-1.5996 J-1.2005
G2 X33.2981 Y25.6373 I-4.7768 J-3.5773
G2 X33.3008 Y25.6327 I-1.7341 J-0.9965
G1 X33.353 Y25.5413
G2 X33.3796 Y25.4932 I-1.7368 J-0.9918
G1 X33.4757 Y25.3137
G2 X33.497 Y25.2727 I-1.7634 J-0.9437
G2 X34.1886 Y23.4883 I-8.683 J-4.3919
G2 X34.4015 Y22.5437 I-8.6632 J-2.4483
G2 X34.5 Y21.4544 I-6.4102 J-1.1287
G2 Y21.4423 I-2.0 J-0.0121
G1 Y15.3918
G2 X34.5035 Y15.3883 I-1.4125 J-1.416
G1 X35.4968
G2 X35.5002 Y15.3917 I1.4159 J-1.4125
G1 Y21.4407
G2 X35.5446 Y22.1659 I5.8053 J0.0083
G2 X35.7457 Y23.2408 I8.4212 J-1.0192
G2 X36.2472 Y24.7261 I9.8354 J-2.4934
G2 X36.2489 Y24.7299 I1.8398 J-0.7843
G2 X36.6039 Y25.4631 I8.1562 J-3.4967
G2 X36.6066 Y25.4682 I1.7582 J-0.9533
G2 X37.0873 Y26.2246 I5.9328 J-3.2392
G2 X37.1009 Y26.2429 I1.6132 J-1.1822
G1 X39.1996 Y29.0394
G3 X39.3291 Y29.2359 I-1.5756 J1.1789
G1 X39.366 Y29.3006
G1 X39.4374 Y29.434
G3 X39.836 Y30.4688 I-5.1233 J2.5674
G2 X39.8388 Y30.4789 I1.9271 J-0.5349
G3 X39.9587 Y31.0113 I-4.8132 J1.3633
G2 X39.9617 Y31.0287 I1.9722 J-0.3322
G3 X40.0002 Y31.4469 I-2.4702 J0.4385
G1 Y42.4294
( Shallow 1 )
S1000
G0 Z3.0
G0 X17.0002 Y49.8858
G0 Z1.0
G1 F25.0 Z-1.0
G1 F150.0 X17.0003
G1 X17.0004
G1 X20.0
G2 X22.0 Y47.8858 I0.0 J-2.0
G1 Y20.6788
G2 X20.0 Y18.6788 I-2.0 J0.0
G1 X17.0207
G2 X16.9716 Y18.6794 I0.0 J2.0
G3 X16.1001 Y17.7806 I0.0279 J-0.899
G3 X17.0004 Y16.8807 I0.9004 J0.0005
G2 X17.0645 Y16.8797 I-0.0002 J-2.0
G1 X20.0
G2 X22.0 Y14.8797 I0.0 J-2.0
G1 Y8.7692
G2 X21.678 Y6.9058 I-5.4729 J-0.0138
G2 X20.6611 Y5.2056 I-4.7907 J1.711
G2 X20.6609 Y5.2053 I-1.4837 J1.3411
G2 X19.5262 Y4.2999 I-3.3345 J3.0152
G2 X17.5084 Y3.7664 I-2.0351 J3.6147
G2 X17.5071 I-0.0084 J2.0
G3 X17.3945 Y3.7354 I0.0008 J-0.2233
G3 X17.1873 Y3.5339 I0.3426 J-0.5594
G2 X17.1806 Y3.5237 I-1.6762 J1.091
G3 X17.0643 Y3.284 I0.8495 J-0.5604
G2 X17.0624 Y3.2784 I-1.8981 J0.6303
G3 X16.9999 Y2.8908 I1.1413 J-0.3828
G2 Y2.8814 I-2.0 J-0.0079
G2 X16.589 Y0.947 I-4.7743 J0.0035
G2 X16.5879 Y0.9447 I-1.8278 J0.8118
G2 X15.4591 Y-0.6383 I-4.4639 J1.9893
G2 X11.9977 Y-2.0 I-3.4514 J3.6929
G1 X8.0018
G2 X5.2956 Y-1.2211 I-0.0079 J5.0631
G2 X3.4147 Y0.9387 I2.6267 J4.1864
G2 X3.4127 Y0.9432 I1.8241 J0.8201
G2 X3.0 Y2.8856 I4.3343 J1.9359
G2 X3.0001 Y2.8908 I2.0 J-0.0027
G3 X2.9204 Y3.3263 I-1.2043 J0.0048
G2 X2.9182 Y3.3321 I1.8677 J0.7154
G3 X2.7194 Y3.6472 I-0.8759 J-0.3324
G3 X2.5912 Y3.7428 I-0.3703 J-0.3625
G2 X2.5896 Y3.7437 I0.9346 J1.7682
G3 X2.4983 Y3.7664 I-0.0914 J-0.1725
G2 X2.4903 I0.0018 J2.0
G2 X0.2566 Y4.43 I0.0204 J4.1602
G2 X0.2529 Y4.4323 I1.0836 J1.681
G2 X-1.2091 Y5.9328 I2.5685 J3.9652
G2 X-1.7464 Y7.1082 I4.5201 J2.7767
G2 X-1.7481 Y7.1137 I1.9067 J0.6037
G2 X-2.0 Y8.7682 I5.2496 J1.6456
G1 Y14.8807
G2 X0.0 Y16.8807 I2.0 J0.0
G1 X3.0
G3 X3.9001 Y17.7806 I-0.0003 J0.9004
G3 X3.0005 Y18.6799 I-0.8994 J-0.0001
G1 X3.0002
G1 X0.0
G2 X-2.0 Y20.6799 I0.0 J2.0
G1 Y47.8858
G2 X0.0 Y49.8858 I2.0 J0.0
G1 X3.0
G3 X3.9001 Y50.7854 I-0.0003 J0.9004
G3 X3.0002 Y51.6848 I-0.8998 J-0.0005
G1 X3.0
G1 X-0.0001 Y51.6849
G2 X-2.0 Y53.6849 I0.0001 J2.0
G1 Y58.3656
G2 X-1.6788 Y60.2244 I5.5193 J0.0036
G2 X-0.6608 Y61.9274 I4.787 J-1.7059
G2 X0.4739 Y62.8328 I3.3325 J-3.0129
G2 X2.4921 Y63.3663 I2.0347 J-3.6134
G2 X2.4976 I0.008 J-2.0
G3 X2.5441 Y63.3762 I-0.0001 J0.1154
G3 X2.6836 Y63.4775 I-0.2077 J0.4326
G2 X2.6965 Y63.4909 I1.4471 J-1.3806
G3 X2.7976 Y63.6212 I-0.5328 J0.5179
G2 X2.8001 Y63.6252 I1.7063 J-1.0433
G3 X2.9321 Y63.9127 I-1.1186 J0.6876
G3 X3.0 Y64.3632 I-1.4447 J0.4482
G2 Y64.3663 I2.0 J0.003
G1 Y67.8276
G1 Y67.8277
G2 X4.4675 Y71.361 I4.9881 J-0.0003
G2 X7.9986 Y72.8275 I3.5347 J-3.5264
G2 X8.0 I0.0015 J-2.0
G1 X12.0
G1 X12.0001
G2 X15.5334 Y71.3601 I-0.0003 J-4.9881
G2 X16.9999 Y67.829 I-3.5264 J-3.5347
G2 Y67.8276 I-2.0 J-0.0015
G1 Y64.3663
G2 Y64.3646 I-2.0 J0.0
G3 X17.0884 Y63.8525 I1.5193 J-0.0012
G2 X17.0889 Y63.851 I-1.8835 J-0.6726
G3 X17.3058 Y63.4883 I1.0192 J0.363
G2 X17.3063 Y63.4877 I-1.4832 J-1.3417
G3 X17.431 Y63.3883 I0.3654 J0.3303
G2 X17.4364 Y63.3852 I-0.9772 J-1.745
G3 X17.5072 Y63.3663 I0.0722 J0.1279
G2 X19.2347 Y62.9816 I-0.0098 J-4.1154
G2 X19.2405 Y62.9789 I-0.8443 J-1.813
G2 X20.5712 Y62.023 I-1.9041 J-4.055
G2 X21.209 Y61.2001 I-3.4076 J-3.2992
G2 X21.7462 Y60.0249 I-4.5275 J-2.7803
G2 X21.7484 Y60.018 I-1.9065 J-0.6042
G2 X22.0 Y58.3649 I-5.2611 J-1.6464
G1 Y53.6848
G2 X20.0 Y51.6848 I-2.0 J0.0
G1 X17.0002
G1 X16.9999
G3 X16.1001 Y50.7855 I-0.0001 J-0.8998
G3 X17.0003 Y49.8858 I0.9004 J0.0007
G1 X17.0004
G1 X17.0002
G1 F25.0 Z-2.0
G1 F150.0 X17.0003
G1 X17.0004
G1 X20.0
G2 X22.0 Y47.8858 I0.0 J-2.0
G1 Y20.6788
G2 X20.0 Y18.6788 I-2.0 J0.0
G1 X17.0207
G2 X16.9716 Y18.6794 I0.0 J2.0
G3 X16.1001 Y17.7806 I0.0279 J-0.899
G3 X17.0004 Y16.8807 I0.9004 J0.0005
G2 X17.0645 Y16.8797 I-0.0002 J-2.0
G1 X20.0
G2 X22.0 Y14.8797 I0.0 J-2.0
G1 Y8.7692
G2 X21.678 Y6.9058 I-5.4729 J-0.0138
G2 X20.6611 Y5.2056 I-4.7907 J1.711
G2 X20.6609 Y5.2053 I-1.4837 J1.3411
G2 X19.5262 Y4.2999 I-3.3345 J3.0152
G2 X17.5084 Y3.7664 I-2.0351 J3.6147
G2 X17.5071 I-0.0084 J2.0
G3 X17.3945 Y3.7354 I0.0008 J-0.2233
G3 X17.1873 Y3.5339 I0.3426 J-0.5594
G2 X17.1806 Y3.5237 I-1.6762 J1.091
G3 X17.0643 Y3.284 I0.8495 J-0.5604
G2 X17.0624 Y3.2784 I-1.8981 J0.6303
G3 X16.9999 Y2.8908 I1.1413 J-0.3828
G2 Y2.8814 I-2.0 J-0.0079
G2 X16.589 Y0.947 I-4.7743 J0.0035
G2 X16.5879 Y0.9447 I-1.8278 J0.8118
G2 X15.4591 Y-0.6383 I-4.4639 J1.9893
G2 X11.9977 Y-2.0 I-3.4514 J3.6929
G1 X8.0018
G2 X5.2956 Y-1.2211 I-0.0079 J5.0631
G2 X3.4147 Y0.9387 I2.6267 J4.1864
G2 X3.4127 Y0.9432 I1.8241 J0.8201
G2 X3.0 Y2.8856 I4.3343 J1.9359
G2 X3.0001 Y2.8908 I2.0 J-0.0027
G3 X2.9204 Y3.3263 I-1.2043 J0.0048
G2 X2.9182 Y3.3321 I1.8677 J0.7154
G3 X2.7194 Y3.6472 I-0.8759 J-0.3324
G3 X2.5912 Y3.7428 I-0.3703 J-0.3625
G2 X2.5896 Y3.7437 I0.9346 J1.7682
G3 X2.4983 Y3.7664 I-0.0914 J-0.1725
G2 X2.4903 I0.0018 J2.0
G2 X0.2566 Y4.43 I0.0204 J4.1602
G2 X0.2529 Y4.4323 I1.0836 J1.681
G2 X-1.2091 Y5.9328 I2.5685 J3.9652
G2 X-1.7464 Y7.1082 I4.5201 J2.7767
G2 X-1.7481 Y7.1137 I1.9067 J0.6037
G2 X-2.0 Y8.7682 I5.2496 J1.6456
G1 Y14.8807
G2 X0.0 Y16.8807 I2.0 J0.0
G1 X3.0
G3 X3.9001 Y17.7806 I-0.0003 J0.9004
G3 X3.0005 Y18.6799 I-0.8994 J-0.0001
G1 X3.0002
G1 X0.0
G2 X-2.0 Y20.6799 I0.0 J2.0
G1 Y47.8858
G2 X0.0 Y49.8858 I2.0 J0.0
G1 X3.0
G3 X3.9001 Y50.7854 I-0.0003 J0.9004
G3 X3.0002 Y51.6848 I-0.8998 J-0.0005
G1 X3.0
G1 X-0.0001 Y51.6849
G2 X-2.0 Y53.6849 I0.0001 J2.0
G1 Y58.3656
G2 X-1.6788 Y60.2244 I5.5193 J0.0036
G2 X-0.6608 Y61.9274 I4.787 J-1.7059
G2 X0.4739 Y62.8328 I3.3325 J-3.0129
G2 X2.4921 Y63.3663 I2.0347 J-3.6134
G2 X2.4976 I0.008 J-2.0
G3 X2.5441 Y63.3762 I-0.0001 J0.1154
G3 X2.6836 Y63.4775 I-0.2077 J0.4326
G2 X2.6965 Y63.4909 I1.4471 J-1.3806
G3 X2.7976 Y63.6212 I-0.5328 J0.5179
G2 X2.8001 Y63.6252 I1.7063 J-1.0433
G3 X2.9321 Y63.9127 I-1.1186 J0.6876
G3 X3.0 Y64.3632 I-1.4447 J0.4482
G2 Y64.3663 I2.0 J0.003
G1 Y67.8276
G1 Y67.8277
G2 X4.4675 Y71.361 I4.9881 J-0.0003
G2 X7.9986 Y72.8275 I3.5347 J-3.5264
G2 X8.0 I0.0015 J-2.0
G1 X12.0
G1 X12.0001
G2 X15.5334 Y71.3601 I-0.0003 J-4.9881
G2 X16.9999 Y67.829 I-3.5264 J-3.5347
G2 Y67.8276 I-2.0 J-0.0015
G1 Y64.3663
G2 Y64.3646 I-2.0 J0.0
G3 X17.0884 Y63.8525 I1.5193 J-0.0012
G2 X17.0889 Y63.851 I-1.8835 J-0.6726
G3 X17.3058 Y63.4883 I1.0192 J0.363
G2 X17.3063 Y63.4877 I-1.4832 J-1.3417
G3 X17.431 Y63.3883 I0.3654 J0.3303
G2 X17.4364 Y63.3852 I-0.9772 J-1.745
G3 X17.5072 Y63.3663 I0.0722 J0.1279
G2 X19.2347 Y62.9816 I-0.0098 J-4.1154
G2 X19.2405 Y62.9789 I-0.8443 J-1.813
G2 X20.5712 Y62.023 I-1.9041 J-4.055
G2 X21.209 Y61.2001 I-3.4076 J-3.2992
G2 X21.7462 Y60.0249 I-4.5275 J-2.7803
G2 X21.7484 Y60.018 I-1.9065 J-0.6042
G2 X22.0 Y58.3649 I-5.2611 J-1.6464
G1 Y53.6848
G2 X20.0 Y51.6848 I-2.0 J0.0
G1 X17.0002
G1 X16.9999
G3 X16.1001 Y50.7855 I-0.0001 J-0.8998
G3 X17.0003 Y49.8858 I0.9004 J0.0007
G1 X17.0004
G1 X17.0002
( Shallow 2 )
S1000
G0 Z3.0
G0 X42.0002 Y49.8856
G0 Z1.0
G1 F25.0 Z-1.0
G1 F150.0 X42.0003
G1 X42.0004
G1 X45.0002
G2 X47.0002 Y47.8856 I0.0 J-2.0
G1 Y20.6788
G2 X45.0002 Y18.6788 I-2.0 J0.0
G1 X42.0209
G2 X41.9786 Y18.6793 I0.0 J2.0
G3 X41.1001 Y17.7805 I0.0209 J-0.8991
G3 X42.0004 Y16.8807 I0.9004 J0.0007
G2 X42.0744 Y16.8794 I-0.0002 J-2.0
G1 X45.0002
G2 X47.0002 Y14.8794 I0.0 J-2.0
G1 Y8.7668
G2 X46.6791 Y6.9084 I-5.5272 J-0.0019
G2 X45.6609 Y5.2052 I-4.7898 J1.7074
G2 X44.5276 Y4.3007 I-3.3343 J3.0153
G2 X42.5061 Y3.7664 I-2.0328 J3.6001
G3 X42.395 Y3.7357 I0.0009 J-0.2195
G3 X42.1875 Y3.534 I0.3413 J-0.5588
G2 X42.1807 Y3.5237 I-1.6763 J1.0909
G3 X42.0643 Y3.2838 I0.8512 J-0.5614
G2 X42.0625 Y3.2784 I-1.898 J0.6305
G3 X42.0 Y2.8906 I1.1424 J-0.3831
G2 Y2.8812 I-2.0 J-0.0078
G2 X41.5891 Y0.9472 I-4.7755 J0.0039
G2 X41.588 Y0.9447 I-1.8279 J0.8116
G2 X40.4595 Y-0.638 I-4.4641 J1.9894
G2 X36.9974 Y-2.0 I-3.4506 J3.6899
G1 X33.0017
G2 X30.2961 Y-1.2213 I-0.0064 J5.0674
G2 X28.4149 Y0.9387 I2.6264 J4.1865
G2 X28.4129 Y0.9431 I1.8241 J0.8201
G2 X28.0002 Y2.8857 I4.3336 J1.9358
G1 Y2.8856
G1 Y2.8857
G3 X27.9187 Y3.3311 I-1.2487 J0.0017
G2 X27.9183 Y3.3323 I1.8695 J0.7107
G3 X27.7196 Y3.647 I-0.8738 J-0.3315
G3 X27.5913 Y3.7428 I-0.3705 J-0.3625
G2 X27.59 Y3.7435 I0.9345 J1.7682
G3 X27.498 Y3.7664 I-0.0922 J-0.1742
G1 X27.4978
G2 X25.7653 Y4.1511 I0.0047 J4.1146
G2 X25.7597 Y4.1538 I0.8444 J1.813
G2 X24.429 Y5.1095 I1.9045 J4.0558
G2 X23.7913 Y5.9323 I3.4071 J3.2993
G2 X23.2537 Y7.108 I4.5226 J2.7786
G2 X23.2519 Y7.1137 I1.9066 J0.604
G2 X23.0 Y8.7681 I5.2508 J1.6458
G1 Y14.8807
G2 X25.0 Y16.8807 I2.0 J0.0
G1 X28.0
G1 X28.0001
G3 X28.9001 Y17.7804 I0.0 J0.9
G3 X28.0006 Y18.6795 I-0.8993 J-0.0001
G2 X28.0 I-0.0006 J2.0
G1 X25.0
G2 X23.0 Y20.6795 I0.0 J2.0
G1 Y47.8856
G2 X25.0 Y49.8856 I2.0 J0.0
G1 X28.0
G1 X28.0001
G3 X28.9001 Y50.7853 I0.0 J0.9
G3 X28.0005 Y51.6846 I-0.8994 J-0.0001
G2 X27.9999 I-0.0005 J2.0
G1 X24.9999 Y51.6848
G2 X23.0 Y53.6848 I0.0001 J2.0
G1 Y58.3653
G2 X23.3213 Y60.2244 I5.5174 J0.0039
G2 X24.3395 Y61.9274 I4.7866 J-1.7059
G2 X25.4726 Y62.8318 I3.3344 J-3.0157
G2 X27.495 Y63.3661 I2.033 J-3.6007
G2 X27.498 I0.0051 J-2.0
G3 X27.544 Y63.3759 I-0.0001 J0.1137
G3 X27.6838 Y63.4774 I-0.2076 J0.4329
G2 X27.6965 Y63.4906 I1.447 J-1.3806
G3 X27.7979 Y63.6213 I-0.5349 J0.5199
G2 X27.8001 Y63.6249 I1.7062 J-1.0436
G3 X27.9323 Y63.9127 I-1.1221 J0.6896
G3 X28.0002 Y64.3632 I-1.4461 J0.4484
G2 Y64.3661 I2.0 J0.0029
G1 Y67.8274
G1 Y67.8276
G2 X29.4673 Y71.3605 I4.9887 J-0.0006
G2 X32.9995 Y72.8274 I3.534 J-3.5236
G2 X33.0002 I0.0007 J-2.0
G1 X37.0
G2 X37.0007 I0.0 J-2.0
G2 X40.5332 Y71.3601 I-0.0018 J-4.9904
G2 X42.0 Y67.8286 I-3.5256 J-3.5346
G2 Y67.8274 I-2.0 J-0.0013
G1 Y64.3661
G2 Y64.3643 I-2.0 J0.0
G3 X42.0884 Y63.8525 I1.5174 J-0.0013
G2 X42.089 Y63.8509 I-1.8834 J-0.6728
G3 X42.3058 Y63.4882 I1.0188 J0.3629
G2 X42.3061 Y63.4879 I-1.4831 J-1.3418
G3 X42.4315 Y63.3879 I0.3678 J0.3326
G2 X42.4391 Y63.3836 I-0.9776 J-1.7448
G3 X42.5048 Y63.3661 I0.0665 J0.1175
G2 X44.2351 Y62.9813 I-0.007 J-4.1137
G2 X44.2405 Y62.9787 I-0.8446 J-1.8129
G2 X45.5713 Y62.0228 I-1.9041 J-4.0553
G2 X46.2091 Y61.1999 I-3.4098 J-3.3011
G2 X46.7463 Y60.0251 I-4.5311 J-2.7822
G2 X46.7486 Y60.0178 I-1.9064 J-0.6046
G2 X47.0002 Y58.3648 I-5.2625 J-1.6466
G1 Y53.6846
G2 X45.0002 Y51.6846 I-2.0 J0.0
G1 X42.0002
G1 X42.0
G3 X41.1001 Y50.7853 I-0.0001 J-0.8998
G3 X42.0003 Y49.8856 I0.9004 J0.0007
G1 X42.0004
G1 X42.0002
G1 F25.0 Z-2.0
G1 F150.0 X42.0003
G1 X42.0004
G1 X45.0002
G2 X47.0002 Y47.8856 I0.0 J-2.0
G1 Y20.6788
G2 X45.0002 Y18.6788 I-2.0 J0.0
G1 X42.0209
G2 X41.9786 Y18.6793 I0.0 J2.0
G3 X41.1001 Y17.7805 I0.0209 J-0.8991
G3 X42.0004 Y16.8807 I0.9004 J0.0007
G2 X42.0744 Y16.8794 I-0.0002 J-2.0
G1 X45.0002
G2 X47.0002 Y14.8794 I0.0 J-2.0
G1 Y8.7668
G2 X46.6791 Y6.9084 I-5.5272 J-0.0019
G2 X45.6609 Y5.2052 I-4.7898 J1.7074
G2 X44.5276 Y4.3007 I-3.3343 J3.0153
G2 X42.5061 Y3.7664 I-2.0328 J3.6001
G3 X42.395 Y3.7357 I0.0009 J-0.2195
G3 X42.1875 Y3.534 I0.3413 J-0.5588
G2 X42.1807 Y3.5237 I-1.6763 J1.0909
G3 X42.0643 Y3.2838 I0.8512 J-0.5614
G2 X42.0625 Y3.2784 I-1.898 J0.6305
G3 X42.0 Y2.8906 I1.1424 J-0.3831
G2 Y2.8812 I-2.0 J-0.0078
G2 X41.5891 Y0.9472 I-4.7755 J0.0039
G2 X41.588 Y0.9447 I-1.8279 J0.8116
G2 X40.4595 Y-0.638 I-4.4641 J1.9894
G2 X36.9974 Y-2.0 I-3.4506 J3.6899
G1 X33.0017
G2 X30.2961 Y-1.2213 I-0.0064 J5.0674
G2 X28.4149 Y0.9387 I2.6264 J4.1865
G2 X28.4129 Y0.9431 I1.8241 J0.8201
G2 X28.0002 Y2.8857 I4.3336 J1.9358
G1 Y2.8856
G1 Y2.8857
G3 X27.9187 Y3.3311 I-1.2487 J0.0017
G2 X27.9183 Y3.3323 I1.8695 J0.7107
G3 X27.7196 Y3.647 I-0.8738 J-0.3315
G3 X27.5913 Y3.7428 I-0.3705 J-0.3625
G2 X27.59 Y3.7435 I0.9345 J1.7682
G3 X27.498 Y3.7664 I-0.0922 J-0.1742
G1 X27.4978
G2 X25.7653 Y4.1511 I0.0047 J4.1146
G2 X25.7597 Y4.1538 I0.8444 J1.813
G2 X24.429 Y5.1095 I1.9045 J4.0558
G2 X23.7913 Y5.9323 I3.4071 J3.2993
G2 X23.2537 Y7.108 I4.5226 J2.7786
G2 X23.2519 Y7.1137 I1.9066 J0.604
G2 X23.0 Y8.7681 I5.2508 J1.6458
G1 Y14.8807
G2 X25.0 Y16.8807 I2.0 J0.0
G1 X28.0
G1 X28.0001
G3 X28.9001 Y17.7804 I0.0 J0.9
G3 X28.0006 Y18.6795 I-0.8993 J-0.0001
G2 X28.0 I-0.0006 J2.0
G1 X25.0
G2 X23.0 Y20.6795 I0.0 J2.0
G1 Y47.8856
G2 X25.0 Y49.8856 I2.0 J0.0
G1 X28.0
G1 X28.0001
G3 X28.9001 Y50.7853 I0.0 J0.9
G3 X28.0005 Y51.6846 I-0.8994 J-0.0001
G2 X27.9999 I-0.0005 J2.0
G1 X24.9999 Y51.6848
G2 X23.0 Y53.6848 I0.0001 J2.0
G1 Y58.3653
G2 X23.3213 Y60.2244 I5.5174 J0.0039
G2 X24.3395 Y61.9274 I4.7866 J-1.7059
G2 X25.4726 Y62.8318 I3.3344 J-3.0157
G2 X27.495 Y63.3661 I2.033 J-3.6007
G2 X27.498 I0.0051 J-2.0
G3 X27.544 Y63.3759 I-0.0001 J0.1137
G3 X27.6838 Y63.4774 I-0.2076 J0.4329
G2 X27.6965 Y63.4906 I1.447 J-1.3806
G3 X27.7979 Y63.6213 I-0.5349 J0.5199
G2 X27.8001 Y63.6249 I1.7062 J-1.0436
G3 X27.9323 Y63.9127 I-1.1221 J0.6896
G3 X28.0002 Y64.3632 I-1.4461 J0.4484
G2 Y64.3661 I2.0 J0.0029
G1 Y67.8274
G1 Y67.8276
G2 X29.4673 Y71.3605 I4.9887 J-0.0006
G2 X32.9995 Y72.8274 I3.534 J-3.5236
G2 X33.0002 I0.0007 J-2.0
G1 X37.0
G2 X37.0007 I0.0 J-2.0
G2 X40.5332 Y71.3601 I-0.0018 J-4.9904
G2 X42.0 Y67.8286 I-3.5256 J-3.5346
G2 Y67.8274 I-2.0 J-0.0013
G1 Y64.3661
G2 Y64.3643 I-2.0 J0.0
G3 X42.0884 Y63.8525 I1.5174 J-0.0013
G2 X42.089 Y63.8509 I-1.8834 J-0.6728
G3 X42.3058 Y63.4882 I1.0188 J0.3629
G2 X42.3061 Y63.4879 I-1.4831 J-1.3418
G3 X42.4315 Y63.3879 I0.3678 J0.3326
G2 X42.4391 Y63.3836 I-0.9776 J-1.7448
G3 X42.5048 Y63.3661 I0.0665 J0.1175
G2 X44.2351 Y62.9813 I-0.007 J-4.1137
G2 X44.2405 Y62.9787 I-0.8446 J-1.8129
G2 X45.5713 Y62.0228 I-1.9041 J-4.0553
G2 X46.2091 Y61.1999 I-3.4098 J-3.3011
G2 X46.7463 Y60.0251 I-4.5311 J-2.7822
G2 X46.7486 Y60.0178 I-1.9064 J-0.6046
G2 X47.0002 Y58.3648 I-5.2625 J-1.6466
G1 Y53.6846
G2 X45.0002 Y51.6846 I-2.0 J0.0
G1 X42.0002
G1 X42.0
G3 X41.1001 Y50.7853 I-0.0001 J-0.8998
G3 X42.0003 Y49.8856 I0.9004 J0.0007
G1 X42.0004
G1 X42.0002
( Cutout 1 )
S1000
G0 Z3.0
G0 X22.0 Y58.3649
G1 F25.0 Z-1.0
G1 F150.0 Y8.7692
G2 X21.678 Y6.9058 I-5.4729 J-0.0138
G2 X20.6611 Y5.2056 I-4.7907 J1.711
G2 X20.6609 Y5.2053 I-1.4837 J1.3411
G2 X19.5262 Y4.2999 I-3.3345 J3.0152
G2 X17.5084 Y3.7664 I-2.0351 J3.6147
G2 X17.5071 I-0.0084 J2.0
G3 X17.3945 Y3.7354 I0.0008 J-0.2233
G3 X17.1873 Y3.5339 I0.3426 J-0.5594
G2 X17.1806 Y3.5237 I-1.6762 J1.091
G3 X17.0643 Y3.284 I0.8495 J-0.5604
G2 X17.0624 Y3.2784 I-1.8981 J0.6303
G3 X16.9999 Y2.8908 I1.1413 J-0.3828
G2 Y2.8814 I-2.0 J-0.0079
G2 X16.589 Y0.947 I-4.7743 J0.0035
G2 X16.5879 Y0.9447 I-1.8278 J0.8118
G2 X15.4591 Y-0.6383 I-4.4639 J1.9893
G2 X11.9977 Y-2.0 I-3.4514 J3.6929
G1 X8.0018
G2 X5.2956 Y-1.2211 I-0.0079 J5.0631
G2 X3.4147 Y0.9387 I2.6267 J4.1864
G2 X3.4127 Y0.9432 I1.8241 J0.8201
G2 X3.0 Y2.8856 I4.3343 J1.9359
G2 X3.0001 Y2.8908 I2.0 J-0.0027
G3 X2.9204 Y3.3263 I-1.2043 J0.0048
G2 X2.9182 Y3.3321 I1.8677 J0.7154
G3 X2.7194 Y3.6472 I-0.8759 J-0.3324
G3 X2.5912 Y3.7428 I-0.3703 J-0.3625
G2 X2.5896 Y3.7437 I0.9346 J1.7682
G3 X2.4983 Y3.7664 I-0.0914 J-0.1725
G2 X2.4903 I0.0018 J2.0
G2 X0.2566 Y4.43 I0.0204 J4.1602
G2 X0.2529 Y4.4323 I1.0836 J1.681
G2 X-1.2091 Y5.9328 I2.5685 J3.9652
G2 X-1.7464 Y7.1082 I4.5201 J2.7767
G2 X-1.7481 Y7.1137 I1.9067 J0.6037
G2 X-2.0 Y8.7682 I5.2496 J1.6456
G1 Y58.3656
G2 X-1.6788 Y60.2244 I5.5193 J0.0036
G2 X-0.6608 Y61.9274 I4.787 J-1.7059
G2 X0.4739 Y62.8328 I3.3325 J-3.0129
G2 X2.4921 Y63.3663 I2.0347 J-3.6134
G2 X2.4976 I0.008 J-2.0
G3 X2.5441 Y63.3762 I-0.0001 J0.1154
G3 X2.6836 Y63.4775 I-0.2077 J0.4326
G2 X2.6965 Y63.4909 I1.4471 J-1.3806
G3 X2.7976 Y63.6212 I-0.5328 J0.5179
G2 X2.8001 Y63.6252 I1.7063 J-1.0433
G3 X2.9321 Y63.9127 I-1.1186 J0.6876
G3 X3.0 Y64.3632 I-1.4447 J0.4482
G2 Y64.3663 I2.0 J0.003
G1 Y67.8276
G1 Y67.8277
G2 X4.4675 Y71.361 I4.9881 J-0.0003
G2 X7.9986 Y72.8275 I3.5347 J-3.5264
G2 X8.0 I0.0015 J-2.0
G1 X12.0
G1 X12.0001
G2 X15.5334 Y71.3601 I-0.0003 J-4.9881
G2 X16.9999 Y67.829 I-3.5264 J-3.5347
G2 Y67.8276 I-2.0 J-0.0015
G1 Y64.3663
G2 Y64.3646 I-2.0 J0.0
G3 X17.0884 Y63.8525 I1.5193 J-0.0012
G2 X17.0889 Y63.851 I-1.8835 J-0.6726
G3 X17.3058 Y63.4883 I1.0192 J0.363
G2 X17.3063 Y63.4877 I-1.4832 J-1.3417
G3 X17.431 Y63.3883 I0.3654 J0.3303
G2 X17.4364 Y63.3852 I-0.9772 J-1.745
G3 X17.5072 Y63.3663 I0.0722 J0.1279
G2 X19.2347 Y62.9816 I-0.0098 J-4.1154
G2 X19.2405 Y62.9789 I-0.8443 J-1.813
G2 X20.5712 Y62.023 I-1.9041 J-4.055
G2 X21.209 Y61.2001 I-3.4076 J-3.2992
G2 X21.7462 Y60.0249 I-4.5275 J-2.7803
G2 X21.7484 Y60.018 I-1.9065 J-0.6042
G2 X22.0 Y58.3649 I-5.2611 J-1.6464
G1 F25.0 Z-2.0
G1 F150.0 Y8.7692
G2 X21.678 Y6.9058 I-5.4729 J-0.0138
G2 X20.6611 Y5.2056 I-4.7907 J1.711
G2 X20.6609 Y5.2053 I-1.4837 J1.3411
G2 X19.5262 Y4.2999 I-3.3345 J3.0152
G2 X17.5084 Y3.7664 I-2.0351 J3.6147
G2 X17.5071 I-0.0084 J2.0
G3 X17.3945 Y3.7354 I0.0008 J-0.2233
G3 X17.1873 Y3.5339 I0.3426 J-0.5594
G2 X17.1806 Y3.5237 I-1.6762 J1.091
G3 X17.0643 Y3.284 I0.8495 J-0.5604
G2 X17.0624 Y3.2784 I-1.8981 J0.6303
G3 X16.9999 Y2.8908 I1.1413 J-0.3828
G2 Y2.8814 I-2.0 J-0.0079
G2 X16.589 Y0.947 I-4.7743 J0.0035
G2 X16.5879 Y0.9447 I-1.8278 J0.8118
G2 X15.4591 Y-0.6383 I-4.4639 J1.9893
G2 X11.9977 Y-2.0 I-3.4514 J3.6929
G1 X8.0018
G2 X5.2956 Y-1.2211 I-0.0079 J5.0631
G2 X3.4147 Y0.9387 I2.6267 J4.1864
G2 X3.4127 Y0.9432 I1.8241 J0.8201
G2 X3.0 Y2.8856 I4.3343 J1.9359
G2 X3.0001 Y2.8908 I2.0 J-0.0027
G3 X2.9204 Y3.3263 I-1.2043 J0.0048
G2 X2.9182 Y3.3321 I1.8677 J0.7154
G3 X2.7194 Y3.6472 I-0.8759 J-0.3324
G3 X2.5912 Y3.7428 I-0.3703 J-0.3625
G2 X2.5896 Y3.7437 I0.9346 J1.7682
G3 X2.4983 Y3.7664 I-0.0914 J-0.1725
G2 X2.4903 I0.0018 J2.0
G2 X0.2566 Y4.43 I0.0204 J4.1602
G2 X0.2529 Y4.4323 I1.0836 J1.681
G2 X-1.2091 Y5.9328 I2.5685 J3.9652
G2 X-1.7464 Y7.1082 I4.5201 J2.7767
G2 X-1.7481 Y7.1137 I1.9067 J0.6037
G2 X-2.0 Y8.7682 I5.2496 J1.6456
G1 Y58.3656
G2 X-1.6788 Y60.2244 I5.5193 J0.0036
G2 X-0.6608 Y61.9274 I4.787 J-1.7059
G2 X0.4739 Y62.8328 I3.3325 J-3.0129
G2 X2.4921 Y63.3663 I2.0347 J-3.6134
G2 X2.4976 I0.008 J-2.0
G3 X2.5441 Y63.3762 I-0.0001 J0.1154
G3 X2.6836 Y63.4775 I-0.2077 J0.4326
G2 X2.6965 Y63.4909 I1.4471 J-1.3806
G3 X2.7976 Y63.6212 I-0.5328 J0.5179
G2 X2.8001 Y63.6252 I1.7063 J-1.0433
G3 X2.9321 Y63.9127 I-1.1186 J0.6876
G3 X3.0 Y64.3632 I-1.4447 J0.4482
G2 Y64.3663 I2.0 J0.003
G1 Y67.8276
G1 Y67.8277
G2 X4.4675 Y71.361 I4.9881 J-0.0003
G2 X7.9986 Y72.8275 I3.5347 J-3.5264
G2 X8.0 I0.0015 J-2.0
G1 X12.0
G1 X12.0001
G2 X15.5334 Y71.3601 I-0.0003 J-4.9881
G2 X16.9999 Y67.829 I-3.5264 J-3.5347
G2 Y67.8276 I-2.0 J-0.0015
G1 Y64.3663
G2 Y64.3646 I-2.0 J0.0
G3 X17.0884 Y63.8525 I1.5193 J-0.0012
G2 X17.0889 Y63.851 I-1.8835 J-0.6726
G3 X17.3058 Y63.4883 I1.0192 J0.363
G2 X17.3063 Y63.4877 I-1.4832 J-1.3417
G3 X17.431 Y63.3883 I0.3654 J0.3303
G2 X17.4364 Y63.3852 I-0.9772 J-1.745
G3 X17.5072 Y63.3663 I0.0722 J0.1279
G2 X19.2347 Y62.9816 I-0.0098 J-4.1154
G2 X19.2405 Y62.9789 I-0.8443 J-1.813
G2 X20.5712 Y62.023 I-1.9041 J-4.055
G2 X21.209 Y61.2001 I-3.4076 J-3.2992
G2 X21.7462 Y60.0249 I-4.5275 J-2.7803
G2 X21.7484 Y60.018 I-1.9065 J-0.6042
G2 X22.0 Y58.3649 I-5.2611 J-1.6464
G1 F25.0 Z-3.0
G1 F150.0 Y8.7692
G2 X21.678 Y6.9058 I-5.4729 J-0.0138
G2 X20.6611 Y5.2056 I-4.7907 J1.711
G2 X20.6609 Y5.2053 I-1.4837 J1.3411
G2 X19.5262 Y4.2999 I-3.3345 J3.0152
G2 X17.5084 Y3.7664 I-2.0351 J3.6147
G2 X17.5071 I-0.0084 J2.0
G3 X17.3945 Y3.7354 I0.0008 J-0.2233
G3 X17.1873 Y3.5339 I0.3426 J-0.5594
G2 X17.1806 Y3.5237 I-1.6762 J1.091
G3 X17.0643 Y3.284 I0.8495 J-0.5604
G2 X17.0624 Y3.2784 I-1.8981 J0.6303
G3 X16.9999 Y2.8908 I1.1413 J-0.3828
G2 Y2.8814 I-2.0 J-0.0079
G2 X16.589 Y0.947 I-4.7743 J0.0035
G2 X16.5879 Y0.9447 I-1.8278 J0.8118
G2 X15.4591 Y-0.6383 I-4.4639 J1.9893
G2 X11.9977 Y-2.0 I-3.4514 J3.6929
G1 X8.0018
G2 X5.2956 Y-1.2211 I-0.0079 J5.0631
G2 X3.4147 Y0.9387 I2.6267 J4.1864
G2 X3.4127 Y0.9432 I1.8241 J0.8201
G2 X3.0 Y2.8856 I4.3343 J1.9359
G2 X3.0001 Y2.8908 I2.0 J-0.0027
G3 X2.9204 Y3.3263 I-1.2043 J0.0048
G2 X2.9182 Y3.3321 I1.8677 J0.7154
G3 X2.7194 Y3.6472 I-0.8759 J-0.3324
G3 X2.5912 Y3.7428 I-0.3703 J-0.3625
G2 X2.5896 Y3.7437 I0.9346 J1.7682
G3 X2.4983 Y3.7664 I-0.0914 J-0.1725
G2 X2.4903 I0.0018 J2.0
G2 X0.2566 Y4.43 I0.0204 J4.1602
G2 X0.2529 Y4.4323 I1.0836 J1.681
G2 X-1.2091 Y5.9328 I2.5685 J3.9652
G2 X-1.7464 Y7.1082 I4.5201 J2.7767
G2 X-1.7481 Y7.1137 I1.9067 J0.6037
G2 X-2.0 Y8.7682 I5.2496 J1.6456
G1 Y58.3656
G2 X-1.6788 Y60.2244 I5.5193 J0.0036
G2 X-0.6608 Y61.9274 I4.787 J-1.7059
G2 X0.4739 Y62.8328 I3.3325 J-3.0129
G2 X2.4921 Y63.3663 I2.0347 J-3.6134
G2 X2.4976 I0.008 J-2.0
G3 X2.5441 Y63.3762 I-0.0001 J0.1154
G3 X2.6836 Y63.4775 I-0.2077 J0.4326
G2 X2.6965 Y63.4909 I1.4471 J-1.3806
G3 X2.7976 Y63.6212 I-0.5328 J0.5179
G2 X2.8001 Y63.6252 I1.7063 J-1.0433
G3 X2.9321 Y63.9127 I-1.1186 J0.6876
G3 X3.0 Y64.3632 I-1.4447 J0.4482
G2 Y64.3663 I2.0 J0.003
G1 Y67.8276
G1 Y67.8277
G2 X4.4675 Y71.361 I4.9881 J-0.0003
G2 X7.9986 Y72.8275 I3.5347 J-3.5264
G2 X8.0 I0.0015 J-2.0
G1 X12.0
G1 X12.0001
G2 X15.5334 Y71.3601 I-0.0003 J-4.9881
G2 X16.9999 Y67.829 I-3.5264 J-3.5347
G2 Y67.8276 I-2.0 J-0.0015
G1 Y64.3663
G2 Y64.3646 I-2.0 J0.0
G3 X17.0884 Y63.8525 I1.5193 J-0.0012
G2 X17.0889 Y63.851 I-1.8835 J-0.6726
G3 X17.3058 Y63.4883 I1.0192 J0.363
G2 X17.3063 Y63.4877 I-1.4832 J-1.3417
G3 X17.431 Y63.3883 I0.3654 J0.3303
G2 X17.4364 Y63.3852 I-0.9772 J-1.745
G3 X17.5072 Y63.3663 I0.0722 J0.1279
G2 X19.2347 Y62.9816 I-0.0098 J-4.1154
G2 X19.2405 Y62.9789 I-0.8443 J-1.813
G2 X20.5712 Y62.023 I-1.9041 J-4.055
G2 X21.209 Y61.2001 I-3.4076 J-3.2992
G2 X21.7462 Y60.0249 I-4.5275 J-2.7803
G2 X21.7484 Y60.018 I-1.9065 J-0.6042
G2 X22.0 Y58.3649 I-5.2611 J-1.6464
G1 F25.0 Z-4.0
G1 F150.0 Y8.7692
G2 X21.678 Y6.9058 I-5.4729 J-0.0138
G2 X20.6611 Y5.2056 I-4.7907 J1.711
G2 X20.6609 Y5.2053 I-1.4837 J1.3411
G2 X19.5262 Y4.2999 I-3.3345 J3.0152
G2 X17.5084 Y3.7664 I-2.0351 J3.6147
G2 X17.5071 I-0.0084 J2.0
G3 X17.3945 Y3.7354 I0.0008 J-0.2233
G3 X17.1873 Y3.5339 I0.3426 J-0.5594
G2 X17.1806 Y3.5237 I-1.6762 J1.091
G3 X17.0643 Y3.284 I0.8495 J-0.5604
G2 X17.0624 Y3.2784 I-1.8981 J0.6303
G3 X16.9999 Y2.8908 I1.1413 J-0.3828
G2 Y2.8814 I-2.0 J-0.0079
G2 X16.589 Y0.947 I-4.7743 J0.0035
G2 X16.5879 Y0.9447 I-1.8278 J0.8118
G2 X15.4591 Y-0.6383 I-4.4639 J1.9893
G2 X11.9977 Y-2.0 I-3.4514 J3.6929
G1 X8.0018
G2 X5.2956 Y-1.2211 I-0.0079 J5.0631
G2 X3.4147 Y0.9387 I2.6267 J4.1864
G2 X3.4127 Y0.9432 I1.8241 J0.8201
G2 X3.0 Y2.8856 I4.3343 J1.9359
G2 X3.0001 Y2.8908 I2.0 J-0.0027
G3 X2.9204 Y3.3263 I-1.2043 J0.0048
G2 X2.9182 Y3.3321 I1.8677 J0.7154
G3 X2.7194 Y3.6472 I-0.8759 J-0.3324
G3 X2.5912 Y3.7428 I-0.3703 J-0.3625
G2 X2.5896 Y3.7437 I0.9346 J1.7682
G3 X2.4983 Y3.7664 I-0.0914 J-0.1725
G2 X2.4903 I0.0018 J2.0
G2 X0.2566 Y4.43 I0.0204 J4.1602
G2 X0.2529 Y4.4323 I1.0836 J1.681
G2 X-1.2091 Y5.9328 I2.5685 J3.9652
G2 X-1.7464 Y7.1082 I4.5201 J2.7767
G2 X-1.7481 Y7.1137 I1.9067 J0.6037
G2 X-2.0 Y8.7682 I5.2496 J1.6456
G1 Y58.3656
G2 X-1.6788 Y60.2244 I5.5193 J0.0036
G2 X-0.6608 Y61.9274 I4.787 J-1.7059
G2 X0.4739 Y62.8328 I3.3325 J-3.0129
G2 X2.4921 Y63.3663 I2.0347 J-3.6134
G2 X2.4976 I0.008 J-2.0
G3 X2.5441 Y63.3762 I-0.0001 J0.1154
G3 X2.6836 Y63.4775 I-0.2077 J0.4326
G2 X2.6965 Y63.4909 I1.4471 J-1.3806
G3 X2.7976 Y63.6212 I-0.5328 J0.5179
G2 X2.8001 Y63.6252 I1.7063 J-1.0433
G3 X2.9321 Y63.9127 I-1.1186 J0.6876
G3 X3.0 Y64.3632 I-1.4447 J0.4482
G2 Y64.3663 I2.0 J0.003
G1 Y67.8276
G1 Y67.8277
G2 X4.4675 Y71.361 I4.9881 J-0.0003
G2 X7.9986 Y72.8275 I3.5347 J-3.5264
G2 X8.0 I0.0015 J-2.0
G1 X12.0
G1 X12.0001
G2 X15.5334 Y71.3601 I-0.0003 J-4.9881
G2 X16.9999 Y67.829 I-3.5264 J-3.5347
G2 Y67.8276 I-2.0 J-0.0015
G1 Y64.3663
G2 Y64.3646 I-2.0 J0.0
G3 X17.0884 Y63.8525 I1.5193 J-0.0012
G2 X17.0889 Y63.851 I-1.8835 J-0.6726
G3 X17.3058 Y63.4883 I1.0192 J0.363
G2 X17.3063 Y63.4877 I-1.4832 J-1.3417
G3 X17.431 Y63.3883 I0.3654 J0.3303
G2 X17.4364 Y63.3852 I-0.9772 J-1.745
G3 X17.5072 Y63.3663 I0.0722 J0.1279
G2 X19.2347 Y62.9816 I-0.0098 J-4.1154
G2 X19.2405 Y62.9789 I-0.8443 J-1.813
G2 X20.5712 Y62.023 I-1.9041 J-4.055
G2 X21.209 Y61.2001 I-3.4076 J-3.2992
G2 X21.7462 Y60.0249 I-4.5275 J-2.7803
G2 X21.7484 Y60.018 I-1.9065 J-0.6042
G2 X22.0 Y58.3649 I-5.2611 J-1.6464
G1 F25.0 Z-5.0
G1 F150.0 Y8.7692
G2 X21.678 Y6.9058 I-5.4729 J-0.0138
G2 X20.6611 Y5.2056 I-4.7907 J1.711
G2 X20.6609 Y5.2053 I-1.4837 J1.3411
G2 X19.5262 Y4.2999 I-3.3345 J3.0152
G2 X17.5084 Y3.7664 I-2.0351 J3.6147
G2 X17.5071 I-0.0084 J2.0
G3 X17.3945 Y3.7354 I0.0008 J-0.2233
G3 X17.1873 Y3.5339 I0.3426 J-0.5594
G2 X17.1806 Y3.5237 I-1.6762 J1.091
G3 X17.0643 Y3.284 I0.8495 J-0.5604
G2 X17.0624 Y3.2784 I-1.8981 J0.6303
G3 X16.9999 Y2.8908 I1.1413 J-0.3828
G2 Y2.8814 I-2.0 J-0.0079
G2 X16.589 Y0.947 I-4.7743 J0.0035
G2 X16.5879 Y0.9447 I-1.8278 J0.8118
G2 X15.4591 Y-0.6383 I-4.4639 J1.9893
G2 X11.9977 Y-2.0 I-3.4514 J3.6929
G1 X8.0018
G2 X5.2956 Y-1.2211 I-0.0079 J5.0631
G2 X3.4147 Y0.9387 I2.6267 J4.1864
G2 X3.4127 Y0.9432 I1.8241 J0.8201
G2 X3.0 Y2.8856 I4.3343 J1.9359
G2 X3.0001 Y2.8908 I2.0 J-0.0027
G3 X2.9204 Y3.3263 I-1.2043 J0.0048
G2 X2.9182 Y3.3321 I1.8677 J0.7154
G3 X2.7194 Y3.6472 I-0.8759 J-0.3324
G3 X2.5912 Y3.7428 I-0.3703 J-0.3625
G2 X2.5896 Y3.7437 I0.9346 J1.7682
G3 X2.4983 Y3.7664 I-0.0914 J-0.1725
G2 X2.4903 I0.0018 J2.0
G2 X0.2566 Y4.43 I0.0204 J4.1602
G2 X0.2529 Y4.4323 I1.0836 J1.681
G2 X-1.2091 Y5.9328 I2.5685 J3.9652
G2 X-1.7464 Y7.1082 I4.5201 J2.7767
G2 X-1.7481 Y7.1137 I1.9067 J0.6037
G2 X-2.0 Y8.7682 I5.2496 J1.6456
G1 Y58.3656
G2 X-1.6788 Y60.2244 I5.5193 J0.0036
G2 X-0.6608 Y61.9274 I4.787 J-1.7059
G2 X0.4739 Y62.8328 I3.3325 J-3.0129
G2 X2.4921 Y63.3663 I2.0347 J-3.6134
G2 X2.4976 I0.008 J-2.0
G3 X2.5441 Y63.3762 I-0.0001 J0.1154
G3 X2.6836 Y63.4775 I-0.2077 J0.4326
G2 X2.6965 Y63.4909 I1.4471 J-1.3806
G3 X2.7976 Y63.6212 I-0.5328 J0.5179
G2 X2.8001 Y63.6252 I1.7063 J-1.0433
G3 X2.9321 Y63.9127 I-1.1186 J0.6876
G3 X3.0 Y64.3632 I-1.4447 J0.4482
G2 Y64.3663 I2.0 J0.003
G1 Y67.8276
G1 Y67.8277
G2 X4.4675 Y71.361 I4.9881 J-0.0003
G2 X7.9986 Y72.8275 I3.5347 J-3.5264
G2 X8.0 I0.0015 J-2.0
G1 X12.0
G1 X12.0001
G2 X15.5334 Y71.3601 I-0.0003 J-4.9881
G2 X16.9999 Y67.829 I-3.5264 J-3.5347
G2 Y67.8276 I-2.0 J-0.0015
G1 Y64.3663
G2 Y64.3646 I-2.0 J0.0
G3 X17.0884 Y63.8525 I1.5193 J-0.0012
G2 X17.0889 Y63.851 I-1.8835 J-0.6726
G3 X17.3058 Y63.4883 I1.0192 J0.363
G2 X17.3063 Y63.4877 I-1.4832 J-1.3417
G3 X17.431 Y63.3883 I0.3654 J0.3303
G2 X17.4364 Y63.3852 I-0.9772 J-1.745
G3 X17.5072 Y63.3663 I0.0722 J0.1279
G2 X19.2347 Y62.9816 I-0.0098 J-4.1154
G2 X19.2405 Y62.9789 I-0.8443 J-1.813
G2 X20.5712 Y62.023 I-1.9041 J-4.055
G2 X21.209 Y61.2001 I-3.4076 J-3.2992
G2 X21.7462 Y60.0249 I-4.5275 J-2.7803
G2 X21.7484 Y60.018 I-1.9065 J-0.6042
G2 X22.0 Y58.3649 I-5.2611 J-1.6464
( Cutout 2 )
S1000
G0 Z3.0
G0 X47.0002 Y58.3648
G1 F25.0 Z-1.0
G1 F150.0 Y8.7668
G2 X46.6791 Y6.9084 I-5.5272 J-0.0019
G2 X45.6609 Y5.2052 I-4.7898 J1.7074
G2 X44.5276 Y4.3007 I-3.3343 J3.0153
G2 X42.5061 Y3.7664 I-2.0328 J3.6001
G3 X42.395 Y3.7357 I0.0009 J-0.2195
G3 X42.1875 Y3.534 I0.3413 J-0.5588
G2 X42.1807 Y3.5237 I-1.6763 J1.0909
G3 X42.0643 Y3.2838 I0.8512 J-0.5614
G2 X42.0625 Y3.2784 I-1.898 J0.6305
G3 X42.0 Y2.8906 I1.1424 J-0.3831
G2 Y2.8812 I-2.0 J-0.0078
G2 X41.5891 Y0.9472 I-4.7755 J0.0039
G2 X41.588 Y0.9447 I-1.8279 J0.8116
G2 X40.4595 Y-0.638 I-4.4641 J1.9894
G2 X36.9974 Y-2.0 I-3.4506 J3.6899
G1 X33.0017
G2 X30.2961 Y-1.2213 I-0.0064 J5.0674
G2 X28.4149 Y0.9387 I2.6264 J4.1865
G2 X28.4129 Y0.9431 I1.8241 J0.8201
G2 X28.0002 Y2.8857 I4.3336 J1.9358
G1 Y2.8856
G1 Y2.8857
G3 X27.9187 Y3.3311 I-1.2487 J0.0017
G2 X27.9183 Y3.3323 I1.8695 J0.7107
G3 X27.7196 Y3.647 I-0.8738 J-0.3315
G3 X27.5913 Y3.7428 I-0.3705 J-0.3625
G2 X27.59 Y3.7435 I0.9345 J1.7682
G3 X27.498 Y3.7664 I-0.0922 J-0.1742
G1 X27.4978
G2 X25.7653 Y4.1511 I0.0047 J4.1146
G2 X25.7597 Y4.1538 I0.8444 J1.813
G2 X24.429 Y5.1095 I1.9045 J4.0558
G2 X23.7913 Y5.9323 I3.4071 J3.2993
G2 X23.2537 Y7.108 I4.5226 J2.7786
G2 X23.2519 Y7.1137 I1.9066 J0.604
G2 X23.0 Y8.7681 I5.2508 J1.6458
G1 Y58.3653
G2 X23.3213 Y60.2244 I5.5174 J0.0039
G2 X24.3395 Y61.9274 I4.7866 J-1.7059
G2 X25.4726 Y62.8318 I3.3344 J-3.0157
G2 X27.495 Y63.3661 I2.033 J-3.6007
G2 X27.498 I0.0051 J-2.0
G3 X27.544 Y63.3759 I-0.0001 J0.1137
G3 X27.6838 Y63.4774 I-0.2076 J0.4329
G2 X27.6965 Y63.4906 I1.447 J-1.3806
G3 X27.7979 Y63.6213 I-0.5349 J0.5199
G2 X27.8001 Y63.6249 I1.7062 J-1.0436
G3 X27.9323 Y63.9127 I-1.1221 J0.6896
G3 X28.0002 Y64.3632 I-1.4461 J0.4484
G2 Y64.3661 I2.0 J0.0029
G1 Y67.8274
G1 Y67.8276
G2 X29.4673 Y71.3605 I4.9887 J-0.0006
G2 X32.9995 Y72.8274 I3.534 J-3.5236
G2 X33.0002 I0.0007 J-2.0
G1 X37.0
G2 X37.0007 I0.0 J-2.0
G2 X40.5332 Y71.3601 I-0.0018 J-4.9904
G2 X42.0 Y67.8286 I-3.5256 J-3.5346
G2 Y67.8274 I-2.0 J-0.0013
G1 Y64.3661
G2 Y64.3643 I-2.0 J0.0
G3 X42.0884 Y63.8525 I1.5174 J-0.0013
G2 X42.089 Y63.8509 I-1.8834 J-0.6728
G3 X42.3058 Y63.4882 I1.0188 J0.3629
G2 X42.3061 Y63.4879 I-1.4831 J-1.3418
G3 X42.4315 Y63.3879 I0.3678 J0.3326
G2 X42.4391 Y63.3836 I-0.9776 J-1.7448
G3 X42.5048 Y63.3661 I0.0665 J0.1175
G2 X44.2351 Y62.9813 I-0.007 J-4.1137
G2 X44.2405 Y62.9787 I-0.8446 J-1.8129
G2 X45.5713 Y62.0228 I-1.9041 J-4.0553
G2 X46.2091 Y61.1999 I-3.4098 J-3.3011
G2 X46.7463 Y60.0251 I-4.5311 J-2.7822
G2 X46.7486 Y60.0178 I-1.9064 J-0.6046
G2 X47.0002 Y58.3648 I-5.2625 J-1.6466
G1 F25.0 Z-2.0
G1 F150.0 Y8.7668
G2 X46.6791 Y6.9084 I-5.5272 J-0.0019
G2 X45.6609 Y5.2052 I-4.7898 J1.7074
G2 X44.5276 Y4.3007 I-3.3343 J3.0153
G2 X42.5061 Y3.7664 I-2.0328 J3.6001
G3 X42.395 Y3.7357 I0.0009 J-0.2195
G3 X42.1875 Y3.534 I0.3413 J-0.5588
G2 X42.1807 Y3.5237 I-1.6763 J1.0909
G3 X42.0643 Y3.2838 I0.8512 J-0.5614
G2 X42.0625 Y3.2784 I-1.898 J0.6305
G3 X42.0 Y2.8906 I1.1424 J-0.3831
G2 Y2.8812 I-2.0 J-0.0078
G2 X41.5891 Y0.9472 I-4.7755 J0.0039
G2 X41.588 Y0.9447 I-1.8279 J0.8116
G2 X40.4595 Y-0.638 I-4.4641 J1.9894
G2 X36.9974 Y-2.0 I-3.4506 J3.6899
G1 X33.0017
G2 X30.2961 Y-1.2213 I-0.0064 J5.0674
G2 X28.4149 Y0.9387 I2.6264 J4.1865
G2 X28.4129 Y0.9431 I1.8241 J0.8201
G2 X28.0002 Y2.8857 I4.3336 J1.9358
G1 Y2.8856
G1 Y2.8857
G3 X27.9187 Y3.3311 I-1.2487 J0.0017
G2 X27.9183 Y3.3323 I1.8695 J0.7107
G3 X27.7196 Y3.647 I-0.8738 J-0.3315
G3 X27.5913 Y3.7428 I-0.3705 J-0.3625
G2 X27.59 Y3.7435 I0.9345 J1.7682
G3 X27.498 Y3.7664 I-0.0922 J-0.1742
G1 X27.4978
G2 X25.7653 Y4.1511 I0.0047 J4.1146
G2 X25.7597 Y4.1538 I0.8444 J1.813
G2 X24.429 Y5.1095 I1.9045 J4.0558
G2 X23.7913 Y5.9323 I3.4071 J3.2993
G2 X23.2537 Y7.108 I4.5226 J2.7786
G2 X23.2519 Y7.1137 I1.9066 J0.604
G2 X23.0 Y8.7681 I5.2508 J1.6458
G1 Y58.3653
G2 X23.3213 Y60.2244 I5.5174 J0.0039
G2 X24.3395 Y61.9274 I4.7866 J-1.7059
G2 X25.4726 Y62.8318 I3.3344 J-3.0157
G2 X27.495 Y63.3661 I2.033 J-3.6007
G2 X27.498 I0.0051 J-2.0
G3 X27.544 Y63.3759 I-0.0001 J0.1137
G3 X27.6838 Y63.4774 I-0.2076 J0.4329
G2 X27.6965 Y63.4906 I1.447 J-1.3806
G3 X27.7979 Y63.6213 I-0.5349 J0.5199
G2 X27.8001 Y63.6249 I1.7062 J-1.0436
G3 X27.9323 Y63.9127 I-1.1221 J0.6896
G3 X28.0002 Y64.3632 I-1.4461 J0.4484
G2 Y64.3661 I2.0 J0.0029
G1 Y67.8274
G1 Y67.8276
G2 X29.4673 Y71.3605 I4.9887 J-0.0006
G2 X32.9995 Y72.8274 I3.534 J-3.5236
G2 X33.0002 I0.0007 J-2.0
G1 X37.0
G2 X37.0007 I0.0 J-2.0
G2 X40.5332 Y71.3601 I-0.0018 J-4.9904
G2 X42.0 Y67.8286 I-3.5256 J-3.5346
G2 Y67.8274 I-2.0 J-0.0013
G1 Y64.3661
G2 Y64.3643 I-2.0 J0.0
G3 X42.0884 Y63.8525 I1.5174 J-0.0013
G2 X42.089 Y63.8509 I-1.8834 J-0.6728
G3 X42.3058 Y63.4882 I1.0188 J0.3629
G2 X42.3061 Y63.4879 I-1.4831 J-1.3418
G3 X42.4315 Y63.3879 I0.3678 J0.3326
G2 X42.4391 Y63.3836 I-0.9776 J-1.7448
G3 X42.5048 Y63.3661 I0.0665 J0.1175
G2 X44.2351 Y62.9813 I-0.007 J-4.1137
G2 X44.2405 Y62.9787 I-0.8446 J-1.8129
G2 X45.5713 Y62.0228 I-1.9041 J-4.0553
G2 X46.2091 Y61.1999 I-3.4098 J-3.3011
G2 X46.7463 Y60.0251 I-4.5311 J-2.7822
G2 X46.7486 Y60.0178 I-1.9064 J-0.6046
G2 X47.0002 Y58.3648 I-5.2625 J-1.6466
G1 F25.0 Z-3.0
G1 F150.0 Y8.7668
G2 X46.6791 Y6.9084 I-5.5272 J-0.0019
G2 X45.6609 Y5.2052 I-4.7898 J1.7074
G2 X44.5276 Y4.3007 I-3.3343 J3.0153
G2 X42.5061 Y3.7664 I-2.0328 J3.6001
G3 X42.395 Y3.7357 I0.0009 J-0.2195
G3 X42.1875 Y3.534 I0.3413 J-0.5588
G2 X42.1807 Y3.5237 I-1.6763 J1.0909
G3 X42.0643 Y3.2838 I0.8512 J-0.5614
G2 X42.0625 Y3.2784 I-1.898 J0.6305
G3 X42.0 Y2.8906 I1.1424 J-0.3831
G2 Y2.8812 I-2.0 J-0.0078
G2 X41.5891 Y0.9472 I-4.7755 J0.0039
G2 X41.588 Y0.9447 I-1.8279 J0.8116
G2 X40.4595 Y-0.638 I-4.4641 J1.9894
G2 X36.9974 Y-2.0 I-3.4506 J3.6899
G1 X33.0017
G2 X30.2961 Y-1.2213 I-0.0064 J5.0674
G2 X28.4149 Y0.9387 I2.6264 J4.1865
G2 X28.4129 Y0.9431 I1.8241 J0.8201
G2 X28.0002 Y2.8857 I4.3336 J1.9358
G1 Y2.8856
G1 Y2.8857
G3 X27.9187 Y3.3311 I-1.2487 J0.0017
G2 X27.9183 Y3.3323 I1.8695 J0.7107
G3 X27.7196 Y3.647 I-0.8738 J-0.3315
G3 X27.5913 Y3.7428 I-0.3705 J-0.3625
G2 X27.59 Y3.7435 I0.9345 J1.7682
G3 X27.498 Y3.7664 I-0.0922 J-0.1742
G1 X27.4978
G2 X25.7653 Y4.1511 I0.0047 J4.1146
G2 X25.7597 Y4.1538 I0.8444 J1.813
G2 X24.429 Y5.1095 I1.9045 J4.0558
G2 X23.7913 Y5.9323 I3.4071 J3.2993
G2 X23.2537 Y7.108 I4.5226 J2.7786
G2 X23.2519 Y7.1137 I1.9066 J0.604
G2 X23.0 Y8.7681 I5.2508 J1.6458
G1 Y58.3653
G2 X23.3213 Y60.2244 I5.5174 J0.0039
G2 X24.3395 Y61.9274 I4.7866 J-1.7059
G2 X25.4726 Y62.8318 I3.3344 J-3.0157
G2 X27.495 Y63.3661 I2.033 J-3.6007
G2 X27.498 I0.0051 J-2.0
G3 X27.544 Y63.3759 I-0.0001 J0.1137
G3 X27.6838 Y63.4774 I-0.2076 J0.4329
G2 X27.6965 Y63.4906 I1.447 J-1.3806
G3 X27.7979 Y63.6213 I-0.5349 J0.5199
G2 X27.8001 Y63.6249 I1.7062 J-1.0436
G3 X27.9323 Y63.9127 I-1.1221 J0.6896
G3 X28.0002 Y64.3632 I-1.4461 J0.4484
G2 Y64.3661 I2.0 J0.0029
G1 Y67.8274
G1 Y67.8276
G2 X29.4673 Y71.3605 I4.9887 J-0.0006
G2 X32.9995 Y72.8274 I3.534 J-3.5236
G2 X33.0002 I0.0007 J-2.0
G1 X37.0
G2 X37.0007 I0.0 J-2.0
G2 X40.5332 Y71.3601 I-0.0018 J-4.9904
G2 X42.0 Y67.8286 I-3.5256 J-3.5346
G2 Y67.8274 I-2.0 J-0.0013
G1 Y64.3661
G2 Y64.3643 I-2.0 J0.0
G3 X42.0884 Y63.8525 I1.5174 J-0.0013
G2 X42.089 Y63.8509 I-1.8834 J-0.6728
G3 X42.3058 Y63.4882 I1.0188 J0.3629
G2 X42.3061 Y63.4879 I-1.4831 J-1.3418
G3 X42.4315 Y63.3879 I0.3678 J0.3326
G2 X42.4391 Y63.3836 I-0.9776 J-1.7448
G3 X42.5048 Y63.3661 I0.0665 J0.1175
G2 X44.2351 Y62.9813 I-0.007 J-4.1137
G2 X44.2405 Y62.9787 I-0.8446 J-1.8129
G2 X45.5713 Y62.0228 I-1.9041 J-4.0553
G2 X46.2091 Y61.1999 I-3.4098 J-3.3011
G2 X46.7463 Y60.0251 I-4.5311 J-2.7822
G2 X46.7486 Y60.0178 I-1.9064 J-0.6046
G2 X47.0002 Y58.3648 I-5.2625 J-1.6466
G1 F25.0 Z-4.0
G1 F150.0 Y8.7668
G2 X46.6791 Y6.9084 I-5.5272 J-0.0019
G2 X45.6609 Y5.2052 I-4.7898 J1.7074
G2 X44.5276 Y4.3007 I-3.3343 J3.0153
G2 X42.5061 Y3.7664 I-2.0328 J3.6001
G3 X42.395 Y3.7357 I0.0009 J-0.2195
G3 X42.1875 Y3.534 I0.3413 J-0.5588
G2 X42.1807 Y3.5237 I-1.6763 J1.0909
G3 X42.0643 Y3.2838 I0.8512 J-0.5614
G2 X42.0625 Y3.2784 I-1.898 J0.6305
G3 X42.0 Y2.8906 I1.1424 J-0.3831
G2 Y2.8812 I-2.0 J-0.0078
G2 X41.5891 Y0.9472 I-4.7755 J0.0039
G2 X41.588 Y0.9447 I-1.8279 J0.8116
G2 X40.4595 Y-0.638 I-4.4641 J1.9894
G2 X36.9974 Y-2.0 I-3.4506 J3.6899
G1 X33.0017
G2 X30.2961 Y-1.2213 I-0.0064 J5.0674
G2 X28.4149 Y0.9387 I2.6264 J4.1865
G2 X28.4129 Y0.9431 I1.8241 J0.8201
G2 X28.0002 Y2.8857 I4.3336 J1.9358
G1 Y2.8856
G1 Y2.8857
G3 X27.9187 Y3.3311 I-1.2487 J0.0017
G2 X27.9183 Y3.3323 I1.8695 J0.7107
G3 X27.7196 Y3.647 I-0.8738 J-0.3315
G3 X27.5913 Y3.7428 I-0.3705 J-0.3625
G2 X27.59 Y3.7435 I0.9345 J1.7682
G3 X27.498 Y3.7664 I-0.0922 J-0.1742
G1 X27.4978
G2 X25.7653 Y4.1511 I0.0047 J4.1146
G2 X25.7597 Y4.1538 I0.8444 J1.813
G2 X24.429 Y5.1095 I1.9045 J4.0558
G2 X23.7913 Y5.9323 I3.4071 J3.2993
G2 X23.2537 Y7.108 I4.5226 J2.7786
G2 X23.2519 Y7.1137 I1.9066 J0.604
G2 X23.0 Y8.7681 I5.2508 J1.6458
G1 Y58.3653
G2 X23.3213 Y60.2244 I5.5174 J0.0039
G2 X24.3395 Y61.9274 I4.7866 J-1.7059
G2 X25.4726 Y62.8318 I3.3344 J-3.0157
G2 X27.495 Y63.3661 I2.033 J-3.6007
G2 X27.498 I0.0051 J-2.0
G3 X27.544 Y63.3759 I-0.0001 J0.1137
G3 X27.6838 Y63.4774 I-0.2076 J0.4329
G2 X27.6965 Y63.4906 I1.447 J-1.3806
G3 X27.7979 Y63.6213 I-0.5349 J0.5199
G2 X27.8001 Y63.6249 I1.7062 J-1.0436
G3 X27.9323 Y63.9127 I-1.1221 J0.6896
G3 X28.0002 Y64.3632 I-1.4461 J0.4484
G2 Y64.3661 I2.0 J0.0029
G1 Y67.8274
G1 Y67.8276
G2 X29.4673 Y71.3605 I4.9887 J-0.0006
G2 X32.9995 Y72.8274 I3.534 J-3.5236
G2 X33.0002 I0.0007 J-2.0
G1 X37.0
G2 X37.0007 I0.0 J-2.0
G2 X40.5332 Y71.3601 I-0.0018 J-4.9904
G2 X42.0 Y67.8286 I-3.5256 J-3.5346
G2 Y67.8274 I-2.0 J-0.0013
G1 Y64.3661
G2 Y64.3643 I-2.0 J0.0
G3 X42.0884 Y63.8525 I1.5174 J-0.0013
G2 X42.089 Y63.8509 I-1.8834 J-0.6728
G3 X42.3058 Y63.4882 I1.0188 J0.3629
G2 X42.3061 Y63.4879 I-1.4831 J-1.3418
G3 X42.4315 Y63.3879 I0.3678 J0.3326
G2 X42.4391 Y63.3836 I-0.9776 J-1.7448
G3 X42.5048 Y63.3661 I0.0665 J0.1175
G2 X44.2351 Y62.9813 I-0.007 J-4.1137
G2 X44.2405 Y62.9787 I-0.8446 J-1.8129
G2 X45.5713 Y62.0228 I-1.9041 J-4.0553
G2 X46.2091 Y61.1999 I-3.4098 J-3.3011
G2 X46.7463 Y60.0251 I-4.5311 J-2.7822
G2 X46.7486 Y60.0178 I-1.9064 J-0.6046
G2 X47.0002 Y58.3648 I-5.2625 J-1.6466
G1 F25.0 Z-5.0
G1 F150.0 Y8.7668
G2 X46.6791 Y6.9084 I-5.5272 J-0.0019
G2 X45.6609 Y5.2052 I-4.7898 J1.7074
G2 X44.5276 Y4.3007 I-3.3343 J3.0153
G2 X42.5061 Y3.7664 I-2.0328 J3.6001
G3 X42.395 Y3.7357 I0.0009 J-0.2195
G3 X42.1875 Y3.534 I0.3413 J-0.5588
G2 X42.1807 Y3.5237 I-1.6763 J1.0909
G3 X42.0643 Y3.2838 I0.8512 J-0.5614
G2 X42.0625 Y3.2784 I-1.898 J0.6305
G3 X42.0 Y2.8906 I1.1424 J-0.3831
G2 Y2.8812 I-2.0 J-0.0078
G2 X41.5891 Y0.9472 I-4.7755 J0.0039
G2 X41.588 Y0.9447 I-1.8279 J0.8116
G2 X40.4595 Y-0.638 I-4.4641 J1.9894
G2 X36.9974 Y-2.0 I-3.4506 J3.6899
G1 X33.0017
G2 X30.2961 Y-1.2213 I-0.0064 J5.0674
G2 X28.4149 Y0.9387 I2.6264 J4.1865
G2 X28.4129 Y0.9431 I1.8241 J0.8201
G2 X28.0002 Y2.8857 I4.3336 J1.9358
G1 Y2.8856
G1 Y2.8857
G3 X27.9187 Y3.3311 I-1.2487 J0.0017
G2 X27.9183 Y3.3323 I1.8695 J0.7107
G3 X27.7196 Y3.647 I-0.8738 J-0.3315
G3 X27.5913 Y3.7428 I-0.3705 J-0.3625
G2 X27.59 Y3.7435 I0.9345 J1.7682
G3 X27.498 Y3.7664 I-0.0922 J-0.1742
G1 X27.4978
G2 X25.7653 Y4.1511 I0.0047 J4.1146
G2 X25.7597 Y4.1538 I0.8444 J1.813
G2 X24.429 Y5.1095 I1.9045 J4.0558
G2 X23.7913 Y5.9323 I3.4071 J3.2993
G2 X23.2537 Y7.108 I4.5226 J2.7786
G2 X23.2519 Y7.1137 I1.9066 J0.604
G2 X23.0 Y8.7681 I5.2508 J1.6458
G1 Y58.3653
G2 X23.3213 Y60.2244 I5.5174 J0.0039
G2 X24.3395 Y61.9274 I4.7866 J-1.7059
G2 X25.4726 Y62.8318 I3.3344 J-3.0157
G2 X27.495 Y63.3661 I2.033 J-3.6007
G2 X27.498 I0.0051 J-2.0
G3 X27.544 Y63.3759 I-0.0001 J0.1137
G3 X27.6838 Y63.4774 I-0.2076 J0.4329
G2 X27.6965 Y63.4906 I1.447 J-1.3806
G3 X27.7979 Y63.6213 I-0.5349 J0.5199
G2 X27.8001 Y63.6249 I1.7062 J-1.0436
G3 X27.9323 Y63.9127 I-1.1221 J0.6896
G3 X28.0002 Y64.3632 I-1.4461 J0.4484
G2 Y64.3661 I2.0 J0.0029
G1 Y67.8274
G1 Y67.8276
G2 X29.4673 Y71.3605 I4.9887 J-0.0006
G2 X32.9995 Y72.8274 I3.534 J-3.5236
G2 X33.0002 I0.0007 J-2.0
G1 X37.0
G2 X37.0007 I0.0 J-2.0
G2 X40.5332 Y71.3601 I-0.0018 J-4.9904
G2 X42.0 Y67.8286 I-3.5256 J-3.5346
G2 Y67.8274 I-2.0 J-0.0013
G1 Y64.3661
G2 Y64.3643 I-2.0 J0.0
G3 X42.0884 Y63.8525 I1.5174 J-0.0013
G2 X42.089 Y63.8509 I-1.8834 J-0.6728
G3 X42.3058 Y63.4882 I1.0188 J0.3629
G2 X42.3061 Y63.4879 I-1.4831 J-1.3418
G3 X42.4315 Y63.3879 I0.3678 J0.3326
G2 X42.4391 Y63.3836 I-0.9776 J-1.7448
G3 X42.5048 Y63.3661 I0.0665 J0.1175
G2 X44.2351 Y62.9813 I-0.007 J-4.1137
G2 X44.2405 Y62.9787 I-0.8446 J-1.8129
G2 X45.5713 Y62.0228 I-1.9041 J-4.0553
G2 X46.2091 Y61.1999 I-3.4098 J-3.3011
G2 X46.7463 Y60.0251 I-4.5311 J-2.7822
G2 X46.7486 Y60.0178 I-1.9064 J-0.6046
G2 X47.0002 Y58.3648 I-5.2625 J-1.6466
G0 Z3.0
M5
M30
