( Made using CamBam - http://www.cambam.co.uk )
( pick and place parts - 10mm 9/27/2012 12:44:44 PM )
( T7 : 4.0 )
G21 G90 G64 G40
G0 Z3.0
( T7 : 4.0 )
T7 M6
( Bearing Profile )
G17
M3 S1000
G0 X9.6029 Y31.5227
G1 F50.0 Z-5.0
G3 F100.0 X13.841 Y33.2782 I0.0077 J5.975
G2 X13.8449 Y33.2821 I1.416 J-1.4124
G3 X15.6001 Y37.5197 I-4.2167 J4.229
G2 Y37.5254 I2.0 J0.0029
G3 X13.8448 Y41.7635 I-5.9742 J0.0083
G2 X13.841 Y41.7673 I1.4124 J1.4161
G3 X9.603 Y43.5228 I-4.2297 J-4.218
G2 X9.5977 I-0.0028 J2.0
G3 X5.3594 Y41.7672 I-0.0076 J-5.9754
G2 X5.3558 Y41.7636 I-1.416 J1.4124
G3 X3.6004 Y37.5252 I4.2205 J-4.2307
G2 Y37.5203 I-2.0 J-0.0026
G3 X5.3561 Y33.2817 I5.9772 J-0.007
G2 X5.3597 Y33.2782 I-1.4125 J-1.4159
G3 X9.5976 Y31.5227 I4.2299 J4.2185
G2 X9.6029 I0.0027 J-2.0
G0 Z3.0
G0 X25.716 Y24.0366
G1 F50.0 Z-5.0
G3 F100.0 X25.16 Y21.5117 I5.416 J-2.5163
G2 Y21.506 I-2.0 J-0.0029
G3 X26.9153 Y17.2678 I5.9742 J-0.0083
G2 X26.9191 Y17.264 I-1.4124 J-1.4161
G3 X31.1571 Y15.5086 I4.2297 J4.218
G2 X31.1624 I0.0028 J-2.0
G3 X35.4007 Y17.2642 I0.0076 J5.9754
G2 X35.4043 Y17.2677 I1.416 J-1.4124
G3 X37.1597 Y21.5062 I-4.2205 J4.2307
G2 Y21.5111 I2.0 J0.0026
G3 X35.404 Y25.7496 I-5.9772 J0.007
G2 X35.4005 Y25.7532 I1.4125 J1.4159
G3 X31.1625 Y27.5086 I-4.2299 J-4.2185
G2 X31.1573 I-0.0027 J2.0
G3 X26.9192 Y25.7531 I-0.0077 J-5.975
G2 X26.9153 Y25.7492 I-1.416 J1.4124
G3 X25.716 Y24.0366 I4.2167 J-4.229
G0 Z3.0
G0 X47.4254 Y34.8545
G1 F50.0 Z-5.0
G3 F100.0 X48.5536 Y33.2888 I5.3498 J2.6658
G2 X48.5572 Y33.2852 I-1.4125 J-1.4159
G3 X52.7951 Y31.5298 I4.2299 J4.2185
G2 X52.8004 I0.0027 J-2.0
G3 X57.0385 Y33.2853 I0.0077 J5.975
G2 X57.0424 Y33.2892 I1.416 J-1.4124
G3 X58.7977 Y37.5268 I-4.2167 J4.229
G2 Y37.5324 I2.0 J0.0029
G3 X57.0424 Y41.7706 I-5.9742 J0.0083
G2 X57.0386 Y41.7744 I1.4124 J1.4161
G3 X52.8006 Y43.5299 I-4.2297 J-4.218
G2 X52.7953 I-0.0028 J2.0
G3 X48.5569 Y41.7743 I-0.0076 J-5.9754
G2 X48.5534 Y41.7707 I-1.416 J1.4124
G3 X46.798 Y37.5323 I4.2205 J-4.2307
G2 Y37.5273 I-2.0 J-0.0026
G3 X47.4254 Y34.8545 I5.9772 J-0.007
G0 Z3.0
G0 X68.9781 Y24.1782
G1 F50.0 Z-5.0
G3 F100.0 X68.3575 Y21.5187 I5.3514 J-2.6509
G2 Y21.5131 I-2.0 J-0.0029
G3 X70.1128 Y17.2749 I5.9742 J-0.0083
G2 X70.1166 Y17.2711 I-1.4124 J-1.4161
G3 X74.3546 Y15.5156 I4.2297 J4.218
G2 X74.3599 I0.0028 J-2.0
G3 X78.5983 Y17.2712 I0.0076 J5.9754
G2 X78.6018 Y17.2748 I1.416 J-1.4124
G3 X80.3572 Y21.5132 I-4.2205 J4.2307
G2 Y21.5182 I2.0 J0.0026
G3 X78.6016 Y25.7567 I-5.9772 J0.007
G2 X78.598 Y25.7603 I1.4125 J1.4159
G3 X74.3601 Y27.5157 I-4.2299 J-4.2185
G2 X74.3548 I-0.0027 J2.0
G3 X70.1167 Y25.7602 I-0.0077 J-5.975
G2 X70.1128 Y25.7563 I-1.416 J1.4124
G3 X68.9781 Y24.1782 I4.2167 J-4.229
G0 Z3.0
G0 X90.7201 Y34.8864
G1 F50.0 Z-5.0
G3 F100.0 X91.8607 Y33.2959 I5.3621 J2.6409
G2 X91.8643 Y33.2923 I-1.4125 J-1.4159
G3 X96.1022 Y31.5369 I4.2299 J4.2185
G2 X96.1075 I0.0027 J-2.0
G3 X100.3456 Y33.2924 I0.0077 J5.975
G2 X100.3495 Y33.2962 I1.416 J-1.4124
G3 X102.1048 Y37.5338 I-4.2167 J4.229
G2 Y37.5395 I2.0 J0.0029
G3 X100.3495 Y41.7776 I-5.9742 J0.0083
G2 X100.3457 Y41.7815 I1.4124 J1.4161
G3 X96.1077 Y43.5369 I-4.2297 J-4.218
G2 X96.1023 I-0.0028 J2.0
G3 X91.864 Y41.7813 I-0.0076 J-5.9754
G2 X91.8605 Y41.7778 I-1.416 J1.4124
G3 X90.105 Y37.5393 I4.2205 J-4.2307
G2 Y37.5344 I-2.0 J-0.0026
G3 X90.7201 Y34.8864 I5.9772 J-0.007
G0 Z3.0
G0 X112.2867 Y24.1883
G1 F50.0 Z-5.0
G3 F100.0 X111.6646 Y21.5258 I5.35 J-2.6539
G2 Y21.5201 I-2.0 J-0.0029
G3 X113.4199 Y17.282 I5.9742 J-0.0083
G2 X113.4237 Y17.2782 I-1.4124 J-1.4161
G3 X117.6617 Y15.5227 I4.2297 J4.218
G2 X117.667 I0.0028 J-2.0
G3 X121.9054 Y17.2783 I0.0076 J5.9754
G2 X121.9089 Y17.2818 I1.416 J-1.4124
G3 X123.6643 Y21.5203 I-4.2205 J4.2307
G2 Y21.5252 I2.0 J0.0026
G3 X121.9087 Y25.7638 I-5.9772 J0.007
G2 X121.9051 Y25.7673 I1.4125 J1.4159
G3 X117.6672 Y27.5227 I-4.2299 J-4.2185
G2 X117.6619 I-0.0027 J2.0
G3 X113.4238 Y25.7672 I-0.0077 J-5.975
G2 X113.4199 Y25.7634 I-1.416 J1.4124
G3 X112.2867 Y24.1883 I4.2167 J-4.229
G0 Z3.0
M5
M30
