( Made using CamBam - http://www.cambam.co.uk )
( pick and place parts - 10mm 9/27/2012 12:48:34 PM )
( T7 : 3.95 )
G21 G90 G64 G40
G0 Z3.0
( T7 : 3.95 )
T7 M6
( Bearing Profile )
G17
M3 S1000
G0 X9.6028 Y31.4977
G1 F50.0 Z-5.0
G3 F100.0 X13.8587 Y33.2606 I0.0077 J6.0
G2 X13.8625 Y33.2644 I1.3983 J-1.3947
G3 X15.6251 Y37.5198 I-4.2344 J4.2467
G2 Y37.5253 I1.975 J0.0029
G3 X13.8625 Y41.7812 I-5.9992 J0.0083
G2 X13.8587 Y41.785 I1.3947 J1.3984
G3 X9.603 Y43.5478 I-4.2474 J-4.2356
G2 X9.5977 I-0.0027 J1.975
G3 X5.3417 Y41.7848 I-0.0077 J-6.0004
G2 X5.3382 Y41.7813 I-1.3983 J1.3947
G3 X3.5754 Y37.5252 I4.2381 J-4.2484
G2 Y37.5203 I-1.975 J-0.0026
G3 X5.3384 Y33.264 I6.0022 J-0.007
G2 X5.342 Y33.2605 I-1.3949 J-1.3982
G3 X9.5976 Y31.4977 I4.2476 J4.2362
G2 X9.6028 I0.0026 J-1.975
G0 Z3.0
G0 X25.6909 Y24.0419
G1 F50.0 Z-5.0
G3 F100.0 X25.135 Y21.5116 I5.4411 J-2.5216
G2 Y21.506 I-1.975 J-0.0029
G3 X26.8976 Y17.2501 I5.9992 J-0.0083
G2 X26.9014 Y17.2464 I-1.3947 J-1.3984
G3 X31.1571 Y15.4836 I4.2474 J4.2356
G2 X31.1624 I0.0027 J-1.975
G3 X35.4185 Y17.2465 I0.0077 J6.0004
G2 X35.4219 Y17.25 I1.3983 J-1.3947
G3 X37.1847 Y21.5062 I-4.2381 J4.2484
G2 Y21.5111 I1.975 J0.0026
G3 X35.4217 Y25.7673 I-6.0022 J0.007
G2 X35.4182 Y25.7709 I1.3949 J1.3982
G3 X31.1625 Y27.5336 I-4.2476 J-4.2362
G2 X31.1573 I-0.0026 J1.975
G3 X26.9015 Y25.7708 I-0.0077 J-6.0
G2 X26.8976 Y25.7669 I-1.3983 J1.3947
G3 X25.6909 Y24.0419 I4.2344 J-4.2467
G0 Z3.0
G0 X47.4016 Y34.8462
G1 F50.0 Z-5.0
G3 F100.0 X48.536 Y33.2711 I5.3736 J2.6742
G2 X48.5395 Y33.2676 I-1.3949 J-1.3982
G3 X52.7952 Y31.5048 I4.2476 J4.2362
G2 X52.8004 I0.0026 J-1.975
G3 X57.0562 Y33.2676 I0.0077 J6.0
G2 X57.06 Y33.2715 I1.3983 J-1.3947
G3 X58.8227 Y37.5268 I-4.2344 J4.2467
G2 Y37.5324 I1.975 J0.0029
G3 X57.06 Y41.7883 I-5.9992 J0.0083
G2 X57.0563 Y41.7921 I1.3947 J1.3984
G3 X52.8005 Y43.5549 I-4.2474 J-4.2356
G2 X52.7953 I-0.0027 J1.975
G3 X48.5392 Y41.7919 I-0.0077 J-6.0004
G2 X48.5357 Y41.7884 I-1.3983 J1.3947
G3 X46.773 Y37.5322 I4.2381 J-4.2484
G2 Y37.5273 I-1.975 J-0.0026
G3 X47.4016 Y34.8462 I6.0022 J-0.007
G0 Z3.0
G0 X68.9541 Y24.1861
G1 F50.0 Z-5.0
G3 F100.0 X68.3325 Y21.5187 I5.3754 J-2.6587
G2 Y21.5131 I-1.975 J-0.0029
G3 X70.0952 Y17.2572 I5.9992 J-0.0083
G2 X70.0989 Y17.2534 I-1.3947 J-1.3984
G3 X74.3547 Y15.4906 I4.2474 J4.2356
G2 X74.3599 I0.0027 J-1.975
G3 X78.616 Y17.2536 I0.0077 J6.0004
G2 X78.6195 Y17.2571 I1.3983 J-1.3947
G3 X80.3822 Y21.5133 I-4.2381 J4.2484
G2 Y21.5181 I1.975 J0.0026
G3 X78.6192 Y25.7744 I-6.0022 J0.007
G2 X78.6157 Y25.7779 I1.3949 J1.3982
G3 X74.36 Y27.5407 I-4.2476 J-4.2362
G2 X74.3548 I-0.0026 J1.975
G3 X70.099 Y25.7778 I-0.0077 J-6.0
G2 X70.0952 Y25.774 I-1.3983 J1.3947
G3 X68.9541 Y24.1861 I4.2344 J-4.2467
G0 Z3.0
G0 X90.6961 Y34.8785
G1 F50.0 Z-5.0
G3 F100.0 X91.8431 Y33.2782 I5.3861 J2.6488
G2 X91.8466 Y33.2746 I-1.3949 J-1.3982
G3 X96.1023 Y31.5119 I4.2476 J4.2362
G2 X96.1074 I0.0026 J-1.975
G3 X100.3633 Y33.2747 I0.0077 J6.0
G2 X100.3671 Y33.2785 I1.3983 J-1.3947
G3 X102.1298 Y37.5339 I-4.2344 J4.2467
G2 Y37.5395 I1.975 J0.0029
G3 X100.3671 Y41.7953 I-5.9992 J0.0083
G2 X100.3634 Y41.7991 I1.3947 J1.3984
G3 X96.1076 Y43.5619 I-4.2474 J-4.2356
G2 X96.1024 I-0.0027 J1.975
G3 X91.8463 Y41.799 I-0.0077 J-6.0004
G2 X91.8428 Y41.7955 I-1.3983 J1.3947
G3 X90.08 Y37.5393 I4.2381 J-4.2484
G2 Y37.5344 I-1.975 J-0.0026
G3 X90.6961 Y34.8785 I6.0022 J-0.007
G0 Z3.0
G0 X112.2627 Y24.1962
G1 F50.0 Z-5.0
G3 F100.0 X111.6396 Y21.5257 I5.3739 J-2.6618
G2 Y21.5202 I-1.975 J-0.0029
G3 X113.4023 Y17.2643 I5.9992 J-0.0083
G2 X113.406 Y17.2605 I-1.3947 J-1.3984
G3 X117.6618 Y15.4977 I4.2474 J4.2356
G2 X117.667 I0.0027 J-1.975
G3 X121.9231 Y17.2606 I0.0077 J6.0004
G2 X121.9266 Y17.2641 I1.3983 J-1.3947
G3 X123.6893 Y21.5203 I-4.2381 J4.2484
G2 Y21.5252 I1.975 J0.0026
G3 X121.9263 Y25.7814 I-6.0022 J0.007
G2 X121.9228 Y25.785 I1.3949 J1.3982
G3 X117.6671 Y27.5477 I-4.2476 J-4.2362
G2 X117.6619 I-0.0026 J1.975
G3 X113.4061 Y25.7849 I-0.0077 J-6.0
G2 X113.4023 Y25.7811 I-1.3983 J1.3947
G3 X112.2627 Y24.1962 I4.2344 J-4.2467
G0 Z3.0
M5
M30
