( Made using CamBam - http://www.cambam.co.uk )
( pick and place parts - 10mm 9/27/2012 9:56:11 AM )
( T5 : 3.0 )
G21 G90 G64 G40
G0 Z3.0
( T5 : 3.0 )
T5 M6
( Drill1 )
G17
M3 S1000
G0 X9.6006 Y14.8477
G98
G83 X9.6006 Y14.8477 Z-12.0 Q2.0 R2.0 F50.0
G83 X9.6003 Y26.109 Z-12.0
G83 Y37.5226 Z-12.0
G83 X31.1599 Y32.9224 Z-12.0
G83 X31.1595 Y44.1837 Z-12.0
G83 X52.7978 Y37.5297 Z-12.0
G83 Y26.1161 Z-12.0
G83 X52.7982 Y14.8547 Z-12.0
G83 X74.3574 Y21.5158 Z-12.0
G83 Y32.9294 Z-12.0
G83 X74.357 Y44.1908 Z-12.0
G83 X96.1049 Y37.5367 Z-12.0
G83 Y26.1231 Z-12.0
G83 X96.1052 Y14.8618 Z-12.0
G83 X117.6645 Y21.5229 Z-12.0
G83 Y32.9365 Z-12.0
G83 X117.6641 Y44.1978 Z-12.0
G83 X31.1599 Y21.5088 Z-12.0
G80
G0 Z3.0
M5
M30
