( Made using CamBam - http://www.cambam.co.uk )
( pick and place parts - 6mm 9/26/2012 2:07:50 PM )
( T5 : 3.0 )
G21 G90 G91.1 G64 G40
G0 Z5.0
( T5 : 3.0 )
T5 M6
( Drill1 )
G17
M3 S1000
G0 X6.7075 Y12.4883
G98
G83 X6.7075 Y12.4883 Z-8.0 Q2.0 R5.0 F50.0
G83 X25.8566 Z-8.0
G83 X44.8571 Z-8.0
G83 X63.8251 Z-8.0
G83 X88.8254 Y12.4773 Z-8.0
G83 X88.8255 Y39.6431 Z-8.0
G83 Y52.3437 Z-8.0
G83 Y77.4883 Z-8.0
G83 X63.8247 Y77.4885 Z-8.0
G83 X44.8567 Z-8.0
G83 X25.8561 Z-8.0
G83 X6.7071 Z-8.0
G83 X119.826 Y77.4883 Z-8.0
G83 Y52.3437 Z-8.0
G83 Y39.6431 Z-8.0
G83 Y12.4773 Z-8.0
G80
M5
M30
