( Made using CamBam - http://www.cambam.co.uk )
( pick and place parts - 10mm 9/27/2012 9:50:56 AM )
( T7 : 4.0 )
G21 G90 G64 G40
G0 Z3.0
( T7 : 4.0 )
T7 M6
( Bearing Hole )
G17
M3 S1000
G0 X9.609 Y36.3227
G1 F50.0 Z-1.0
G3 F100.0 X10.4425 Y36.668 I0.0015 J1.175
G2 X10.4557 Y36.6812 I4.8146 J-4.8021
G3 X10.8001 Y37.5128 I-0.8275 J0.8299
G2 Y37.532 I6.8 J0.0098
G3 X10.4552 Y38.365 I-1.1742 J0.0016
G2 X10.4422 Y38.378 I4.8021 J4.8146
G3 X9.6097 Y38.7228 I-0.8309 J-0.8286
G2 X9.5916 I-0.0094 J6.8
G3 X8.7579 Y38.3775 I-0.0015 J-1.1754
G2 X8.7458 Y38.3654 I-4.8145 J4.8021
G3 X8.4004 Y37.5314 I0.8305 J-0.8325
G2 Y37.5146 I-6.8 J-0.0088
G3 X8.7462 Y36.6799 I1.1772 J-0.0014
G2 X8.7583 Y36.6677 I-4.8027 J-4.814
G3 X9.5912 Y36.3227 I0.8312 J0.829
G2 X9.609 I0.0091 J-6.8
G1 F50.0 X9.607 Y34.7227
G3 F100.0 X11.5753 Y35.5381 I0.0036 J2.775
G2 X11.5854 Y35.5481 I3.6817 J-3.6722
G3 X12.4001 Y37.5151 I-1.9573 J1.963
G2 Y37.5298 I5.2 J0.0075
G3 X11.5851 Y39.4978 I-2.7742 J0.0038
G2 X11.5751 Y39.5078 I3.6722 J3.6817
G3 X9.6075 Y40.3228 I-1.9638 J-1.9584
G2 X9.5936 I-0.0072 J5.2
G3 X7.625 Y39.5074 I-0.0035 J-2.7754
G2 X7.6158 Y39.4982 I-3.6817 J3.6722
G3 X6.8004 Y37.5293 I1.9605 J-1.9652
G2 Y37.5165 I-5.2 J-0.0067
G3 X7.6162 Y35.5471 I2.7772 J-0.0033
G2 X7.6254 Y35.5379 I-3.6726 J-3.6813
G3 X9.5933 Y34.7227 I1.9641 J1.9589
G2 X9.607 I0.007 J-5.2
G1 F50.0 X9.6049 Y33.1227
G3 F100.0 X12.7081 Y34.4081 I0.0056 J4.375
G2 X12.7151 Y34.4151 I2.5489 J-2.5423
G3 X14.0001 Y37.5174 I-3.087 J3.096
G2 Y37.5276 I3.6 J0.0052
G3 X12.7149 Y40.6307 I-4.3742 J0.0061
G2 X12.7081 Y40.6375 I2.5423 J2.5489
G3 X9.6052 Y41.9228 I-3.0968 J-3.0882
G2 X9.5957 I-0.005 J3.6
G3 X6.4922 Y40.6373 I-0.0056 J-4.3754
G2 X6.4858 Y40.6309 I-2.5489 J2.5423
G3 X5.2004 Y37.5273 I3.0905 J-3.098
G2 Y37.5184 I-3.6 J-0.0047
G3 X6.4861 Y34.4144 I4.3772 J-0.0051
G2 X6.4925 Y34.408 I-2.5426 J-2.5486
G3 X9.5954 Y33.1227 I3.097 J3.0887
G2 X9.6049 I0.0048 J-3.6
G1 F50.0 X9.6029 Y31.5227
G3 F100.0 X13.841 Y33.2782 I0.0077 J5.975
G2 X13.8449 Y33.2821 I1.416 J-1.4124
G3 X15.6001 Y37.5197 I-4.2167 J4.229
G2 Y37.5254 I2.0 J0.0029
G3 X13.8448 Y41.7635 I-5.9742 J0.0083
G2 X13.841 Y41.7673 I1.4124 J1.4161
G3 X9.603 Y43.5228 I-4.2297 J-4.218
G2 X9.5977 I-0.0028 J2.0
G3 X5.3594 Y41.7672 I-0.0076 J-5.9754
G2 X5.3558 Y41.7636 I-1.416 J1.4124
G3 X3.6004 Y37.5252 I4.2205 J-4.2307
G2 Y37.5203 I-2.0 J-0.0026
G3 X5.3561 Y33.2817 I5.9772 J-0.007
G2 X5.3597 Y33.2782 I-1.4125 J-1.4159
G3 X9.5976 Y31.5227 I4.2299 J4.2185
G2 X9.6029 I0.0027 J-2.0
G0 Z3.0
G0 X9.609 Y36.3227
G1 F50.0 Z-2.0
G3 F100.0 X10.4425 Y36.668 I0.0015 J1.175
G2 X10.4557 Y36.6812 I4.8146 J-4.8021
G3 X10.8001 Y37.5128 I-0.8275 J0.8299
G2 Y37.532 I6.8 J0.0098
G3 X10.4552 Y38.365 I-1.1742 J0.0016
G2 X10.4422 Y38.378 I4.8021 J4.8146
G3 X9.6097 Y38.7228 I-0.8309 J-0.8286
G2 X9.5916 I-0.0094 J6.8
G3 X8.7579 Y38.3775 I-0.0015 J-1.1754
G2 X8.7458 Y38.3654 I-4.8145 J4.8021
G3 X8.4004 Y37.5314 I0.8305 J-0.8325
G2 Y37.5146 I-6.8 J-0.0088
G3 X8.7462 Y36.6799 I1.1772 J-0.0014
G2 X8.7583 Y36.6677 I-4.8027 J-4.814
G3 X9.5912 Y36.3227 I0.8312 J0.829
G2 X9.609 I0.0091 J-6.8
G1 F50.0 X9.607 Y34.7227
G3 F100.0 X11.5753 Y35.5381 I0.0036 J2.775
G2 X11.5854 Y35.5481 I3.6817 J-3.6722
G3 X12.4001 Y37.5151 I-1.9573 J1.963
G2 Y37.5298 I5.2 J0.0075
G3 X11.5851 Y39.4978 I-2.7742 J0.0038
G2 X11.5751 Y39.5078 I3.6722 J3.6817
G3 X9.6075 Y40.3228 I-1.9638 J-1.9584
G2 X9.5936 I-0.0072 J5.2
G3 X7.625 Y39.5074 I-0.0035 J-2.7754
G2 X7.6158 Y39.4982 I-3.6817 J3.6722
G3 X6.8004 Y37.5293 I1.9605 J-1.9652
G2 Y37.5165 I-5.2 J-0.0067
G3 X7.6162 Y35.5471 I2.7772 J-0.0033
G2 X7.6254 Y35.5379 I-3.6726 J-3.6813
G3 X9.5933 Y34.7227 I1.9641 J1.9589
G2 X9.607 I0.007 J-5.2
G1 F50.0 X9.6049 Y33.1227
G3 F100.0 X12.7081 Y34.4081 I0.0056 J4.375
G2 X12.7151 Y34.4151 I2.5489 J-2.5423
G3 X14.0001 Y37.5174 I-3.087 J3.096
G2 Y37.5276 I3.6 J0.0052
G3 X12.7149 Y40.6307 I-4.3742 J0.0061
G2 X12.7081 Y40.6375 I2.5423 J2.5489
G3 X9.6052 Y41.9228 I-3.0968 J-3.0882
G2 X9.5957 I-0.005 J3.6
G3 X6.4922 Y40.6373 I-0.0056 J-4.3754
G2 X6.4858 Y40.6309 I-2.5489 J2.5423
G3 X5.2004 Y37.5273 I3.0905 J-3.098
G2 Y37.5184 I-3.6 J-0.0047
G3 X6.4861 Y34.4144 I4.3772 J-0.0051
G2 X6.4925 Y34.408 I-2.5426 J-2.5486
G3 X9.5954 Y33.1227 I3.097 J3.0887
G2 X9.6049 I0.0048 J-3.6
G1 F50.0 X9.6029 Y31.5227
G3 F100.0 X13.841 Y33.2782 I0.0077 J5.975
G2 X13.8449 Y33.2821 I1.416 J-1.4124
G3 X15.6001 Y37.5197 I-4.2167 J4.229
G2 Y37.5254 I2.0 J0.0029
G3 X13.8448 Y41.7635 I-5.9742 J0.0083
G2 X13.841 Y41.7673 I1.4124 J1.4161
G3 X9.603 Y43.5228 I-4.2297 J-4.218
G2 X9.5977 I-0.0028 J2.0
G3 X5.3594 Y41.7672 I-0.0076 J-5.9754
G2 X5.3558 Y41.7636 I-1.416 J1.4124
G3 X3.6004 Y37.5252 I4.2205 J-4.2307
G2 Y37.5203 I-2.0 J-0.0026
G3 X5.3561 Y33.2817 I5.9772 J-0.007
G2 X5.3597 Y33.2782 I-1.4125 J-1.4159
G3 X9.5976 Y31.5227 I4.2299 J4.2185
G2 X9.6029 I0.0027 J-2.0
G0 Z3.0
G0 X9.609 Y36.3227
G1 F50.0 Z-3.0
G3 F100.0 X10.4425 Y36.668 I0.0015 J1.175
G2 X10.4557 Y36.6812 I4.8146 J-4.8021
G3 X10.8001 Y37.5128 I-0.8275 J0.8299
G2 Y37.532 I6.8 J0.0098
G3 X10.4552 Y38.365 I-1.1742 J0.0016
G2 X10.4422 Y38.378 I4.8021 J4.8146
G3 X9.6097 Y38.7228 I-0.8309 J-0.8286
G2 X9.5916 I-0.0094 J6.8
G3 X8.7579 Y38.3775 I-0.0015 J-1.1754
G2 X8.7458 Y38.3654 I-4.8145 J4.8021
G3 X8.4004 Y37.5314 I0.8305 J-0.8325
G2 Y37.5146 I-6.8 J-0.0088
G3 X8.7462 Y36.6799 I1.1772 J-0.0014
G2 X8.7583 Y36.6677 I-4.8027 J-4.814
G3 X9.5912 Y36.3227 I0.8312 J0.829
G2 X9.609 I0.0091 J-6.8
G1 F50.0 X9.607 Y34.7227
G3 F100.0 X11.5753 Y35.5381 I0.0036 J2.775
G2 X11.5854 Y35.5481 I3.6817 J-3.6722
G3 X12.4001 Y37.5151 I-1.9573 J1.963
G2 Y37.5298 I5.2 J0.0075
G3 X11.5851 Y39.4978 I-2.7742 J0.0038
G2 X11.5751 Y39.5078 I3.6722 J3.6817
G3 X9.6075 Y40.3228 I-1.9638 J-1.9584
G2 X9.5936 I-0.0072 J5.2
G3 X7.625 Y39.5074 I-0.0035 J-2.7754
G2 X7.6158 Y39.4982 I-3.6817 J3.6722
G3 X6.8004 Y37.5293 I1.9605 J-1.9652
G2 Y37.5165 I-5.2 J-0.0067
G3 X7.6162 Y35.5471 I2.7772 J-0.0033
G2 X7.6254 Y35.5379 I-3.6726 J-3.6813
G3 X9.5933 Y34.7227 I1.9641 J1.9589
G2 X9.607 I0.007 J-5.2
G1 F50.0 X9.6049 Y33.1227
G3 F100.0 X12.7081 Y34.4081 I0.0056 J4.375
G2 X12.7151 Y34.4151 I2.5489 J-2.5423
G3 X14.0001 Y37.5174 I-3.087 J3.096
G2 Y37.5276 I3.6 J0.0052
G3 X12.7149 Y40.6307 I-4.3742 J0.0061
G2 X12.7081 Y40.6375 I2.5423 J2.5489
G3 X9.6052 Y41.9228 I-3.0968 J-3.0882
G2 X9.5957 I-0.005 J3.6
G3 X6.4922 Y40.6373 I-0.0056 J-4.3754
G2 X6.4858 Y40.6309 I-2.5489 J2.5423
G3 X5.2004 Y37.5273 I3.0905 J-3.098
G2 Y37.5184 I-3.6 J-0.0047
G3 X6.4861 Y34.4144 I4.3772 J-0.0051
G2 X6.4925 Y34.408 I-2.5426 J-2.5486
G3 X9.5954 Y33.1227 I3.097 J3.0887
G2 X9.6049 I0.0048 J-3.6
G1 F50.0 X9.6029 Y31.5227
G3 F100.0 X13.841 Y33.2782 I0.0077 J5.975
G2 X13.8449 Y33.2821 I1.416 J-1.4124
G3 X15.6001 Y37.5197 I-4.2167 J4.229
G2 Y37.5254 I2.0 J0.0029
G3 X13.8448 Y41.7635 I-5.9742 J0.0083
G2 X13.841 Y41.7673 I1.4124 J1.4161
G3 X9.603 Y43.5228 I-4.2297 J-4.218
G2 X9.5977 I-0.0028 J2.0
G3 X5.3594 Y41.7672 I-0.0076 J-5.9754
G2 X5.3558 Y41.7636 I-1.416 J1.4124
G3 X3.6004 Y37.5252 I4.2205 J-4.2307
G2 Y37.5203 I-2.0 J-0.0026
G3 X5.3561 Y33.2817 I5.9772 J-0.007
G2 X5.3597 Y33.2782 I-1.4125 J-1.4159
G3 X9.5976 Y31.5227 I4.2299 J4.2185
G2 X9.6029 I0.0027 J-2.0
G0 Z3.0
G0 X9.609 Y36.3227
G1 F50.0 Z-4.0
G3 F100.0 X10.4425 Y36.668 I0.0015 J1.175
G2 X10.4557 Y36.6812 I4.8146 J-4.8021
G3 X10.8001 Y37.5128 I-0.8275 J0.8299
G2 Y37.532 I6.8 J0.0098
G3 X10.4552 Y38.365 I-1.1742 J0.0016
G2 X10.4422 Y38.378 I4.8021 J4.8146
G3 X9.6097 Y38.7228 I-0.8309 J-0.8286
G2 X9.5916 I-0.0094 J6.8
G3 X8.7579 Y38.3775 I-0.0015 J-1.1754
G2 X8.7458 Y38.3654 I-4.8145 J4.8021
G3 X8.4004 Y37.5314 I0.8305 J-0.8325
G2 Y37.5146 I-6.8 J-0.0088
G3 X8.7462 Y36.6799 I1.1772 J-0.0014
G2 X8.7583 Y36.6677 I-4.8027 J-4.814
G3 X9.5912 Y36.3227 I0.8312 J0.829
G2 X9.609 I0.0091 J-6.8
G1 F50.0 X9.607 Y34.7227
G3 F100.0 X11.5753 Y35.5381 I0.0036 J2.775
G2 X11.5854 Y35.5481 I3.6817 J-3.6722
G3 X12.4001 Y37.5151 I-1.9573 J1.963
G2 Y37.5298 I5.2 J0.0075
G3 X11.5851 Y39.4978 I-2.7742 J0.0038
G2 X11.5751 Y39.5078 I3.6722 J3.6817
G3 X9.6075 Y40.3228 I-1.9638 J-1.9584
G2 X9.5936 I-0.0072 J5.2
G3 X7.625 Y39.5074 I-0.0035 J-2.7754
G2 X7.6158 Y39.4982 I-3.6817 J3.6722
G3 X6.8004 Y37.5293 I1.9605 J-1.9652
G2 Y37.5165 I-5.2 J-0.0067
G3 X7.6162 Y35.5471 I2.7772 J-0.0033
G2 X7.6254 Y35.5379 I-3.6726 J-3.6813
G3 X9.5933 Y34.7227 I1.9641 J1.9589
G2 X9.607 I0.007 J-5.2
G1 F50.0 X9.6049 Y33.1227
G3 F100.0 X12.7081 Y34.4081 I0.0056 J4.375
G2 X12.7151 Y34.4151 I2.5489 J-2.5423
G3 X14.0001 Y37.5174 I-3.087 J3.096
G2 Y37.5276 I3.6 J0.0052
G3 X12.7149 Y40.6307 I-4.3742 J0.0061
G2 X12.7081 Y40.6375 I2.5423 J2.5489
G3 X9.6052 Y41.9228 I-3.0968 J-3.0882
G2 X9.5957 I-0.005 J3.6
G3 X6.4922 Y40.6373 I-0.0056 J-4.3754
G2 X6.4858 Y40.6309 I-2.5489 J2.5423
G3 X5.2004 Y37.5273 I3.0905 J-3.098
G2 Y37.5184 I-3.6 J-0.0047
G3 X6.4861 Y34.4144 I4.3772 J-0.0051
G2 X6.4925 Y34.408 I-2.5426 J-2.5486
G3 X9.5954 Y33.1227 I3.097 J3.0887
G2 X9.6049 I0.0048 J-3.6
G1 F50.0 X9.6029 Y31.5227
G3 F100.0 X13.841 Y33.2782 I0.0077 J5.975
G2 X13.8449 Y33.2821 I1.416 J-1.4124
G3 X15.6001 Y37.5197 I-4.2167 J4.229
G2 Y37.5254 I2.0 J0.0029
G3 X13.8448 Y41.7635 I-5.9742 J0.0083
G2 X13.841 Y41.7673 I1.4124 J1.4161
G3 X9.603 Y43.5228 I-4.2297 J-4.218
G2 X9.5977 I-0.0028 J2.0
G3 X5.3594 Y41.7672 I-0.0076 J-5.9754
G2 X5.3558 Y41.7636 I-1.416 J1.4124
G3 X3.6004 Y37.5252 I4.2205 J-4.2307
G2 Y37.5203 I-2.0 J-0.0026
G3 X5.3561 Y33.2817 I5.9772 J-0.007
G2 X5.3597 Y33.2782 I-1.4125 J-1.4159
G3 X9.5976 Y31.5227 I4.2299 J4.2185
G2 X9.6029 I0.0027 J-2.0
G0 Z3.0
G0 X9.609 Y36.3227
G1 F50.0 Z-5.0
G3 F100.0 X10.4425 Y36.668 I0.0015 J1.175
G2 X10.4557 Y36.6812 I4.8146 J-4.8021
G3 X10.8001 Y37.5128 I-0.8275 J0.8299
G2 Y37.532 I6.8 J0.0098
G3 X10.4552 Y38.365 I-1.1742 J0.0016
G2 X10.4422 Y38.378 I4.8021 J4.8146
G3 X9.6097 Y38.7228 I-0.8309 J-0.8286
G2 X9.5916 I-0.0094 J6.8
G3 X8.7579 Y38.3775 I-0.0015 J-1.1754
G2 X8.7458 Y38.3654 I-4.8145 J4.8021
G3 X8.4004 Y37.5314 I0.8305 J-0.8325
G2 Y37.5146 I-6.8 J-0.0088
G3 X8.7462 Y36.6799 I1.1772 J-0.0014
G2 X8.7583 Y36.6677 I-4.8027 J-4.814
G3 X9.5912 Y36.3227 I0.8312 J0.829
G2 X9.609 I0.0091 J-6.8
G1 F50.0 X9.607 Y34.7227
G3 F100.0 X11.5753 Y35.5381 I0.0036 J2.775
G2 X11.5854 Y35.5481 I3.6817 J-3.6722
G3 X12.4001 Y37.5151 I-1.9573 J1.963
G2 Y37.5298 I5.2 J0.0075
G3 X11.5851 Y39.4978 I-2.7742 J0.0038
G2 X11.5751 Y39.5078 I3.6722 J3.6817
G3 X9.6075 Y40.3228 I-1.9638 J-1.9584
G2 X9.5936 I-0.0072 J5.2
G3 X7.625 Y39.5074 I-0.0035 J-2.7754
G2 X7.6158 Y39.4982 I-3.6817 J3.6722
G3 X6.8004 Y37.5293 I1.9605 J-1.9652
G2 Y37.5165 I-5.2 J-0.0067
G3 X7.6162 Y35.5471 I2.7772 J-0.0033
G2 X7.6254 Y35.5379 I-3.6726 J-3.6813
G3 X9.5933 Y34.7227 I1.9641 J1.9589
G2 X9.607 I0.007 J-5.2
G1 F50.0 X9.6049 Y33.1227
G3 F100.0 X12.7081 Y34.4081 I0.0056 J4.375
G2 X12.7151 Y34.4151 I2.5489 J-2.5423
G3 X14.0001 Y37.5174 I-3.087 J3.096
G2 Y37.5276 I3.6 J0.0052
G3 X12.7149 Y40.6307 I-4.3742 J0.0061
G2 X12.7081 Y40.6375 I2.5423 J2.5489
G3 X9.6052 Y41.9228 I-3.0968 J-3.0882
G2 X9.5957 I-0.005 J3.6
G3 X6.4922 Y40.6373 I-0.0056 J-4.3754
G2 X6.4858 Y40.6309 I-2.5489 J2.5423
G3 X5.2004 Y37.5273 I3.0905 J-3.098
G2 Y37.5184 I-3.6 J-0.0047
G3 X6.4861 Y34.4144 I4.3772 J-0.0051
G2 X6.4925 Y34.408 I-2.5426 J-2.5486
G3 X9.5954 Y33.1227 I3.097 J3.0887
G2 X9.6049 I0.0048 J-3.6
G1 F50.0 X9.6029 Y31.5227
G3 F100.0 X13.841 Y33.2782 I0.0077 J5.975
G2 X13.8449 Y33.2821 I1.416 J-1.4124
G3 X15.6001 Y37.5197 I-4.2167 J4.229
G2 Y37.5254 I2.0 J0.0029
G3 X13.8448 Y41.7635 I-5.9742 J0.0083
G2 X13.841 Y41.7673 I1.4124 J1.4161
G3 X9.603 Y43.5228 I-4.2297 J-4.218
G2 X9.5977 I-0.0028 J2.0
G3 X5.3594 Y41.7672 I-0.0076 J-5.9754
G2 X5.3558 Y41.7636 I-1.416 J1.4124
G3 X3.6004 Y37.5252 I4.2205 J-4.2307
G2 Y37.5203 I-2.0 J-0.0026
G3 X5.3561 Y33.2817 I5.9772 J-0.007
G2 X5.3597 Y33.2782 I-1.4125 J-1.4159
G3 X9.5976 Y31.5227 I4.2299 J4.2185
G2 X9.6029 I0.0027 J-2.0
G0 Z3.0
G0 X30.0691 Y22.0141
G1 F50.0 Z-1.0
G3 F100.0 X29.96 Y21.5186 I1.0629 J-0.4938
G2 Y21.4993 I-6.8 J-0.0098
G3 X30.305 Y20.6664 I1.1742 J-0.0016
G2 X30.3179 Y20.6534 I-4.8021 J-4.8146
G3 X31.1505 Y20.3086 I0.8309 J0.8286
G2 X31.1686 I0.0094 J-6.8
G3 X32.0022 Y20.6539 I0.0015 J1.1754
G2 X32.0143 Y20.6659 I4.8145 J-4.8021
G3 X32.3597 Y21.5 I-0.8305 J0.8325
G2 Y21.5167 I6.8 J0.0088
G3 X32.0139 Y22.3515 I-1.1772 J0.0014
G2 X32.0018 Y22.3637 I4.8027 J4.814
G3 X31.169 Y22.7086 I-0.8312 J-0.829
G2 X31.1511 I-0.0091 J6.8
G3 X30.3177 Y22.3634 I-0.0015 J-1.175
G2 X30.3045 Y22.3502 I-4.8146 J4.8021
G3 X30.0691 Y22.0141 I0.8275 J-0.8299
G1 F50.0 X28.6181 Y22.6883
G3 F100.0 X28.36 Y21.5163 I2.5139 J-1.168
G2 Y21.5016 I-5.2 J-0.0075
G3 X29.1751 Y19.5335 I2.7742 J-0.0038
G2 X29.185 Y19.5236 I-3.6722 J-3.6817
G3 X31.1527 Y18.7086 I1.9638 J1.9584
G2 X31.1665 I0.0072 J-5.2
G3 X33.1351 Y19.524 I0.0035 J2.7754
G2 X33.1443 Y19.5332 I3.6817 J-3.6722
G3 X33.9597 Y21.502 I-1.9605 J1.9652
G2 Y21.5149 I5.2 J0.0067
G3 X33.144 Y23.4842 I-2.7772 J0.0033
G2 X33.1347 Y23.4935 I3.6726 J3.6813
G3 X31.1668 Y24.3086 I-1.9641 J-1.9589
G2 X31.1531 I-0.007 J5.2
G3 X29.1848 Y23.4933 I-0.0036 J-2.775
G2 X29.1747 Y23.4832 I-3.6817 J3.6722
G3 X28.6181 Y22.6883 I1.9573 J-1.963
G1 F50.0 X27.167 Y23.3624
G3 F100.0 X26.76 Y21.514 I3.965 J-1.8421
G2 Y21.5038 I-3.6 J-0.0052
G3 X28.0452 Y18.4007 I4.3742 J-0.0061
G2 X28.0521 Y18.3938 I-2.5423 J-2.5489
G3 X31.1549 Y17.1086 I3.0968 J3.0882
G2 X31.1645 I0.005 J-3.6
G3 X34.2679 Y18.3941 I0.0056 J4.3754
G2 X34.2743 Y18.4005 I2.5489 J-2.5423
G3 X35.5597 Y21.5041 I-3.0905 J3.098
G2 Y21.513 I3.6 J0.0047
G3 X34.274 Y24.6169 I-4.3772 J0.0051
G2 X34.2676 Y24.6234 I2.5426 J2.5486
G3 X31.1647 Y25.9086 I-3.097 J-3.0887
G2 X31.1552 I-0.0048 J3.6
G3 X28.052 Y24.6232 I-0.0056 J-4.375
G2 X28.045 Y24.6162 I-2.5489 J2.5423
G3 X27.167 Y23.3624 I3.087 J-3.096
G1 F50.0 X25.716 Y24.0366
G3 F100.0 X25.16 Y21.5117 I5.416 J-2.5163
G2 Y21.506 I-2.0 J-0.0029
G3 X26.9153 Y17.2678 I5.9742 J-0.0083
G2 X26.9191 Y17.264 I-1.4124 J-1.4161
G3 X31.1571 Y15.5086 I4.2297 J4.218
G2 X31.1624 I0.0028 J-2.0
G3 X35.4007 Y17.2642 I0.0076 J5.9754
G2 X35.4043 Y17.2677 I1.416 J-1.4124
G3 X37.1597 Y21.5062 I-4.2205 J4.2307
G2 Y21.5111 I2.0 J0.0026
G3 X35.404 Y25.7496 I-5.9772 J0.007
G2 X35.4005 Y25.7532 I1.4125 J1.4159
G3 X31.1625 Y27.5086 I-4.2299 J-4.2185
G2 X31.1573 I-0.0027 J2.0
G3 X26.9192 Y25.7531 I-0.0077 J-5.975
G2 X26.9153 Y25.7492 I-1.416 J1.4124
G3 X25.716 Y24.0366 I4.2167 J-4.229
G0 Z3.0
G0 X30.0691 Y22.0141
G1 F50.0 Z-2.0
G3 F100.0 X29.96 Y21.5186 I1.0629 J-0.4938
G2 Y21.4993 I-6.8 J-0.0098
G3 X30.305 Y20.6664 I1.1742 J-0.0016
G2 X30.3179 Y20.6534 I-4.8021 J-4.8146
G3 X31.1505 Y20.3086 I0.8309 J0.8286
G2 X31.1686 I0.0094 J-6.8
G3 X32.0022 Y20.6539 I0.0015 J1.1754
G2 X32.0143 Y20.6659 I4.8145 J-4.8021
G3 X32.3597 Y21.5 I-0.8305 J0.8325
G2 Y21.5167 I6.8 J0.0088
G3 X32.0139 Y22.3515 I-1.1772 J0.0014
G2 X32.0018 Y22.3637 I4.8027 J4.814
G3 X31.169 Y22.7086 I-0.8312 J-0.829
G2 X31.1511 I-0.0091 J6.8
G3 X30.3177 Y22.3634 I-0.0015 J-1.175
G2 X30.3045 Y22.3502 I-4.8146 J4.8021
G3 X30.0691 Y22.0141 I0.8275 J-0.8299
G1 F50.0 X28.6181 Y22.6883
G3 F100.0 X28.36 Y21.5163 I2.5139 J-1.168
G2 Y21.5016 I-5.2 J-0.0075
G3 X29.1751 Y19.5335 I2.7742 J-0.0038
G2 X29.185 Y19.5236 I-3.6722 J-3.6817
G3 X31.1527 Y18.7086 I1.9638 J1.9584
G2 X31.1665 I0.0072 J-5.2
G3 X33.1351 Y19.524 I0.0035 J2.7754
G2 X33.1443 Y19.5332 I3.6817 J-3.6722
G3 X33.9597 Y21.502 I-1.9605 J1.9652
G2 Y21.5149 I5.2 J0.0067
G3 X33.144 Y23.4842 I-2.7772 J0.0033
G2 X33.1347 Y23.4935 I3.6726 J3.6813
G3 X31.1668 Y24.3086 I-1.9641 J-1.9589
G2 X31.1531 I-0.007 J5.2
G3 X29.1848 Y23.4933 I-0.0036 J-2.775
G2 X29.1747 Y23.4832 I-3.6817 J3.6722
G3 X28.6181 Y22.6883 I1.9573 J-1.963
G1 F50.0 X27.167 Y23.3624
G3 F100.0 X26.76 Y21.514 I3.965 J-1.8421
G2 Y21.5038 I-3.6 J-0.0052
G3 X28.0452 Y18.4007 I4.3742 J-0.0061
G2 X28.0521 Y18.3938 I-2.5423 J-2.5489
G3 X31.1549 Y17.1086 I3.0968 J3.0882
G2 X31.1645 I0.005 J-3.6
G3 X34.2679 Y18.3941 I0.0056 J4.3754
G2 X34.2743 Y18.4005 I2.5489 J-2.5423
G3 X35.5597 Y21.5041 I-3.0905 J3.098
G2 Y21.513 I3.6 J0.0047
G3 X34.274 Y24.6169 I-4.3772 J0.0051
G2 X34.2676 Y24.6234 I2.5426 J2.5486
G3 X31.1647 Y25.9086 I-3.097 J-3.0887
G2 X31.1552 I-0.0048 J3.6
G3 X28.052 Y24.6232 I-0.0056 J-4.375
G2 X28.045 Y24.6162 I-2.5489 J2.5423
G3 X27.167 Y23.3624 I3.087 J-3.096
G1 F50.0 X25.716 Y24.0366
G3 F100.0 X25.16 Y21.5117 I5.416 J-2.5163
G2 Y21.506 I-2.0 J-0.0029
G3 X26.9153 Y17.2678 I5.9742 J-0.0083
G2 X26.9191 Y17.264 I-1.4124 J-1.4161
G3 X31.1571 Y15.5086 I4.2297 J4.218
G2 X31.1624 I0.0028 J-2.0
G3 X35.4007 Y17.2642 I0.0076 J5.9754
G2 X35.4043 Y17.2677 I1.416 J-1.4124
G3 X37.1597 Y21.5062 I-4.2205 J4.2307
G2 Y21.5111 I2.0 J0.0026
G3 X35.404 Y25.7496 I-5.9772 J0.007
G2 X35.4005 Y25.7532 I1.4125 J1.4159
G3 X31.1625 Y27.5086 I-4.2299 J-4.2185
G2 X31.1573 I-0.0027 J2.0
G3 X26.9192 Y25.7531 I-0.0077 J-5.975
G2 X26.9153 Y25.7492 I-1.416 J1.4124
G3 X25.716 Y24.0366 I4.2167 J-4.229
G0 Z3.0
G0 X30.0691 Y22.0141
G1 F50.0 Z-3.0
G3 F100.0 X29.96 Y21.5186 I1.0629 J-0.4938
G2 Y21.4993 I-6.8 J-0.0098
G3 X30.305 Y20.6664 I1.1742 J-0.0016
G2 X30.3179 Y20.6534 I-4.8021 J-4.8146
G3 X31.1505 Y20.3086 I0.8309 J0.8286
G2 X31.1686 I0.0094 J-6.8
G3 X32.0022 Y20.6539 I0.0015 J1.1754
G2 X32.0143 Y20.6659 I4.8145 J-4.8021
G3 X32.3597 Y21.5 I-0.8305 J0.8325
G2 Y21.5167 I6.8 J0.0088
G3 X32.0139 Y22.3515 I-1.1772 J0.0014
G2 X32.0018 Y22.3637 I4.8027 J4.814
G3 X31.169 Y22.7086 I-0.8312 J-0.829
G2 X31.1511 I-0.0091 J6.8
G3 X30.3177 Y22.3634 I-0.0015 J-1.175
G2 X30.3045 Y22.3502 I-4.8146 J4.8021
G3 X30.0691 Y22.0141 I0.8275 J-0.8299
G1 F50.0 X28.6181 Y22.6883
G3 F100.0 X28.36 Y21.5163 I2.5139 J-1.168
G2 Y21.5016 I-5.2 J-0.0075
G3 X29.1751 Y19.5335 I2.7742 J-0.0038
G2 X29.185 Y19.5236 I-3.6722 J-3.6817
G3 X31.1527 Y18.7086 I1.9638 J1.9584
G2 X31.1665 I0.0072 J-5.2
G3 X33.1351 Y19.524 I0.0035 J2.7754
G2 X33.1443 Y19.5332 I3.6817 J-3.6722
G3 X33.9597 Y21.502 I-1.9605 J1.9652
G2 Y21.5149 I5.2 J0.0067
G3 X33.144 Y23.4842 I-2.7772 J0.0033
G2 X33.1347 Y23.4935 I3.6726 J3.6813
G3 X31.1668 Y24.3086 I-1.9641 J-1.9589
G2 X31.1531 I-0.007 J5.2
G3 X29.1848 Y23.4933 I-0.0036 J-2.775
G2 X29.1747 Y23.4832 I-3.6817 J3.6722
G3 X28.6181 Y22.6883 I1.9573 J-1.963
G1 F50.0 X27.167 Y23.3624
G3 F100.0 X26.76 Y21.514 I3.965 J-1.8421
G2 Y21.5038 I-3.6 J-0.0052
G3 X28.0452 Y18.4007 I4.3742 J-0.0061
G2 X28.0521 Y18.3938 I-2.5423 J-2.5489
G3 X31.1549 Y17.1086 I3.0968 J3.0882
G2 X31.1645 I0.005 J-3.6
G3 X34.2679 Y18.3941 I0.0056 J4.3754
G2 X34.2743 Y18.4005 I2.5489 J-2.5423
G3 X35.5597 Y21.5041 I-3.0905 J3.098
G2 Y21.513 I3.6 J0.0047
G3 X34.274 Y24.6169 I-4.3772 J0.0051
G2 X34.2676 Y24.6234 I2.5426 J2.5486
G3 X31.1647 Y25.9086 I-3.097 J-3.0887
G2 X31.1552 I-0.0048 J3.6
G3 X28.052 Y24.6232 I-0.0056 J-4.375
G2 X28.045 Y24.6162 I-2.5489 J2.5423
G3 X27.167 Y23.3624 I3.087 J-3.096
G1 F50.0 X25.716 Y24.0366
G3 F100.0 X25.16 Y21.5117 I5.416 J-2.5163
G2 Y21.506 I-2.0 J-0.0029
G3 X26.9153 Y17.2678 I5.9742 J-0.0083
G2 X26.9191 Y17.264 I-1.4124 J-1.4161
G3 X31.1571 Y15.5086 I4.2297 J4.218
G2 X31.1624 I0.0028 J-2.0
G3 X35.4007 Y17.2642 I0.0076 J5.9754
G2 X35.4043 Y17.2677 I1.416 J-1.4124
G3 X37.1597 Y21.5062 I-4.2205 J4.2307
G2 Y21.5111 I2.0 J0.0026
G3 X35.404 Y25.7496 I-5.9772 J0.007
G2 X35.4005 Y25.7532 I1.4125 J1.4159
G3 X31.1625 Y27.5086 I-4.2299 J-4.2185
G2 X31.1573 I-0.0027 J2.0
G3 X26.9192 Y25.7531 I-0.0077 J-5.975
G2 X26.9153 Y25.7492 I-1.416 J1.4124
G3 X25.716 Y24.0366 I4.2167 J-4.229
G0 Z3.0
G0 X30.0691 Y22.0141
G1 F50.0 Z-4.0
G3 F100.0 X29.96 Y21.5186 I1.0629 J-0.4938
G2 Y21.4993 I-6.8 J-0.0098
G3 X30.305 Y20.6664 I1.1742 J-0.0016
G2 X30.3179 Y20.6534 I-4.8021 J-4.8146
G3 X31.1505 Y20.3086 I0.8309 J0.8286
G2 X31.1686 I0.0094 J-6.8
G3 X32.0022 Y20.6539 I0.0015 J1.1754
G2 X32.0143 Y20.6659 I4.8145 J-4.8021
G3 X32.3597 Y21.5 I-0.8305 J0.8325
G2 Y21.5167 I6.8 J0.0088
G3 X32.0139 Y22.3515 I-1.1772 J0.0014
G2 X32.0018 Y22.3637 I4.8027 J4.814
G3 X31.169 Y22.7086 I-0.8312 J-0.829
G2 X31.1511 I-0.0091 J6.8
G3 X30.3177 Y22.3634 I-0.0015 J-1.175
G2 X30.3045 Y22.3502 I-4.8146 J4.8021
G3 X30.0691 Y22.0141 I0.8275 J-0.8299
G1 F50.0 X28.6181 Y22.6883
G3 F100.0 X28.36 Y21.5163 I2.5139 J-1.168
G2 Y21.5016 I-5.2 J-0.0075
G3 X29.1751 Y19.5335 I2.7742 J-0.0038
G2 X29.185 Y19.5236 I-3.6722 J-3.6817
G3 X31.1527 Y18.7086 I1.9638 J1.9584
G2 X31.1665 I0.0072 J-5.2
G3 X33.1351 Y19.524 I0.0035 J2.7754
G2 X33.1443 Y19.5332 I3.6817 J-3.6722
G3 X33.9597 Y21.502 I-1.9605 J1.9652
G2 Y21.5149 I5.2 J0.0067
G3 X33.144 Y23.4842 I-2.7772 J0.0033
G2 X33.1347 Y23.4935 I3.6726 J3.6813
G3 X31.1668 Y24.3086 I-1.9641 J-1.9589
G2 X31.1531 I-0.007 J5.2
G3 X29.1848 Y23.4933 I-0.0036 J-2.775
G2 X29.1747 Y23.4832 I-3.6817 J3.6722
G3 X28.6181 Y22.6883 I1.9573 J-1.963
G1 F50.0 X27.167 Y23.3624
G3 F100.0 X26.76 Y21.514 I3.965 J-1.8421
G2 Y21.5038 I-3.6 J-0.0052
G3 X28.0452 Y18.4007 I4.3742 J-0.0061
G2 X28.0521 Y18.3938 I-2.5423 J-2.5489
G3 X31.1549 Y17.1086 I3.0968 J3.0882
G2 X31.1645 I0.005 J-3.6
G3 X34.2679 Y18.3941 I0.0056 J4.3754
G2 X34.2743 Y18.4005 I2.5489 J-2.5423
G3 X35.5597 Y21.5041 I-3.0905 J3.098
G2 Y21.513 I3.6 J0.0047
G3 X34.274 Y24.6169 I-4.3772 J0.0051
G2 X34.2676 Y24.6234 I2.5426 J2.5486
G3 X31.1647 Y25.9086 I-3.097 J-3.0887
G2 X31.1552 I-0.0048 J3.6
G3 X28.052 Y24.6232 I-0.0056 J-4.375
G2 X28.045 Y24.6162 I-2.5489 J2.5423
G3 X27.167 Y23.3624 I3.087 J-3.096
G1 F50.0 X25.716 Y24.0366
G3 F100.0 X25.16 Y21.5117 I5.416 J-2.5163
G2 Y21.506 I-2.0 J-0.0029
G3 X26.9153 Y17.2678 I5.9742 J-0.0083
G2 X26.9191 Y17.264 I-1.4124 J-1.4161
G3 X31.1571 Y15.5086 I4.2297 J4.218
G2 X31.1624 I0.0028 J-2.0
G3 X35.4007 Y17.2642 I0.0076 J5.9754
G2 X35.4043 Y17.2677 I1.416 J-1.4124
G3 X37.1597 Y21.5062 I-4.2205 J4.2307
G2 Y21.5111 I2.0 J0.0026
G3 X35.404 Y25.7496 I-5.9772 J0.007
G2 X35.4005 Y25.7532 I1.4125 J1.4159
G3 X31.1625 Y27.5086 I-4.2299 J-4.2185
G2 X31.1573 I-0.0027 J2.0
G3 X26.9192 Y25.7531 I-0.0077 J-5.975
G2 X26.9153 Y25.7492 I-1.416 J1.4124
G3 X25.716 Y24.0366 I4.2167 J-4.229
G0 Z3.0
G0 X30.0691 Y22.0141
G1 F50.0 Z-5.0
G3 F100.0 X29.96 Y21.5186 I1.0629 J-0.4938
G2 Y21.4993 I-6.8 J-0.0098
G3 X30.305 Y20.6664 I1.1742 J-0.0016
G2 X30.3179 Y20.6534 I-4.8021 J-4.8146
G3 X31.1505 Y20.3086 I0.8309 J0.8286
G2 X31.1686 I0.0094 J-6.8
G3 X32.0022 Y20.6539 I0.0015 J1.1754
G2 X32.0143 Y20.6659 I4.8145 J-4.8021
G3 X32.3597 Y21.5 I-0.8305 J0.8325
G2 Y21.5167 I6.8 J0.0088
G3 X32.0139 Y22.3515 I-1.1772 J0.0014
G2 X32.0018 Y22.3637 I4.8027 J4.814
G3 X31.169 Y22.7086 I-0.8312 J-0.829
G2 X31.1511 I-0.0091 J6.8
G3 X30.3177 Y22.3634 I-0.0015 J-1.175
G2 X30.3045 Y22.3502 I-4.8146 J4.8021
G3 X30.0691 Y22.0141 I0.8275 J-0.8299
G1 F50.0 X28.6181 Y22.6883
G3 F100.0 X28.36 Y21.5163 I2.5139 J-1.168
G2 Y21.5016 I-5.2 J-0.0075
G3 X29.1751 Y19.5335 I2.7742 J-0.0038
G2 X29.185 Y19.5236 I-3.6722 J-3.6817
G3 X31.1527 Y18.7086 I1.9638 J1.9584
G2 X31.1665 I0.0072 J-5.2
G3 X33.1351 Y19.524 I0.0035 J2.7754
G2 X33.1443 Y19.5332 I3.6817 J-3.6722
G3 X33.9597 Y21.502 I-1.9605 J1.9652
G2 Y21.5149 I5.2 J0.0067
G3 X33.144 Y23.4842 I-2.7772 J0.0033
G2 X33.1347 Y23.4935 I3.6726 J3.6813
G3 X31.1668 Y24.3086 I-1.9641 J-1.9589
G2 X31.1531 I-0.007 J5.2
G3 X29.1848 Y23.4933 I-0.0036 J-2.775
G2 X29.1747 Y23.4832 I-3.6817 J3.6722
G3 X28.6181 Y22.6883 I1.9573 J-1.963
G1 F50.0 X27.167 Y23.3624
G3 F100.0 X26.76 Y21.514 I3.965 J-1.8421
G2 Y21.5038 I-3.6 J-0.0052
G3 X28.0452 Y18.4007 I4.3742 J-0.0061
G2 X28.0521 Y18.3938 I-2.5423 J-2.5489
G3 X31.1549 Y17.1086 I3.0968 J3.0882
G2 X31.1645 I0.005 J-3.6
G3 X34.2679 Y18.3941 I0.0056 J4.3754
G2 X34.2743 Y18.4005 I2.5489 J-2.5423
G3 X35.5597 Y21.5041 I-3.0905 J3.098
G2 Y21.513 I3.6 J0.0047
G3 X34.274 Y24.6169 I-4.3772 J0.0051
G2 X34.2676 Y24.6234 I2.5426 J2.5486
G3 X31.1647 Y25.9086 I-3.097 J-3.0887
G2 X31.1552 I-0.0048 J3.6
G3 X28.052 Y24.6232 I-0.0056 J-4.375
G2 X28.045 Y24.6162 I-2.5489 J2.5423
G3 X27.167 Y23.3624 I3.087 J-3.096
G1 F50.0 X25.716 Y24.0366
G3 F100.0 X25.16 Y21.5117 I5.416 J-2.5163
G2 Y21.506 I-2.0 J-0.0029
G3 X26.9153 Y17.2678 I5.9742 J-0.0083
G2 X26.9191 Y17.264 I-1.4124 J-1.4161
G3 X31.1571 Y15.5086 I4.2297 J4.218
G2 X31.1624 I0.0028 J-2.0
G3 X35.4007 Y17.2642 I0.0076 J5.9754
G2 X35.4043 Y17.2677 I1.416 J-1.4124
G3 X37.1597 Y21.5062 I-4.2205 J4.2307
G2 Y21.5111 I2.0 J0.0026
G3 X35.404 Y25.7496 I-5.9772 J0.007
G2 X35.4005 Y25.7532 I1.4125 J1.4159
G3 X31.1625 Y27.5086 I-4.2299 J-4.2185
G2 X31.1573 I-0.0027 J2.0
G3 X26.9192 Y25.7531 I-0.0077 J-5.975
G2 X26.9153 Y25.7492 I-1.416 J1.4124
G3 X25.716 Y24.0366 I4.2167 J-4.229
G0 Z3.0
G0 X51.7215 Y36.9953
G1 F50.0 Z-1.0
G3 F100.0 X51.9437 Y36.6869 I1.0536 J0.525
G2 X51.9559 Y36.6748 I-4.8027 J-4.814
G3 X52.7887 Y36.3298 I0.8312 J0.829
G2 X52.8066 I0.0091 J-6.8
G3 X53.64 Y36.675 I0.0015 J1.175
G2 X53.6532 Y36.6882 I4.8146 J-4.8021
G3 X53.9977 Y37.5198 I-0.8275 J0.8299
G2 Y37.5391 I6.8 J0.0098
G3 X53.6527 Y38.3721 I-1.1742 J0.0016
G2 X53.6397 Y38.385 I4.8021 J4.8146
G3 X52.8072 Y38.7299 I-0.8309 J-0.8286
G2 X52.7891 I-0.0094 J6.8
G3 X51.9554 Y38.3845 I-0.0015 J-1.1754
G2 X51.9434 Y38.3725 I-4.8145 J4.8021
G3 X51.5979 Y37.5385 I0.8305 J-0.8325
G2 Y37.5217 I-6.8 J-0.0088
G3 X51.7215 Y36.9953 I1.1772 J-0.0014
G1 F50.0 X50.2895 Y36.2817
G3 F100.0 X50.8137 Y35.5542 I2.4857 J1.2386
G2 X50.823 Y35.5449 I-3.6726 J-3.6813
G3 X52.7908 Y34.7298 I1.9641 J1.9589
G2 X52.8045 I0.007 J-5.2
G3 X54.7728 Y35.5451 I0.0036 J2.775
G2 X54.7829 Y35.5552 I3.6817 J-3.6722
G3 X55.5977 Y37.5222 I-1.9573 J1.963
G2 Y37.5369 I5.2 J0.0075
G3 X54.7826 Y39.5049 I-2.7742 J0.0038
G2 X54.7727 Y39.5148 I3.6722 J3.6817
G3 X52.805 Y40.3299 I-1.9638 J-1.9584
G2 X52.7912 I-0.0072 J5.2
G3 X50.8226 Y39.5144 I-0.0035 J-2.7754
G2 X50.8134 Y39.5052 I-3.6817 J3.6722
G3 X49.998 Y37.5364 I1.9605 J-1.9652
G2 Y37.5236 I-5.2 J-0.0067
G3 X50.2895 Y36.2817 I2.7772 J-0.0033
G1 F50.0 X48.8574 Y35.5681
G3 F100.0 X49.6837 Y34.4215 I3.9178 J1.9522
G2 X49.6901 Y34.4151 I-2.5426 J-2.5486
G3 X52.793 Y33.1298 I3.097 J3.0887
G2 X52.8025 I0.0048 J-3.6
G3 X55.9057 Y34.4152 I0.0056 J4.375
G2 X55.9127 Y34.4222 I2.5489 J-2.5423
G3 X57.1977 Y37.5245 I-3.087 J3.096
G2 Y37.5347 I3.6 J0.0052
G3 X55.9125 Y40.6377 I-4.3742 J0.0061
G2 X55.9056 Y40.6446 I2.5423 J2.5489
G3 X52.8028 Y41.9299 I-3.0968 J-3.0882
G2 X52.7932 I-0.005 J3.6
G3 X49.6897 Y40.6443 I-0.0056 J-4.3754
G2 X49.6834 Y40.638 I-2.5489 J2.5423
G3 X48.398 Y37.5343 I3.0905 J-3.098
G2 Y37.5254 I-3.6 J-0.0047
G3 X48.8574 Y35.5681 I4.3772 J-0.0051
G1 F50.0 X47.4254 Y34.8545
G3 F100.0 X48.5536 Y33.2888 I5.3498 J2.6658
G2 X48.5572 Y33.2852 I-1.4125 J-1.4159
G3 X52.7951 Y31.5298 I4.2299 J4.2185
G2 X52.8004 I0.0027 J-2.0
G3 X57.0385 Y33.2853 I0.0077 J5.975
G2 X57.0424 Y33.2892 I1.416 J-1.4124
G3 X58.7977 Y37.5268 I-4.2167 J4.229
G2 Y37.5324 I2.0 J0.0029
G3 X57.0424 Y41.7706 I-5.9742 J0.0083
G2 X57.0386 Y41.7744 I1.4124 J1.4161
G3 X52.8006 Y43.5299 I-4.2297 J-4.218
G2 X52.7953 I-0.0028 J2.0
G3 X48.5569 Y41.7743 I-0.0076 J-5.9754
G2 X48.5534 Y41.7707 I-1.416 J1.4124
G3 X46.798 Y37.5323 I4.2205 J-4.2307
G2 Y37.5273 I-2.0 J-0.0026
G3 X47.4254 Y34.8545 I5.9772 J-0.007
G0 Z3.0
G0 X51.7215 Y36.9953
G1 F50.0 Z-2.0
G3 F100.0 X51.9437 Y36.6869 I1.0536 J0.525
G2 X51.9559 Y36.6748 I-4.8027 J-4.814
G3 X52.7887 Y36.3298 I0.8312 J0.829
G2 X52.8066 I0.0091 J-6.8
G3 X53.64 Y36.675 I0.0015 J1.175
G2 X53.6532 Y36.6882 I4.8146 J-4.8021
G3 X53.9977 Y37.5198 I-0.8275 J0.8299
G2 Y37.5391 I6.8 J0.0098
G3 X53.6527 Y38.3721 I-1.1742 J0.0016
G2 X53.6397 Y38.385 I4.8021 J4.8146
G3 X52.8072 Y38.7299 I-0.8309 J-0.8286
G2 X52.7891 I-0.0094 J6.8
G3 X51.9554 Y38.3845 I-0.0015 J-1.1754
G2 X51.9434 Y38.3725 I-4.8145 J4.8021
G3 X51.5979 Y37.5385 I0.8305 J-0.8325
G2 Y37.5217 I-6.8 J-0.0088
G3 X51.7215 Y36.9953 I1.1772 J-0.0014
G1 F50.0 X50.2895 Y36.2817
G3 F100.0 X50.8137 Y35.5542 I2.4857 J1.2386
G2 X50.823 Y35.5449 I-3.6726 J-3.6813
G3 X52.7908 Y34.7298 I1.9641 J1.9589
G2 X52.8045 I0.007 J-5.2
G3 X54.7728 Y35.5451 I0.0036 J2.775
G2 X54.7829 Y35.5552 I3.6817 J-3.6722
G3 X55.5977 Y37.5222 I-1.9573 J1.963
G2 Y37.5369 I5.2 J0.0075
G3 X54.7826 Y39.5049 I-2.7742 J0.0038
G2 X54.7727 Y39.5148 I3.6722 J3.6817
G3 X52.805 Y40.3299 I-1.9638 J-1.9584
G2 X52.7912 I-0.0072 J5.2
G3 X50.8226 Y39.5144 I-0.0035 J-2.7754
G2 X50.8134 Y39.5052 I-3.6817 J3.6722
G3 X49.998 Y37.5364 I1.9605 J-1.9652
G2 Y37.5236 I-5.2 J-0.0067
G3 X50.2895 Y36.2817 I2.7772 J-0.0033
G1 F50.0 X48.8574 Y35.5681
G3 F100.0 X49.6837 Y34.4215 I3.9178 J1.9522
G2 X49.6901 Y34.4151 I-2.5426 J-2.5486
G3 X52.793 Y33.1298 I3.097 J3.0887
G2 X52.8025 I0.0048 J-3.6
G3 X55.9057 Y34.4152 I0.0056 J4.375
G2 X55.9127 Y34.4222 I2.5489 J-2.5423
G3 X57.1977 Y37.5245 I-3.087 J3.096
G2 Y37.5347 I3.6 J0.0052
G3 X55.9125 Y40.6377 I-4.3742 J0.0061
G2 X55.9056 Y40.6446 I2.5423 J2.5489
G3 X52.8028 Y41.9299 I-3.0968 J-3.0882
G2 X52.7932 I-0.005 J3.6
G3 X49.6897 Y40.6443 I-0.0056 J-4.3754
G2 X49.6834 Y40.638 I-2.5489 J2.5423
G3 X48.398 Y37.5343 I3.0905 J-3.098
G2 Y37.5254 I-3.6 J-0.0047
G3 X48.8574 Y35.5681 I4.3772 J-0.0051
G1 F50.0 X47.4254 Y34.8545
G3 F100.0 X48.5536 Y33.2888 I5.3498 J2.6658
G2 X48.5572 Y33.2852 I-1.4125 J-1.4159
G3 X52.7951 Y31.5298 I4.2299 J4.2185
G2 X52.8004 I0.0027 J-2.0
G3 X57.0385 Y33.2853 I0.0077 J5.975
G2 X57.0424 Y33.2892 I1.416 J-1.4124
G3 X58.7977 Y37.5268 I-4.2167 J4.229
G2 Y37.5324 I2.0 J0.0029
G3 X57.0424 Y41.7706 I-5.9742 J0.0083
G2 X57.0386 Y41.7744 I1.4124 J1.4161
G3 X52.8006 Y43.5299 I-4.2297 J-4.218
G2 X52.7953 I-0.0028 J2.0
G3 X48.5569 Y41.7743 I-0.0076 J-5.9754
G2 X48.5534 Y41.7707 I-1.416 J1.4124
G3 X46.798 Y37.5323 I4.2205 J-4.2307
G2 Y37.5273 I-2.0 J-0.0026
G3 X47.4254 Y34.8545 I5.9772 J-0.007
G0 Z3.0
G0 X51.7215 Y36.9953
G1 F50.0 Z-3.0
G3 F100.0 X51.9437 Y36.6869 I1.0536 J0.525
G2 X51.9559 Y36.6748 I-4.8027 J-4.814
G3 X52.7887 Y36.3298 I0.8312 J0.829
G2 X52.8066 I0.0091 J-6.8
G3 X53.64 Y36.675 I0.0015 J1.175
G2 X53.6532 Y36.6882 I4.8146 J-4.8021
G3 X53.9977 Y37.5198 I-0.8275 J0.8299
G2 Y37.5391 I6.8 J0.0098
G3 X53.6527 Y38.3721 I-1.1742 J0.0016
G2 X53.6397 Y38.385 I4.8021 J4.8146
G3 X52.8072 Y38.7299 I-0.8309 J-0.8286
G2 X52.7891 I-0.0094 J6.8
G3 X51.9554 Y38.3845 I-0.0015 J-1.1754
G2 X51.9434 Y38.3725 I-4.8145 J4.8021
G3 X51.5979 Y37.5385 I0.8305 J-0.8325
G2 Y37.5217 I-6.8 J-0.0088
G3 X51.7215 Y36.9953 I1.1772 J-0.0014
G1 F50.0 X50.2895 Y36.2817
G3 F100.0 X50.8137 Y35.5542 I2.4857 J1.2386
G2 X50.823 Y35.5449 I-3.6726 J-3.6813
G3 X52.7908 Y34.7298 I1.9641 J1.9589
G2 X52.8045 I0.007 J-5.2
G3 X54.7728 Y35.5451 I0.0036 J2.775
G2 X54.7829 Y35.5552 I3.6817 J-3.6722
G3 X55.5977 Y37.5222 I-1.9573 J1.963
G2 Y37.5369 I5.2 J0.0075
G3 X54.7826 Y39.5049 I-2.7742 J0.0038
G2 X54.7727 Y39.5148 I3.6722 J3.6817
G3 X52.805 Y40.3299 I-1.9638 J-1.9584
G2 X52.7912 I-0.0072 J5.2
G3 X50.8226 Y39.5144 I-0.0035 J-2.7754
G2 X50.8134 Y39.5052 I-3.6817 J3.6722
G3 X49.998 Y37.5364 I1.9605 J-1.9652
G2 Y37.5236 I-5.2 J-0.0067
G3 X50.2895 Y36.2817 I2.7772 J-0.0033
G1 F50.0 X48.8574 Y35.5681
G3 F100.0 X49.6837 Y34.4215 I3.9178 J1.9522
G2 X49.6901 Y34.4151 I-2.5426 J-2.5486
G3 X52.793 Y33.1298 I3.097 J3.0887
G2 X52.8025 I0.0048 J-3.6
G3 X55.9057 Y34.4152 I0.0056 J4.375
G2 X55.9127 Y34.4222 I2.5489 J-2.5423
G3 X57.1977 Y37.5245 I-3.087 J3.096
G2 Y37.5347 I3.6 J0.0052
G3 X55.9125 Y40.6377 I-4.3742 J0.0061
G2 X55.9056 Y40.6446 I2.5423 J2.5489
G3 X52.8028 Y41.9299 I-3.0968 J-3.0882
G2 X52.7932 I-0.005 J3.6
G3 X49.6897 Y40.6443 I-0.0056 J-4.3754
G2 X49.6834 Y40.638 I-2.5489 J2.5423
G3 X48.398 Y37.5343 I3.0905 J-3.098
G2 Y37.5254 I-3.6 J-0.0047
G3 X48.8574 Y35.5681 I4.3772 J-0.0051
G1 F50.0 X47.4254 Y34.8545
G3 F100.0 X48.5536 Y33.2888 I5.3498 J2.6658
G2 X48.5572 Y33.2852 I-1.4125 J-1.4159
G3 X52.7951 Y31.5298 I4.2299 J4.2185
G2 X52.8004 I0.0027 J-2.0
G3 X57.0385 Y33.2853 I0.0077 J5.975
G2 X57.0424 Y33.2892 I1.416 J-1.4124
G3 X58.7977 Y37.5268 I-4.2167 J4.229
G2 Y37.5324 I2.0 J0.0029
G3 X57.0424 Y41.7706 I-5.9742 J0.0083
G2 X57.0386 Y41.7744 I1.4124 J1.4161
G3 X52.8006 Y43.5299 I-4.2297 J-4.218
G2 X52.7953 I-0.0028 J2.0
G3 X48.5569 Y41.7743 I-0.0076 J-5.9754
G2 X48.5534 Y41.7707 I-1.416 J1.4124
G3 X46.798 Y37.5323 I4.2205 J-4.2307
G2 Y37.5273 I-2.0 J-0.0026
G3 X47.4254 Y34.8545 I5.9772 J-0.007
G0 Z3.0
G0 X51.7215 Y36.9953
G1 F50.0 Z-4.0
G3 F100.0 X51.9437 Y36.6869 I1.0536 J0.525
G2 X51.9559 Y36.6748 I-4.8027 J-4.814
G3 X52.7887 Y36.3298 I0.8312 J0.829
G2 X52.8066 I0.0091 J-6.8
G3 X53.64 Y36.675 I0.0015 J1.175
G2 X53.6532 Y36.6882 I4.8146 J-4.8021
G3 X53.9977 Y37.5198 I-0.8275 J0.8299
G2 Y37.5391 I6.8 J0.0098
G3 X53.6527 Y38.3721 I-1.1742 J0.0016
G2 X53.6397 Y38.385 I4.8021 J4.8146
G3 X52.8072 Y38.7299 I-0.8309 J-0.8286
G2 X52.7891 I-0.0094 J6.8
G3 X51.9554 Y38.3845 I-0.0015 J-1.1754
G2 X51.9434 Y38.3725 I-4.8145 J4.8021
G3 X51.5979 Y37.5385 I0.8305 J-0.8325
G2 Y37.5217 I-6.8 J-0.0088
G3 X51.7215 Y36.9953 I1.1772 J-0.0014
G1 F50.0 X50.2895 Y36.2817
G3 F100.0 X50.8137 Y35.5542 I2.4857 J1.2386
G2 X50.823 Y35.5449 I-3.6726 J-3.6813
G3 X52.7908 Y34.7298 I1.9641 J1.9589
G2 X52.8045 I0.007 J-5.2
G3 X54.7728 Y35.5451 I0.0036 J2.775
G2 X54.7829 Y35.5552 I3.6817 J-3.6722
G3 X55.5977 Y37.5222 I-1.9573 J1.963
G2 Y37.5369 I5.2 J0.0075
G3 X54.7826 Y39.5049 I-2.7742 J0.0038
G2 X54.7727 Y39.5148 I3.6722 J3.6817
G3 X52.805 Y40.3299 I-1.9638 J-1.9584
G2 X52.7912 I-0.0072 J5.2
G3 X50.8226 Y39.5144 I-0.0035 J-2.7754
G2 X50.8134 Y39.5052 I-3.6817 J3.6722
G3 X49.998 Y37.5364 I1.9605 J-1.9652
G2 Y37.5236 I-5.2 J-0.0067
G3 X50.2895 Y36.2817 I2.7772 J-0.0033
G1 F50.0 X48.8574 Y35.5681
G3 F100.0 X49.6837 Y34.4215 I3.9178 J1.9522
G2 X49.6901 Y34.4151 I-2.5426 J-2.5486
G3 X52.793 Y33.1298 I3.097 J3.0887
G2 X52.8025 I0.0048 J-3.6
G3 X55.9057 Y34.4152 I0.0056 J4.375
G2 X55.9127 Y34.4222 I2.5489 J-2.5423
G3 X57.1977 Y37.5245 I-3.087 J3.096
G2 Y37.5347 I3.6 J0.0052
G3 X55.9125 Y40.6377 I-4.3742 J0.0061
G2 X55.9056 Y40.6446 I2.5423 J2.5489
G3 X52.8028 Y41.9299 I-3.0968 J-3.0882
G2 X52.7932 I-0.005 J3.6
G3 X49.6897 Y40.6443 I-0.0056 J-4.3754
G2 X49.6834 Y40.638 I-2.5489 J2.5423
G3 X48.398 Y37.5343 I3.0905 J-3.098
G2 Y37.5254 I-3.6 J-0.0047
G3 X48.8574 Y35.5681 I4.3772 J-0.0051
G1 F50.0 X47.4254 Y34.8545
G3 F100.0 X48.5536 Y33.2888 I5.3498 J2.6658
G2 X48.5572 Y33.2852 I-1.4125 J-1.4159
G3 X52.7951 Y31.5298 I4.2299 J4.2185
G2 X52.8004 I0.0027 J-2.0
G3 X57.0385 Y33.2853 I0.0077 J5.975
G2 X57.0424 Y33.2892 I1.416 J-1.4124
G3 X58.7977 Y37.5268 I-4.2167 J4.229
G2 Y37.5324 I2.0 J0.0029
G3 X57.0424 Y41.7706 I-5.9742 J0.0083
G2 X57.0386 Y41.7744 I1.4124 J1.4161
G3 X52.8006 Y43.5299 I-4.2297 J-4.218
G2 X52.7953 I-0.0028 J2.0
G3 X48.5569 Y41.7743 I-0.0076 J-5.9754
G2 X48.5534 Y41.7707 I-1.416 J1.4124
G3 X46.798 Y37.5323 I4.2205 J-4.2307
G2 Y37.5273 I-2.0 J-0.0026
G3 X47.4254 Y34.8545 I5.9772 J-0.007
G0 Z3.0
G0 X51.7215 Y36.9953
G1 F50.0 Z-5.0
G3 F100.0 X51.9437 Y36.6869 I1.0536 J0.525
G2 X51.9559 Y36.6748 I-4.8027 J-4.814
G3 X52.7887 Y36.3298 I0.8312 J0.829
G2 X52.8066 I0.0091 J-6.8
G3 X53.64 Y36.675 I0.0015 J1.175
G2 X53.6532 Y36.6882 I4.8146 J-4.8021
G3 X53.9977 Y37.5198 I-0.8275 J0.8299
G2 Y37.5391 I6.8 J0.0098
G3 X53.6527 Y38.3721 I-1.1742 J0.0016
G2 X53.6397 Y38.385 I4.8021 J4.8146
G3 X52.8072 Y38.7299 I-0.8309 J-0.8286
G2 X52.7891 I-0.0094 J6.8
G3 X51.9554 Y38.3845 I-0.0015 J-1.1754
G2 X51.9434 Y38.3725 I-4.8145 J4.8021
G3 X51.5979 Y37.5385 I0.8305 J-0.8325
G2 Y37.5217 I-6.8 J-0.0088
G3 X51.7215 Y36.9953 I1.1772 J-0.0014
G1 F50.0 X50.2895 Y36.2817
G3 F100.0 X50.8137 Y35.5542 I2.4857 J1.2386
G2 X50.823 Y35.5449 I-3.6726 J-3.6813
G3 X52.7908 Y34.7298 I1.9641 J1.9589
G2 X52.8045 I0.007 J-5.2
G3 X54.7728 Y35.5451 I0.0036 J2.775
G2 X54.7829 Y35.5552 I3.6817 J-3.6722
G3 X55.5977 Y37.5222 I-1.9573 J1.963
G2 Y37.5369 I5.2 J0.0075
G3 X54.7826 Y39.5049 I-2.7742 J0.0038
G2 X54.7727 Y39.5148 I3.6722 J3.6817
G3 X52.805 Y40.3299 I-1.9638 J-1.9584
G2 X52.7912 I-0.0072 J5.2
G3 X50.8226 Y39.5144 I-0.0035 J-2.7754
G2 X50.8134 Y39.5052 I-3.6817 J3.6722
G3 X49.998 Y37.5364 I1.9605 J-1.9652
G2 Y37.5236 I-5.2 J-0.0067
G3 X50.2895 Y36.2817 I2.7772 J-0.0033
G1 F50.0 X48.8574 Y35.5681
G3 F100.0 X49.6837 Y34.4215 I3.9178 J1.9522
G2 X49.6901 Y34.4151 I-2.5426 J-2.5486
G3 X52.793 Y33.1298 I3.097 J3.0887
G2 X52.8025 I0.0048 J-3.6
G3 X55.9057 Y34.4152 I0.0056 J4.375
G2 X55.9127 Y34.4222 I2.5489 J-2.5423
G3 X57.1977 Y37.5245 I-3.087 J3.096
G2 Y37.5347 I3.6 J0.0052
G3 X55.9125 Y40.6377 I-4.3742 J0.0061
G2 X55.9056 Y40.6446 I2.5423 J2.5489
G3 X52.8028 Y41.9299 I-3.0968 J-3.0882
G2 X52.7932 I-0.005 J3.6
G3 X49.6897 Y40.6443 I-0.0056 J-4.3754
G2 X49.6834 Y40.638 I-2.5489 J2.5423
G3 X48.398 Y37.5343 I3.0905 J-3.098
G2 Y37.5254 I-3.6 J-0.0047
G3 X48.8574 Y35.5681 I4.3772 J-0.0051
G1 F50.0 X47.4254 Y34.8545
G3 F100.0 X48.5536 Y33.2888 I5.3498 J2.6658
G2 X48.5572 Y33.2852 I-1.4125 J-1.4159
G3 X52.7951 Y31.5298 I4.2299 J4.2185
G2 X52.8004 I0.0027 J-2.0
G3 X57.0385 Y33.2853 I0.0077 J5.975
G2 X57.0424 Y33.2892 I1.416 J-1.4124
G3 X58.7977 Y37.5268 I-4.2167 J4.229
G2 Y37.5324 I2.0 J0.0029
G3 X57.0424 Y41.7706 I-5.9742 J0.0083
G2 X57.0386 Y41.7744 I1.4124 J1.4161
G3 X52.8006 Y43.5299 I-4.2297 J-4.218
G2 X52.7953 I-0.0028 J2.0
G3 X48.5569 Y41.7743 I-0.0076 J-5.9754
G2 X48.5534 Y41.7707 I-1.416 J1.4124
G3 X46.798 Y37.5323 I4.2205 J-4.2307
G2 Y37.5273 I-2.0 J-0.0026
G3 X47.4254 Y34.8545 I5.9772 J-0.007
G0 Z3.0
G0 X73.2793 Y22.0476
G1 F50.0 Z-1.0
G3 F100.0 X73.1575 Y21.5256 I1.0502 J-0.5202
G2 Y21.5064 I-6.8 J-0.0098
G3 X73.5025 Y20.6734 I1.1742 J-0.0016
G2 X73.5155 Y20.6605 I-4.8021 J-4.8146
G3 X74.348 Y20.3156 I0.8309 J0.8286
G2 X74.3661 I0.0094 J-6.8
G3 X75.1998 Y20.661 I0.0015 J1.1754
G2 X75.2118 Y20.673 I4.8145 J-4.8021
G3 X75.5573 Y21.507 I-0.8305 J0.8325
G2 Y21.5238 I6.8 J0.0088
G3 X75.2115 Y22.3586 I-1.1772 J0.0014
G2 X75.1993 Y22.3707 I4.8027 J4.814
G3 X74.3665 Y22.7157 I-0.8312 J-0.829
G2 X74.3486 I-0.0091 J6.8
G3 X73.5152 Y22.3705 I-0.0015 J-1.175
G2 X73.502 Y22.3573 I-4.8146 J4.8021
G3 X73.2793 Y22.0476 I0.8275 J-0.8299
G1 F50.0 X71.8456 Y22.7578
G3 F100.0 X71.5575 Y21.5233 I2.484 J-1.2304
G2 Y21.5086 I-5.2 J-0.0075
G3 X72.3726 Y19.5406 I2.7742 J-0.0038
G2 X72.3825 Y19.5307 I-3.6722 J-3.6817
G3 X74.3502 Y18.7156 I1.9638 J1.9584
G2 X74.364 I0.0072 J-5.2
G3 X76.3326 Y19.5311 I0.0035 J2.7754
G2 X76.3418 Y19.5403 I3.6817 J-3.6722
G3 X77.1573 Y21.5091 I-1.9605 J1.9652
G2 Y21.5219 I5.2 J0.0067
G3 X76.3415 Y23.4913 I-2.7772 J0.0033
G2 X76.3322 Y23.5006 I3.6726 J3.6813
G3 X74.3644 Y24.3157 I-1.9641 J-1.9589
G2 X74.3507 I-0.007 J5.2
G3 X72.3824 Y23.5004 I-0.0036 J-2.775
G2 X72.3723 Y23.4903 I-3.6817 J3.6722
G3 X71.8456 Y22.7578 I1.9573 J-1.963
G1 F50.0 X70.4118 Y23.468
G3 F100.0 X69.9575 Y21.521 I3.9177 J-1.9407
G2 Y21.5108 I-3.6 J-0.0052
G3 X71.2427 Y18.4078 I4.3742 J-0.0061
G2 X71.2496 Y18.4009 I-2.5423 J-2.5489
G3 X74.3524 Y17.1156 I3.0968 J3.0882
G2 X74.362 I0.005 J-3.6
G3 X77.4655 Y18.4011 I0.0056 J4.3754
G2 X77.4718 Y18.4075 I2.5489 J-2.5423
G3 X78.7572 Y21.5112 I-3.0905 J3.098
G2 Y21.52 I3.6 J0.0047
G3 X77.4715 Y24.624 I-4.3772 J0.0051
G2 X77.4651 Y24.6304 I2.5426 J2.5486
G3 X74.3622 Y25.9157 I-3.097 J-3.0887
G2 X74.3527 I-0.0048 J3.6
G3 X71.2495 Y24.6303 I-0.0056 J-4.375
G2 X71.2425 Y24.6233 I-2.5489 J2.5423
G3 X70.4118 Y23.468 I3.087 J-3.096
G1 F50.0 X68.9781 Y24.1782
G3 F100.0 X68.3575 Y21.5187 I5.3514 J-2.6509
G2 Y21.5131 I-2.0 J-0.0029
G3 X70.1128 Y17.2749 I5.9742 J-0.0083
G2 X70.1166 Y17.2711 I-1.4124 J-1.4161
G3 X74.3546 Y15.5156 I4.2297 J4.218
G2 X74.3599 I0.0028 J-2.0
G3 X78.5983 Y17.2712 I0.0076 J5.9754
G2 X78.6018 Y17.2748 I1.416 J-1.4124
G3 X80.3572 Y21.5132 I-4.2205 J4.2307
G2 Y21.5182 I2.0 J0.0026
G3 X78.6016 Y25.7567 I-5.9772 J0.007
G2 X78.598 Y25.7603 I1.4125 J1.4159
G3 X74.3601 Y27.5157 I-4.2299 J-4.2185
G2 X74.3548 I-0.0027 J2.0
G3 X70.1167 Y25.7602 I-0.0077 J-5.975
G2 X70.1128 Y25.7563 I-1.416 J1.4124
G3 X68.9781 Y24.1782 I4.2167 J-4.229
G0 Z3.0
G0 X73.2793 Y22.0476
G1 F50.0 Z-2.0
G3 F100.0 X73.1575 Y21.5256 I1.0502 J-0.5202
G2 Y21.5064 I-6.8 J-0.0098
G3 X73.5025 Y20.6734 I1.1742 J-0.0016
G2 X73.5155 Y20.6605 I-4.8021 J-4.8146
G3 X74.348 Y20.3156 I0.8309 J0.8286
G2 X74.3661 I0.0094 J-6.8
G3 X75.1998 Y20.661 I0.0015 J1.1754
G2 X75.2118 Y20.673 I4.8145 J-4.8021
G3 X75.5573 Y21.507 I-0.8305 J0.8325
G2 Y21.5238 I6.8 J0.0088
G3 X75.2115 Y22.3586 I-1.1772 J0.0014
G2 X75.1993 Y22.3707 I4.8027 J4.814
G3 X74.3665 Y22.7157 I-0.8312 J-0.829
G2 X74.3486 I-0.0091 J6.8
G3 X73.5152 Y22.3705 I-0.0015 J-1.175
G2 X73.502 Y22.3573 I-4.8146 J4.8021
G3 X73.2793 Y22.0476 I0.8275 J-0.8299
G1 F50.0 X71.8456 Y22.7578
G3 F100.0 X71.5575 Y21.5233 I2.484 J-1.2304
G2 Y21.5086 I-5.2 J-0.0075
G3 X72.3726 Y19.5406 I2.7742 J-0.0038
G2 X72.3825 Y19.5307 I-3.6722 J-3.6817
G3 X74.3502 Y18.7156 I1.9638 J1.9584
G2 X74.364 I0.0072 J-5.2
G3 X76.3326 Y19.5311 I0.0035 J2.7754
G2 X76.3418 Y19.5403 I3.6817 J-3.6722
G3 X77.1573 Y21.5091 I-1.9605 J1.9652
G2 Y21.5219 I5.2 J0.0067
G3 X76.3415 Y23.4913 I-2.7772 J0.0033
G2 X76.3322 Y23.5006 I3.6726 J3.6813
G3 X74.3644 Y24.3157 I-1.9641 J-1.9589
G2 X74.3507 I-0.007 J5.2
G3 X72.3824 Y23.5004 I-0.0036 J-2.775
G2 X72.3723 Y23.4903 I-3.6817 J3.6722
G3 X71.8456 Y22.7578 I1.9573 J-1.963
G1 F50.0 X70.4118 Y23.468
G3 F100.0 X69.9575 Y21.521 I3.9177 J-1.9407
G2 Y21.5108 I-3.6 J-0.0052
G3 X71.2427 Y18.4078 I4.3742 J-0.0061
G2 X71.2496 Y18.4009 I-2.5423 J-2.5489
G3 X74.3524 Y17.1156 I3.0968 J3.0882
G2 X74.362 I0.005 J-3.6
G3 X77.4655 Y18.4011 I0.0056 J4.3754
G2 X77.4718 Y18.4075 I2.5489 J-2.5423
G3 X78.7572 Y21.5112 I-3.0905 J3.098
G2 Y21.52 I3.6 J0.0047
G3 X77.4715 Y24.624 I-4.3772 J0.0051
G2 X77.4651 Y24.6304 I2.5426 J2.5486
G3 X74.3622 Y25.9157 I-3.097 J-3.0887
G2 X74.3527 I-0.0048 J3.6
G3 X71.2495 Y24.6303 I-0.0056 J-4.375
G2 X71.2425 Y24.6233 I-2.5489 J2.5423
G3 X70.4118 Y23.468 I3.087 J-3.096
G1 F50.0 X68.9781 Y24.1782
G3 F100.0 X68.3575 Y21.5187 I5.3514 J-2.6509
G2 Y21.5131 I-2.0 J-0.0029
G3 X70.1128 Y17.2749 I5.9742 J-0.0083
G2 X70.1166 Y17.2711 I-1.4124 J-1.4161
G3 X74.3546 Y15.5156 I4.2297 J4.218
G2 X74.3599 I0.0028 J-2.0
G3 X78.5983 Y17.2712 I0.0076 J5.9754
G2 X78.6018 Y17.2748 I1.416 J-1.4124
G3 X80.3572 Y21.5132 I-4.2205 J4.2307
G2 Y21.5182 I2.0 J0.0026
G3 X78.6016 Y25.7567 I-5.9772 J0.007
G2 X78.598 Y25.7603 I1.4125 J1.4159
G3 X74.3601 Y27.5157 I-4.2299 J-4.2185
G2 X74.3548 I-0.0027 J2.0
G3 X70.1167 Y25.7602 I-0.0077 J-5.975
G2 X70.1128 Y25.7563 I-1.416 J1.4124
G3 X68.9781 Y24.1782 I4.2167 J-4.229
G0 Z3.0
G0 X73.2793 Y22.0476
G1 F50.0 Z-3.0
G3 F100.0 X73.1575 Y21.5256 I1.0502 J-0.5202
G2 Y21.5064 I-6.8 J-0.0098
G3 X73.5025 Y20.6734 I1.1742 J-0.0016
G2 X73.5155 Y20.6605 I-4.8021 J-4.8146
G3 X74.348 Y20.3156 I0.8309 J0.8286
G2 X74.3661 I0.0094 J-6.8
G3 X75.1998 Y20.661 I0.0015 J1.1754
G2 X75.2118 Y20.673 I4.8145 J-4.8021
G3 X75.5573 Y21.507 I-0.8305 J0.8325
G2 Y21.5238 I6.8 J0.0088
G3 X75.2115 Y22.3586 I-1.1772 J0.0014
G2 X75.1993 Y22.3707 I4.8027 J4.814
G3 X74.3665 Y22.7157 I-0.8312 J-0.829
G2 X74.3486 I-0.0091 J6.8
G3 X73.5152 Y22.3705 I-0.0015 J-1.175
G2 X73.502 Y22.3573 I-4.8146 J4.8021
G3 X73.2793 Y22.0476 I0.8275 J-0.8299
G1 F50.0 X71.8456 Y22.7578
G3 F100.0 X71.5575 Y21.5233 I2.484 J-1.2304
G2 Y21.5086 I-5.2 J-0.0075
G3 X72.3726 Y19.5406 I2.7742 J-0.0038
G2 X72.3825 Y19.5307 I-3.6722 J-3.6817
G3 X74.3502 Y18.7156 I1.9638 J1.9584
G2 X74.364 I0.0072 J-5.2
G3 X76.3326 Y19.5311 I0.0035 J2.7754
G2 X76.3418 Y19.5403 I3.6817 J-3.6722
G3 X77.1573 Y21.5091 I-1.9605 J1.9652
G2 Y21.5219 I5.2 J0.0067
G3 X76.3415 Y23.4913 I-2.7772 J0.0033
G2 X76.3322 Y23.5006 I3.6726 J3.6813
G3 X74.3644 Y24.3157 I-1.9641 J-1.9589
G2 X74.3507 I-0.007 J5.2
G3 X72.3824 Y23.5004 I-0.0036 J-2.775
G2 X72.3723 Y23.4903 I-3.6817 J3.6722
G3 X71.8456 Y22.7578 I1.9573 J-1.963
G1 F50.0 X70.4118 Y23.468
G3 F100.0 X69.9575 Y21.521 I3.9177 J-1.9407
G2 Y21.5108 I-3.6 J-0.0052
G3 X71.2427 Y18.4078 I4.3742 J-0.0061
G2 X71.2496 Y18.4009 I-2.5423 J-2.5489
G3 X74.3524 Y17.1156 I3.0968 J3.0882
G2 X74.362 I0.005 J-3.6
G3 X77.4655 Y18.4011 I0.0056 J4.3754
G2 X77.4718 Y18.4075 I2.5489 J-2.5423
G3 X78.7572 Y21.5112 I-3.0905 J3.098
G2 Y21.52 I3.6 J0.0047
G3 X77.4715 Y24.624 I-4.3772 J0.0051
G2 X77.4651 Y24.6304 I2.5426 J2.5486
G3 X74.3622 Y25.9157 I-3.097 J-3.0887
G2 X74.3527 I-0.0048 J3.6
G3 X71.2495 Y24.6303 I-0.0056 J-4.375
G2 X71.2425 Y24.6233 I-2.5489 J2.5423
G3 X70.4118 Y23.468 I3.087 J-3.096
G1 F50.0 X68.9781 Y24.1782
G3 F100.0 X68.3575 Y21.5187 I5.3514 J-2.6509
G2 Y21.5131 I-2.0 J-0.0029
G3 X70.1128 Y17.2749 I5.9742 J-0.0083
G2 X70.1166 Y17.2711 I-1.4124 J-1.4161
G3 X74.3546 Y15.5156 I4.2297 J4.218
G2 X74.3599 I0.0028 J-2.0
G3 X78.5983 Y17.2712 I0.0076 J5.9754
G2 X78.6018 Y17.2748 I1.416 J-1.4124
G3 X80.3572 Y21.5132 I-4.2205 J4.2307
G2 Y21.5182 I2.0 J0.0026
G3 X78.6016 Y25.7567 I-5.9772 J0.007
G2 X78.598 Y25.7603 I1.4125 J1.4159
G3 X74.3601 Y27.5157 I-4.2299 J-4.2185
G2 X74.3548 I-0.0027 J2.0
G3 X70.1167 Y25.7602 I-0.0077 J-5.975
G2 X70.1128 Y25.7563 I-1.416 J1.4124
G3 X68.9781 Y24.1782 I4.2167 J-4.229
G0 Z3.0
G0 X73.2793 Y22.0476
G1 F50.0 Z-4.0
G3 F100.0 X73.1575 Y21.5256 I1.0502 J-0.5202
G2 Y21.5064 I-6.8 J-0.0098
G3 X73.5025 Y20.6734 I1.1742 J-0.0016
G2 X73.5155 Y20.6605 I-4.8021 J-4.8146
G3 X74.348 Y20.3156 I0.8309 J0.8286
G2 X74.3661 I0.0094 J-6.8
G3 X75.1998 Y20.661 I0.0015 J1.1754
G2 X75.2118 Y20.673 I4.8145 J-4.8021
G3 X75.5573 Y21.507 I-0.8305 J0.8325
G2 Y21.5238 I6.8 J0.0088
G3 X75.2115 Y22.3586 I-1.1772 J0.0014
G2 X75.1993 Y22.3707 I4.8027 J4.814
G3 X74.3665 Y22.7157 I-0.8312 J-0.829
G2 X74.3486 I-0.0091 J6.8
G3 X73.5152 Y22.3705 I-0.0015 J-1.175
G2 X73.502 Y22.3573 I-4.8146 J4.8021
G3 X73.2793 Y22.0476 I0.8275 J-0.8299
G1 F50.0 X71.8456 Y22.7578
G3 F100.0 X71.5575 Y21.5233 I2.484 J-1.2304
G2 Y21.5086 I-5.2 J-0.0075
G3 X72.3726 Y19.5406 I2.7742 J-0.0038
G2 X72.3825 Y19.5307 I-3.6722 J-3.6817
G3 X74.3502 Y18.7156 I1.9638 J1.9584
G2 X74.364 I0.0072 J-5.2
G3 X76.3326 Y19.5311 I0.0035 J2.7754
G2 X76.3418 Y19.5403 I3.6817 J-3.6722
G3 X77.1573 Y21.5091 I-1.9605 J1.9652
G2 Y21.5219 I5.2 J0.0067
G3 X76.3415 Y23.4913 I-2.7772 J0.0033
G2 X76.3322 Y23.5006 I3.6726 J3.6813
G3 X74.3644 Y24.3157 I-1.9641 J-1.9589
G2 X74.3507 I-0.007 J5.2
G3 X72.3824 Y23.5004 I-0.0036 J-2.775
G2 X72.3723 Y23.4903 I-3.6817 J3.6722
G3 X71.8456 Y22.7578 I1.9573 J-1.963
G1 F50.0 X70.4118 Y23.468
G3 F100.0 X69.9575 Y21.521 I3.9177 J-1.9407
G2 Y21.5108 I-3.6 J-0.0052
G3 X71.2427 Y18.4078 I4.3742 J-0.0061
G2 X71.2496 Y18.4009 I-2.5423 J-2.5489
G3 X74.3524 Y17.1156 I3.0968 J3.0882
G2 X74.362 I0.005 J-3.6
G3 X77.4655 Y18.4011 I0.0056 J4.3754
G2 X77.4718 Y18.4075 I2.5489 J-2.5423
G3 X78.7572 Y21.5112 I-3.0905 J3.098
G2 Y21.52 I3.6 J0.0047
G3 X77.4715 Y24.624 I-4.3772 J0.0051
G2 X77.4651 Y24.6304 I2.5426 J2.5486
G3 X74.3622 Y25.9157 I-3.097 J-3.0887
G2 X74.3527 I-0.0048 J3.6
G3 X71.2495 Y24.6303 I-0.0056 J-4.375
G2 X71.2425 Y24.6233 I-2.5489 J2.5423
G3 X70.4118 Y23.468 I3.087 J-3.096
G1 F50.0 X68.9781 Y24.1782
G3 F100.0 X68.3575 Y21.5187 I5.3514 J-2.6509
G2 Y21.5131 I-2.0 J-0.0029
G3 X70.1128 Y17.2749 I5.9742 J-0.0083
G2 X70.1166 Y17.2711 I-1.4124 J-1.4161
G3 X74.3546 Y15.5156 I4.2297 J4.218
G2 X74.3599 I0.0028 J-2.0
G3 X78.5983 Y17.2712 I0.0076 J5.9754
G2 X78.6018 Y17.2748 I1.416 J-1.4124
G3 X80.3572 Y21.5132 I-4.2205 J4.2307
G2 Y21.5182 I2.0 J0.0026
G3 X78.6016 Y25.7567 I-5.9772 J0.007
G2 X78.598 Y25.7603 I1.4125 J1.4159
G3 X74.3601 Y27.5157 I-4.2299 J-4.2185
G2 X74.3548 I-0.0027 J2.0
G3 X70.1167 Y25.7602 I-0.0077 J-5.975
G2 X70.1128 Y25.7563 I-1.416 J1.4124
G3 X68.9781 Y24.1782 I4.2167 J-4.229
G0 Z3.0
G0 X73.2793 Y22.0476
G1 F50.0 Z-5.0
G3 F100.0 X73.1575 Y21.5256 I1.0502 J-0.5202
G2 Y21.5064 I-6.8 J-0.0098
G3 X73.5025 Y20.6734 I1.1742 J-0.0016
G2 X73.5155 Y20.6605 I-4.8021 J-4.8146
G3 X74.348 Y20.3156 I0.8309 J0.8286
G2 X74.3661 I0.0094 J-6.8
G3 X75.1998 Y20.661 I0.0015 J1.1754
G2 X75.2118 Y20.673 I4.8145 J-4.8021
G3 X75.5573 Y21.507 I-0.8305 J0.8325
G2 Y21.5238 I6.8 J0.0088
G3 X75.2115 Y22.3586 I-1.1772 J0.0014
G2 X75.1993 Y22.3707 I4.8027 J4.814
G3 X74.3665 Y22.7157 I-0.8312 J-0.829
G2 X74.3486 I-0.0091 J6.8
G3 X73.5152 Y22.3705 I-0.0015 J-1.175
G2 X73.502 Y22.3573 I-4.8146 J4.8021
G3 X73.2793 Y22.0476 I0.8275 J-0.8299
G1 F50.0 X71.8456 Y22.7578
G3 F100.0 X71.5575 Y21.5233 I2.484 J-1.2304
G2 Y21.5086 I-5.2 J-0.0075
G3 X72.3726 Y19.5406 I2.7742 J-0.0038
G2 X72.3825 Y19.5307 I-3.6722 J-3.6817
G3 X74.3502 Y18.7156 I1.9638 J1.9584
G2 X74.364 I0.0072 J-5.2
G3 X76.3326 Y19.5311 I0.0035 J2.7754
G2 X76.3418 Y19.5403 I3.6817 J-3.6722
G3 X77.1573 Y21.5091 I-1.9605 J1.9652
G2 Y21.5219 I5.2 J0.0067
G3 X76.3415 Y23.4913 I-2.7772 J0.0033
G2 X76.3322 Y23.5006 I3.6726 J3.6813
G3 X74.3644 Y24.3157 I-1.9641 J-1.9589
G2 X74.3507 I-0.007 J5.2
G3 X72.3824 Y23.5004 I-0.0036 J-2.775
G2 X72.3723 Y23.4903 I-3.6817 J3.6722
G3 X71.8456 Y22.7578 I1.9573 J-1.963
G1 F50.0 X70.4118 Y23.468
G3 F100.0 X69.9575 Y21.521 I3.9177 J-1.9407
G2 Y21.5108 I-3.6 J-0.0052
G3 X71.2427 Y18.4078 I4.3742 J-0.0061
G2 X71.2496 Y18.4009 I-2.5423 J-2.5489
G3 X74.3524 Y17.1156 I3.0968 J3.0882
G2 X74.362 I0.005 J-3.6
G3 X77.4655 Y18.4011 I0.0056 J4.3754
G2 X77.4718 Y18.4075 I2.5489 J-2.5423
G3 X78.7572 Y21.5112 I-3.0905 J3.098
G2 Y21.52 I3.6 J0.0047
G3 X77.4715 Y24.624 I-4.3772 J0.0051
G2 X77.4651 Y24.6304 I2.5426 J2.5486
G3 X74.3622 Y25.9157 I-3.097 J-3.0887
G2 X74.3527 I-0.0048 J3.6
G3 X71.2495 Y24.6303 I-0.0056 J-4.375
G2 X71.2425 Y24.6233 I-2.5489 J2.5423
G3 X70.4118 Y23.468 I3.087 J-3.096
G1 F50.0 X68.9781 Y24.1782
G3 F100.0 X68.3575 Y21.5187 I5.3514 J-2.6509
G2 Y21.5131 I-2.0 J-0.0029
G3 X70.1128 Y17.2749 I5.9742 J-0.0083
G2 X70.1166 Y17.2711 I-1.4124 J-1.4161
G3 X74.3546 Y15.5156 I4.2297 J4.218
G2 X74.3599 I0.0028 J-2.0
G3 X78.5983 Y17.2712 I0.0076 J5.9754
G2 X78.6018 Y17.2748 I1.416 J-1.4124
G3 X80.3572 Y21.5132 I-4.2205 J4.2307
G2 Y21.5182 I2.0 J0.0026
G3 X78.6016 Y25.7567 I-5.9772 J0.007
G2 X78.598 Y25.7603 I1.4125 J1.4159
G3 X74.3601 Y27.5157 I-4.2299 J-4.2185
G2 X74.3548 I-0.0027 J2.0
G3 X70.1167 Y25.7602 I-0.0077 J-5.975
G2 X70.1128 Y25.7563 I-1.416 J1.4124
G3 X68.9781 Y24.1782 I4.2167 J-4.229
G0 Z3.0
G0 X95.0262 Y37.0072
G1 F50.0 Z-1.0
G3 F100.0 X95.2508 Y36.694 I1.0561 J0.5201
G2 X95.263 Y36.6818 I-4.8027 J-4.814
G3 X96.0958 Y36.3369 I0.8312 J0.829
G2 X96.1137 I0.0091 J-6.8
G3 X96.9471 Y36.6821 I0.0015 J1.175
G2 X96.9603 Y36.6953 I4.8146 J-4.8021
G3 X97.3048 Y37.5269 I-0.8275 J0.8299
G2 Y37.5462 I6.8 J0.0098
G3 X96.9598 Y38.3791 I-1.1742 J0.0016
G2 X96.9468 Y38.3921 I4.8021 J4.8146
G3 X96.1143 Y38.7369 I-0.8309 J-0.8286
G2 X96.0962 I-0.0094 J6.8
G3 X95.2625 Y38.3916 I-0.0015 J-1.1754
G2 X95.2505 Y38.3795 I-4.8145 J4.8021
G3 X94.905 Y37.5455 I0.8305 J-0.8325
G2 Y37.5288 I-6.8 J-0.0088
G3 X95.0262 Y37.0072 I1.1772 J-0.0014
G1 F50.0 X93.5908 Y36.3003
G3 F100.0 X94.1208 Y35.5613 I2.4914 J1.2271
G2 X94.1301 Y35.552 I-3.6726 J-3.6813
G3 X96.0979 Y34.7369 I1.9641 J1.9589
G2 X96.1116 I0.007 J-5.2
G3 X98.0799 Y35.5522 I0.0036 J2.775
G2 X98.09 Y35.5623 I3.6817 J-3.6722
G3 X98.9048 Y37.5292 I-1.9573 J1.963
G2 Y37.5439 I5.2 J0.0075
G3 X98.0897 Y39.512 I-2.7742 J0.0038
G2 X98.0798 Y39.5219 I3.6722 J3.6817
G3 X96.1121 Y40.3369 I-1.9638 J-1.9584
G2 X96.0982 I-0.0072 J5.2
G3 X94.1297 Y39.5215 I-0.0035 J-2.7754
G2 X94.1205 Y39.5123 I-3.6817 J3.6722
G3 X93.305 Y37.5435 I1.9605 J-1.9652
G2 Y37.5306 I-5.2 J-0.0067
G3 X93.5908 Y36.3003 I2.7772 J-0.0033
G1 F50.0 X92.1555 Y35.5934
G3 F100.0 X92.9907 Y34.4286 I3.9268 J1.934
G2 X92.9972 Y34.4221 I-2.5426 J-2.5486
G3 X96.1001 Y33.1369 I3.097 J3.0887
G2 X96.1095 I0.0048 J-3.6
G3 X99.2128 Y34.4223 I0.0056 J4.375
G2 X99.2197 Y34.4293 I2.5489 J-2.5423
G3 X100.5048 Y37.5315 I-3.087 J3.096
G2 Y37.5417 I3.6 J0.0052
G3 X99.2196 Y40.6448 I-4.3742 J0.0061
G2 X99.2127 Y40.6517 I2.5423 J2.5489
G3 X96.1099 Y41.9369 I-3.0968 J-3.0882
G2 X96.1003 I-0.005 J3.6
G3 X92.9968 Y40.6514 I-0.0056 J-4.3754
G2 X92.9905 Y40.645 I-2.5489 J2.5423
G3 X91.705 Y37.5414 I3.0905 J-3.098
G2 Y37.5325 I-3.6 J-0.0047
G3 X92.1555 Y35.5934 I4.3772 J-0.0051
G1 F50.0 X90.7201 Y34.8864
G3 F100.0 X91.8607 Y33.2959 I5.3621 J2.6409
G2 X91.8643 Y33.2923 I-1.4125 J-1.4159
G3 X96.1022 Y31.5369 I4.2299 J4.2185
G2 X96.1075 I0.0027 J-2.0
G3 X100.3456 Y33.2924 I0.0077 J5.975
G2 X100.3495 Y33.2962 I1.416 J-1.4124
G3 X102.1048 Y37.5338 I-4.2167 J4.229
G2 Y37.5395 I2.0 J0.0029
G3 X100.3495 Y41.7776 I-5.9742 J0.0083
G2 X100.3457 Y41.7815 I1.4124 J1.4161
G3 X96.1077 Y43.5369 I-4.2297 J-4.218
G2 X96.1023 I-0.0028 J2.0
G3 X91.864 Y41.7813 I-0.0076 J-5.9754
G2 X91.8605 Y41.7778 I-1.416 J1.4124
G3 X90.105 Y37.5393 I4.2205 J-4.2307
G2 Y37.5344 I-2.0 J-0.0026
G3 X90.7201 Y34.8864 I5.9772 J-0.007
G0 Z3.0
G0 X95.0262 Y37.0072
G1 F50.0 Z-2.0
G3 F100.0 X95.2508 Y36.694 I1.0561 J0.5201
G2 X95.263 Y36.6818 I-4.8027 J-4.814
G3 X96.0958 Y36.3369 I0.8312 J0.829
G2 X96.1137 I0.0091 J-6.8
G3 X96.9471 Y36.6821 I0.0015 J1.175
G2 X96.9603 Y36.6953 I4.8146 J-4.8021
G3 X97.3048 Y37.5269 I-0.8275 J0.8299
G2 Y37.5462 I6.8 J0.0098
G3 X96.9598 Y38.3791 I-1.1742 J0.0016
G2 X96.9468 Y38.3921 I4.8021 J4.8146
G3 X96.1143 Y38.7369 I-0.8309 J-0.8286
G2 X96.0962 I-0.0094 J6.8
G3 X95.2625 Y38.3916 I-0.0015 J-1.1754
G2 X95.2505 Y38.3795 I-4.8145 J4.8021
G3 X94.905 Y37.5455 I0.8305 J-0.8325
G2 Y37.5288 I-6.8 J-0.0088
G3 X95.0262 Y37.0072 I1.1772 J-0.0014
G1 F50.0 X93.5908 Y36.3003
G3 F100.0 X94.1208 Y35.5613 I2.4914 J1.2271
G2 X94.1301 Y35.552 I-3.6726 J-3.6813
G3 X96.0979 Y34.7369 I1.9641 J1.9589
G2 X96.1116 I0.007 J-5.2
G3 X98.0799 Y35.5522 I0.0036 J2.775
G2 X98.09 Y35.5623 I3.6817 J-3.6722
G3 X98.9048 Y37.5292 I-1.9573 J1.963
G2 Y37.5439 I5.2 J0.0075
G3 X98.0897 Y39.512 I-2.7742 J0.0038
G2 X98.0798 Y39.5219 I3.6722 J3.6817
G3 X96.1121 Y40.3369 I-1.9638 J-1.9584
G2 X96.0982 I-0.0072 J5.2
G3 X94.1297 Y39.5215 I-0.0035 J-2.7754
G2 X94.1205 Y39.5123 I-3.6817 J3.6722
G3 X93.305 Y37.5435 I1.9605 J-1.9652
G2 Y37.5306 I-5.2 J-0.0067
G3 X93.5908 Y36.3003 I2.7772 J-0.0033
G1 F50.0 X92.1555 Y35.5934
G3 F100.0 X92.9907 Y34.4286 I3.9268 J1.934
G2 X92.9972 Y34.4221 I-2.5426 J-2.5486
G3 X96.1001 Y33.1369 I3.097 J3.0887
G2 X96.1095 I0.0048 J-3.6
G3 X99.2128 Y34.4223 I0.0056 J4.375
G2 X99.2197 Y34.4293 I2.5489 J-2.5423
G3 X100.5048 Y37.5315 I-3.087 J3.096
G2 Y37.5417 I3.6 J0.0052
G3 X99.2196 Y40.6448 I-4.3742 J0.0061
G2 X99.2127 Y40.6517 I2.5423 J2.5489
G3 X96.1099 Y41.9369 I-3.0968 J-3.0882
G2 X96.1003 I-0.005 J3.6
G3 X92.9968 Y40.6514 I-0.0056 J-4.3754
G2 X92.9905 Y40.645 I-2.5489 J2.5423
G3 X91.705 Y37.5414 I3.0905 J-3.098
G2 Y37.5325 I-3.6 J-0.0047
G3 X92.1555 Y35.5934 I4.3772 J-0.0051
G1 F50.0 X90.7201 Y34.8864
G3 F100.0 X91.8607 Y33.2959 I5.3621 J2.6409
G2 X91.8643 Y33.2923 I-1.4125 J-1.4159
G3 X96.1022 Y31.5369 I4.2299 J4.2185
G2 X96.1075 I0.0027 J-2.0
G3 X100.3456 Y33.2924 I0.0077 J5.975
G2 X100.3495 Y33.2962 I1.416 J-1.4124
G3 X102.1048 Y37.5338 I-4.2167 J4.229
G2 Y37.5395 I2.0 J0.0029
G3 X100.3495 Y41.7776 I-5.9742 J0.0083
G2 X100.3457 Y41.7815 I1.4124 J1.4161
G3 X96.1077 Y43.5369 I-4.2297 J-4.218
G2 X96.1023 I-0.0028 J2.0
G3 X91.864 Y41.7813 I-0.0076 J-5.9754
G2 X91.8605 Y41.7778 I-1.416 J1.4124
G3 X90.105 Y37.5393 I4.2205 J-4.2307
G2 Y37.5344 I-2.0 J-0.0026
G3 X90.7201 Y34.8864 I5.9772 J-0.007
G0 Z3.0
G0 X95.0262 Y37.0072
G1 F50.0 Z-3.0
G3 F100.0 X95.2508 Y36.694 I1.0561 J0.5201
G2 X95.263 Y36.6818 I-4.8027 J-4.814
G3 X96.0958 Y36.3369 I0.8312 J0.829
G2 X96.1137 I0.0091 J-6.8
G3 X96.9471 Y36.6821 I0.0015 J1.175
G2 X96.9603 Y36.6953 I4.8146 J-4.8021
G3 X97.3048 Y37.5269 I-0.8275 J0.8299
G2 Y37.5462 I6.8 J0.0098
G3 X96.9598 Y38.3791 I-1.1742 J0.0016
G2 X96.9468 Y38.3921 I4.8021 J4.8146
G3 X96.1143 Y38.7369 I-0.8309 J-0.8286
G2 X96.0962 I-0.0094 J6.8
G3 X95.2625 Y38.3916 I-0.0015 J-1.1754
G2 X95.2505 Y38.3795 I-4.8145 J4.8021
G3 X94.905 Y37.5455 I0.8305 J-0.8325
G2 Y37.5288 I-6.8 J-0.0088
G3 X95.0262 Y37.0072 I1.1772 J-0.0014
G1 F50.0 X93.5908 Y36.3003
G3 F100.0 X94.1208 Y35.5613 I2.4914 J1.2271
G2 X94.1301 Y35.552 I-3.6726 J-3.6813
G3 X96.0979 Y34.7369 I1.9641 J1.9589
G2 X96.1116 I0.007 J-5.2
G3 X98.0799 Y35.5522 I0.0036 J2.775
G2 X98.09 Y35.5623 I3.6817 J-3.6722
G3 X98.9048 Y37.5292 I-1.9573 J1.963
G2 Y37.5439 I5.2 J0.0075
G3 X98.0897 Y39.512 I-2.7742 J0.0038
G2 X98.0798 Y39.5219 I3.6722 J3.6817
G3 X96.1121 Y40.3369 I-1.9638 J-1.9584
G2 X96.0982 I-0.0072 J5.2
G3 X94.1297 Y39.5215 I-0.0035 J-2.7754
G2 X94.1205 Y39.5123 I-3.6817 J3.6722
G3 X93.305 Y37.5435 I1.9605 J-1.9652
G2 Y37.5306 I-5.2 J-0.0067
G3 X93.5908 Y36.3003 I2.7772 J-0.0033
G1 F50.0 X92.1555 Y35.5934
G3 F100.0 X92.9907 Y34.4286 I3.9268 J1.934
G2 X92.9972 Y34.4221 I-2.5426 J-2.5486
G3 X96.1001 Y33.1369 I3.097 J3.0887
G2 X96.1095 I0.0048 J-3.6
G3 X99.2128 Y34.4223 I0.0056 J4.375
G2 X99.2197 Y34.4293 I2.5489 J-2.5423
G3 X100.5048 Y37.5315 I-3.087 J3.096
G2 Y37.5417 I3.6 J0.0052
G3 X99.2196 Y40.6448 I-4.3742 J0.0061
G2 X99.2127 Y40.6517 I2.5423 J2.5489
G3 X96.1099 Y41.9369 I-3.0968 J-3.0882
G2 X96.1003 I-0.005 J3.6
G3 X92.9968 Y40.6514 I-0.0056 J-4.3754
G2 X92.9905 Y40.645 I-2.5489 J2.5423
G3 X91.705 Y37.5414 I3.0905 J-3.098
G2 Y37.5325 I-3.6 J-0.0047
G3 X92.1555 Y35.5934 I4.3772 J-0.0051
G1 F50.0 X90.7201 Y34.8864
G3 F100.0 X91.8607 Y33.2959 I5.3621 J2.6409
G2 X91.8643 Y33.2923 I-1.4125 J-1.4159
G3 X96.1022 Y31.5369 I4.2299 J4.2185
G2 X96.1075 I0.0027 J-2.0
G3 X100.3456 Y33.2924 I0.0077 J5.975
G2 X100.3495 Y33.2962 I1.416 J-1.4124
G3 X102.1048 Y37.5338 I-4.2167 J4.229
G2 Y37.5395 I2.0 J0.0029
G3 X100.3495 Y41.7776 I-5.9742 J0.0083
G2 X100.3457 Y41.7815 I1.4124 J1.4161
G3 X96.1077 Y43.5369 I-4.2297 J-4.218
G2 X96.1023 I-0.0028 J2.0
G3 X91.864 Y41.7813 I-0.0076 J-5.9754
G2 X91.8605 Y41.7778 I-1.416 J1.4124
G3 X90.105 Y37.5393 I4.2205 J-4.2307
G2 Y37.5344 I-2.0 J-0.0026
G3 X90.7201 Y34.8864 I5.9772 J-0.007
G0 Z3.0
G0 X95.0262 Y37.0072
G1 F50.0 Z-4.0
G3 F100.0 X95.2508 Y36.694 I1.0561 J0.5201
G2 X95.263 Y36.6818 I-4.8027 J-4.814
G3 X96.0958 Y36.3369 I0.8312 J0.829
G2 X96.1137 I0.0091 J-6.8
G3 X96.9471 Y36.6821 I0.0015 J1.175
G2 X96.9603 Y36.6953 I4.8146 J-4.8021
G3 X97.3048 Y37.5269 I-0.8275 J0.8299
G2 Y37.5462 I6.8 J0.0098
G3 X96.9598 Y38.3791 I-1.1742 J0.0016
G2 X96.9468 Y38.3921 I4.8021 J4.8146
G3 X96.1143 Y38.7369 I-0.8309 J-0.8286
G2 X96.0962 I-0.0094 J6.8
G3 X95.2625 Y38.3916 I-0.0015 J-1.1754
G2 X95.2505 Y38.3795 I-4.8145 J4.8021
G3 X94.905 Y37.5455 I0.8305 J-0.8325
G2 Y37.5288 I-6.8 J-0.0088
G3 X95.0262 Y37.0072 I1.1772 J-0.0014
G1 F50.0 X93.5908 Y36.3003
G3 F100.0 X94.1208 Y35.5613 I2.4914 J1.2271
G2 X94.1301 Y35.552 I-3.6726 J-3.6813
G3 X96.0979 Y34.7369 I1.9641 J1.9589
G2 X96.1116 I0.007 J-5.2
G3 X98.0799 Y35.5522 I0.0036 J2.775
G2 X98.09 Y35.5623 I3.6817 J-3.6722
G3 X98.9048 Y37.5292 I-1.9573 J1.963
G2 Y37.5439 I5.2 J0.0075
G3 X98.0897 Y39.512 I-2.7742 J0.0038
G2 X98.0798 Y39.5219 I3.6722 J3.6817
G3 X96.1121 Y40.3369 I-1.9638 J-1.9584
G2 X96.0982 I-0.0072 J5.2
G3 X94.1297 Y39.5215 I-0.0035 J-2.7754
G2 X94.1205 Y39.5123 I-3.6817 J3.6722
G3 X93.305 Y37.5435 I1.9605 J-1.9652
G2 Y37.5306 I-5.2 J-0.0067
G3 X93.5908 Y36.3003 I2.7772 J-0.0033
G1 F50.0 X92.1555 Y35.5934
G3 F100.0 X92.9907 Y34.4286 I3.9268 J1.934
G2 X92.9972 Y34.4221 I-2.5426 J-2.5486
G3 X96.1001 Y33.1369 I3.097 J3.0887
G2 X96.1095 I0.0048 J-3.6
G3 X99.2128 Y34.4223 I0.0056 J4.375
G2 X99.2197 Y34.4293 I2.5489 J-2.5423
G3 X100.5048 Y37.5315 I-3.087 J3.096
G2 Y37.5417 I3.6 J0.0052
G3 X99.2196 Y40.6448 I-4.3742 J0.0061
G2 X99.2127 Y40.6517 I2.5423 J2.5489
G3 X96.1099 Y41.9369 I-3.0968 J-3.0882
G2 X96.1003 I-0.005 J3.6
G3 X92.9968 Y40.6514 I-0.0056 J-4.3754
G2 X92.9905 Y40.645 I-2.5489 J2.5423
G3 X91.705 Y37.5414 I3.0905 J-3.098
G2 Y37.5325 I-3.6 J-0.0047
G3 X92.1555 Y35.5934 I4.3772 J-0.0051
G1 F50.0 X90.7201 Y34.8864
G3 F100.0 X91.8607 Y33.2959 I5.3621 J2.6409
G2 X91.8643 Y33.2923 I-1.4125 J-1.4159
G3 X96.1022 Y31.5369 I4.2299 J4.2185
G2 X96.1075 I0.0027 J-2.0
G3 X100.3456 Y33.2924 I0.0077 J5.975
G2 X100.3495 Y33.2962 I1.416 J-1.4124
G3 X102.1048 Y37.5338 I-4.2167 J4.229
G2 Y37.5395 I2.0 J0.0029
G3 X100.3495 Y41.7776 I-5.9742 J0.0083
G2 X100.3457 Y41.7815 I1.4124 J1.4161
G3 X96.1077 Y43.5369 I-4.2297 J-4.218
G2 X96.1023 I-0.0028 J2.0
G3 X91.864 Y41.7813 I-0.0076 J-5.9754
G2 X91.8605 Y41.7778 I-1.416 J1.4124
G3 X90.105 Y37.5393 I4.2205 J-4.2307
G2 Y37.5344 I-2.0 J-0.0026
G3 X90.7201 Y34.8864 I5.9772 J-0.007
G0 Z3.0
G0 X95.0262 Y37.0072
G1 F50.0 Z-5.0
G3 F100.0 X95.2508 Y36.694 I1.0561 J0.5201
G2 X95.263 Y36.6818 I-4.8027 J-4.814
G3 X96.0958 Y36.3369 I0.8312 J0.829
G2 X96.1137 I0.0091 J-6.8
G3 X96.9471 Y36.6821 I0.0015 J1.175
G2 X96.9603 Y36.6953 I4.8146 J-4.8021
G3 X97.3048 Y37.5269 I-0.8275 J0.8299
G2 Y37.5462 I6.8 J0.0098
G3 X96.9598 Y38.3791 I-1.1742 J0.0016
G2 X96.9468 Y38.3921 I4.8021 J4.8146
G3 X96.1143 Y38.7369 I-0.8309 J-0.8286
G2 X96.0962 I-0.0094 J6.8
G3 X95.2625 Y38.3916 I-0.0015 J-1.1754
G2 X95.2505 Y38.3795 I-4.8145 J4.8021
G3 X94.905 Y37.5455 I0.8305 J-0.8325
G2 Y37.5288 I-6.8 J-0.0088
G3 X95.0262 Y37.0072 I1.1772 J-0.0014
G1 F50.0 X93.5908 Y36.3003
G3 F100.0 X94.1208 Y35.5613 I2.4914 J1.2271
G2 X94.1301 Y35.552 I-3.6726 J-3.6813
G3 X96.0979 Y34.7369 I1.9641 J1.9589
G2 X96.1116 I0.007 J-5.2
G3 X98.0799 Y35.5522 I0.0036 J2.775
G2 X98.09 Y35.5623 I3.6817 J-3.6722
G3 X98.9048 Y37.5292 I-1.9573 J1.963
G2 Y37.5439 I5.2 J0.0075
G3 X98.0897 Y39.512 I-2.7742 J0.0038
G2 X98.0798 Y39.5219 I3.6722 J3.6817
G3 X96.1121 Y40.3369 I-1.9638 J-1.9584
G2 X96.0982 I-0.0072 J5.2
G3 X94.1297 Y39.5215 I-0.0035 J-2.7754
G2 X94.1205 Y39.5123 I-3.6817 J3.6722
G3 X93.305 Y37.5435 I1.9605 J-1.9652
G2 Y37.5306 I-5.2 J-0.0067
G3 X93.5908 Y36.3003 I2.7772 J-0.0033
G1 F50.0 X92.1555 Y35.5934
G3 F100.0 X92.9907 Y34.4286 I3.9268 J1.934
G2 X92.9972 Y34.4221 I-2.5426 J-2.5486
G3 X96.1001 Y33.1369 I3.097 J3.0887
G2 X96.1095 I0.0048 J-3.6
G3 X99.2128 Y34.4223 I0.0056 J4.375
G2 X99.2197 Y34.4293 I2.5489 J-2.5423
G3 X100.5048 Y37.5315 I-3.087 J3.096
G2 Y37.5417 I3.6 J0.0052
G3 X99.2196 Y40.6448 I-4.3742 J0.0061
G2 X99.2127 Y40.6517 I2.5423 J2.5489
G3 X96.1099 Y41.9369 I-3.0968 J-3.0882
G2 X96.1003 I-0.005 J3.6
G3 X92.9968 Y40.6514 I-0.0056 J-4.3754
G2 X92.9905 Y40.645 I-2.5489 J2.5423
G3 X91.705 Y37.5414 I3.0905 J-3.098
G2 Y37.5325 I-3.6 J-0.0047
G3 X92.1555 Y35.5934 I4.3772 J-0.0051
G1 F50.0 X90.7201 Y34.8864
G3 F100.0 X91.8607 Y33.2959 I5.3621 J2.6409
G2 X91.8643 Y33.2923 I-1.4125 J-1.4159
G3 X96.1022 Y31.5369 I4.2299 J4.2185
G2 X96.1075 I0.0027 J-2.0
G3 X100.3456 Y33.2924 I0.0077 J5.975
G2 X100.3495 Y33.2962 I1.416 J-1.4124
G3 X102.1048 Y37.5338 I-4.2167 J4.229
G2 Y37.5395 I2.0 J0.0029
G3 X100.3495 Y41.7776 I-5.9742 J0.0083
G2 X100.3457 Y41.7815 I1.4124 J1.4161
G3 X96.1077 Y43.5369 I-4.2297 J-4.218
G2 X96.1023 I-0.0028 J2.0
G3 X91.864 Y41.7813 I-0.0076 J-5.9754
G2 X91.8605 Y41.7778 I-1.416 J1.4124
G3 X90.105 Y37.5393 I4.2205 J-4.2307
G2 Y37.5344 I-2.0 J-0.0026
G3 X90.7201 Y34.8864 I5.9772 J-0.007
G0 Z3.0
G0 X116.5867 Y22.0552
G1 F50.0 Z-1.0
G3 F100.0 X116.4646 Y21.5327 I1.0499 J-0.5208
G2 Y21.5135 I-6.8 J-0.0098
G3 X116.8096 Y20.6805 I1.1742 J-0.0016
G2 X116.8226 Y20.6675 I-4.8021 J-4.8146
G3 X117.6551 Y20.3227 I0.8309 J0.8286
G2 X117.6732 I0.0094 J-6.8
G3 X118.5069 Y20.668 I0.0015 J1.1754
G2 X118.5189 Y20.6801 I4.8145 J-4.8021
G3 X118.8643 Y21.5141 I-0.8305 J0.8325
G2 Y21.5309 I6.8 J0.0088
G3 X118.5186 Y22.3656 I-1.1772 J0.0014
G2 X118.5064 Y22.3778 I4.8027 J4.814
G3 X117.6736 Y22.7228 I-0.8312 J-0.829
G2 X117.6557 I-0.0091 J6.8
G3 X116.8223 Y22.3775 I-0.0015 J-1.175
G2 X116.8091 Y22.3643 I-4.8146 J4.8021
G3 X116.5867 Y22.0552 I0.8275 J-0.8299
G1 F50.0 X115.1534 Y22.7662
G3 F100.0 X114.8646 Y21.5304 I2.4833 J-1.2318
G2 Y21.5157 I-5.2 J-0.0075
G3 X115.6797 Y19.5477 I2.7742 J-0.0038
G2 X115.6896 Y19.5377 I-3.6722 J-3.6817
G3 X117.6573 Y18.7227 I1.9638 J1.9584
G2 X117.6711 I0.0072 J-5.2
G3 X119.6397 Y19.5381 I0.0035 J2.7754
G2 X119.6489 Y19.5473 I3.6817 J-3.6722
G3 X120.4643 Y21.5162 I-1.9605 J1.9652
G2 Y21.529 I5.2 J0.0067
G3 X119.6486 Y23.4983 I-2.7772 J0.0033
G2 X119.6393 Y23.5076 I3.6726 J3.6813
G3 X117.6715 Y24.3228 I-1.9641 J-1.9589
G2 X117.6578 I-0.007 J5.2
G3 X115.6895 Y23.5074 I-0.0036 J-2.775
G2 X115.6794 Y23.4973 I-3.6817 J3.6722
G3 X115.1534 Y22.7662 I1.9573 J-1.963
G1 F50.0 X113.72 Y23.4772
G3 F100.0 X113.2646 Y21.5281 I3.9166 J-1.9429
G2 Y21.5179 I-3.6 J-0.0052
G3 X114.5498 Y18.4148 I4.3742 J-0.0061
G2 X114.5567 Y18.4079 I-2.5423 J-2.5489
G3 X117.6595 Y17.1227 I3.0968 J3.0882
G2 X117.6691 I0.005 J-3.6
G3 X120.7725 Y18.4082 I0.0056 J4.3754
G2 X120.7789 Y18.4146 I2.5489 J-2.5423
G3 X122.0643 Y21.5182 I-3.0905 J3.098
G2 Y21.5271 I3.6 J0.0047
G3 X120.7786 Y24.631 I-4.3772 J0.0051
G2 X120.7722 Y24.6375 I2.5426 J2.5486
G3 X117.6693 Y25.9227 I-3.097 J-3.0887
G2 X117.6598 I-0.0048 J3.6
G3 X114.5566 Y24.6373 I-0.0056 J-4.375
G2 X114.5496 Y24.6304 I-2.5489 J2.5423
G3 X113.72 Y23.4772 I3.087 J-3.096
G1 F50.0 X112.2867 Y24.1883
G3 F100.0 X111.6646 Y21.5258 I5.35 J-2.6539
G2 Y21.5201 I-2.0 J-0.0029
G3 X113.4199 Y17.282 I5.9742 J-0.0083
G2 X113.4237 Y17.2782 I-1.4124 J-1.4161
G3 X117.6617 Y15.5227 I4.2297 J4.218
G2 X117.667 I0.0028 J-2.0
G3 X121.9054 Y17.2783 I0.0076 J5.9754
G2 X121.9089 Y17.2818 I1.416 J-1.4124
G3 X123.6643 Y21.5203 I-4.2205 J4.2307
G2 Y21.5252 I2.0 J0.0026
G3 X121.9087 Y25.7638 I-5.9772 J0.007
G2 X121.9051 Y25.7673 I1.4125 J1.4159
G3 X117.6672 Y27.5227 I-4.2299 J-4.2185
G2 X117.6619 I-0.0027 J2.0
G3 X113.4238 Y25.7672 I-0.0077 J-5.975
G2 X113.4199 Y25.7634 I-1.416 J1.4124
G3 X112.2867 Y24.1883 I4.2167 J-4.229
G0 Z3.0
G0 X116.5867 Y22.0552
G1 F50.0 Z-2.0
G3 F100.0 X116.4646 Y21.5327 I1.0499 J-0.5208
G2 Y21.5135 I-6.8 J-0.0098
G3 X116.8096 Y20.6805 I1.1742 J-0.0016
G2 X116.8226 Y20.6675 I-4.8021 J-4.8146
G3 X117.6551 Y20.3227 I0.8309 J0.8286
G2 X117.6732 I0.0094 J-6.8
G3 X118.5069 Y20.668 I0.0015 J1.1754
G2 X118.5189 Y20.6801 I4.8145 J-4.8021
G3 X118.8643 Y21.5141 I-0.8305 J0.8325
G2 Y21.5309 I6.8 J0.0088
G3 X118.5186 Y22.3656 I-1.1772 J0.0014
G2 X118.5064 Y22.3778 I4.8027 J4.814
G3 X117.6736 Y22.7228 I-0.8312 J-0.829
G2 X117.6557 I-0.0091 J6.8
G3 X116.8223 Y22.3775 I-0.0015 J-1.175
G2 X116.8091 Y22.3643 I-4.8146 J4.8021
G3 X116.5867 Y22.0552 I0.8275 J-0.8299
G1 F50.0 X115.1534 Y22.7662
G3 F100.0 X114.8646 Y21.5304 I2.4833 J-1.2318
G2 Y21.5157 I-5.2 J-0.0075
G3 X115.6797 Y19.5477 I2.7742 J-0.0038
G2 X115.6896 Y19.5377 I-3.6722 J-3.6817
G3 X117.6573 Y18.7227 I1.9638 J1.9584
G2 X117.6711 I0.0072 J-5.2
G3 X119.6397 Y19.5381 I0.0035 J2.7754
G2 X119.6489 Y19.5473 I3.6817 J-3.6722
G3 X120.4643 Y21.5162 I-1.9605 J1.9652
G2 Y21.529 I5.2 J0.0067
G3 X119.6486 Y23.4983 I-2.7772 J0.0033
G2 X119.6393 Y23.5076 I3.6726 J3.6813
G3 X117.6715 Y24.3228 I-1.9641 J-1.9589
G2 X117.6578 I-0.007 J5.2
G3 X115.6895 Y23.5074 I-0.0036 J-2.775
G2 X115.6794 Y23.4973 I-3.6817 J3.6722
G3 X115.1534 Y22.7662 I1.9573 J-1.963
G1 F50.0 X113.72 Y23.4772
G3 F100.0 X113.2646 Y21.5281 I3.9166 J-1.9429
G2 Y21.5179 I-3.6 J-0.0052
G3 X114.5498 Y18.4148 I4.3742 J-0.0061
G2 X114.5567 Y18.4079 I-2.5423 J-2.5489
G3 X117.6595 Y17.1227 I3.0968 J3.0882
G2 X117.6691 I0.005 J-3.6
G3 X120.7725 Y18.4082 I0.0056 J4.3754
G2 X120.7789 Y18.4146 I2.5489 J-2.5423
G3 X122.0643 Y21.5182 I-3.0905 J3.098
G2 Y21.5271 I3.6 J0.0047
G3 X120.7786 Y24.631 I-4.3772 J0.0051
G2 X120.7722 Y24.6375 I2.5426 J2.5486
G3 X117.6693 Y25.9227 I-3.097 J-3.0887
G2 X117.6598 I-0.0048 J3.6
G3 X114.5566 Y24.6373 I-0.0056 J-4.375
G2 X114.5496 Y24.6304 I-2.5489 J2.5423
G3 X113.72 Y23.4772 I3.087 J-3.096
G1 F50.0 X112.2867 Y24.1883
G3 F100.0 X111.6646 Y21.5258 I5.35 J-2.6539
G2 Y21.5201 I-2.0 J-0.0029
G3 X113.4199 Y17.282 I5.9742 J-0.0083
G2 X113.4237 Y17.2782 I-1.4124 J-1.4161
G3 X117.6617 Y15.5227 I4.2297 J4.218
G2 X117.667 I0.0028 J-2.0
G3 X121.9054 Y17.2783 I0.0076 J5.9754
G2 X121.9089 Y17.2818 I1.416 J-1.4124
G3 X123.6643 Y21.5203 I-4.2205 J4.2307
G2 Y21.5252 I2.0 J0.0026
G3 X121.9087 Y25.7638 I-5.9772 J0.007
G2 X121.9051 Y25.7673 I1.4125 J1.4159
G3 X117.6672 Y27.5227 I-4.2299 J-4.2185
G2 X117.6619 I-0.0027 J2.0
G3 X113.4238 Y25.7672 I-0.0077 J-5.975
G2 X113.4199 Y25.7634 I-1.416 J1.4124
G3 X112.2867 Y24.1883 I4.2167 J-4.229
G0 Z3.0
G0 X116.5867 Y22.0552
G1 F50.0 Z-3.0
G3 F100.0 X116.4646 Y21.5327 I1.0499 J-0.5208
G2 Y21.5135 I-6.8 J-0.0098
G3 X116.8096 Y20.6805 I1.1742 J-0.0016
G2 X116.8226 Y20.6675 I-4.8021 J-4.8146
G3 X117.6551 Y20.3227 I0.8309 J0.8286
G2 X117.6732 I0.0094 J-6.8
G3 X118.5069 Y20.668 I0.0015 J1.1754
G2 X118.5189 Y20.6801 I4.8145 J-4.8021
G3 X118.8643 Y21.5141 I-0.8305 J0.8325
G2 Y21.5309 I6.8 J0.0088
G3 X118.5186 Y22.3656 I-1.1772 J0.0014
G2 X118.5064 Y22.3778 I4.8027 J4.814
G3 X117.6736 Y22.7228 I-0.8312 J-0.829
G2 X117.6557 I-0.0091 J6.8
G3 X116.8223 Y22.3775 I-0.0015 J-1.175
G2 X116.8091 Y22.3643 I-4.8146 J4.8021
G3 X116.5867 Y22.0552 I0.8275 J-0.8299
G1 F50.0 X115.1534 Y22.7662
G3 F100.0 X114.8646 Y21.5304 I2.4833 J-1.2318
G2 Y21.5157 I-5.2 J-0.0075
G3 X115.6797 Y19.5477 I2.7742 J-0.0038
G2 X115.6896 Y19.5377 I-3.6722 J-3.6817
G3 X117.6573 Y18.7227 I1.9638 J1.9584
G2 X117.6711 I0.0072 J-5.2
G3 X119.6397 Y19.5381 I0.0035 J2.7754
G2 X119.6489 Y19.5473 I3.6817 J-3.6722
G3 X120.4643 Y21.5162 I-1.9605 J1.9652
G2 Y21.529 I5.2 J0.0067
G3 X119.6486 Y23.4983 I-2.7772 J0.0033
G2 X119.6393 Y23.5076 I3.6726 J3.6813
G3 X117.6715 Y24.3228 I-1.9641 J-1.9589
G2 X117.6578 I-0.007 J5.2
G3 X115.6895 Y23.5074 I-0.0036 J-2.775
G2 X115.6794 Y23.4973 I-3.6817 J3.6722
G3 X115.1534 Y22.7662 I1.9573 J-1.963
G1 F50.0 X113.72 Y23.4772
G3 F100.0 X113.2646 Y21.5281 I3.9166 J-1.9429
G2 Y21.5179 I-3.6 J-0.0052
G3 X114.5498 Y18.4148 I4.3742 J-0.0061
G2 X114.5567 Y18.4079 I-2.5423 J-2.5489
G3 X117.6595 Y17.1227 I3.0968 J3.0882
G2 X117.6691 I0.005 J-3.6
G3 X120.7725 Y18.4082 I0.0056 J4.3754
G2 X120.7789 Y18.4146 I2.5489 J-2.5423
G3 X122.0643 Y21.5182 I-3.0905 J3.098
G2 Y21.5271 I3.6 J0.0047
G3 X120.7786 Y24.631 I-4.3772 J0.0051
G2 X120.7722 Y24.6375 I2.5426 J2.5486
G3 X117.6693 Y25.9227 I-3.097 J-3.0887
G2 X117.6598 I-0.0048 J3.6
G3 X114.5566 Y24.6373 I-0.0056 J-4.375
G2 X114.5496 Y24.6304 I-2.5489 J2.5423
G3 X113.72 Y23.4772 I3.087 J-3.096
G1 F50.0 X112.2867 Y24.1883
G3 F100.0 X111.6646 Y21.5258 I5.35 J-2.6539
G2 Y21.5201 I-2.0 J-0.0029
G3 X113.4199 Y17.282 I5.9742 J-0.0083
G2 X113.4237 Y17.2782 I-1.4124 J-1.4161
G3 X117.6617 Y15.5227 I4.2297 J4.218
G2 X117.667 I0.0028 J-2.0
G3 X121.9054 Y17.2783 I0.0076 J5.9754
G2 X121.9089 Y17.2818 I1.416 J-1.4124
G3 X123.6643 Y21.5203 I-4.2205 J4.2307
G2 Y21.5252 I2.0 J0.0026
G3 X121.9087 Y25.7638 I-5.9772 J0.007
G2 X121.9051 Y25.7673 I1.4125 J1.4159
G3 X117.6672 Y27.5227 I-4.2299 J-4.2185
G2 X117.6619 I-0.0027 J2.0
G3 X113.4238 Y25.7672 I-0.0077 J-5.975
G2 X113.4199 Y25.7634 I-1.416 J1.4124
G3 X112.2867 Y24.1883 I4.2167 J-4.229
G0 Z3.0
G0 X116.5867 Y22.0552
G1 F50.0 Z-4.0
G3 F100.0 X116.4646 Y21.5327 I1.0499 J-0.5208
G2 Y21.5135 I-6.8 J-0.0098
G3 X116.8096 Y20.6805 I1.1742 J-0.0016
G2 X116.8226 Y20.6675 I-4.8021 J-4.8146
G3 X117.6551 Y20.3227 I0.8309 J0.8286
G2 X117.6732 I0.0094 J-6.8
G3 X118.5069 Y20.668 I0.0015 J1.1754
G2 X118.5189 Y20.6801 I4.8145 J-4.8021
G3 X118.8643 Y21.5141 I-0.8305 J0.8325
G2 Y21.5309 I6.8 J0.0088
G3 X118.5186 Y22.3656 I-1.1772 J0.0014
G2 X118.5064 Y22.3778 I4.8027 J4.814
G3 X117.6736 Y22.7228 I-0.8312 J-0.829
G2 X117.6557 I-0.0091 J6.8
G3 X116.8223 Y22.3775 I-0.0015 J-1.175
G2 X116.8091 Y22.3643 I-4.8146 J4.8021
G3 X116.5867 Y22.0552 I0.8275 J-0.8299
G1 F50.0 X115.1534 Y22.7662
G3 F100.0 X114.8646 Y21.5304 I2.4833 J-1.2318
G2 Y21.5157 I-5.2 J-0.0075
G3 X115.6797 Y19.5477 I2.7742 J-0.0038
G2 X115.6896 Y19.5377 I-3.6722 J-3.6817
G3 X117.6573 Y18.7227 I1.9638 J1.9584
G2 X117.6711 I0.0072 J-5.2
G3 X119.6397 Y19.5381 I0.0035 J2.7754
G2 X119.6489 Y19.5473 I3.6817 J-3.6722
G3 X120.4643 Y21.5162 I-1.9605 J1.9652
G2 Y21.529 I5.2 J0.0067
G3 X119.6486 Y23.4983 I-2.7772 J0.0033
G2 X119.6393 Y23.5076 I3.6726 J3.6813
G3 X117.6715 Y24.3228 I-1.9641 J-1.9589
G2 X117.6578 I-0.007 J5.2
G3 X115.6895 Y23.5074 I-0.0036 J-2.775
G2 X115.6794 Y23.4973 I-3.6817 J3.6722
G3 X115.1534 Y22.7662 I1.9573 J-1.963
G1 F50.0 X113.72 Y23.4772
G3 F100.0 X113.2646 Y21.5281 I3.9166 J-1.9429
G2 Y21.5179 I-3.6 J-0.0052
G3 X114.5498 Y18.4148 I4.3742 J-0.0061
G2 X114.5567 Y18.4079 I-2.5423 J-2.5489
G3 X117.6595 Y17.1227 I3.0968 J3.0882
G2 X117.6691 I0.005 J-3.6
G3 X120.7725 Y18.4082 I0.0056 J4.3754
G2 X120.7789 Y18.4146 I2.5489 J-2.5423
G3 X122.0643 Y21.5182 I-3.0905 J3.098
G2 Y21.5271 I3.6 J0.0047
G3 X120.7786 Y24.631 I-4.3772 J0.0051
G2 X120.7722 Y24.6375 I2.5426 J2.5486
G3 X117.6693 Y25.9227 I-3.097 J-3.0887
G2 X117.6598 I-0.0048 J3.6
G3 X114.5566 Y24.6373 I-0.0056 J-4.375
G2 X114.5496 Y24.6304 I-2.5489 J2.5423
G3 X113.72 Y23.4772 I3.087 J-3.096
G1 F50.0 X112.2867 Y24.1883
G3 F100.0 X111.6646 Y21.5258 I5.35 J-2.6539
G2 Y21.5201 I-2.0 J-0.0029
G3 X113.4199 Y17.282 I5.9742 J-0.0083
G2 X113.4237 Y17.2782 I-1.4124 J-1.4161
G3 X117.6617 Y15.5227 I4.2297 J4.218
G2 X117.667 I0.0028 J-2.0
G3 X121.9054 Y17.2783 I0.0076 J5.9754
G2 X121.9089 Y17.2818 I1.416 J-1.4124
G3 X123.6643 Y21.5203 I-4.2205 J4.2307
G2 Y21.5252 I2.0 J0.0026
G3 X121.9087 Y25.7638 I-5.9772 J0.007
G2 X121.9051 Y25.7673 I1.4125 J1.4159
G3 X117.6672 Y27.5227 I-4.2299 J-4.2185
G2 X117.6619 I-0.0027 J2.0
G3 X113.4238 Y25.7672 I-0.0077 J-5.975
G2 X113.4199 Y25.7634 I-1.416 J1.4124
G3 X112.2867 Y24.1883 I4.2167 J-4.229
G0 Z3.0
G0 X116.5867 Y22.0552
G1 F50.0 Z-5.0
G3 F100.0 X116.4646 Y21.5327 I1.0499 J-0.5208
G2 Y21.5135 I-6.8 J-0.0098
G3 X116.8096 Y20.6805 I1.1742 J-0.0016
G2 X116.8226 Y20.6675 I-4.8021 J-4.8146
G3 X117.6551 Y20.3227 I0.8309 J0.8286
G2 X117.6732 I0.0094 J-6.8
G3 X118.5069 Y20.668 I0.0015 J1.1754
G2 X118.5189 Y20.6801 I4.8145 J-4.8021
G3 X118.8643 Y21.5141 I-0.8305 J0.8325
G2 Y21.5309 I6.8 J0.0088
G3 X118.5186 Y22.3656 I-1.1772 J0.0014
G2 X118.5064 Y22.3778 I4.8027 J4.814
G3 X117.6736 Y22.7228 I-0.8312 J-0.829
G2 X117.6557 I-0.0091 J6.8
G3 X116.8223 Y22.3775 I-0.0015 J-1.175
G2 X116.8091 Y22.3643 I-4.8146 J4.8021
G3 X116.5867 Y22.0552 I0.8275 J-0.8299
G1 F50.0 X115.1534 Y22.7662
G3 F100.0 X114.8646 Y21.5304 I2.4833 J-1.2318
G2 Y21.5157 I-5.2 J-0.0075
G3 X115.6797 Y19.5477 I2.7742 J-0.0038
G2 X115.6896 Y19.5377 I-3.6722 J-3.6817
G3 X117.6573 Y18.7227 I1.9638 J1.9584
G2 X117.6711 I0.0072 J-5.2
G3 X119.6397 Y19.5381 I0.0035 J2.7754
G2 X119.6489 Y19.5473 I3.6817 J-3.6722
G3 X120.4643 Y21.5162 I-1.9605 J1.9652
G2 Y21.529 I5.2 J0.0067
G3 X119.6486 Y23.4983 I-2.7772 J0.0033
G2 X119.6393 Y23.5076 I3.6726 J3.6813
G3 X117.6715 Y24.3228 I-1.9641 J-1.9589
G2 X117.6578 I-0.007 J5.2
G3 X115.6895 Y23.5074 I-0.0036 J-2.775
G2 X115.6794 Y23.4973 I-3.6817 J3.6722
G3 X115.1534 Y22.7662 I1.9573 J-1.963
G1 F50.0 X113.72 Y23.4772
G3 F100.0 X113.2646 Y21.5281 I3.9166 J-1.9429
G2 Y21.5179 I-3.6 J-0.0052
G3 X114.5498 Y18.4148 I4.3742 J-0.0061
G2 X114.5567 Y18.4079 I-2.5423 J-2.5489
G3 X117.6595 Y17.1227 I3.0968 J3.0882
G2 X117.6691 I0.005 J-3.6
G3 X120.7725 Y18.4082 I0.0056 J4.3754
G2 X120.7789 Y18.4146 I2.5489 J-2.5423
G3 X122.0643 Y21.5182 I-3.0905 J3.098
G2 Y21.5271 I3.6 J0.0047
G3 X120.7786 Y24.631 I-4.3772 J0.0051
G2 X120.7722 Y24.6375 I2.5426 J2.5486
G3 X117.6693 Y25.9227 I-3.097 J-3.0887
G2 X117.6598 I-0.0048 J3.6
G3 X114.5566 Y24.6373 I-0.0056 J-4.375
G2 X114.5496 Y24.6304 I-2.5489 J2.5423
G3 X113.72 Y23.4772 I3.087 J-3.096
G1 F50.0 X112.2867 Y24.1883
G3 F100.0 X111.6646 Y21.5258 I5.35 J-2.6539
G2 Y21.5201 I-2.0 J-0.0029
G3 X113.4199 Y17.282 I5.9742 J-0.0083
G2 X113.4237 Y17.2782 I-1.4124 J-1.4161
G3 X117.6617 Y15.5227 I4.2297 J4.218
G2 X117.667 I0.0028 J-2.0
G3 X121.9054 Y17.2783 I0.0076 J5.9754
G2 X121.9089 Y17.2818 I1.416 J-1.4124
G3 X123.6643 Y21.5203 I-4.2205 J4.2307
G2 Y21.5252 I2.0 J0.0026
G3 X121.9087 Y25.7638 I-5.9772 J0.007
G2 X121.9051 Y25.7673 I1.4125 J1.4159
G3 X117.6672 Y27.5227 I-4.2299 J-4.2185
G2 X117.6619 I-0.0027 J2.0
G3 X113.4238 Y25.7672 I-0.0077 J-5.975
G2 X113.4199 Y25.7634 I-1.416 J1.4124
G3 X112.2867 Y24.1883 I4.2167 J-4.229
G0 Z3.0
M5
M30
