( Made using CamBam - http://www.cambam.co.uk )
( pick and place parts - 6mm 9/26/2012 1:46:49 PM )
( T0 : 4.95 )
G21 G90 G91.1 G64 G40
G0 Z5.0
( T0 : 4.95 )
T0 M6
( Pocket1 )
G17
M3 S1000
G0 X6.7009 Y11.4434
G1 F50.0 Z-1.0
G2 F100.0 X5.9731 Y11.7448 I-0.0015 J1.0256
G3 X5.9648 Y11.7532 I-3.1548 J-3.1455
G2 X5.6623 Y12.4834 I0.7273 J0.729
G3 Y12.4942 I-4.455 J0.0051
G2 X5.9642 Y13.223 I1.0275 J0.0013
G3 X5.9725 Y13.2313 I-3.1459 J3.1544
G2 X6.7015 Y13.5332 I0.7277 J-0.7259
G3 X6.7133 I0.0059 J4.455
G2 X7.4424 Y13.2312 I0.0014 J-1.028
G3 X7.4508 Y13.2229 I3.1541 J3.1462
G2 X7.7525 Y12.4944 I-0.7251 J-0.7271
G3 Y12.4819 I4.455 J-0.006
G2 X7.4511 Y11.7542 I-1.0256 J-0.0015
G3 X7.4427 Y11.7458 I3.1455 J-3.1548
G2 X6.7125 Y11.4434 I-0.729 J0.7273
G3 X6.7009 I-0.0051 J-4.455
G1 F50.0 X6.7038 Y9.4634
G2 F100.0 X4.571 Y10.3468 I-0.0044 J3.0056
G3 X4.5664 Y10.3515 I-1.7527 J-1.7475
G2 X3.6823 Y12.4856 I2.1258 J2.1307
G3 Y12.4917 I-2.475 J0.0028
G2 X4.566 Y14.625 I3.0075 J0.0039
G3 X4.5706 Y14.6296 I-1.7477 J1.7524
G2 X6.7041 Y15.5132 I2.1296 J-2.1242
G3 X6.7107 I0.0033 J2.475
G2 X8.8443 Y14.6295 I0.004 J-3.008
G3 X8.8489 Y14.6249 I1.7523 J1.7479
G2 X9.7325 Y12.4918 I-2.1232 J-2.1291
G3 Y12.4848 I2.475 J-0.0033
G2 X8.8491 Y10.352 I-3.0056 J-0.0044
G3 X8.8444 Y10.3474 I1.7475 J-1.7527
G2 X6.7103 Y9.4634 I-2.1307 J2.1258
G3 X6.7038 I-0.0028 J-2.475
G1 F50.0 X6.7009 Y11.4434
G1 Z-2.0
G2 F100.0 X5.9731 Y11.7448 I-0.0015 J1.0256
G3 X5.9648 Y11.7532 I-3.1548 J-3.1455
G2 X5.6623 Y12.4834 I0.7273 J0.729
G3 Y12.4942 I-4.455 J0.0051
G2 X5.9642 Y13.223 I1.0275 J0.0013
G3 X5.9725 Y13.2313 I-3.1459 J3.1544
G2 X6.7015 Y13.5332 I0.7277 J-0.7259
G3 X6.7133 I0.0059 J4.455
G2 X7.4424 Y13.2312 I0.0014 J-1.028
G3 X7.4508 Y13.2229 I3.1541 J3.1462
G2 X7.7525 Y12.4944 I-0.7251 J-0.7271
G3 Y12.4819 I4.455 J-0.006
G2 X7.4511 Y11.7542 I-1.0256 J-0.0015
G3 X7.4427 Y11.7458 I3.1455 J-3.1548
G2 X6.7125 Y11.4434 I-0.729 J0.7273
G3 X6.7009 I-0.0051 J-4.455
G1 F50.0 X6.7038 Y9.4634
G2 F100.0 X4.571 Y10.3468 I-0.0044 J3.0056
G3 X4.5664 Y10.3515 I-1.7527 J-1.7475
G2 X3.6823 Y12.4856 I2.1258 J2.1307
G3 Y12.4917 I-2.475 J0.0028
G2 X4.566 Y14.625 I3.0075 J0.0039
G3 X4.5706 Y14.6296 I-1.7477 J1.7524
G2 X6.7041 Y15.5132 I2.1296 J-2.1242
G3 X6.7107 I0.0033 J2.475
G2 X8.8443 Y14.6295 I0.004 J-3.008
G3 X8.8489 Y14.6249 I1.7523 J1.7479
G2 X9.7325 Y12.4918 I-2.1232 J-2.1291
G3 Y12.4848 I2.475 J-0.0033
G2 X8.8491 Y10.352 I-3.0056 J-0.0044
G3 X8.8444 Y10.3474 I1.7475 J-1.7527
G2 X6.7103 Y9.4634 I-2.1307 J2.1258
G3 X6.7038 I-0.0028 J-2.475
G1 F50.0 X6.7009 Y11.4434
G1 Z-3.0
G2 F100.0 X5.9731 Y11.7448 I-0.0015 J1.0256
G3 X5.9648 Y11.7532 I-3.1548 J-3.1455
G2 X5.6623 Y12.4834 I0.7273 J0.729
G3 Y12.4942 I-4.455 J0.0051
G2 X5.9642 Y13.223 I1.0275 J0.0013
G3 X5.9725 Y13.2313 I-3.1459 J3.1544
G2 X6.7015 Y13.5332 I0.7277 J-0.7259
G3 X6.7133 I0.0059 J4.455
G2 X7.4424 Y13.2312 I0.0014 J-1.028
G3 X7.4508 Y13.2229 I3.1541 J3.1462
G2 X7.7525 Y12.4944 I-0.7251 J-0.7271
G3 Y12.4819 I4.455 J-0.006
G2 X7.4511 Y11.7542 I-1.0256 J-0.0015
G3 X7.4427 Y11.7458 I3.1455 J-3.1548
G2 X6.7125 Y11.4434 I-0.729 J0.7273
G3 X6.7009 I-0.0051 J-4.455
G1 F50.0 X6.7038 Y9.4634
G2 F100.0 X4.571 Y10.3468 I-0.0044 J3.0056
G3 X4.5664 Y10.3515 I-1.7527 J-1.7475
G2 X3.6823 Y12.4856 I2.1258 J2.1307
G3 Y12.4917 I-2.475 J0.0028
G2 X4.566 Y14.625 I3.0075 J0.0039
G3 X4.5706 Y14.6296 I-1.7477 J1.7524
G2 X6.7041 Y15.5132 I2.1296 J-2.1242
G3 X6.7107 I0.0033 J2.475
G2 X8.8443 Y14.6295 I0.004 J-3.008
G3 X8.8489 Y14.6249 I1.7523 J1.7479
G2 X9.7325 Y12.4918 I-2.1232 J-2.1291
G3 Y12.4848 I2.475 J-0.0033
G2 X8.8491 Y10.352 I-3.0056 J-0.0044
G3 X8.8444 Y10.3474 I1.7475 J-1.7527
G2 X6.7103 Y9.4634 I-2.1307 J2.1258
G3 X6.7038 I-0.0028 J-2.475
G1 F50.0 X6.7009 Y11.4434
G1 Z-4.0
G2 F100.0 X5.9731 Y11.7448 I-0.0015 J1.0256
G3 X5.9648 Y11.7532 I-3.1548 J-3.1455
G2 X5.6623 Y12.4834 I0.7273 J0.729
G3 Y12.4942 I-4.455 J0.0051
G2 X5.9642 Y13.223 I1.0275 J0.0013
G3 X5.9725 Y13.2313 I-3.1459 J3.1544
G2 X6.7015 Y13.5332 I0.7277 J-0.7259
G3 X6.7133 I0.0059 J4.455
G2 X7.4424 Y13.2312 I0.0014 J-1.028
G3 X7.4508 Y13.2229 I3.1541 J3.1462
G2 X7.7525 Y12.4944 I-0.7251 J-0.7271
G3 Y12.4819 I4.455 J-0.006
G2 X7.4511 Y11.7542 I-1.0256 J-0.0015
G3 X7.4427 Y11.7458 I3.1455 J-3.1548
G2 X6.7125 Y11.4434 I-0.729 J0.7273
G3 X6.7009 I-0.0051 J-4.455
G1 F50.0 X6.7038 Y9.4634
G2 F100.0 X4.571 Y10.3468 I-0.0044 J3.0056
G3 X4.5664 Y10.3515 I-1.7527 J-1.7475
G2 X3.6823 Y12.4856 I2.1258 J2.1307
G3 Y12.4917 I-2.475 J0.0028
G2 X4.566 Y14.625 I3.0075 J0.0039
G3 X4.5706 Y14.6296 I-1.7477 J1.7524
G2 X6.7041 Y15.5132 I2.1296 J-2.1242
G3 X6.7107 I0.0033 J2.475
G2 X8.8443 Y14.6295 I0.004 J-3.008
G3 X8.8489 Y14.6249 I1.7523 J1.7479
G2 X9.7325 Y12.4918 I-2.1232 J-2.1291
G3 Y12.4848 I2.475 J-0.0033
G2 X8.8491 Y10.352 I-3.0056 J-0.0044
G3 X8.8444 Y10.3474 I1.7475 J-1.7527
G2 X6.7103 Y9.4634 I-2.1307 J2.1258
G3 X6.7038 I-0.0028 J-2.475
G1 F50.0 X6.7009 Y11.4434
G1 Z-4.5
G2 F100.0 X5.9731 Y11.7448 I-0.0015 J1.0256
G3 X5.9648 Y11.7532 I-3.1548 J-3.1455
G2 X5.6623 Y12.4834 I0.7273 J0.729
G3 Y12.4942 I-4.455 J0.0051
G2 X5.9642 Y13.223 I1.0275 J0.0013
G3 X5.9725 Y13.2313 I-3.1459 J3.1544
G2 X6.7015 Y13.5332 I0.7277 J-0.7259
G3 X6.7133 I0.0059 J4.455
G2 X7.4424 Y13.2312 I0.0014 J-1.028
G3 X7.4508 Y13.2229 I3.1541 J3.1462
G2 X7.7525 Y12.4944 I-0.7251 J-0.7271
G3 Y12.4819 I4.455 J-0.006
G2 X7.4511 Y11.7542 I-1.0256 J-0.0015
G3 X7.4427 Y11.7458 I3.1455 J-3.1548
G2 X6.7125 Y11.4434 I-0.729 J0.7273
G3 X6.7009 I-0.0051 J-4.455
G1 F50.0 X6.7038 Y9.4634
G2 F100.0 X4.571 Y10.3468 I-0.0044 J3.0056
G3 X4.5664 Y10.3515 I-1.7527 J-1.7475
G2 X3.6823 Y12.4856 I2.1258 J2.1307
G3 Y12.4917 I-2.475 J0.0028
G2 X4.566 Y14.625 I3.0075 J0.0039
G3 X4.5706 Y14.6296 I-1.7477 J1.7524
G2 X6.7041 Y15.5132 I2.1296 J-2.1242
G3 X6.7107 I0.0033 J2.475
G2 X8.8443 Y14.6295 I0.004 J-3.008
G3 X8.8489 Y14.6249 I1.7523 J1.7479
G2 X9.7325 Y12.4918 I-2.1232 J-2.1291
G3 Y12.4848 I2.475 J-0.0033
G2 X8.8491 Y10.352 I-3.0056 J-0.0044
G3 X8.8444 Y10.3474 I1.7475 J-1.7527
G2 X6.7103 Y9.4634 I-2.1307 J2.1258
G3 X6.7038 I-0.0028 J-2.475
G1 F50.0 X6.7009 Y11.4434
G1 Z-5.0
G2 F100.0 X5.9731 Y11.7448 I-0.0015 J1.0256
G3 X5.9648 Y11.7532 I-3.1548 J-3.1455
G2 X5.6623 Y12.4834 I0.7273 J0.729
G3 Y12.4942 I-4.455 J0.0051
G2 X5.9642 Y13.223 I1.0275 J0.0013
G3 X5.9725 Y13.2313 I-3.1459 J3.1544
G2 X6.7015 Y13.5332 I0.7277 J-0.7259
G3 X6.7133 I0.0059 J4.455
G2 X7.4424 Y13.2312 I0.0014 J-1.028
G3 X7.4508 Y13.2229 I3.1541 J3.1462
G2 X7.7525 Y12.4944 I-0.7251 J-0.7271
G3 Y12.4819 I4.455 J-0.006
G2 X7.4511 Y11.7542 I-1.0256 J-0.0015
G3 X7.4427 Y11.7458 I3.1455 J-3.1548
G2 X6.7125 Y11.4434 I-0.729 J0.7273
G3 X6.7009 I-0.0051 J-4.455
G1 F50.0 X6.7038 Y9.4634
G2 F100.0 X4.571 Y10.3468 I-0.0044 J3.0056
G3 X4.5664 Y10.3515 I-1.7527 J-1.7475
G2 X3.6823 Y12.4856 I2.1258 J2.1307
G3 Y12.4917 I-2.475 J0.0028
G2 X4.566 Y14.625 I3.0075 J0.0039
G3 X4.5706 Y14.6296 I-1.7477 J1.7524
G2 X6.7041 Y15.5132 I2.1296 J-2.1242
G3 X6.7107 I0.0033 J2.475
G2 X8.8443 Y14.6295 I0.004 J-3.008
G3 X8.8489 Y14.6249 I1.7523 J1.7479
G2 X9.7325 Y12.4918 I-2.1232 J-2.1291
G3 Y12.4848 I2.475 J-0.0033
G2 X8.8491 Y10.352 I-3.0056 J-0.0044
G3 X8.8444 Y10.3474 I1.7475 J-1.7527
G2 X6.7103 Y9.4634 I-2.1307 J2.1258
G3 X6.7038 I-0.0028 J-2.475
G0 Z5.0
M5
M30
