( Made using CamBam - http://www.cambam.co.uk )
( pick and place parts - 10mm 9/27/2012 10:02:10 AM )
( T7 : 4.0 )
G21 G90 G64 G40
G0 Z3.0
( T7 : 4.0 )
T7 M6
( Bearing Centre )
G17
M3 S1000
G0 X9.6068 Y36.7226
G1 F50.0 Z-6.0
G3 F100.0 X10.1613 Y36.9523 I0.001 J0.7817
G2 X10.1711 Y36.9621 I3.6816 J-3.6723
G3 X10.4003 Y37.5153 I-0.5505 J0.5521
G2 Y37.5288 I5.2 J0.0073
G3 X10.1702 Y38.0842 I-0.7832 J0.0009
G2 X10.1617 Y38.0928 I3.6728 J3.6811
G3 X9.6068 Y38.3226 I-0.5539 J-0.5526
G2 X9.5928 I-0.0065 J5.2
G3 X9.0395 Y38.0934 I-0.0011 J-0.7797
G2 X9.0291 Y38.083 I-3.682 J3.6719
G3 X8.8003 Y37.5305 I0.5498 J-0.5514
G2 Y37.5163 I-5.2 J-0.0079
G3 X9.0302 Y36.9614 I0.7825 J-0.0009
G2 X9.0397 Y36.9519 I-3.6725 J-3.6814
G3 X9.5932 Y36.7226 I0.5524 J0.5509
G2 X9.6068 I0.0071 J-5.2
G1 F50.0 X9.6048 Y35.1226
G3 F100.0 X11.2941 Y35.8223 I0.003 J2.3817
G2 X11.3009 Y35.8291 I2.5488 J-2.5424
G3 X12.0003 Y37.5175 I-1.6803 J1.6851
G2 Y37.5269 I3.6 J0.0051
G3 X11.3003 Y39.2169 I-2.3832 J0.0029
G2 X11.2944 Y39.2228 I2.5427 J2.5484
G3 X9.6048 Y39.9226 I-1.6866 J-1.6826
G2 X9.5951 I-0.0045 J3.6
G3 X7.9066 Y39.2232 I-0.0034 J-2.3797
G2 X7.8994 Y39.216 I-2.5491 J2.5421
G3 X7.2003 Y37.5281 I1.6795 J-1.6844
G2 Y37.5183 I-3.6 J-0.0055
G3 X7.9002 Y35.8286 I2.3825 J-0.0029
G2 X7.9068 Y35.8221 I-2.5425 J-2.5487
G3 X9.5953 Y35.1226 I1.6853 J1.6807
G2 X9.6048 I0.0049 J-3.6
G1 F50.0 X9.6028 Y33.5226
G3 F100.0 X12.4269 Y34.6924 I0.005 J3.9817
G2 X12.4306 Y34.6962 I1.416 J-1.4124
G3 X13.6003 Y37.5198 I-2.81 J2.818
G2 Y37.525 I2.0 J0.0028
G3 X12.4304 Y40.3495 I-3.9832 J0.0048
G2 X12.4271 Y40.3528 I1.4126 J1.4158
G3 X9.6028 Y41.5226 I-2.8194 J-2.8126
G2 X9.5974 I-0.0025 J2.0
G3 X6.7737 Y40.3531 I-0.0057 J-3.9797
G2 X6.7697 Y40.3491 I-1.4162 J1.4123
G3 X5.6003 Y37.5256 I2.8092 J-2.8174
G2 Y37.5202 I-2.0 J-0.003
G3 X6.7702 Y34.6959 I3.9825 J-0.0048
G2 X6.7738 Y34.6922 I-1.4125 J-1.4159
G3 X9.5975 Y33.5226 I2.8183 J2.8106
G2 X9.6028 I0.0027 J-2.0
G0 Z3.0
G0 X9.6068 Y36.7226
G1 F50.0 Z-7.0
G3 F100.0 X10.1613 Y36.9523 I0.001 J0.7817
G2 X10.1711 Y36.9621 I3.6816 J-3.6723
G3 X10.4003 Y37.5153 I-0.5505 J0.5521
G2 Y37.5288 I5.2 J0.0073
G3 X10.1702 Y38.0842 I-0.7832 J0.0009
G2 X10.1617 Y38.0928 I3.6728 J3.6811
G3 X9.6068 Y38.3226 I-0.5539 J-0.5526
G2 X9.5928 I-0.0065 J5.2
G3 X9.0395 Y38.0934 I-0.0011 J-0.7797
G2 X9.0291 Y38.083 I-3.682 J3.6719
G3 X8.8003 Y37.5305 I0.5498 J-0.5514
G2 Y37.5163 I-5.2 J-0.0079
G3 X9.0302 Y36.9614 I0.7825 J-0.0009
G2 X9.0397 Y36.9519 I-3.6725 J-3.6814
G3 X9.5932 Y36.7226 I0.5524 J0.5509
G2 X9.6068 I0.0071 J-5.2
G1 F50.0 X9.6048 Y35.1226
G3 F100.0 X11.2941 Y35.8223 I0.003 J2.3817
G2 X11.3009 Y35.8291 I2.5488 J-2.5424
G3 X12.0003 Y37.5175 I-1.6803 J1.6851
G2 Y37.5269 I3.6 J0.0051
G3 X11.3003 Y39.2169 I-2.3832 J0.0029
G2 X11.2944 Y39.2228 I2.5427 J2.5484
G3 X9.6048 Y39.9226 I-1.6866 J-1.6826
G2 X9.5951 I-0.0045 J3.6
G3 X7.9066 Y39.2232 I-0.0034 J-2.3797
G2 X7.8994 Y39.216 I-2.5491 J2.5421
G3 X7.2003 Y37.5281 I1.6795 J-1.6844
G2 Y37.5183 I-3.6 J-0.0055
G3 X7.9002 Y35.8286 I2.3825 J-0.0029
G2 X7.9068 Y35.8221 I-2.5425 J-2.5487
G3 X9.5953 Y35.1226 I1.6853 J1.6807
G2 X9.6048 I0.0049 J-3.6
G1 F50.0 X9.6028 Y33.5226
G3 F100.0 X12.4269 Y34.6924 I0.005 J3.9817
G2 X12.4306 Y34.6962 I1.416 J-1.4124
G3 X13.6003 Y37.5198 I-2.81 J2.818
G2 Y37.525 I2.0 J0.0028
G3 X12.4304 Y40.3495 I-3.9832 J0.0048
G2 X12.4271 Y40.3528 I1.4126 J1.4158
G3 X9.6028 Y41.5226 I-2.8194 J-2.8126
G2 X9.5974 I-0.0025 J2.0
G3 X6.7737 Y40.3531 I-0.0057 J-3.9797
G2 X6.7697 Y40.3491 I-1.4162 J1.4123
G3 X5.6003 Y37.5256 I2.8092 J-2.8174
G2 Y37.5202 I-2.0 J-0.003
G3 X6.7702 Y34.6959 I3.9825 J-0.0048
G2 X6.7738 Y34.6922 I-1.4125 J-1.4159
G3 X9.5975 Y33.5226 I2.8183 J2.8106
G2 X9.6028 I0.0027 J-2.0
G0 Z3.0
G0 X9.6068 Y36.7226
G1 F50.0 Z-8.0
G3 F100.0 X10.1613 Y36.9523 I0.001 J0.7817
G2 X10.1711 Y36.9621 I3.6816 J-3.6723
G3 X10.4003 Y37.5153 I-0.5505 J0.5521
G2 Y37.5288 I5.2 J0.0073
G3 X10.1702 Y38.0842 I-0.7832 J0.0009
G2 X10.1617 Y38.0928 I3.6728 J3.6811
G3 X9.6068 Y38.3226 I-0.5539 J-0.5526
G2 X9.5928 I-0.0065 J5.2
G3 X9.0395 Y38.0934 I-0.0011 J-0.7797
G2 X9.0291 Y38.083 I-3.682 J3.6719
G3 X8.8003 Y37.5305 I0.5498 J-0.5514
G2 Y37.5163 I-5.2 J-0.0079
G3 X9.0302 Y36.9614 I0.7825 J-0.0009
G2 X9.0397 Y36.9519 I-3.6725 J-3.6814
G3 X9.5932 Y36.7226 I0.5524 J0.5509
G2 X9.6068 I0.0071 J-5.2
G1 F50.0 X9.6048 Y35.1226
G3 F100.0 X11.2941 Y35.8223 I0.003 J2.3817
G2 X11.3009 Y35.8291 I2.5488 J-2.5424
G3 X12.0003 Y37.5175 I-1.6803 J1.6851
G2 Y37.5269 I3.6 J0.0051
G3 X11.3003 Y39.2169 I-2.3832 J0.0029
G2 X11.2944 Y39.2228 I2.5427 J2.5484
G3 X9.6048 Y39.9226 I-1.6866 J-1.6826
G2 X9.5951 I-0.0045 J3.6
G3 X7.9066 Y39.2232 I-0.0034 J-2.3797
G2 X7.8994 Y39.216 I-2.5491 J2.5421
G3 X7.2003 Y37.5281 I1.6795 J-1.6844
G2 Y37.5183 I-3.6 J-0.0055
G3 X7.9002 Y35.8286 I2.3825 J-0.0029
G2 X7.9068 Y35.8221 I-2.5425 J-2.5487
G3 X9.5953 Y35.1226 I1.6853 J1.6807
G2 X9.6048 I0.0049 J-3.6
G1 F50.0 X9.6028 Y33.5226
G3 F100.0 X12.4269 Y34.6924 I0.005 J3.9817
G2 X12.4306 Y34.6962 I1.416 J-1.4124
G3 X13.6003 Y37.5198 I-2.81 J2.818
G2 Y37.525 I2.0 J0.0028
G3 X12.4304 Y40.3495 I-3.9832 J0.0048
G2 X12.4271 Y40.3528 I1.4126 J1.4158
G3 X9.6028 Y41.5226 I-2.8194 J-2.8126
G2 X9.5974 I-0.0025 J2.0
G3 X6.7737 Y40.3531 I-0.0057 J-3.9797
G2 X6.7697 Y40.3491 I-1.4162 J1.4123
G3 X5.6003 Y37.5256 I2.8092 J-2.8174
G2 Y37.5202 I-2.0 J-0.003
G3 X6.7702 Y34.6959 I3.9825 J-0.0048
G2 X6.7738 Y34.6922 I-1.4125 J-1.4159
G3 X9.5975 Y33.5226 I2.8183 J2.8106
G2 X9.6028 I0.0027 J-2.0
G0 Z3.0
G0 X9.6068 Y36.7226
G1 F50.0 Z-9.0
G3 F100.0 X10.1613 Y36.9523 I0.001 J0.7817
G2 X10.1711 Y36.9621 I3.6816 J-3.6723
G3 X10.4003 Y37.5153 I-0.5505 J0.5521
G2 Y37.5288 I5.2 J0.0073
G3 X10.1702 Y38.0842 I-0.7832 J0.0009
G2 X10.1617 Y38.0928 I3.6728 J3.6811
G3 X9.6068 Y38.3226 I-0.5539 J-0.5526
G2 X9.5928 I-0.0065 J5.2
G3 X9.0395 Y38.0934 I-0.0011 J-0.7797
G2 X9.0291 Y38.083 I-3.682 J3.6719
G3 X8.8003 Y37.5305 I0.5498 J-0.5514
G2 Y37.5163 I-5.2 J-0.0079
G3 X9.0302 Y36.9614 I0.7825 J-0.0009
G2 X9.0397 Y36.9519 I-3.6725 J-3.6814
G3 X9.5932 Y36.7226 I0.5524 J0.5509
G2 X9.6068 I0.0071 J-5.2
G1 F50.0 X9.6048 Y35.1226
G3 F100.0 X11.2941 Y35.8223 I0.003 J2.3817
G2 X11.3009 Y35.8291 I2.5488 J-2.5424
G3 X12.0003 Y37.5175 I-1.6803 J1.6851
G2 Y37.5269 I3.6 J0.0051
G3 X11.3003 Y39.2169 I-2.3832 J0.0029
G2 X11.2944 Y39.2228 I2.5427 J2.5484
G3 X9.6048 Y39.9226 I-1.6866 J-1.6826
G2 X9.5951 I-0.0045 J3.6
G3 X7.9066 Y39.2232 I-0.0034 J-2.3797
G2 X7.8994 Y39.216 I-2.5491 J2.5421
G3 X7.2003 Y37.5281 I1.6795 J-1.6844
G2 Y37.5183 I-3.6 J-0.0055
G3 X7.9002 Y35.8286 I2.3825 J-0.0029
G2 X7.9068 Y35.8221 I-2.5425 J-2.5487
G3 X9.5953 Y35.1226 I1.6853 J1.6807
G2 X9.6048 I0.0049 J-3.6
G1 F50.0 X9.6028 Y33.5226
G3 F100.0 X12.4269 Y34.6924 I0.005 J3.9817
G2 X12.4306 Y34.6962 I1.416 J-1.4124
G3 X13.6003 Y37.5198 I-2.81 J2.818
G2 Y37.525 I2.0 J0.0028
G3 X12.4304 Y40.3495 I-3.9832 J0.0048
G2 X12.4271 Y40.3528 I1.4126 J1.4158
G3 X9.6028 Y41.5226 I-2.8194 J-2.8126
G2 X9.5974 I-0.0025 J2.0
G3 X6.7737 Y40.3531 I-0.0057 J-3.9797
G2 X6.7697 Y40.3491 I-1.4162 J1.4123
G3 X5.6003 Y37.5256 I2.8092 J-2.8174
G2 Y37.5202 I-2.0 J-0.003
G3 X6.7702 Y34.6959 I3.9825 J-0.0048
G2 X6.7738 Y34.6922 I-1.4125 J-1.4159
G3 X9.5975 Y33.5226 I2.8183 J2.8106
G2 X9.6028 I0.0027 J-2.0
G0 Z3.0
G0 X9.6068 Y36.7226
G1 F50.0 Z-10.0
G3 F100.0 X10.1613 Y36.9523 I0.001 J0.7817
G2 X10.1711 Y36.9621 I3.6816 J-3.6723
G3 X10.4003 Y37.5153 I-0.5505 J0.5521
G2 Y37.5288 I5.2 J0.0073
G3 X10.1702 Y38.0842 I-0.7832 J0.0009
G2 X10.1617 Y38.0928 I3.6728 J3.6811
G3 X9.6068 Y38.3226 I-0.5539 J-0.5526
G2 X9.5928 I-0.0065 J5.2
G3 X9.0395 Y38.0934 I-0.0011 J-0.7797
G2 X9.0291 Y38.083 I-3.682 J3.6719
G3 X8.8003 Y37.5305 I0.5498 J-0.5514
G2 Y37.5163 I-5.2 J-0.0079
G3 X9.0302 Y36.9614 I0.7825 J-0.0009
G2 X9.0397 Y36.9519 I-3.6725 J-3.6814
G3 X9.5932 Y36.7226 I0.5524 J0.5509
G2 X9.6068 I0.0071 J-5.2
G1 F50.0 X9.6048 Y35.1226
G3 F100.0 X11.2941 Y35.8223 I0.003 J2.3817
G2 X11.3009 Y35.8291 I2.5488 J-2.5424
G3 X12.0003 Y37.5175 I-1.6803 J1.6851
G2 Y37.5269 I3.6 J0.0051
G3 X11.3003 Y39.2169 I-2.3832 J0.0029
G2 X11.2944 Y39.2228 I2.5427 J2.5484
G3 X9.6048 Y39.9226 I-1.6866 J-1.6826
G2 X9.5951 I-0.0045 J3.6
G3 X7.9066 Y39.2232 I-0.0034 J-2.3797
G2 X7.8994 Y39.216 I-2.5491 J2.5421
G3 X7.2003 Y37.5281 I1.6795 J-1.6844
G2 Y37.5183 I-3.6 J-0.0055
G3 X7.9002 Y35.8286 I2.3825 J-0.0029
G2 X7.9068 Y35.8221 I-2.5425 J-2.5487
G3 X9.5953 Y35.1226 I1.6853 J1.6807
G2 X9.6048 I0.0049 J-3.6
G1 F50.0 X9.6028 Y33.5226
G3 F100.0 X12.4269 Y34.6924 I0.005 J3.9817
G2 X12.4306 Y34.6962 I1.416 J-1.4124
G3 X13.6003 Y37.5198 I-2.81 J2.818
G2 Y37.525 I2.0 J0.0028
G3 X12.4304 Y40.3495 I-3.9832 J0.0048
G2 X12.4271 Y40.3528 I1.4126 J1.4158
G3 X9.6028 Y41.5226 I-2.8194 J-2.8126
G2 X9.5974 I-0.0025 J2.0
G3 X6.7737 Y40.3531 I-0.0057 J-3.9797
G2 X6.7697 Y40.3491 I-1.4162 J1.4123
G3 X5.6003 Y37.5256 I2.8092 J-2.8174
G2 Y37.5202 I-2.0 J-0.003
G3 X6.7702 Y34.6959 I3.9825 J-0.0048
G2 X6.7738 Y34.6922 I-1.4125 J-1.4159
G3 X9.5975 Y33.5226 I2.8183 J2.8106
G2 X9.6028 I0.0027 J-2.0
G0 Z3.0
G0 X9.6068 Y36.7226
G1 F50.0 Z-11.0
G3 F100.0 X10.1613 Y36.9523 I0.001 J0.7817
G2 X10.1711 Y36.9621 I3.6816 J-3.6723
G3 X10.4003 Y37.5153 I-0.5505 J0.5521
G2 Y37.5288 I5.2 J0.0073
G3 X10.1702 Y38.0842 I-0.7832 J0.0009
G2 X10.1617 Y38.0928 I3.6728 J3.6811
G3 X9.6068 Y38.3226 I-0.5539 J-0.5526
G2 X9.5928 I-0.0065 J5.2
G3 X9.0395 Y38.0934 I-0.0011 J-0.7797
G2 X9.0291 Y38.083 I-3.682 J3.6719
G3 X8.8003 Y37.5305 I0.5498 J-0.5514
G2 Y37.5163 I-5.2 J-0.0079
G3 X9.0302 Y36.9614 I0.7825 J-0.0009
G2 X9.0397 Y36.9519 I-3.6725 J-3.6814
G3 X9.5932 Y36.7226 I0.5524 J0.5509
G2 X9.6068 I0.0071 J-5.2
G1 F50.0 X9.6048 Y35.1226
G3 F100.0 X11.2941 Y35.8223 I0.003 J2.3817
G2 X11.3009 Y35.8291 I2.5488 J-2.5424
G3 X12.0003 Y37.5175 I-1.6803 J1.6851
G2 Y37.5269 I3.6 J0.0051
G3 X11.3003 Y39.2169 I-2.3832 J0.0029
G2 X11.2944 Y39.2228 I2.5427 J2.5484
G3 X9.6048 Y39.9226 I-1.6866 J-1.6826
G2 X9.5951 I-0.0045 J3.6
G3 X7.9066 Y39.2232 I-0.0034 J-2.3797
G2 X7.8994 Y39.216 I-2.5491 J2.5421
G3 X7.2003 Y37.5281 I1.6795 J-1.6844
G2 Y37.5183 I-3.6 J-0.0055
G3 X7.9002 Y35.8286 I2.3825 J-0.0029
G2 X7.9068 Y35.8221 I-2.5425 J-2.5487
G3 X9.5953 Y35.1226 I1.6853 J1.6807
G2 X9.6048 I0.0049 J-3.6
G1 F50.0 X9.6028 Y33.5226
G3 F100.0 X12.4269 Y34.6924 I0.005 J3.9817
G2 X12.4306 Y34.6962 I1.416 J-1.4124
G3 X13.6003 Y37.5198 I-2.81 J2.818
G2 Y37.525 I2.0 J0.0028
G3 X12.4304 Y40.3495 I-3.9832 J0.0048
G2 X12.4271 Y40.3528 I1.4126 J1.4158
G3 X9.6028 Y41.5226 I-2.8194 J-2.8126
G2 X9.5974 I-0.0025 J2.0
G3 X6.7737 Y40.3531 I-0.0057 J-3.9797
G2 X6.7697 Y40.3491 I-1.4162 J1.4123
G3 X5.6003 Y37.5256 I2.8092 J-2.8174
G2 Y37.5202 I-2.0 J-0.003
G3 X6.7702 Y34.6959 I3.9825 J-0.0048
G2 X6.7738 Y34.6922 I-1.4125 J-1.4159
G3 X9.5975 Y33.5226 I2.8183 J2.8106
G2 X9.6028 I0.0027 J-2.0
G0 Z3.0
G0 X30.4585 Y21.8968
G1 F50.0 Z-6.0
G3 F100.0 X30.3599 Y21.5161 I0.681 J-0.3796
G2 Y21.5025 I-5.2 J-0.0073
G3 X30.5899 Y20.9471 I0.7832 J-0.0009
G2 X30.5984 Y20.9386 I-3.6728 J-3.6811
G3 X31.1533 Y20.7088 I0.5539 J0.5526
G2 X31.1674 I0.0065 J-5.2
G3 X31.7206 Y20.9379 I0.0011 J0.7797
G2 X31.731 Y20.9483 I3.682 J-3.6719
G3 X31.9598 Y21.5009 I-0.5498 J0.5514
G2 Y21.515 I5.2 J0.0079
G3 X31.73 Y22.07 I-0.7825 J0.0009
G2 X31.7205 Y22.0795 I3.6725 J3.6814
G3 X31.167 Y22.3087 I-0.5524 J-0.5509
G2 X31.1533 I-0.0071 J5.2
G3 X30.5989 Y22.0791 I-0.001 J-0.7817
G2 X30.589 Y22.0692 I-3.6816 J3.6723
G3 X30.4585 Y21.8968 I0.5505 J-0.5521
G1 F50.0 X29.061 Y22.6758
G3 F100.0 X28.7599 Y21.5138 I2.0785 J-1.1587
G2 Y21.5045 I-3.6 J-0.0051
G3 X29.4598 Y19.8145 I2.3832 J-0.0029
G2 X29.4657 Y19.8086 I-2.5427 J-2.5484
G3 X31.1553 Y19.1088 I1.6866 J1.6826
G2 X31.165 I0.0045 J-3.6
G3 X32.8535 Y19.8081 I0.0034 J2.3797
G2 X32.8607 Y19.8153 I2.5491 J-2.5421
G3 X33.5598 Y21.5033 I-1.6795 J1.6844
G2 Y21.5131 I3.6 J0.0055
G3 X32.86 Y23.2027 I-2.3825 J0.0029
G2 X32.8534 Y23.2093 I2.5425 J2.5487
G3 X31.1648 Y23.9087 I-1.6853 J-1.6807
G2 X31.1553 I-0.0049 J3.6
G3 X29.4661 Y23.209 I-0.003 J-2.3817
G2 X29.4592 Y23.2022 I-2.5488 J2.5424
G3 X29.061 Y22.6758 I1.6803 J-1.6851
G1 F50.0 X27.6635 Y23.4549
G3 F100.0 X27.1599 Y21.5116 I3.4761 J-1.9377
G2 Y21.5064 I-2.0 J-0.0028
G3 X28.3297 Y18.6819 I3.9832 J-0.0048
G2 X28.333 Y18.6786 I-1.4126 J-1.4158
G3 X31.1573 Y17.5088 I2.8194 J2.8126
G2 X31.1627 I0.0025 J-2.0
G3 X33.9865 Y18.6783 I0.0057 J3.9797
G2 X33.9905 Y18.6823 I1.4162 J-1.4123
G3 X35.1598 Y21.5057 I-2.8092 J2.8174
G2 Y21.5112 I2.0 J0.003
G3 X33.99 Y24.3355 I-3.9825 J0.0048
G2 X33.9863 Y24.3391 I1.4125 J1.4159
G3 X31.1626 Y25.5087 I-2.8183 J-2.8106
G2 X31.1573 I-0.0027 J2.0
G3 X28.3333 Y24.339 I-0.005 J-3.9817
G2 X28.3295 Y24.3352 I-1.416 J1.4124
G3 X27.6635 Y23.4549 I2.81 J-2.818
G0 Z3.0
G0 X30.4585 Y21.8968
G1 F50.0 Z-7.0
G3 F100.0 X30.3599 Y21.5161 I0.681 J-0.3796
G2 Y21.5025 I-5.2 J-0.0073
G3 X30.5899 Y20.9471 I0.7832 J-0.0009
G2 X30.5984 Y20.9386 I-3.6728 J-3.6811
G3 X31.1533 Y20.7088 I0.5539 J0.5526
G2 X31.1674 I0.0065 J-5.2
G3 X31.7206 Y20.9379 I0.0011 J0.7797
G2 X31.731 Y20.9483 I3.682 J-3.6719
G3 X31.9598 Y21.5009 I-0.5498 J0.5514
G2 Y21.515 I5.2 J0.0079
G3 X31.73 Y22.07 I-0.7825 J0.0009
G2 X31.7205 Y22.0795 I3.6725 J3.6814
G3 X31.167 Y22.3087 I-0.5524 J-0.5509
G2 X31.1533 I-0.0071 J5.2
G3 X30.5989 Y22.0791 I-0.001 J-0.7817
G2 X30.589 Y22.0692 I-3.6816 J3.6723
G3 X30.4585 Y21.8968 I0.5505 J-0.5521
G1 F50.0 X29.061 Y22.6758
G3 F100.0 X28.7599 Y21.5138 I2.0785 J-1.1587
G2 Y21.5045 I-3.6 J-0.0051
G3 X29.4598 Y19.8145 I2.3832 J-0.0029
G2 X29.4657 Y19.8086 I-2.5427 J-2.5484
G3 X31.1553 Y19.1088 I1.6866 J1.6826
G2 X31.165 I0.0045 J-3.6
G3 X32.8535 Y19.8081 I0.0034 J2.3797
G2 X32.8607 Y19.8153 I2.5491 J-2.5421
G3 X33.5598 Y21.5033 I-1.6795 J1.6844
G2 Y21.5131 I3.6 J0.0055
G3 X32.86 Y23.2027 I-2.3825 J0.0029
G2 X32.8534 Y23.2093 I2.5425 J2.5487
G3 X31.1648 Y23.9087 I-1.6853 J-1.6807
G2 X31.1553 I-0.0049 J3.6
G3 X29.4661 Y23.209 I-0.003 J-2.3817
G2 X29.4592 Y23.2022 I-2.5488 J2.5424
G3 X29.061 Y22.6758 I1.6803 J-1.6851
G1 F50.0 X27.6635 Y23.4549
G3 F100.0 X27.1599 Y21.5116 I3.4761 J-1.9377
G2 Y21.5064 I-2.0 J-0.0028
G3 X28.3297 Y18.6819 I3.9832 J-0.0048
G2 X28.333 Y18.6786 I-1.4126 J-1.4158
G3 X31.1573 Y17.5088 I2.8194 J2.8126
G2 X31.1627 I0.0025 J-2.0
G3 X33.9865 Y18.6783 I0.0057 J3.9797
G2 X33.9905 Y18.6823 I1.4162 J-1.4123
G3 X35.1598 Y21.5057 I-2.8092 J2.8174
G2 Y21.5112 I2.0 J0.003
G3 X33.99 Y24.3355 I-3.9825 J0.0048
G2 X33.9863 Y24.3391 I1.4125 J1.4159
G3 X31.1626 Y25.5087 I-2.8183 J-2.8106
G2 X31.1573 I-0.0027 J2.0
G3 X28.3333 Y24.339 I-0.005 J-3.9817
G2 X28.3295 Y24.3352 I-1.416 J1.4124
G3 X27.6635 Y23.4549 I2.81 J-2.818
G0 Z3.0
G0 X30.4585 Y21.8968
G1 F50.0 Z-8.0
G3 F100.0 X30.3599 Y21.5161 I0.681 J-0.3796
G2 Y21.5025 I-5.2 J-0.0073
G3 X30.5899 Y20.9471 I0.7832 J-0.0009
G2 X30.5984 Y20.9386 I-3.6728 J-3.6811
G3 X31.1533 Y20.7088 I0.5539 J0.5526
G2 X31.1674 I0.0065 J-5.2
G3 X31.7206 Y20.9379 I0.0011 J0.7797
G2 X31.731 Y20.9483 I3.682 J-3.6719
G3 X31.9598 Y21.5009 I-0.5498 J0.5514
G2 Y21.515 I5.2 J0.0079
G3 X31.73 Y22.07 I-0.7825 J0.0009
G2 X31.7205 Y22.0795 I3.6725 J3.6814
G3 X31.167 Y22.3087 I-0.5524 J-0.5509
G2 X31.1533 I-0.0071 J5.2
G3 X30.5989 Y22.0791 I-0.001 J-0.7817
G2 X30.589 Y22.0692 I-3.6816 J3.6723
G3 X30.4585 Y21.8968 I0.5505 J-0.5521
G1 F50.0 X29.061 Y22.6758
G3 F100.0 X28.7599 Y21.5138 I2.0785 J-1.1587
G2 Y21.5045 I-3.6 J-0.0051
G3 X29.4598 Y19.8145 I2.3832 J-0.0029
G2 X29.4657 Y19.8086 I-2.5427 J-2.5484
G3 X31.1553 Y19.1088 I1.6866 J1.6826
G2 X31.165 I0.0045 J-3.6
G3 X32.8535 Y19.8081 I0.0034 J2.3797
G2 X32.8607 Y19.8153 I2.5491 J-2.5421
G3 X33.5598 Y21.5033 I-1.6795 J1.6844
G2 Y21.5131 I3.6 J0.0055
G3 X32.86 Y23.2027 I-2.3825 J0.0029
G2 X32.8534 Y23.2093 I2.5425 J2.5487
G3 X31.1648 Y23.9087 I-1.6853 J-1.6807
G2 X31.1553 I-0.0049 J3.6
G3 X29.4661 Y23.209 I-0.003 J-2.3817
G2 X29.4592 Y23.2022 I-2.5488 J2.5424
G3 X29.061 Y22.6758 I1.6803 J-1.6851
G1 F50.0 X27.6635 Y23.4549
G3 F100.0 X27.1599 Y21.5116 I3.4761 J-1.9377
G2 Y21.5064 I-2.0 J-0.0028
G3 X28.3297 Y18.6819 I3.9832 J-0.0048
G2 X28.333 Y18.6786 I-1.4126 J-1.4158
G3 X31.1573 Y17.5088 I2.8194 J2.8126
G2 X31.1627 I0.0025 J-2.0
G3 X33.9865 Y18.6783 I0.0057 J3.9797
G2 X33.9905 Y18.6823 I1.4162 J-1.4123
G3 X35.1598 Y21.5057 I-2.8092 J2.8174
G2 Y21.5112 I2.0 J0.003
G3 X33.99 Y24.3355 I-3.9825 J0.0048
G2 X33.9863 Y24.3391 I1.4125 J1.4159
G3 X31.1626 Y25.5087 I-2.8183 J-2.8106
G2 X31.1573 I-0.0027 J2.0
G3 X28.3333 Y24.339 I-0.005 J-3.9817
G2 X28.3295 Y24.3352 I-1.416 J1.4124
G3 X27.6635 Y23.4549 I2.81 J-2.818
G0 Z3.0
G0 X30.4585 Y21.8968
G1 F50.0 Z-9.0
G3 F100.0 X30.3599 Y21.5161 I0.681 J-0.3796
G2 Y21.5025 I-5.2 J-0.0073
G3 X30.5899 Y20.9471 I0.7832 J-0.0009
G2 X30.5984 Y20.9386 I-3.6728 J-3.6811
G3 X31.1533 Y20.7088 I0.5539 J0.5526
G2 X31.1674 I0.0065 J-5.2
G3 X31.7206 Y20.9379 I0.0011 J0.7797
G2 X31.731 Y20.9483 I3.682 J-3.6719
G3 X31.9598 Y21.5009 I-0.5498 J0.5514
G2 Y21.515 I5.2 J0.0079
G3 X31.73 Y22.07 I-0.7825 J0.0009
G2 X31.7205 Y22.0795 I3.6725 J3.6814
G3 X31.167 Y22.3087 I-0.5524 J-0.5509
G2 X31.1533 I-0.0071 J5.2
G3 X30.5989 Y22.0791 I-0.001 J-0.7817
G2 X30.589 Y22.0692 I-3.6816 J3.6723
G3 X30.4585 Y21.8968 I0.5505 J-0.5521
G1 F50.0 X29.061 Y22.6758
G3 F100.0 X28.7599 Y21.5138 I2.0785 J-1.1587
G2 Y21.5045 I-3.6 J-0.0051
G3 X29.4598 Y19.8145 I2.3832 J-0.0029
G2 X29.4657 Y19.8086 I-2.5427 J-2.5484
G3 X31.1553 Y19.1088 I1.6866 J1.6826
G2 X31.165 I0.0045 J-3.6
G3 X32.8535 Y19.8081 I0.0034 J2.3797
G2 X32.8607 Y19.8153 I2.5491 J-2.5421
G3 X33.5598 Y21.5033 I-1.6795 J1.6844
G2 Y21.5131 I3.6 J0.0055
G3 X32.86 Y23.2027 I-2.3825 J0.0029
G2 X32.8534 Y23.2093 I2.5425 J2.5487
G3 X31.1648 Y23.9087 I-1.6853 J-1.6807
G2 X31.1553 I-0.0049 J3.6
G3 X29.4661 Y23.209 I-0.003 J-2.3817
G2 X29.4592 Y23.2022 I-2.5488 J2.5424
G3 X29.061 Y22.6758 I1.6803 J-1.6851
G1 F50.0 X27.6635 Y23.4549
G3 F100.0 X27.1599 Y21.5116 I3.4761 J-1.9377
G2 Y21.5064 I-2.0 J-0.0028
G3 X28.3297 Y18.6819 I3.9832 J-0.0048
G2 X28.333 Y18.6786 I-1.4126 J-1.4158
G3 X31.1573 Y17.5088 I2.8194 J2.8126
G2 X31.1627 I0.0025 J-2.0
G3 X33.9865 Y18.6783 I0.0057 J3.9797
G2 X33.9905 Y18.6823 I1.4162 J-1.4123
G3 X35.1598 Y21.5057 I-2.8092 J2.8174
G2 Y21.5112 I2.0 J0.003
G3 X33.99 Y24.3355 I-3.9825 J0.0048
G2 X33.9863 Y24.3391 I1.4125 J1.4159
G3 X31.1626 Y25.5087 I-2.8183 J-2.8106
G2 X31.1573 I-0.0027 J2.0
G3 X28.3333 Y24.339 I-0.005 J-3.9817
G2 X28.3295 Y24.3352 I-1.416 J1.4124
G3 X27.6635 Y23.4549 I2.81 J-2.818
G0 Z3.0
G0 X30.4585 Y21.8968
G1 F50.0 Z-10.0
G3 F100.0 X30.3599 Y21.5161 I0.681 J-0.3796
G2 Y21.5025 I-5.2 J-0.0073
G3 X30.5899 Y20.9471 I0.7832 J-0.0009
G2 X30.5984 Y20.9386 I-3.6728 J-3.6811
G3 X31.1533 Y20.7088 I0.5539 J0.5526
G2 X31.1674 I0.0065 J-5.2
G3 X31.7206 Y20.9379 I0.0011 J0.7797
G2 X31.731 Y20.9483 I3.682 J-3.6719
G3 X31.9598 Y21.5009 I-0.5498 J0.5514
G2 Y21.515 I5.2 J0.0079
G3 X31.73 Y22.07 I-0.7825 J0.0009
G2 X31.7205 Y22.0795 I3.6725 J3.6814
G3 X31.167 Y22.3087 I-0.5524 J-0.5509
G2 X31.1533 I-0.0071 J5.2
G3 X30.5989 Y22.0791 I-0.001 J-0.7817
G2 X30.589 Y22.0692 I-3.6816 J3.6723
G3 X30.4585 Y21.8968 I0.5505 J-0.5521
G1 F50.0 X29.061 Y22.6758
G3 F100.0 X28.7599 Y21.5138 I2.0785 J-1.1587
G2 Y21.5045 I-3.6 J-0.0051
G3 X29.4598 Y19.8145 I2.3832 J-0.0029
G2 X29.4657 Y19.8086 I-2.5427 J-2.5484
G3 X31.1553 Y19.1088 I1.6866 J1.6826
G2 X31.165 I0.0045 J-3.6
G3 X32.8535 Y19.8081 I0.0034 J2.3797
G2 X32.8607 Y19.8153 I2.5491 J-2.5421
G3 X33.5598 Y21.5033 I-1.6795 J1.6844
G2 Y21.5131 I3.6 J0.0055
G3 X32.86 Y23.2027 I-2.3825 J0.0029
G2 X32.8534 Y23.2093 I2.5425 J2.5487
G3 X31.1648 Y23.9087 I-1.6853 J-1.6807
G2 X31.1553 I-0.0049 J3.6
G3 X29.4661 Y23.209 I-0.003 J-2.3817
G2 X29.4592 Y23.2022 I-2.5488 J2.5424
G3 X29.061 Y22.6758 I1.6803 J-1.6851
G1 F50.0 X27.6635 Y23.4549
G3 F100.0 X27.1599 Y21.5116 I3.4761 J-1.9377
G2 Y21.5064 I-2.0 J-0.0028
G3 X28.3297 Y18.6819 I3.9832 J-0.0048
G2 X28.333 Y18.6786 I-1.4126 J-1.4158
G3 X31.1573 Y17.5088 I2.8194 J2.8126
G2 X31.1627 I0.0025 J-2.0
G3 X33.9865 Y18.6783 I0.0057 J3.9797
G2 X33.9905 Y18.6823 I1.4162 J-1.4123
G3 X35.1598 Y21.5057 I-2.8092 J2.8174
G2 Y21.5112 I2.0 J0.003
G3 X33.99 Y24.3355 I-3.9825 J0.0048
G2 X33.9863 Y24.3391 I1.4125 J1.4159
G3 X31.1626 Y25.5087 I-2.8183 J-2.8106
G2 X31.1573 I-0.0027 J2.0
G3 X28.3333 Y24.339 I-0.005 J-3.9817
G2 X28.3295 Y24.3352 I-1.416 J1.4124
G3 X27.6635 Y23.4549 I2.81 J-2.818
G0 Z3.0
G0 X30.4585 Y21.8968
G1 F50.0 Z-11.0
G3 F100.0 X30.3599 Y21.5161 I0.681 J-0.3796
G2 Y21.5025 I-5.2 J-0.0073
G3 X30.5899 Y20.9471 I0.7832 J-0.0009
G2 X30.5984 Y20.9386 I-3.6728 J-3.6811
G3 X31.1533 Y20.7088 I0.5539 J0.5526
G2 X31.1674 I0.0065 J-5.2
G3 X31.7206 Y20.9379 I0.0011 J0.7797
G2 X31.731 Y20.9483 I3.682 J-3.6719
G3 X31.9598 Y21.5009 I-0.5498 J0.5514
G2 Y21.515 I5.2 J0.0079
G3 X31.73 Y22.07 I-0.7825 J0.0009
G2 X31.7205 Y22.0795 I3.6725 J3.6814
G3 X31.167 Y22.3087 I-0.5524 J-0.5509
G2 X31.1533 I-0.0071 J5.2
G3 X30.5989 Y22.0791 I-0.001 J-0.7817
G2 X30.589 Y22.0692 I-3.6816 J3.6723
G3 X30.4585 Y21.8968 I0.5505 J-0.5521
G1 F50.0 X29.061 Y22.6758
G3 F100.0 X28.7599 Y21.5138 I2.0785 J-1.1587
G2 Y21.5045 I-3.6 J-0.0051
G3 X29.4598 Y19.8145 I2.3832 J-0.0029
G2 X29.4657 Y19.8086 I-2.5427 J-2.5484
G3 X31.1553 Y19.1088 I1.6866 J1.6826
G2 X31.165 I0.0045 J-3.6
G3 X32.8535 Y19.8081 I0.0034 J2.3797
G2 X32.8607 Y19.8153 I2.5491 J-2.5421
G3 X33.5598 Y21.5033 I-1.6795 J1.6844
G2 Y21.5131 I3.6 J0.0055
G3 X32.86 Y23.2027 I-2.3825 J0.0029
G2 X32.8534 Y23.2093 I2.5425 J2.5487
G3 X31.1648 Y23.9087 I-1.6853 J-1.6807
G2 X31.1553 I-0.0049 J3.6
G3 X29.4661 Y23.209 I-0.003 J-2.3817
G2 X29.4592 Y23.2022 I-2.5488 J2.5424
G3 X29.061 Y22.6758 I1.6803 J-1.6851
G1 F50.0 X27.6635 Y23.4549
G3 F100.0 X27.1599 Y21.5116 I3.4761 J-1.9377
G2 Y21.5064 I-2.0 J-0.0028
G3 X28.3297 Y18.6819 I3.9832 J-0.0048
G2 X28.333 Y18.6786 I-1.4126 J-1.4158
G3 X31.1573 Y17.5088 I2.8194 J2.8126
G2 X31.1627 I0.0025 J-2.0
G3 X33.9865 Y18.6783 I0.0057 J3.9797
G2 X33.9905 Y18.6823 I1.4162 J-1.4123
G3 X35.1598 Y21.5057 I-2.8092 J2.8174
G2 Y21.5112 I2.0 J0.003
G3 X33.99 Y24.3355 I-3.9825 J0.0048
G2 X33.9863 Y24.3391 I1.4125 J1.4159
G3 X31.1626 Y25.5087 I-2.8183 J-2.8106
G2 X31.1573 I-0.0027 J2.0
G3 X28.3333 Y24.339 I-0.005 J-3.9817
G2 X28.3295 Y24.3352 I-1.416 J1.4124
G3 X27.6635 Y23.4549 I2.81 J-2.818
G0 Z3.0
G0 X52.0976 Y37.1401
G1 F50.0 Z-6.0
G3 F100.0 X52.2277 Y36.9685 I0.6827 J0.3824
G2 X52.2372 Y36.9589 I-3.6725 J-3.6814
G3 X52.7907 Y36.7297 I0.5524 J0.5509
G2 X52.8044 I0.0071 J-5.2
G3 X53.3588 Y36.9593 I0.001 J0.7817
G2 X53.3687 Y36.9692 I3.6816 J-3.6723
G3 X53.5978 Y37.5224 I-0.5505 J0.5521
G2 Y37.5359 I5.2 J0.0073
G3 X53.3678 Y38.0913 I-0.7832 J0.0009
G2 X53.3592 Y38.0998 I3.6728 J3.6811
G3 X52.8043 Y38.3296 I-0.5539 J-0.5526
G2 X52.7903 I-0.0065 J5.2
G3 X52.2371 Y38.1005 I-0.0011 J-0.7797
G2 X52.2267 Y38.0901 I-3.682 J3.6719
G3 X51.9978 Y37.5376 I0.5498 J-0.5514
G2 Y37.5234 I-5.2 J-0.0079
G3 X52.0976 Y37.1401 I0.7825 J-0.0009
G1 F50.0 X50.7017 Y36.3582
G3 F100.0 X51.0977 Y35.8357 I2.0787 J1.1642
G2 X51.1043 Y35.8291 I-2.5425 J-2.5487
G3 X52.7929 Y35.1297 I1.6853 J1.6807
G2 X52.8024 I0.0049 J-3.6
G3 X54.4916 Y35.8294 I0.003 J2.3817
G2 X54.4984 Y35.8362 I2.5488 J-2.5424
G3 X55.1978 Y37.5246 I-1.6803 J1.6851
G2 Y37.534 I3.6 J0.0051
G3 X54.4979 Y39.2239 I-2.3832 J0.0029
G2 X54.492 Y39.2298 I2.5427 J2.5484
G3 X52.8023 Y39.9296 I-1.6866 J-1.6826
G2 X52.7926 I-0.0045 J3.6
G3 X51.1041 Y39.2303 I-0.0034 J-2.3797
G2 X51.0969 Y39.2231 I-2.5491 J2.5421
G3 X50.3978 Y37.5351 I1.6795 J-1.6844
G2 Y37.5253 I-3.6 J-0.0055
G3 X50.7017 Y36.3582 I2.3825 J-0.0029
G1 F50.0 X49.3057 Y35.5764
G3 F100.0 X49.9677 Y34.703 I3.4746 J1.9461
G2 X49.9714 Y34.6993 I-1.4125 J-1.4159
G3 X52.7951 Y33.5297 I2.8183 J2.8106
G2 X52.8003 I0.0027 J-2.0
G3 X55.6244 Y34.6994 I0.005 J3.9817
G2 X55.6282 Y34.7032 I1.416 J-1.4124
G3 X56.7978 Y37.5269 I-2.81 J2.818
G2 Y37.5321 I2.0 J0.0028
G3 X55.628 Y40.3566 I-3.9832 J0.0048
G2 X55.6247 Y40.3599 I1.4126 J1.4158
G3 X52.8003 Y41.5296 I-2.8194 J-2.8126
G2 X52.7949 I-0.0025 J2.0
G3 X49.9712 Y40.3601 I-0.0057 J-3.9797
G2 X49.9672 Y40.3561 I-1.4162 J1.4123
G3 X48.7978 Y37.5327 I2.8092 J-2.8174
G2 Y37.5272 I-2.0 J-0.003
G3 X49.3057 Y35.5764 I3.9825 J-0.0048
G0 Z3.0
G0 X52.0976 Y37.1401
G1 F50.0 Z-7.0
G3 F100.0 X52.2277 Y36.9685 I0.6827 J0.3824
G2 X52.2372 Y36.9589 I-3.6725 J-3.6814
G3 X52.7907 Y36.7297 I0.5524 J0.5509
G2 X52.8044 I0.0071 J-5.2
G3 X53.3588 Y36.9593 I0.001 J0.7817
G2 X53.3687 Y36.9692 I3.6816 J-3.6723
G3 X53.5978 Y37.5224 I-0.5505 J0.5521
G2 Y37.5359 I5.2 J0.0073
G3 X53.3678 Y38.0913 I-0.7832 J0.0009
G2 X53.3592 Y38.0998 I3.6728 J3.6811
G3 X52.8043 Y38.3296 I-0.5539 J-0.5526
G2 X52.7903 I-0.0065 J5.2
G3 X52.2371 Y38.1005 I-0.0011 J-0.7797
G2 X52.2267 Y38.0901 I-3.682 J3.6719
G3 X51.9978 Y37.5376 I0.5498 J-0.5514
G2 Y37.5234 I-5.2 J-0.0079
G3 X52.0976 Y37.1401 I0.7825 J-0.0009
G1 F50.0 X50.7017 Y36.3582
G3 F100.0 X51.0977 Y35.8357 I2.0787 J1.1642
G2 X51.1043 Y35.8291 I-2.5425 J-2.5487
G3 X52.7929 Y35.1297 I1.6853 J1.6807
G2 X52.8024 I0.0049 J-3.6
G3 X54.4916 Y35.8294 I0.003 J2.3817
G2 X54.4984 Y35.8362 I2.5488 J-2.5424
G3 X55.1978 Y37.5246 I-1.6803 J1.6851
G2 Y37.534 I3.6 J0.0051
G3 X54.4979 Y39.2239 I-2.3832 J0.0029
G2 X54.492 Y39.2298 I2.5427 J2.5484
G3 X52.8023 Y39.9296 I-1.6866 J-1.6826
G2 X52.7926 I-0.0045 J3.6
G3 X51.1041 Y39.2303 I-0.0034 J-2.3797
G2 X51.0969 Y39.2231 I-2.5491 J2.5421
G3 X50.3978 Y37.5351 I1.6795 J-1.6844
G2 Y37.5253 I-3.6 J-0.0055
G3 X50.7017 Y36.3582 I2.3825 J-0.0029
G1 F50.0 X49.3057 Y35.5764
G3 F100.0 X49.9677 Y34.703 I3.4746 J1.9461
G2 X49.9714 Y34.6993 I-1.4125 J-1.4159
G3 X52.7951 Y33.5297 I2.8183 J2.8106
G2 X52.8003 I0.0027 J-2.0
G3 X55.6244 Y34.6994 I0.005 J3.9817
G2 X55.6282 Y34.7032 I1.416 J-1.4124
G3 X56.7978 Y37.5269 I-2.81 J2.818
G2 Y37.5321 I2.0 J0.0028
G3 X55.628 Y40.3566 I-3.9832 J0.0048
G2 X55.6247 Y40.3599 I1.4126 J1.4158
G3 X52.8003 Y41.5296 I-2.8194 J-2.8126
G2 X52.7949 I-0.0025 J2.0
G3 X49.9712 Y40.3601 I-0.0057 J-3.9797
G2 X49.9672 Y40.3561 I-1.4162 J1.4123
G3 X48.7978 Y37.5327 I2.8092 J-2.8174
G2 Y37.5272 I-2.0 J-0.003
G3 X49.3057 Y35.5764 I3.9825 J-0.0048
G0 Z3.0
G0 X52.0976 Y37.1401
G1 F50.0 Z-8.0
G3 F100.0 X52.2277 Y36.9685 I0.6827 J0.3824
G2 X52.2372 Y36.9589 I-3.6725 J-3.6814
G3 X52.7907 Y36.7297 I0.5524 J0.5509
G2 X52.8044 I0.0071 J-5.2
G3 X53.3588 Y36.9593 I0.001 J0.7817
G2 X53.3687 Y36.9692 I3.6816 J-3.6723
G3 X53.5978 Y37.5224 I-0.5505 J0.5521
G2 Y37.5359 I5.2 J0.0073
G3 X53.3678 Y38.0913 I-0.7832 J0.0009
G2 X53.3592 Y38.0998 I3.6728 J3.6811
G3 X52.8043 Y38.3296 I-0.5539 J-0.5526
G2 X52.7903 I-0.0065 J5.2
G3 X52.2371 Y38.1005 I-0.0011 J-0.7797
G2 X52.2267 Y38.0901 I-3.682 J3.6719
G3 X51.9978 Y37.5376 I0.5498 J-0.5514
G2 Y37.5234 I-5.2 J-0.0079
G3 X52.0976 Y37.1401 I0.7825 J-0.0009
G1 F50.0 X50.7017 Y36.3582
G3 F100.0 X51.0977 Y35.8357 I2.0787 J1.1642
G2 X51.1043 Y35.8291 I-2.5425 J-2.5487
G3 X52.7929 Y35.1297 I1.6853 J1.6807
G2 X52.8024 I0.0049 J-3.6
G3 X54.4916 Y35.8294 I0.003 J2.3817
G2 X54.4984 Y35.8362 I2.5488 J-2.5424
G3 X55.1978 Y37.5246 I-1.6803 J1.6851
G2 Y37.534 I3.6 J0.0051
G3 X54.4979 Y39.2239 I-2.3832 J0.0029
G2 X54.492 Y39.2298 I2.5427 J2.5484
G3 X52.8023 Y39.9296 I-1.6866 J-1.6826
G2 X52.7926 I-0.0045 J3.6
G3 X51.1041 Y39.2303 I-0.0034 J-2.3797
G2 X51.0969 Y39.2231 I-2.5491 J2.5421
G3 X50.3978 Y37.5351 I1.6795 J-1.6844
G2 Y37.5253 I-3.6 J-0.0055
G3 X50.7017 Y36.3582 I2.3825 J-0.0029
G1 F50.0 X49.3057 Y35.5764
G3 F100.0 X49.9677 Y34.703 I3.4746 J1.9461
G2 X49.9714 Y34.6993 I-1.4125 J-1.4159
G3 X52.7951 Y33.5297 I2.8183 J2.8106
G2 X52.8003 I0.0027 J-2.0
G3 X55.6244 Y34.6994 I0.005 J3.9817
G2 X55.6282 Y34.7032 I1.416 J-1.4124
G3 X56.7978 Y37.5269 I-2.81 J2.818
G2 Y37.5321 I2.0 J0.0028
G3 X55.628 Y40.3566 I-3.9832 J0.0048
G2 X55.6247 Y40.3599 I1.4126 J1.4158
G3 X52.8003 Y41.5296 I-2.8194 J-2.8126
G2 X52.7949 I-0.0025 J2.0
G3 X49.9712 Y40.3601 I-0.0057 J-3.9797
G2 X49.9672 Y40.3561 I-1.4162 J1.4123
G3 X48.7978 Y37.5327 I2.8092 J-2.8174
G2 Y37.5272 I-2.0 J-0.003
G3 X49.3057 Y35.5764 I3.9825 J-0.0048
G0 Z3.0
G0 X52.0976 Y37.1401
G1 F50.0 Z-9.0
G3 F100.0 X52.2277 Y36.9685 I0.6827 J0.3824
G2 X52.2372 Y36.9589 I-3.6725 J-3.6814
G3 X52.7907 Y36.7297 I0.5524 J0.5509
G2 X52.8044 I0.0071 J-5.2
G3 X53.3588 Y36.9593 I0.001 J0.7817
G2 X53.3687 Y36.9692 I3.6816 J-3.6723
G3 X53.5978 Y37.5224 I-0.5505 J0.5521
G2 Y37.5359 I5.2 J0.0073
G3 X53.3678 Y38.0913 I-0.7832 J0.0009
G2 X53.3592 Y38.0998 I3.6728 J3.6811
G3 X52.8043 Y38.3296 I-0.5539 J-0.5526
G2 X52.7903 I-0.0065 J5.2
G3 X52.2371 Y38.1005 I-0.0011 J-0.7797
G2 X52.2267 Y38.0901 I-3.682 J3.6719
G3 X51.9978 Y37.5376 I0.5498 J-0.5514
G2 Y37.5234 I-5.2 J-0.0079
G3 X52.0976 Y37.1401 I0.7825 J-0.0009
G1 F50.0 X50.7017 Y36.3582
G3 F100.0 X51.0977 Y35.8357 I2.0787 J1.1642
G2 X51.1043 Y35.8291 I-2.5425 J-2.5487
G3 X52.7929 Y35.1297 I1.6853 J1.6807
G2 X52.8024 I0.0049 J-3.6
G3 X54.4916 Y35.8294 I0.003 J2.3817
G2 X54.4984 Y35.8362 I2.5488 J-2.5424
G3 X55.1978 Y37.5246 I-1.6803 J1.6851
G2 Y37.534 I3.6 J0.0051
G3 X54.4979 Y39.2239 I-2.3832 J0.0029
G2 X54.492 Y39.2298 I2.5427 J2.5484
G3 X52.8023 Y39.9296 I-1.6866 J-1.6826
G2 X52.7926 I-0.0045 J3.6
G3 X51.1041 Y39.2303 I-0.0034 J-2.3797
G2 X51.0969 Y39.2231 I-2.5491 J2.5421
G3 X50.3978 Y37.5351 I1.6795 J-1.6844
G2 Y37.5253 I-3.6 J-0.0055
G3 X50.7017 Y36.3582 I2.3825 J-0.0029
G1 F50.0 X49.3057 Y35.5764
G3 F100.0 X49.9677 Y34.703 I3.4746 J1.9461
G2 X49.9714 Y34.6993 I-1.4125 J-1.4159
G3 X52.7951 Y33.5297 I2.8183 J2.8106
G2 X52.8003 I0.0027 J-2.0
G3 X55.6244 Y34.6994 I0.005 J3.9817
G2 X55.6282 Y34.7032 I1.416 J-1.4124
G3 X56.7978 Y37.5269 I-2.81 J2.818
G2 Y37.5321 I2.0 J0.0028
G3 X55.628 Y40.3566 I-3.9832 J0.0048
G2 X55.6247 Y40.3599 I1.4126 J1.4158
G3 X52.8003 Y41.5296 I-2.8194 J-2.8126
G2 X52.7949 I-0.0025 J2.0
G3 X49.9712 Y40.3601 I-0.0057 J-3.9797
G2 X49.9672 Y40.3561 I-1.4162 J1.4123
G3 X48.7978 Y37.5327 I2.8092 J-2.8174
G2 Y37.5272 I-2.0 J-0.003
G3 X49.3057 Y35.5764 I3.9825 J-0.0048
G0 Z3.0
G0 X52.0976 Y37.1401
G1 F50.0 Z-10.0
G3 F100.0 X52.2277 Y36.9685 I0.6827 J0.3824
G2 X52.2372 Y36.9589 I-3.6725 J-3.6814
G3 X52.7907 Y36.7297 I0.5524 J0.5509
G2 X52.8044 I0.0071 J-5.2
G3 X53.3588 Y36.9593 I0.001 J0.7817
G2 X53.3687 Y36.9692 I3.6816 J-3.6723
G3 X53.5978 Y37.5224 I-0.5505 J0.5521
G2 Y37.5359 I5.2 J0.0073
G3 X53.3678 Y38.0913 I-0.7832 J0.0009
G2 X53.3592 Y38.0998 I3.6728 J3.6811
G3 X52.8043 Y38.3296 I-0.5539 J-0.5526
G2 X52.7903 I-0.0065 J5.2
G3 X52.2371 Y38.1005 I-0.0011 J-0.7797
G2 X52.2267 Y38.0901 I-3.682 J3.6719
G3 X51.9978 Y37.5376 I0.5498 J-0.5514
G2 Y37.5234 I-5.2 J-0.0079
G3 X52.0976 Y37.1401 I0.7825 J-0.0009
G1 F50.0 X50.7017 Y36.3582
G3 F100.0 X51.0977 Y35.8357 I2.0787 J1.1642
G2 X51.1043 Y35.8291 I-2.5425 J-2.5487
G3 X52.7929 Y35.1297 I1.6853 J1.6807
G2 X52.8024 I0.0049 J-3.6
G3 X54.4916 Y35.8294 I0.003 J2.3817
G2 X54.4984 Y35.8362 I2.5488 J-2.5424
G3 X55.1978 Y37.5246 I-1.6803 J1.6851
G2 Y37.534 I3.6 J0.0051
G3 X54.4979 Y39.2239 I-2.3832 J0.0029
G2 X54.492 Y39.2298 I2.5427 J2.5484
G3 X52.8023 Y39.9296 I-1.6866 J-1.6826
G2 X52.7926 I-0.0045 J3.6
G3 X51.1041 Y39.2303 I-0.0034 J-2.3797
G2 X51.0969 Y39.2231 I-2.5491 J2.5421
G3 X50.3978 Y37.5351 I1.6795 J-1.6844
G2 Y37.5253 I-3.6 J-0.0055
G3 X50.7017 Y36.3582 I2.3825 J-0.0029
G1 F50.0 X49.3057 Y35.5764
G3 F100.0 X49.9677 Y34.703 I3.4746 J1.9461
G2 X49.9714 Y34.6993 I-1.4125 J-1.4159
G3 X52.7951 Y33.5297 I2.8183 J2.8106
G2 X52.8003 I0.0027 J-2.0
G3 X55.6244 Y34.6994 I0.005 J3.9817
G2 X55.6282 Y34.7032 I1.416 J-1.4124
G3 X56.7978 Y37.5269 I-2.81 J2.818
G2 Y37.5321 I2.0 J0.0028
G3 X55.628 Y40.3566 I-3.9832 J0.0048
G2 X55.6247 Y40.3599 I1.4126 J1.4158
G3 X52.8003 Y41.5296 I-2.8194 J-2.8126
G2 X52.7949 I-0.0025 J2.0
G3 X49.9712 Y40.3601 I-0.0057 J-3.9797
G2 X49.9672 Y40.3561 I-1.4162 J1.4123
G3 X48.7978 Y37.5327 I2.8092 J-2.8174
G2 Y37.5272 I-2.0 J-0.003
G3 X49.3057 Y35.5764 I3.9825 J-0.0048
G0 Z3.0
G0 X52.0976 Y37.1401
G1 F50.0 Z-11.0
G3 F100.0 X52.2277 Y36.9685 I0.6827 J0.3824
G2 X52.2372 Y36.9589 I-3.6725 J-3.6814
G3 X52.7907 Y36.7297 I0.5524 J0.5509
G2 X52.8044 I0.0071 J-5.2
G3 X53.3588 Y36.9593 I0.001 J0.7817
G2 X53.3687 Y36.9692 I3.6816 J-3.6723
G3 X53.5978 Y37.5224 I-0.5505 J0.5521
G2 Y37.5359 I5.2 J0.0073
G3 X53.3678 Y38.0913 I-0.7832 J0.0009
G2 X53.3592 Y38.0998 I3.6728 J3.6811
G3 X52.8043 Y38.3296 I-0.5539 J-0.5526
G2 X52.7903 I-0.0065 J5.2
G3 X52.2371 Y38.1005 I-0.0011 J-0.7797
G2 X52.2267 Y38.0901 I-3.682 J3.6719
G3 X51.9978 Y37.5376 I0.5498 J-0.5514
G2 Y37.5234 I-5.2 J-0.0079
G3 X52.0976 Y37.1401 I0.7825 J-0.0009
G1 F50.0 X50.7017 Y36.3582
G3 F100.0 X51.0977 Y35.8357 I2.0787 J1.1642
G2 X51.1043 Y35.8291 I-2.5425 J-2.5487
G3 X52.7929 Y35.1297 I1.6853 J1.6807
G2 X52.8024 I0.0049 J-3.6
G3 X54.4916 Y35.8294 I0.003 J2.3817
G2 X54.4984 Y35.8362 I2.5488 J-2.5424
G3 X55.1978 Y37.5246 I-1.6803 J1.6851
G2 Y37.534 I3.6 J0.0051
G3 X54.4979 Y39.2239 I-2.3832 J0.0029
G2 X54.492 Y39.2298 I2.5427 J2.5484
G3 X52.8023 Y39.9296 I-1.6866 J-1.6826
G2 X52.7926 I-0.0045 J3.6
G3 X51.1041 Y39.2303 I-0.0034 J-2.3797
G2 X51.0969 Y39.2231 I-2.5491 J2.5421
G3 X50.3978 Y37.5351 I1.6795 J-1.6844
G2 Y37.5253 I-3.6 J-0.0055
G3 X50.7017 Y36.3582 I2.3825 J-0.0029
G1 F50.0 X49.3057 Y35.5764
G3 F100.0 X49.9677 Y34.703 I3.4746 J1.9461
G2 X49.9714 Y34.6993 I-1.4125 J-1.4159
G3 X52.7951 Y33.5297 I2.8183 J2.8106
G2 X52.8003 I0.0027 J-2.0
G3 X55.6244 Y34.6994 I0.005 J3.9817
G2 X55.6282 Y34.7032 I1.416 J-1.4124
G3 X56.7978 Y37.5269 I-2.81 J2.818
G2 Y37.5321 I2.0 J0.0028
G3 X55.628 Y40.3566 I-3.9832 J0.0048
G2 X55.6247 Y40.3599 I1.4126 J1.4158
G3 X52.8003 Y41.5296 I-2.8194 J-2.8126
G2 X52.7949 I-0.0025 J2.0
G3 X49.9712 Y40.3601 I-0.0057 J-3.9797
G2 X49.9672 Y40.3561 I-1.4162 J1.4123
G3 X48.7978 Y37.5327 I2.8092 J-2.8174
G2 Y37.5272 I-2.0 J-0.003
G3 X49.3057 Y35.5764 I3.9825 J-0.0048
G0 Z3.0
G0 X73.6572 Y21.9059
G1 F50.0 Z-6.0
G3 F100.0 X73.5574 Y21.5231 I0.6799 J-0.3817
G2 Y21.5096 I-5.2 J-0.0073
G3 X73.7874 Y20.9542 I0.7832 J-0.0009
G2 X73.796 Y20.9457 I-3.6728 J-3.6811
G3 X74.3509 Y20.7158 I0.5539 J0.5526
G2 X74.3649 I0.0065 J-5.2
G3 X74.9181 Y20.945 I0.0011 J0.7797
G2 X74.9285 Y20.9554 I3.682 J-3.6719
G3 X75.1574 Y21.5079 I-0.5498 J0.5514
G2 Y21.5221 I5.2 J0.0079
G3 X74.9275 Y22.077 I-0.7825 J0.0009
G2 X74.918 Y22.0865 I3.6725 J3.6814
G3 X74.3645 Y22.3158 I-0.5524 J-0.5509
G2 X74.3508 I-0.0071 J5.2
G3 X73.7964 Y22.0862 I-0.001 J-0.7817
G2 X73.7865 Y22.0763 I-3.6816 J3.6723
G3 X73.6572 Y21.9059 I0.5505 J-0.5521
G1 F50.0 X72.262 Y22.6891
G3 F100.0 X71.9574 Y21.5209 I2.075 J-1.1649
G2 Y21.5115 I-3.6 J-0.0051
G3 X72.6573 Y19.8216 I2.3832 J-0.0029
G2 X72.6632 Y19.8157 I-2.5427 J-2.5484
G3 X74.3529 Y19.1158 I1.6866 J1.6826
G2 X74.3626 I0.0045 J-3.6
G3 X76.0511 Y19.8152 I0.0034 J2.3797
G2 X76.0583 Y19.8224 I2.5491 J-2.5421
G3 X76.7574 Y21.5104 I-1.6795 J1.6844
G2 Y21.5202 I3.6 J0.0055
G3 X76.0575 Y23.2098 I-2.3825 J0.0029
G2 X76.0509 Y23.2164 I2.5425 J2.5487
G3 X74.3623 Y23.9158 I-1.6853 J-1.6807
G2 X74.3528 I-0.0049 J3.6
G3 X72.6636 Y23.2161 I-0.003 J-2.3817
G2 X72.6568 Y23.2093 I-2.5488 J2.5424
G3 X72.262 Y22.6891 I1.6803 J-1.6851
G1 F50.0 X70.8668 Y23.4723
G3 F100.0 X70.3574 Y21.5186 I3.4702 J-1.9481
G2 Y21.5134 I-2.0 J-0.0028
G3 X71.5272 Y18.6889 I3.9832 J-0.0048
G2 X71.5305 Y18.6856 I-1.4126 J-1.4158
G3 X74.3549 Y17.5158 I2.8194 J2.8126
G2 X74.3603 I0.0025 J-2.0
G3 X77.184 Y18.6854 I0.0057 J3.9797
G2 X77.188 Y18.6894 I1.4162 J-1.4123
G3 X78.3574 Y21.5128 I-2.8092 J2.8174
G2 Y21.5182 I2.0 J0.003
G3 X77.1875 Y24.3425 I-3.9825 J0.0048
G2 X77.1838 Y24.3462 I1.4125 J1.4159
G3 X74.3601 Y25.5158 I-2.8183 J-2.8106
G2 X74.3549 I-0.0027 J2.0
G3 X71.5308 Y24.346 I-0.005 J-3.9817
G2 X71.527 Y24.3423 I-1.416 J1.4124
G3 X70.8668 Y23.4723 I2.81 J-2.818
G0 Z3.0
G0 X73.6572 Y21.9059
G1 F50.0 Z-7.0
G3 F100.0 X73.5574 Y21.5231 I0.6799 J-0.3817
G2 Y21.5096 I-5.2 J-0.0073
G3 X73.7874 Y20.9542 I0.7832 J-0.0009
G2 X73.796 Y20.9457 I-3.6728 J-3.6811
G3 X74.3509 Y20.7158 I0.5539 J0.5526
G2 X74.3649 I0.0065 J-5.2
G3 X74.9181 Y20.945 I0.0011 J0.7797
G2 X74.9285 Y20.9554 I3.682 J-3.6719
G3 X75.1574 Y21.5079 I-0.5498 J0.5514
G2 Y21.5221 I5.2 J0.0079
G3 X74.9275 Y22.077 I-0.7825 J0.0009
G2 X74.918 Y22.0865 I3.6725 J3.6814
G3 X74.3645 Y22.3158 I-0.5524 J-0.5509
G2 X74.3508 I-0.0071 J5.2
G3 X73.7964 Y22.0862 I-0.001 J-0.7817
G2 X73.7865 Y22.0763 I-3.6816 J3.6723
G3 X73.6572 Y21.9059 I0.5505 J-0.5521
G1 F50.0 X72.262 Y22.6891
G3 F100.0 X71.9574 Y21.5209 I2.075 J-1.1649
G2 Y21.5115 I-3.6 J-0.0051
G3 X72.6573 Y19.8216 I2.3832 J-0.0029
G2 X72.6632 Y19.8157 I-2.5427 J-2.5484
G3 X74.3529 Y19.1158 I1.6866 J1.6826
G2 X74.3626 I0.0045 J-3.6
G3 X76.0511 Y19.8152 I0.0034 J2.3797
G2 X76.0583 Y19.8224 I2.5491 J-2.5421
G3 X76.7574 Y21.5104 I-1.6795 J1.6844
G2 Y21.5202 I3.6 J0.0055
G3 X76.0575 Y23.2098 I-2.3825 J0.0029
G2 X76.0509 Y23.2164 I2.5425 J2.5487
G3 X74.3623 Y23.9158 I-1.6853 J-1.6807
G2 X74.3528 I-0.0049 J3.6
G3 X72.6636 Y23.2161 I-0.003 J-2.3817
G2 X72.6568 Y23.2093 I-2.5488 J2.5424
G3 X72.262 Y22.6891 I1.6803 J-1.6851
G1 F50.0 X70.8668 Y23.4723
G3 F100.0 X70.3574 Y21.5186 I3.4702 J-1.9481
G2 Y21.5134 I-2.0 J-0.0028
G3 X71.5272 Y18.6889 I3.9832 J-0.0048
G2 X71.5305 Y18.6856 I-1.4126 J-1.4158
G3 X74.3549 Y17.5158 I2.8194 J2.8126
G2 X74.3603 I0.0025 J-2.0
G3 X77.184 Y18.6854 I0.0057 J3.9797
G2 X77.188 Y18.6894 I1.4162 J-1.4123
G3 X78.3574 Y21.5128 I-2.8092 J2.8174
G2 Y21.5182 I2.0 J0.003
G3 X77.1875 Y24.3425 I-3.9825 J0.0048
G2 X77.1838 Y24.3462 I1.4125 J1.4159
G3 X74.3601 Y25.5158 I-2.8183 J-2.8106
G2 X74.3549 I-0.0027 J2.0
G3 X71.5308 Y24.346 I-0.005 J-3.9817
G2 X71.527 Y24.3423 I-1.416 J1.4124
G3 X70.8668 Y23.4723 I2.81 J-2.818
G0 Z3.0
G0 X73.6572 Y21.9059
G1 F50.0 Z-8.0
G3 F100.0 X73.5574 Y21.5231 I0.6799 J-0.3817
G2 Y21.5096 I-5.2 J-0.0073
G3 X73.7874 Y20.9542 I0.7832 J-0.0009
G2 X73.796 Y20.9457 I-3.6728 J-3.6811
G3 X74.3509 Y20.7158 I0.5539 J0.5526
G2 X74.3649 I0.0065 J-5.2
G3 X74.9181 Y20.945 I0.0011 J0.7797
G2 X74.9285 Y20.9554 I3.682 J-3.6719
G3 X75.1574 Y21.5079 I-0.5498 J0.5514
G2 Y21.5221 I5.2 J0.0079
G3 X74.9275 Y22.077 I-0.7825 J0.0009
G2 X74.918 Y22.0865 I3.6725 J3.6814
G3 X74.3645 Y22.3158 I-0.5524 J-0.5509
G2 X74.3508 I-0.0071 J5.2
G3 X73.7964 Y22.0862 I-0.001 J-0.7817
G2 X73.7865 Y22.0763 I-3.6816 J3.6723
G3 X73.6572 Y21.9059 I0.5505 J-0.5521
G1 F50.0 X72.262 Y22.6891
G3 F100.0 X71.9574 Y21.5209 I2.075 J-1.1649
G2 Y21.5115 I-3.6 J-0.0051
G3 X72.6573 Y19.8216 I2.3832 J-0.0029
G2 X72.6632 Y19.8157 I-2.5427 J-2.5484
G3 X74.3529 Y19.1158 I1.6866 J1.6826
G2 X74.3626 I0.0045 J-3.6
G3 X76.0511 Y19.8152 I0.0034 J2.3797
G2 X76.0583 Y19.8224 I2.5491 J-2.5421
G3 X76.7574 Y21.5104 I-1.6795 J1.6844
G2 Y21.5202 I3.6 J0.0055
G3 X76.0575 Y23.2098 I-2.3825 J0.0029
G2 X76.0509 Y23.2164 I2.5425 J2.5487
G3 X74.3623 Y23.9158 I-1.6853 J-1.6807
G2 X74.3528 I-0.0049 J3.6
G3 X72.6636 Y23.2161 I-0.003 J-2.3817
G2 X72.6568 Y23.2093 I-2.5488 J2.5424
G3 X72.262 Y22.6891 I1.6803 J-1.6851
G1 F50.0 X70.8668 Y23.4723
G3 F100.0 X70.3574 Y21.5186 I3.4702 J-1.9481
G2 Y21.5134 I-2.0 J-0.0028
G3 X71.5272 Y18.6889 I3.9832 J-0.0048
G2 X71.5305 Y18.6856 I-1.4126 J-1.4158
G3 X74.3549 Y17.5158 I2.8194 J2.8126
G2 X74.3603 I0.0025 J-2.0
G3 X77.184 Y18.6854 I0.0057 J3.9797
G2 X77.188 Y18.6894 I1.4162 J-1.4123
G3 X78.3574 Y21.5128 I-2.8092 J2.8174
G2 Y21.5182 I2.0 J0.003
G3 X77.1875 Y24.3425 I-3.9825 J0.0048
G2 X77.1838 Y24.3462 I1.4125 J1.4159
G3 X74.3601 Y25.5158 I-2.8183 J-2.8106
G2 X74.3549 I-0.0027 J2.0
G3 X71.5308 Y24.346 I-0.005 J-3.9817
G2 X71.527 Y24.3423 I-1.416 J1.4124
G3 X70.8668 Y23.4723 I2.81 J-2.818
G0 Z3.0
G0 X73.6572 Y21.9059
G1 F50.0 Z-9.0
G3 F100.0 X73.5574 Y21.5231 I0.6799 J-0.3817
G2 Y21.5096 I-5.2 J-0.0073
G3 X73.7874 Y20.9542 I0.7832 J-0.0009
G2 X73.796 Y20.9457 I-3.6728 J-3.6811
G3 X74.3509 Y20.7158 I0.5539 J0.5526
G2 X74.3649 I0.0065 J-5.2
G3 X74.9181 Y20.945 I0.0011 J0.7797
G2 X74.9285 Y20.9554 I3.682 J-3.6719
G3 X75.1574 Y21.5079 I-0.5498 J0.5514
G2 Y21.5221 I5.2 J0.0079
G3 X74.9275 Y22.077 I-0.7825 J0.0009
G2 X74.918 Y22.0865 I3.6725 J3.6814
G3 X74.3645 Y22.3158 I-0.5524 J-0.5509
G2 X74.3508 I-0.0071 J5.2
G3 X73.7964 Y22.0862 I-0.001 J-0.7817
G2 X73.7865 Y22.0763 I-3.6816 J3.6723
G3 X73.6572 Y21.9059 I0.5505 J-0.5521
G1 F50.0 X72.262 Y22.6891
G3 F100.0 X71.9574 Y21.5209 I2.075 J-1.1649
G2 Y21.5115 I-3.6 J-0.0051
G3 X72.6573 Y19.8216 I2.3832 J-0.0029
G2 X72.6632 Y19.8157 I-2.5427 J-2.5484
G3 X74.3529 Y19.1158 I1.6866 J1.6826
G2 X74.3626 I0.0045 J-3.6
G3 X76.0511 Y19.8152 I0.0034 J2.3797
G2 X76.0583 Y19.8224 I2.5491 J-2.5421
G3 X76.7574 Y21.5104 I-1.6795 J1.6844
G2 Y21.5202 I3.6 J0.0055
G3 X76.0575 Y23.2098 I-2.3825 J0.0029
G2 X76.0509 Y23.2164 I2.5425 J2.5487
G3 X74.3623 Y23.9158 I-1.6853 J-1.6807
G2 X74.3528 I-0.0049 J3.6
G3 X72.6636 Y23.2161 I-0.003 J-2.3817
G2 X72.6568 Y23.2093 I-2.5488 J2.5424
G3 X72.262 Y22.6891 I1.6803 J-1.6851
G1 F50.0 X70.8668 Y23.4723
G3 F100.0 X70.3574 Y21.5186 I3.4702 J-1.9481
G2 Y21.5134 I-2.0 J-0.0028
G3 X71.5272 Y18.6889 I3.9832 J-0.0048
G2 X71.5305 Y18.6856 I-1.4126 J-1.4158
G3 X74.3549 Y17.5158 I2.8194 J2.8126
G2 X74.3603 I0.0025 J-2.0
G3 X77.184 Y18.6854 I0.0057 J3.9797
G2 X77.188 Y18.6894 I1.4162 J-1.4123
G3 X78.3574 Y21.5128 I-2.8092 J2.8174
G2 Y21.5182 I2.0 J0.003
G3 X77.1875 Y24.3425 I-3.9825 J0.0048
G2 X77.1838 Y24.3462 I1.4125 J1.4159
G3 X74.3601 Y25.5158 I-2.8183 J-2.8106
G2 X74.3549 I-0.0027 J2.0
G3 X71.5308 Y24.346 I-0.005 J-3.9817
G2 X71.527 Y24.3423 I-1.416 J1.4124
G3 X70.8668 Y23.4723 I2.81 J-2.818
G0 Z3.0
G0 X73.6572 Y21.9059
G1 F50.0 Z-10.0
G3 F100.0 X73.5574 Y21.5231 I0.6799 J-0.3817
G2 Y21.5096 I-5.2 J-0.0073
G3 X73.7874 Y20.9542 I0.7832 J-0.0009
G2 X73.796 Y20.9457 I-3.6728 J-3.6811
G3 X74.3509 Y20.7158 I0.5539 J0.5526
G2 X74.3649 I0.0065 J-5.2
G3 X74.9181 Y20.945 I0.0011 J0.7797
G2 X74.9285 Y20.9554 I3.682 J-3.6719
G3 X75.1574 Y21.5079 I-0.5498 J0.5514
G2 Y21.5221 I5.2 J0.0079
G3 X74.9275 Y22.077 I-0.7825 J0.0009
G2 X74.918 Y22.0865 I3.6725 J3.6814
G3 X74.3645 Y22.3158 I-0.5524 J-0.5509
G2 X74.3508 I-0.0071 J5.2
G3 X73.7964 Y22.0862 I-0.001 J-0.7817
G2 X73.7865 Y22.0763 I-3.6816 J3.6723
G3 X73.6572 Y21.9059 I0.5505 J-0.5521
G1 F50.0 X72.262 Y22.6891
G3 F100.0 X71.9574 Y21.5209 I2.075 J-1.1649
G2 Y21.5115 I-3.6 J-0.0051
G3 X72.6573 Y19.8216 I2.3832 J-0.0029
G2 X72.6632 Y19.8157 I-2.5427 J-2.5484
G3 X74.3529 Y19.1158 I1.6866 J1.6826
G2 X74.3626 I0.0045 J-3.6
G3 X76.0511 Y19.8152 I0.0034 J2.3797
G2 X76.0583 Y19.8224 I2.5491 J-2.5421
G3 X76.7574 Y21.5104 I-1.6795 J1.6844
G2 Y21.5202 I3.6 J0.0055
G3 X76.0575 Y23.2098 I-2.3825 J0.0029
G2 X76.0509 Y23.2164 I2.5425 J2.5487
G3 X74.3623 Y23.9158 I-1.6853 J-1.6807
G2 X74.3528 I-0.0049 J3.6
G3 X72.6636 Y23.2161 I-0.003 J-2.3817
G2 X72.6568 Y23.2093 I-2.5488 J2.5424
G3 X72.262 Y22.6891 I1.6803 J-1.6851
G1 F50.0 X70.8668 Y23.4723
G3 F100.0 X70.3574 Y21.5186 I3.4702 J-1.9481
G2 Y21.5134 I-2.0 J-0.0028
G3 X71.5272 Y18.6889 I3.9832 J-0.0048
G2 X71.5305 Y18.6856 I-1.4126 J-1.4158
G3 X74.3549 Y17.5158 I2.8194 J2.8126
G2 X74.3603 I0.0025 J-2.0
G3 X77.184 Y18.6854 I0.0057 J3.9797
G2 X77.188 Y18.6894 I1.4162 J-1.4123
G3 X78.3574 Y21.5128 I-2.8092 J2.8174
G2 Y21.5182 I2.0 J0.003
G3 X77.1875 Y24.3425 I-3.9825 J0.0048
G2 X77.1838 Y24.3462 I1.4125 J1.4159
G3 X74.3601 Y25.5158 I-2.8183 J-2.8106
G2 X74.3549 I-0.0027 J2.0
G3 X71.5308 Y24.346 I-0.005 J-3.9817
G2 X71.527 Y24.3423 I-1.416 J1.4124
G3 X70.8668 Y23.4723 I2.81 J-2.818
G0 Z3.0
G0 X73.6572 Y21.9059
G1 F50.0 Z-11.0
G3 F100.0 X73.5574 Y21.5231 I0.6799 J-0.3817
G2 Y21.5096 I-5.2 J-0.0073
G3 X73.7874 Y20.9542 I0.7832 J-0.0009
G2 X73.796 Y20.9457 I-3.6728 J-3.6811
G3 X74.3509 Y20.7158 I0.5539 J0.5526
G2 X74.3649 I0.0065 J-5.2
G3 X74.9181 Y20.945 I0.0011 J0.7797
G2 X74.9285 Y20.9554 I3.682 J-3.6719
G3 X75.1574 Y21.5079 I-0.5498 J0.5514
G2 Y21.5221 I5.2 J0.0079
G3 X74.9275 Y22.077 I-0.7825 J0.0009
G2 X74.918 Y22.0865 I3.6725 J3.6814
G3 X74.3645 Y22.3158 I-0.5524 J-0.5509
G2 X74.3508 I-0.0071 J5.2
G3 X73.7964 Y22.0862 I-0.001 J-0.7817
G2 X73.7865 Y22.0763 I-3.6816 J3.6723
G3 X73.6572 Y21.9059 I0.5505 J-0.5521
G1 F50.0 X72.262 Y22.6891
G3 F100.0 X71.9574 Y21.5209 I2.075 J-1.1649
G2 Y21.5115 I-3.6 J-0.0051
G3 X72.6573 Y19.8216 I2.3832 J-0.0029
G2 X72.6632 Y19.8157 I-2.5427 J-2.5484
G3 X74.3529 Y19.1158 I1.6866 J1.6826
G2 X74.3626 I0.0045 J-3.6
G3 X76.0511 Y19.8152 I0.0034 J2.3797
G2 X76.0583 Y19.8224 I2.5491 J-2.5421
G3 X76.7574 Y21.5104 I-1.6795 J1.6844
G2 Y21.5202 I3.6 J0.0055
G3 X76.0575 Y23.2098 I-2.3825 J0.0029
G2 X76.0509 Y23.2164 I2.5425 J2.5487
G3 X74.3623 Y23.9158 I-1.6853 J-1.6807
G2 X74.3528 I-0.0049 J3.6
G3 X72.6636 Y23.2161 I-0.003 J-2.3817
G2 X72.6568 Y23.2093 I-2.5488 J2.5424
G3 X72.262 Y22.6891 I1.6803 J-1.6851
G1 F50.0 X70.8668 Y23.4723
G3 F100.0 X70.3574 Y21.5186 I3.4702 J-1.9481
G2 Y21.5134 I-2.0 J-0.0028
G3 X71.5272 Y18.6889 I3.9832 J-0.0048
G2 X71.5305 Y18.6856 I-1.4126 J-1.4158
G3 X74.3549 Y17.5158 I2.8194 J2.8126
G2 X74.3603 I0.0025 J-2.0
G3 X77.184 Y18.6854 I0.0057 J3.9797
G2 X77.188 Y18.6894 I1.4162 J-1.4123
G3 X78.3574 Y21.5128 I-2.8092 J2.8174
G2 Y21.5182 I2.0 J0.003
G3 X77.1875 Y24.3425 I-3.9825 J0.0048
G2 X77.1838 Y24.3462 I1.4125 J1.4159
G3 X74.3601 Y25.5158 I-2.8183 J-2.8106
G2 X74.3549 I-0.0027 J2.0
G3 X71.5308 Y24.346 I-0.005 J-3.9817
G2 X71.527 Y24.3423 I-1.416 J1.4124
G3 X70.8668 Y23.4723 I2.81 J-2.818
G0 Z3.0
G0 X95.4039 Y37.1485
G1 F50.0 Z-6.0
G3 F100.0 X95.5348 Y36.9755 I0.6835 J0.381
G2 X95.5443 Y36.966 I-3.6725 J-3.6814
G3 X96.0978 Y36.7367 I0.5524 J0.5509
G2 X96.1115 I0.0071 J-5.2
G3 X96.6659 Y36.9664 I0.001 J0.7817
G2 X96.6757 Y36.9762 I3.6816 J-3.6723
G3 X96.9049 Y37.5294 I-0.5505 J0.5521
G2 Y37.543 I5.2 J0.0073
G3 X96.6749 Y38.0984 I-0.7832 J0.0009
G2 X96.6663 Y38.1069 I3.6728 J3.6811
G3 X96.1114 Y38.3367 I-0.5539 J-0.5526
G2 X96.0974 I-0.0065 J5.2
G3 X95.5442 Y38.1076 I-0.0011 J-0.7797
G2 X95.5338 Y38.0972 I-3.682 J3.6719
G3 X95.3049 Y37.5446 I0.5498 J-0.5514
G2 Y37.5304 I-5.2 J-0.0079
G3 X95.4039 Y37.1485 I0.7825 J-0.0009
G1 F50.0 X94.0063 Y36.3696
G3 F100.0 X94.4048 Y35.8428 I2.0811 J1.1599
G2 X94.4114 Y35.8362 I-2.5425 J-2.5487
G3 X96.1 Y35.1367 I1.6853 J1.6807
G2 X96.1095 I0.0049 J-3.6
G3 X97.7987 Y35.8364 I0.003 J2.3817
G2 X97.8055 Y35.8433 I2.5488 J-2.5424
G3 X98.5049 Y37.5317 I-1.6803 J1.6851
G2 Y37.541 I3.6 J0.0051
G3 X97.805 Y39.231 I-2.3832 J0.0029
G2 X97.799 Y39.2369 I2.5427 J2.5484
G3 X96.1094 Y39.9367 I-1.6866 J-1.6826
G2 X96.0997 I-0.0045 J3.6
G3 X94.4112 Y39.2374 I-0.0034 J-2.3797
G2 X94.404 Y39.2302 I-2.5491 J2.5421
G3 X93.7049 Y37.5422 I1.6795 J-1.6844
G2 Y37.5324 I-3.6 J-0.0055
G3 X94.0063 Y36.3696 I2.3825 J-0.0029
G1 F50.0 X92.6088 Y35.5906
G3 F100.0 X93.2748 Y34.71 I3.4786 J1.9389
G2 X93.2785 Y34.7064 I-1.4125 J-1.4159
G3 X96.1022 Y33.5367 I2.8183 J2.8106
G2 X96.1074 I0.0027 J-2.0
G3 X98.9315 Y34.7065 I0.005 J3.9817
G2 X98.9353 Y34.7103 I1.416 J-1.4124
G3 X100.1049 Y37.5339 I-2.81 J2.818
G2 Y37.5391 I2.0 J0.0028
G3 X98.9351 Y40.3636 I-3.9832 J0.0048
G2 X98.9318 Y40.3669 I1.4126 J1.4158
G3 X96.1074 Y41.5367 I-2.8194 J-2.8126
G2 X96.102 I-0.0025 J2.0
G3 X93.2783 Y40.3672 I-0.0057 J-3.9797
G2 X93.2743 Y40.3632 I-1.4162 J1.4123
G3 X92.1049 Y37.5398 I2.8092 J-2.8174
G2 Y37.5343 I-2.0 J-0.003
G3 X92.6088 Y35.5906 I3.9825 J-0.0048
G0 Z3.0
G0 X95.4039 Y37.1485
G1 F50.0 Z-7.0
G3 F100.0 X95.5348 Y36.9755 I0.6835 J0.381
G2 X95.5443 Y36.966 I-3.6725 J-3.6814
G3 X96.0978 Y36.7367 I0.5524 J0.5509
G2 X96.1115 I0.0071 J-5.2
G3 X96.6659 Y36.9664 I0.001 J0.7817
G2 X96.6757 Y36.9762 I3.6816 J-3.6723
G3 X96.9049 Y37.5294 I-0.5505 J0.5521
G2 Y37.543 I5.2 J0.0073
G3 X96.6749 Y38.0984 I-0.7832 J0.0009
G2 X96.6663 Y38.1069 I3.6728 J3.6811
G3 X96.1114 Y38.3367 I-0.5539 J-0.5526
G2 X96.0974 I-0.0065 J5.2
G3 X95.5442 Y38.1076 I-0.0011 J-0.7797
G2 X95.5338 Y38.0972 I-3.682 J3.6719
G3 X95.3049 Y37.5446 I0.5498 J-0.5514
G2 Y37.5304 I-5.2 J-0.0079
G3 X95.4039 Y37.1485 I0.7825 J-0.0009
G1 F50.0 X94.0063 Y36.3696
G3 F100.0 X94.4048 Y35.8428 I2.0811 J1.1599
G2 X94.4114 Y35.8362 I-2.5425 J-2.5487
G3 X96.1 Y35.1367 I1.6853 J1.6807
G2 X96.1095 I0.0049 J-3.6
G3 X97.7987 Y35.8364 I0.003 J2.3817
G2 X97.8055 Y35.8433 I2.5488 J-2.5424
G3 X98.5049 Y37.5317 I-1.6803 J1.6851
G2 Y37.541 I3.6 J0.0051
G3 X97.805 Y39.231 I-2.3832 J0.0029
G2 X97.799 Y39.2369 I2.5427 J2.5484
G3 X96.1094 Y39.9367 I-1.6866 J-1.6826
G2 X96.0997 I-0.0045 J3.6
G3 X94.4112 Y39.2374 I-0.0034 J-2.3797
G2 X94.404 Y39.2302 I-2.5491 J2.5421
G3 X93.7049 Y37.5422 I1.6795 J-1.6844
G2 Y37.5324 I-3.6 J-0.0055
G3 X94.0063 Y36.3696 I2.3825 J-0.0029
G1 F50.0 X92.6088 Y35.5906
G3 F100.0 X93.2748 Y34.71 I3.4786 J1.9389
G2 X93.2785 Y34.7064 I-1.4125 J-1.4159
G3 X96.1022 Y33.5367 I2.8183 J2.8106
G2 X96.1074 I0.0027 J-2.0
G3 X98.9315 Y34.7065 I0.005 J3.9817
G2 X98.9353 Y34.7103 I1.416 J-1.4124
G3 X100.1049 Y37.5339 I-2.81 J2.818
G2 Y37.5391 I2.0 J0.0028
G3 X98.9351 Y40.3636 I-3.9832 J0.0048
G2 X98.9318 Y40.3669 I1.4126 J1.4158
G3 X96.1074 Y41.5367 I-2.8194 J-2.8126
G2 X96.102 I-0.0025 J2.0
G3 X93.2783 Y40.3672 I-0.0057 J-3.9797
G2 X93.2743 Y40.3632 I-1.4162 J1.4123
G3 X92.1049 Y37.5398 I2.8092 J-2.8174
G2 Y37.5343 I-2.0 J-0.003
G3 X92.6088 Y35.5906 I3.9825 J-0.0048
G0 Z3.0
G0 X95.4039 Y37.1485
G1 F50.0 Z-8.0
G3 F100.0 X95.5348 Y36.9755 I0.6835 J0.381
G2 X95.5443 Y36.966 I-3.6725 J-3.6814
G3 X96.0978 Y36.7367 I0.5524 J0.5509
G2 X96.1115 I0.0071 J-5.2
G3 X96.6659 Y36.9664 I0.001 J0.7817
G2 X96.6757 Y36.9762 I3.6816 J-3.6723
G3 X96.9049 Y37.5294 I-0.5505 J0.5521
G2 Y37.543 I5.2 J0.0073
G3 X96.6749 Y38.0984 I-0.7832 J0.0009
G2 X96.6663 Y38.1069 I3.6728 J3.6811
G3 X96.1114 Y38.3367 I-0.5539 J-0.5526
G2 X96.0974 I-0.0065 J5.2
G3 X95.5442 Y38.1076 I-0.0011 J-0.7797
G2 X95.5338 Y38.0972 I-3.682 J3.6719
G3 X95.3049 Y37.5446 I0.5498 J-0.5514
G2 Y37.5304 I-5.2 J-0.0079
G3 X95.4039 Y37.1485 I0.7825 J-0.0009
G1 F50.0 X94.0063 Y36.3696
G3 F100.0 X94.4048 Y35.8428 I2.0811 J1.1599
G2 X94.4114 Y35.8362 I-2.5425 J-2.5487
G3 X96.1 Y35.1367 I1.6853 J1.6807
G2 X96.1095 I0.0049 J-3.6
G3 X97.7987 Y35.8364 I0.003 J2.3817
G2 X97.8055 Y35.8433 I2.5488 J-2.5424
G3 X98.5049 Y37.5317 I-1.6803 J1.6851
G2 Y37.541 I3.6 J0.0051
G3 X97.805 Y39.231 I-2.3832 J0.0029
G2 X97.799 Y39.2369 I2.5427 J2.5484
G3 X96.1094 Y39.9367 I-1.6866 J-1.6826
G2 X96.0997 I-0.0045 J3.6
G3 X94.4112 Y39.2374 I-0.0034 J-2.3797
G2 X94.404 Y39.2302 I-2.5491 J2.5421
G3 X93.7049 Y37.5422 I1.6795 J-1.6844
G2 Y37.5324 I-3.6 J-0.0055
G3 X94.0063 Y36.3696 I2.3825 J-0.0029
G1 F50.0 X92.6088 Y35.5906
G3 F100.0 X93.2748 Y34.71 I3.4786 J1.9389
G2 X93.2785 Y34.7064 I-1.4125 J-1.4159
G3 X96.1022 Y33.5367 I2.8183 J2.8106
G2 X96.1074 I0.0027 J-2.0
G3 X98.9315 Y34.7065 I0.005 J3.9817
G2 X98.9353 Y34.7103 I1.416 J-1.4124
G3 X100.1049 Y37.5339 I-2.81 J2.818
G2 Y37.5391 I2.0 J0.0028
G3 X98.9351 Y40.3636 I-3.9832 J0.0048
G2 X98.9318 Y40.3669 I1.4126 J1.4158
G3 X96.1074 Y41.5367 I-2.8194 J-2.8126
G2 X96.102 I-0.0025 J2.0
G3 X93.2783 Y40.3672 I-0.0057 J-3.9797
G2 X93.2743 Y40.3632 I-1.4162 J1.4123
G3 X92.1049 Y37.5398 I2.8092 J-2.8174
G2 Y37.5343 I-2.0 J-0.003
G3 X92.6088 Y35.5906 I3.9825 J-0.0048
G0 Z3.0
G0 X95.4039 Y37.1485
G1 F50.0 Z-9.0
G3 F100.0 X95.5348 Y36.9755 I0.6835 J0.381
G2 X95.5443 Y36.966 I-3.6725 J-3.6814
G3 X96.0978 Y36.7367 I0.5524 J0.5509
G2 X96.1115 I0.0071 J-5.2
G3 X96.6659 Y36.9664 I0.001 J0.7817
G2 X96.6757 Y36.9762 I3.6816 J-3.6723
G3 X96.9049 Y37.5294 I-0.5505 J0.5521
G2 Y37.543 I5.2 J0.0073
G3 X96.6749 Y38.0984 I-0.7832 J0.0009
G2 X96.6663 Y38.1069 I3.6728 J3.6811
G3 X96.1114 Y38.3367 I-0.5539 J-0.5526
G2 X96.0974 I-0.0065 J5.2
G3 X95.5442 Y38.1076 I-0.0011 J-0.7797
G2 X95.5338 Y38.0972 I-3.682 J3.6719
G3 X95.3049 Y37.5446 I0.5498 J-0.5514
G2 Y37.5304 I-5.2 J-0.0079
G3 X95.4039 Y37.1485 I0.7825 J-0.0009
G1 F50.0 X94.0063 Y36.3696
G3 F100.0 X94.4048 Y35.8428 I2.0811 J1.1599
G2 X94.4114 Y35.8362 I-2.5425 J-2.5487
G3 X96.1 Y35.1367 I1.6853 J1.6807
G2 X96.1095 I0.0049 J-3.6
G3 X97.7987 Y35.8364 I0.003 J2.3817
G2 X97.8055 Y35.8433 I2.5488 J-2.5424
G3 X98.5049 Y37.5317 I-1.6803 J1.6851
G2 Y37.541 I3.6 J0.0051
G3 X97.805 Y39.231 I-2.3832 J0.0029
G2 X97.799 Y39.2369 I2.5427 J2.5484
G3 X96.1094 Y39.9367 I-1.6866 J-1.6826
G2 X96.0997 I-0.0045 J3.6
G3 X94.4112 Y39.2374 I-0.0034 J-2.3797
G2 X94.404 Y39.2302 I-2.5491 J2.5421
G3 X93.7049 Y37.5422 I1.6795 J-1.6844
G2 Y37.5324 I-3.6 J-0.0055
G3 X94.0063 Y36.3696 I2.3825 J-0.0029
G1 F50.0 X92.6088 Y35.5906
G3 F100.0 X93.2748 Y34.71 I3.4786 J1.9389
G2 X93.2785 Y34.7064 I-1.4125 J-1.4159
G3 X96.1022 Y33.5367 I2.8183 J2.8106
G2 X96.1074 I0.0027 J-2.0
G3 X98.9315 Y34.7065 I0.005 J3.9817
G2 X98.9353 Y34.7103 I1.416 J-1.4124
G3 X100.1049 Y37.5339 I-2.81 J2.818
G2 Y37.5391 I2.0 J0.0028
G3 X98.9351 Y40.3636 I-3.9832 J0.0048
G2 X98.9318 Y40.3669 I1.4126 J1.4158
G3 X96.1074 Y41.5367 I-2.8194 J-2.8126
G2 X96.102 I-0.0025 J2.0
G3 X93.2783 Y40.3672 I-0.0057 J-3.9797
G2 X93.2743 Y40.3632 I-1.4162 J1.4123
G3 X92.1049 Y37.5398 I2.8092 J-2.8174
G2 Y37.5343 I-2.0 J-0.003
G3 X92.6088 Y35.5906 I3.9825 J-0.0048
G0 Z3.0
G0 X95.4039 Y37.1485
G1 F50.0 Z-10.0
G3 F100.0 X95.5348 Y36.9755 I0.6835 J0.381
G2 X95.5443 Y36.966 I-3.6725 J-3.6814
G3 X96.0978 Y36.7367 I0.5524 J0.5509
G2 X96.1115 I0.0071 J-5.2
G3 X96.6659 Y36.9664 I0.001 J0.7817
G2 X96.6757 Y36.9762 I3.6816 J-3.6723
G3 X96.9049 Y37.5294 I-0.5505 J0.5521
G2 Y37.543 I5.2 J0.0073
G3 X96.6749 Y38.0984 I-0.7832 J0.0009
G2 X96.6663 Y38.1069 I3.6728 J3.6811
G3 X96.1114 Y38.3367 I-0.5539 J-0.5526
G2 X96.0974 I-0.0065 J5.2
G3 X95.5442 Y38.1076 I-0.0011 J-0.7797
G2 X95.5338 Y38.0972 I-3.682 J3.6719
G3 X95.3049 Y37.5446 I0.5498 J-0.5514
G2 Y37.5304 I-5.2 J-0.0079
G3 X95.4039 Y37.1485 I0.7825 J-0.0009
G1 F50.0 X94.0063 Y36.3696
G3 F100.0 X94.4048 Y35.8428 I2.0811 J1.1599
G2 X94.4114 Y35.8362 I-2.5425 J-2.5487
G3 X96.1 Y35.1367 I1.6853 J1.6807
G2 X96.1095 I0.0049 J-3.6
G3 X97.7987 Y35.8364 I0.003 J2.3817
G2 X97.8055 Y35.8433 I2.5488 J-2.5424
G3 X98.5049 Y37.5317 I-1.6803 J1.6851
G2 Y37.541 I3.6 J0.0051
G3 X97.805 Y39.231 I-2.3832 J0.0029
G2 X97.799 Y39.2369 I2.5427 J2.5484
G3 X96.1094 Y39.9367 I-1.6866 J-1.6826
G2 X96.0997 I-0.0045 J3.6
G3 X94.4112 Y39.2374 I-0.0034 J-2.3797
G2 X94.404 Y39.2302 I-2.5491 J2.5421
G3 X93.7049 Y37.5422 I1.6795 J-1.6844
G2 Y37.5324 I-3.6 J-0.0055
G3 X94.0063 Y36.3696 I2.3825 J-0.0029
G1 F50.0 X92.6088 Y35.5906
G3 F100.0 X93.2748 Y34.71 I3.4786 J1.9389
G2 X93.2785 Y34.7064 I-1.4125 J-1.4159
G3 X96.1022 Y33.5367 I2.8183 J2.8106
G2 X96.1074 I0.0027 J-2.0
G3 X98.9315 Y34.7065 I0.005 J3.9817
G2 X98.9353 Y34.7103 I1.416 J-1.4124
G3 X100.1049 Y37.5339 I-2.81 J2.818
G2 Y37.5391 I2.0 J0.0028
G3 X98.9351 Y40.3636 I-3.9832 J0.0048
G2 X98.9318 Y40.3669 I1.4126 J1.4158
G3 X96.1074 Y41.5367 I-2.8194 J-2.8126
G2 X96.102 I-0.0025 J2.0
G3 X93.2783 Y40.3672 I-0.0057 J-3.9797
G2 X93.2743 Y40.3632 I-1.4162 J1.4123
G3 X92.1049 Y37.5398 I2.8092 J-2.8174
G2 Y37.5343 I-2.0 J-0.003
G3 X92.6088 Y35.5906 I3.9825 J-0.0048
G0 Z3.0
G0 X95.4039 Y37.1485
G1 F50.0 Z-11.0
G3 F100.0 X95.5348 Y36.9755 I0.6835 J0.381
G2 X95.5443 Y36.966 I-3.6725 J-3.6814
G3 X96.0978 Y36.7367 I0.5524 J0.5509
G2 X96.1115 I0.0071 J-5.2
G3 X96.6659 Y36.9664 I0.001 J0.7817
G2 X96.6757 Y36.9762 I3.6816 J-3.6723
G3 X96.9049 Y37.5294 I-0.5505 J0.5521
G2 Y37.543 I5.2 J0.0073
G3 X96.6749 Y38.0984 I-0.7832 J0.0009
G2 X96.6663 Y38.1069 I3.6728 J3.6811
G3 X96.1114 Y38.3367 I-0.5539 J-0.5526
G2 X96.0974 I-0.0065 J5.2
G3 X95.5442 Y38.1076 I-0.0011 J-0.7797
G2 X95.5338 Y38.0972 I-3.682 J3.6719
G3 X95.3049 Y37.5446 I0.5498 J-0.5514
G2 Y37.5304 I-5.2 J-0.0079
G3 X95.4039 Y37.1485 I0.7825 J-0.0009
G1 F50.0 X94.0063 Y36.3696
G3 F100.0 X94.4048 Y35.8428 I2.0811 J1.1599
G2 X94.4114 Y35.8362 I-2.5425 J-2.5487
G3 X96.1 Y35.1367 I1.6853 J1.6807
G2 X96.1095 I0.0049 J-3.6
G3 X97.7987 Y35.8364 I0.003 J2.3817
G2 X97.8055 Y35.8433 I2.5488 J-2.5424
G3 X98.5049 Y37.5317 I-1.6803 J1.6851
G2 Y37.541 I3.6 J0.0051
G3 X97.805 Y39.231 I-2.3832 J0.0029
G2 X97.799 Y39.2369 I2.5427 J2.5484
G3 X96.1094 Y39.9367 I-1.6866 J-1.6826
G2 X96.0997 I-0.0045 J3.6
G3 X94.4112 Y39.2374 I-0.0034 J-2.3797
G2 X94.404 Y39.2302 I-2.5491 J2.5421
G3 X93.7049 Y37.5422 I1.6795 J-1.6844
G2 Y37.5324 I-3.6 J-0.0055
G3 X94.0063 Y36.3696 I2.3825 J-0.0029
G1 F50.0 X92.6088 Y35.5906
G3 F100.0 X93.2748 Y34.71 I3.4786 J1.9389
G2 X93.2785 Y34.7064 I-1.4125 J-1.4159
G3 X96.1022 Y33.5367 I2.8183 J2.8106
G2 X96.1074 I0.0027 J-2.0
G3 X98.9315 Y34.7065 I0.005 J3.9817
G2 X98.9353 Y34.7103 I1.416 J-1.4124
G3 X100.1049 Y37.5339 I-2.81 J2.818
G2 Y37.5391 I2.0 J0.0028
G3 X98.9351 Y40.3636 I-3.9832 J0.0048
G2 X98.9318 Y40.3669 I1.4126 J1.4158
G3 X96.1074 Y41.5367 I-2.8194 J-2.8126
G2 X96.102 I-0.0025 J2.0
G3 X93.2783 Y40.3672 I-0.0057 J-3.9797
G2 X93.2743 Y40.3632 I-1.4162 J1.4123
G3 X92.1049 Y37.5398 I2.8092 J-2.8174
G2 Y37.5343 I-2.0 J-0.003
G3 X92.6088 Y35.5906 I3.9825 J-0.0048
G0 Z3.0
G0 X116.9644 Y21.913
G1 F50.0 Z-6.0
G3 F100.0 X116.8645 Y21.5302 I0.6798 J-0.3818
G2 Y21.5167 I-5.2 J-0.0073
G3 X117.0945 Y20.9613 I0.7832 J-0.0009
G2 X117.1031 Y20.9527 I-3.6728 J-3.6811
G3 X117.6579 Y20.7229 I0.5539 J0.5526
G2 X117.672 I0.0065 J-5.2
G3 X118.2252 Y20.952 I0.0011 J0.7797
G2 X118.2356 Y20.9624 I3.682 J-3.6719
G3 X118.4645 Y21.515 I-0.5498 J0.5514
G2 Y21.5292 I5.2 J0.0079
G3 X118.2346 Y22.0841 I-0.7825 J0.0009
G2 X118.2251 Y22.0936 I3.6725 J3.6814
G3 X117.6716 Y22.3229 I-0.5524 J-0.5509
G2 X117.6579 I-0.0071 J5.2
G3 X117.1035 Y22.0932 I-0.001 J-0.7817
G2 X117.0936 Y22.0834 I-3.6816 J3.6723
G3 X116.9644 Y21.913 I0.5505 J-0.5521
G1 F50.0 X115.5693 Y22.6965
G3 F100.0 X115.2645 Y21.5279 I2.0749 J-1.1652
G2 Y21.5186 I-3.6 J-0.0051
G3 X115.9644 Y19.8286 I2.3832 J-0.0029
G2 X115.9703 Y19.8227 I-2.5427 J-2.5484
G3 X117.66 Y19.1229 I1.6866 J1.6826
G2 X117.6697 I0.0045 J-3.6
G3 X119.3582 Y19.8222 I0.0034 J2.3797
G2 X119.3654 Y19.8294 I2.5491 J-2.5421
G3 X120.0645 Y21.5174 I-1.6795 J1.6844
G2 Y21.5272 I3.6 J0.0055
G3 X119.3646 Y23.2168 I-2.3825 J0.0029
G2 X119.358 Y23.2234 I2.5425 J2.5487
G3 X117.6694 Y23.9229 I-1.6853 J-1.6807
G2 X117.6599 I-0.0049 J3.6
G3 X115.9707 Y23.2232 I-0.003 J-2.3817
G2 X115.9639 Y23.2163 I-2.5488 J2.5424
G3 X115.5693 Y22.6965 I1.6803 J-1.6851
G1 F50.0 X114.1742 Y23.4799
G3 F100.0 X113.6645 Y21.5257 I3.4699 J-1.9486
G2 Y21.5205 I-2.0 J-0.0028
G3 X114.8343 Y18.696 I3.9832 J-0.0048
G2 X114.8376 Y18.6927 I-1.4126 J-1.4158
G3 X117.662 Y17.5229 I2.8194 J2.8126
G2 X117.6674 I0.0025 J-2.0
G3 X120.4911 Y18.6924 I0.0057 J3.9797
G2 X120.4951 Y18.6964 I1.4162 J-1.4123
G3 X121.6645 Y21.5198 I-2.8092 J2.8174
G2 Y21.5253 I2.0 J0.003
G3 X120.4946 Y24.3496 I-3.9825 J0.0048
G2 X120.4909 Y24.3533 I1.4125 J1.4159
G3 X117.6672 Y25.5229 I-2.8183 J-2.8106
G2 X117.662 I-0.0027 J2.0
G3 X114.8379 Y24.3531 I-0.005 J-3.9817
G2 X114.8341 Y24.3493 I-1.416 J1.4124
G3 X114.1742 Y23.4799 I2.81 J-2.818
G0 Z3.0
G0 X116.9644 Y21.913
G1 F50.0 Z-7.0
G3 F100.0 X116.8645 Y21.5302 I0.6798 J-0.3818
G2 Y21.5167 I-5.2 J-0.0073
G3 X117.0945 Y20.9613 I0.7832 J-0.0009
G2 X117.1031 Y20.9527 I-3.6728 J-3.6811
G3 X117.6579 Y20.7229 I0.5539 J0.5526
G2 X117.672 I0.0065 J-5.2
G3 X118.2252 Y20.952 I0.0011 J0.7797
G2 X118.2356 Y20.9624 I3.682 J-3.6719
G3 X118.4645 Y21.515 I-0.5498 J0.5514
G2 Y21.5292 I5.2 J0.0079
G3 X118.2346 Y22.0841 I-0.7825 J0.0009
G2 X118.2251 Y22.0936 I3.6725 J3.6814
G3 X117.6716 Y22.3229 I-0.5524 J-0.5509
G2 X117.6579 I-0.0071 J5.2
G3 X117.1035 Y22.0932 I-0.001 J-0.7817
G2 X117.0936 Y22.0834 I-3.6816 J3.6723
G3 X116.9644 Y21.913 I0.5505 J-0.5521
G1 F50.0 X115.5693 Y22.6965
G3 F100.0 X115.2645 Y21.5279 I2.0749 J-1.1652
G2 Y21.5186 I-3.6 J-0.0051
G3 X115.9644 Y19.8286 I2.3832 J-0.0029
G2 X115.9703 Y19.8227 I-2.5427 J-2.5484
G3 X117.66 Y19.1229 I1.6866 J1.6826
G2 X117.6697 I0.0045 J-3.6
G3 X119.3582 Y19.8222 I0.0034 J2.3797
G2 X119.3654 Y19.8294 I2.5491 J-2.5421
G3 X120.0645 Y21.5174 I-1.6795 J1.6844
G2 Y21.5272 I3.6 J0.0055
G3 X119.3646 Y23.2168 I-2.3825 J0.0029
G2 X119.358 Y23.2234 I2.5425 J2.5487
G3 X117.6694 Y23.9229 I-1.6853 J-1.6807
G2 X117.6599 I-0.0049 J3.6
G3 X115.9707 Y23.2232 I-0.003 J-2.3817
G2 X115.9639 Y23.2163 I-2.5488 J2.5424
G3 X115.5693 Y22.6965 I1.6803 J-1.6851
G1 F50.0 X114.1742 Y23.4799
G3 F100.0 X113.6645 Y21.5257 I3.4699 J-1.9486
G2 Y21.5205 I-2.0 J-0.0028
G3 X114.8343 Y18.696 I3.9832 J-0.0048
G2 X114.8376 Y18.6927 I-1.4126 J-1.4158
G3 X117.662 Y17.5229 I2.8194 J2.8126
G2 X117.6674 I0.0025 J-2.0
G3 X120.4911 Y18.6924 I0.0057 J3.9797
G2 X120.4951 Y18.6964 I1.4162 J-1.4123
G3 X121.6645 Y21.5198 I-2.8092 J2.8174
G2 Y21.5253 I2.0 J0.003
G3 X120.4946 Y24.3496 I-3.9825 J0.0048
G2 X120.4909 Y24.3533 I1.4125 J1.4159
G3 X117.6672 Y25.5229 I-2.8183 J-2.8106
G2 X117.662 I-0.0027 J2.0
G3 X114.8379 Y24.3531 I-0.005 J-3.9817
G2 X114.8341 Y24.3493 I-1.416 J1.4124
G3 X114.1742 Y23.4799 I2.81 J-2.818
G0 Z3.0
G0 X116.9644 Y21.913
G1 F50.0 Z-8.0
G3 F100.0 X116.8645 Y21.5302 I0.6798 J-0.3818
G2 Y21.5167 I-5.2 J-0.0073
G3 X117.0945 Y20.9613 I0.7832 J-0.0009
G2 X117.1031 Y20.9527 I-3.6728 J-3.6811
G3 X117.6579 Y20.7229 I0.5539 J0.5526
G2 X117.672 I0.0065 J-5.2
G3 X118.2252 Y20.952 I0.0011 J0.7797
G2 X118.2356 Y20.9624 I3.682 J-3.6719
G3 X118.4645 Y21.515 I-0.5498 J0.5514
G2 Y21.5292 I5.2 J0.0079
G3 X118.2346 Y22.0841 I-0.7825 J0.0009
G2 X118.2251 Y22.0936 I3.6725 J3.6814
G3 X117.6716 Y22.3229 I-0.5524 J-0.5509
G2 X117.6579 I-0.0071 J5.2
G3 X117.1035 Y22.0932 I-0.001 J-0.7817
G2 X117.0936 Y22.0834 I-3.6816 J3.6723
G3 X116.9644 Y21.913 I0.5505 J-0.5521
G1 F50.0 X115.5693 Y22.6965
G3 F100.0 X115.2645 Y21.5279 I2.0749 J-1.1652
G2 Y21.5186 I-3.6 J-0.0051
G3 X115.9644 Y19.8286 I2.3832 J-0.0029
G2 X115.9703 Y19.8227 I-2.5427 J-2.5484
G3 X117.66 Y19.1229 I1.6866 J1.6826
G2 X117.6697 I0.0045 J-3.6
G3 X119.3582 Y19.8222 I0.0034 J2.3797
G2 X119.3654 Y19.8294 I2.5491 J-2.5421
G3 X120.0645 Y21.5174 I-1.6795 J1.6844
G2 Y21.5272 I3.6 J0.0055
G3 X119.3646 Y23.2168 I-2.3825 J0.0029
G2 X119.358 Y23.2234 I2.5425 J2.5487
G3 X117.6694 Y23.9229 I-1.6853 J-1.6807
G2 X117.6599 I-0.0049 J3.6
G3 X115.9707 Y23.2232 I-0.003 J-2.3817
G2 X115.9639 Y23.2163 I-2.5488 J2.5424
G3 X115.5693 Y22.6965 I1.6803 J-1.6851
G1 F50.0 X114.1742 Y23.4799
G3 F100.0 X113.6645 Y21.5257 I3.4699 J-1.9486
G2 Y21.5205 I-2.0 J-0.0028
G3 X114.8343 Y18.696 I3.9832 J-0.0048
G2 X114.8376 Y18.6927 I-1.4126 J-1.4158
G3 X117.662 Y17.5229 I2.8194 J2.8126
G2 X117.6674 I0.0025 J-2.0
G3 X120.4911 Y18.6924 I0.0057 J3.9797
G2 X120.4951 Y18.6964 I1.4162 J-1.4123
G3 X121.6645 Y21.5198 I-2.8092 J2.8174
G2 Y21.5253 I2.0 J0.003
G3 X120.4946 Y24.3496 I-3.9825 J0.0048
G2 X120.4909 Y24.3533 I1.4125 J1.4159
G3 X117.6672 Y25.5229 I-2.8183 J-2.8106
G2 X117.662 I-0.0027 J2.0
G3 X114.8379 Y24.3531 I-0.005 J-3.9817
G2 X114.8341 Y24.3493 I-1.416 J1.4124
G3 X114.1742 Y23.4799 I2.81 J-2.818
G0 Z3.0
G0 X116.9644 Y21.913
G1 F50.0 Z-9.0
G3 F100.0 X116.8645 Y21.5302 I0.6798 J-0.3818
G2 Y21.5167 I-5.2 J-0.0073
G3 X117.0945 Y20.9613 I0.7832 J-0.0009
G2 X117.1031 Y20.9527 I-3.6728 J-3.6811
G3 X117.6579 Y20.7229 I0.5539 J0.5526
G2 X117.672 I0.0065 J-5.2
G3 X118.2252 Y20.952 I0.0011 J0.7797
G2 X118.2356 Y20.9624 I3.682 J-3.6719
G3 X118.4645 Y21.515 I-0.5498 J0.5514
G2 Y21.5292 I5.2 J0.0079
G3 X118.2346 Y22.0841 I-0.7825 J0.0009
G2 X118.2251 Y22.0936 I3.6725 J3.6814
G3 X117.6716 Y22.3229 I-0.5524 J-0.5509
G2 X117.6579 I-0.0071 J5.2
G3 X117.1035 Y22.0932 I-0.001 J-0.7817
G2 X117.0936 Y22.0834 I-3.6816 J3.6723
G3 X116.9644 Y21.913 I0.5505 J-0.5521
G1 F50.0 X115.5693 Y22.6965
G3 F100.0 X115.2645 Y21.5279 I2.0749 J-1.1652
G2 Y21.5186 I-3.6 J-0.0051
G3 X115.9644 Y19.8286 I2.3832 J-0.0029
G2 X115.9703 Y19.8227 I-2.5427 J-2.5484
G3 X117.66 Y19.1229 I1.6866 J1.6826
G2 X117.6697 I0.0045 J-3.6
G3 X119.3582 Y19.8222 I0.0034 J2.3797
G2 X119.3654 Y19.8294 I2.5491 J-2.5421
G3 X120.0645 Y21.5174 I-1.6795 J1.6844
G2 Y21.5272 I3.6 J0.0055
G3 X119.3646 Y23.2168 I-2.3825 J0.0029
G2 X119.358 Y23.2234 I2.5425 J2.5487
G3 X117.6694 Y23.9229 I-1.6853 J-1.6807
G2 X117.6599 I-0.0049 J3.6
G3 X115.9707 Y23.2232 I-0.003 J-2.3817
G2 X115.9639 Y23.2163 I-2.5488 J2.5424
G3 X115.5693 Y22.6965 I1.6803 J-1.6851
G1 F50.0 X114.1742 Y23.4799
G3 F100.0 X113.6645 Y21.5257 I3.4699 J-1.9486
G2 Y21.5205 I-2.0 J-0.0028
G3 X114.8343 Y18.696 I3.9832 J-0.0048
G2 X114.8376 Y18.6927 I-1.4126 J-1.4158
G3 X117.662 Y17.5229 I2.8194 J2.8126
G2 X117.6674 I0.0025 J-2.0
G3 X120.4911 Y18.6924 I0.0057 J3.9797
G2 X120.4951 Y18.6964 I1.4162 J-1.4123
G3 X121.6645 Y21.5198 I-2.8092 J2.8174
G2 Y21.5253 I2.0 J0.003
G3 X120.4946 Y24.3496 I-3.9825 J0.0048
G2 X120.4909 Y24.3533 I1.4125 J1.4159
G3 X117.6672 Y25.5229 I-2.8183 J-2.8106
G2 X117.662 I-0.0027 J2.0
G3 X114.8379 Y24.3531 I-0.005 J-3.9817
G2 X114.8341 Y24.3493 I-1.416 J1.4124
G3 X114.1742 Y23.4799 I2.81 J-2.818
G0 Z3.0
G0 X116.9644 Y21.913
G1 F50.0 Z-10.0
G3 F100.0 X116.8645 Y21.5302 I0.6798 J-0.3818
G2 Y21.5167 I-5.2 J-0.0073
G3 X117.0945 Y20.9613 I0.7832 J-0.0009
G2 X117.1031 Y20.9527 I-3.6728 J-3.6811
G3 X117.6579 Y20.7229 I0.5539 J0.5526
G2 X117.672 I0.0065 J-5.2
G3 X118.2252 Y20.952 I0.0011 J0.7797
G2 X118.2356 Y20.9624 I3.682 J-3.6719
G3 X118.4645 Y21.515 I-0.5498 J0.5514
G2 Y21.5292 I5.2 J0.0079
G3 X118.2346 Y22.0841 I-0.7825 J0.0009
G2 X118.2251 Y22.0936 I3.6725 J3.6814
G3 X117.6716 Y22.3229 I-0.5524 J-0.5509
G2 X117.6579 I-0.0071 J5.2
G3 X117.1035 Y22.0932 I-0.001 J-0.7817
G2 X117.0936 Y22.0834 I-3.6816 J3.6723
G3 X116.9644 Y21.913 I0.5505 J-0.5521
G1 F50.0 X115.5693 Y22.6965
G3 F100.0 X115.2645 Y21.5279 I2.0749 J-1.1652
G2 Y21.5186 I-3.6 J-0.0051
G3 X115.9644 Y19.8286 I2.3832 J-0.0029
G2 X115.9703 Y19.8227 I-2.5427 J-2.5484
G3 X117.66 Y19.1229 I1.6866 J1.6826
G2 X117.6697 I0.0045 J-3.6
G3 X119.3582 Y19.8222 I0.0034 J2.3797
G2 X119.3654 Y19.8294 I2.5491 J-2.5421
G3 X120.0645 Y21.5174 I-1.6795 J1.6844
G2 Y21.5272 I3.6 J0.0055
G3 X119.3646 Y23.2168 I-2.3825 J0.0029
G2 X119.358 Y23.2234 I2.5425 J2.5487
G3 X117.6694 Y23.9229 I-1.6853 J-1.6807
G2 X117.6599 I-0.0049 J3.6
G3 X115.9707 Y23.2232 I-0.003 J-2.3817
G2 X115.9639 Y23.2163 I-2.5488 J2.5424
G3 X115.5693 Y22.6965 I1.6803 J-1.6851
G1 F50.0 X114.1742 Y23.4799
G3 F100.0 X113.6645 Y21.5257 I3.4699 J-1.9486
G2 Y21.5205 I-2.0 J-0.0028
G3 X114.8343 Y18.696 I3.9832 J-0.0048
G2 X114.8376 Y18.6927 I-1.4126 J-1.4158
G3 X117.662 Y17.5229 I2.8194 J2.8126
G2 X117.6674 I0.0025 J-2.0
G3 X120.4911 Y18.6924 I0.0057 J3.9797
G2 X120.4951 Y18.6964 I1.4162 J-1.4123
G3 X121.6645 Y21.5198 I-2.8092 J2.8174
G2 Y21.5253 I2.0 J0.003
G3 X120.4946 Y24.3496 I-3.9825 J0.0048
G2 X120.4909 Y24.3533 I1.4125 J1.4159
G3 X117.6672 Y25.5229 I-2.8183 J-2.8106
G2 X117.662 I-0.0027 J2.0
G3 X114.8379 Y24.3531 I-0.005 J-3.9817
G2 X114.8341 Y24.3493 I-1.416 J1.4124
G3 X114.1742 Y23.4799 I2.81 J-2.818
G0 Z3.0
G0 X116.9644 Y21.913
G1 F50.0 Z-11.0
G3 F100.0 X116.8645 Y21.5302 I0.6798 J-0.3818
G2 Y21.5167 I-5.2 J-0.0073
G3 X117.0945 Y20.9613 I0.7832 J-0.0009
G2 X117.1031 Y20.9527 I-3.6728 J-3.6811
G3 X117.6579 Y20.7229 I0.5539 J0.5526
G2 X117.672 I0.0065 J-5.2
G3 X118.2252 Y20.952 I0.0011 J0.7797
G2 X118.2356 Y20.9624 I3.682 J-3.6719
G3 X118.4645 Y21.515 I-0.5498 J0.5514
G2 Y21.5292 I5.2 J0.0079
G3 X118.2346 Y22.0841 I-0.7825 J0.0009
G2 X118.2251 Y22.0936 I3.6725 J3.6814
G3 X117.6716 Y22.3229 I-0.5524 J-0.5509
G2 X117.6579 I-0.0071 J5.2
G3 X117.1035 Y22.0932 I-0.001 J-0.7817
G2 X117.0936 Y22.0834 I-3.6816 J3.6723
G3 X116.9644 Y21.913 I0.5505 J-0.5521
G1 F50.0 X115.5693 Y22.6965
G3 F100.0 X115.2645 Y21.5279 I2.0749 J-1.1652
G2 Y21.5186 I-3.6 J-0.0051
G3 X115.9644 Y19.8286 I2.3832 J-0.0029
G2 X115.9703 Y19.8227 I-2.5427 J-2.5484
G3 X117.66 Y19.1229 I1.6866 J1.6826
G2 X117.6697 I0.0045 J-3.6
G3 X119.3582 Y19.8222 I0.0034 J2.3797
G2 X119.3654 Y19.8294 I2.5491 J-2.5421
G3 X120.0645 Y21.5174 I-1.6795 J1.6844
G2 Y21.5272 I3.6 J0.0055
G3 X119.3646 Y23.2168 I-2.3825 J0.0029
G2 X119.358 Y23.2234 I2.5425 J2.5487
G3 X117.6694 Y23.9229 I-1.6853 J-1.6807
G2 X117.6599 I-0.0049 J3.6
G3 X115.9707 Y23.2232 I-0.003 J-2.3817
G2 X115.9639 Y23.2163 I-2.5488 J2.5424
G3 X115.5693 Y22.6965 I1.6803 J-1.6851
G1 F50.0 X114.1742 Y23.4799
G3 F100.0 X113.6645 Y21.5257 I3.4699 J-1.9486
G2 Y21.5205 I-2.0 J-0.0028
G3 X114.8343 Y18.696 I3.9832 J-0.0048
G2 X114.8376 Y18.6927 I-1.4126 J-1.4158
G3 X117.662 Y17.5229 I2.8194 J2.8126
G2 X117.6674 I0.0025 J-2.0
G3 X120.4911 Y18.6924 I0.0057 J3.9797
G2 X120.4951 Y18.6964 I1.4162 J-1.4123
G3 X121.6645 Y21.5198 I-2.8092 J2.8174
G2 Y21.5253 I2.0 J0.003
G3 X120.4946 Y24.3496 I-3.9825 J0.0048
G2 X120.4909 Y24.3533 I1.4125 J1.4159
G3 X117.6672 Y25.5229 I-2.8183 J-2.8106
G2 X117.662 I-0.0027 J2.0
G3 X114.8379 Y24.3531 I-0.005 J-3.9817
G2 X114.8341 Y24.3493 I-1.416 J1.4124
G3 X114.1742 Y23.4799 I2.81 J-2.818
G0 Z3.0
M5
M30
