( Made using CamBam - http://www.cambam.co.uk )
( pick and place parts - 10mm 9/27/2012 9:51:07 AM )
( T7 : 4.0 )
G21 G90 G64 G40
G0 Z3.0
( T7 : 4.0 )
T7 M6
( Cutout )
G17
M3 S1000
G0 X21.1001 Y37.5228
G1 F50.0 Z-1.0
G2 F100.0 X19.6462 Y31.9239 I-11.4493 J-0.0152
G2 X19.6461 Y31.9235 I-1.746 J0.9754
G2 X16.6005 Y28.4001 I-10.0756 J5.631
G1 Y11.9944
G2 X14.6005 Y9.9944 I-2.0 J0.0
G1 X4.6004
G2 X2.6004 Y11.9944 I0.0 J2.0
G1 Y28.4003
G2 X-0.445 Y31.9227 I7.0387 J9.1632
G2 X-0.4457 Y31.9239 I1.7455 J0.9764
G2 X-1.8996 Y37.5228 I10.0005 J5.5851
G2 X1.4686 Y45.6544 I11.4712 J0.0119
G2 X9.5999 Y49.0228 I8.1205 J-8.1042
G2 X14.0025 Y48.1495 I0.015 J-11.4582
G2 X14.0044 Y48.1487 I-0.7658 J-1.8476
G2 X17.7311 Y45.6553 I-4.426 J-10.6467
G2 X21.1001 Y37.5228 I-8.1003 J-8.1198
G1 F50.0 Z-2.0
G2 F100.0 X19.6462 Y31.9239 I-11.4493 J-0.0152
G2 X19.6461 Y31.9235 I-1.746 J0.9754
G2 X16.6005 Y28.4001 I-10.0756 J5.631
G1 Y11.9944
G2 X14.6005 Y9.9944 I-2.0 J0.0
G1 X4.6004
G2 X2.6004 Y11.9944 I0.0 J2.0
G1 Y28.4003
G2 X-0.445 Y31.9227 I7.0387 J9.1632
G2 X-0.4457 Y31.9239 I1.7455 J0.9764
G2 X-1.8996 Y37.5228 I10.0005 J5.5851
G2 X1.4686 Y45.6544 I11.4712 J0.0119
G2 X9.5999 Y49.0228 I8.1205 J-8.1042
G2 X14.0025 Y48.1495 I0.015 J-11.4582
G2 X14.0044 Y48.1487 I-0.7658 J-1.8476
G2 X17.7311 Y45.6553 I-4.426 J-10.6467
G2 X21.1001 Y37.5228 I-8.1003 J-8.1198
G1 F50.0 Z-3.0
G2 F100.0 X19.6462 Y31.9239 I-11.4493 J-0.0152
G2 X19.6461 Y31.9235 I-1.746 J0.9754
G2 X16.6005 Y28.4001 I-10.0756 J5.631
G1 Y11.9944
G2 X14.6005 Y9.9944 I-2.0 J0.0
G1 X4.6004
G2 X2.6004 Y11.9944 I0.0 J2.0
G1 Y28.4003
G2 X-0.445 Y31.9227 I7.0387 J9.1632
G2 X-0.4457 Y31.9239 I1.7455 J0.9764
G2 X-1.8996 Y37.5228 I10.0005 J5.5851
G2 X1.4686 Y45.6544 I11.4712 J0.0119
G2 X9.5999 Y49.0228 I8.1205 J-8.1042
G2 X14.0025 Y48.1495 I0.015 J-11.4582
G2 X14.0044 Y48.1487 I-0.7658 J-1.8476
G2 X17.7311 Y45.6553 I-4.426 J-10.6467
G2 X21.1001 Y37.5228 I-8.1003 J-8.1198
G1 F50.0 Z-4.0
G2 F100.0 X19.6462 Y31.9239 I-11.4493 J-0.0152
G2 X19.6461 Y31.9235 I-1.746 J0.9754
G2 X16.6005 Y28.4001 I-10.0756 J5.631
G1 Y11.9944
G2 X14.6005 Y9.9944 I-2.0 J0.0
G1 X4.6004
G2 X2.6004 Y11.9944 I0.0 J2.0
G1 Y28.4003
G2 X-0.445 Y31.9227 I7.0387 J9.1632
G2 X-0.4457 Y31.9239 I1.7455 J0.9764
G2 X-1.8996 Y37.5228 I10.0005 J5.5851
G2 X1.4686 Y45.6544 I11.4712 J0.0119
G2 X9.5999 Y49.0228 I8.1205 J-8.1042
G2 X14.0025 Y48.1495 I0.015 J-11.4582
G2 X14.0044 Y48.1487 I-0.7658 J-1.8476
G2 X17.7311 Y45.6553 I-4.426 J-10.6467
G2 X21.1001 Y37.5228 I-8.1003 J-8.1198
G1 F50.0 Z-5.0
G2 F100.0 X19.6462 Y31.9239 I-11.4493 J-0.0152
G2 X19.6461 Y31.9235 I-1.746 J0.9754
G2 X16.6005 Y28.4001 I-10.0756 J5.631
G1 Y11.9944
G2 X14.6005 Y9.9944 I-2.0 J0.0
G1 X4.6004
G2 X2.6004 Y11.9944 I0.0 J2.0
G1 Y28.4003
G2 X-0.445 Y31.9227 I7.0387 J9.1632
G2 X-0.4457 Y31.9239 I1.7455 J0.9764
G2 X-1.8996 Y37.5228 I10.0005 J5.5851
G2 X1.4686 Y45.6544 I11.4712 J0.0119
G2 X9.5999 Y49.0228 I8.1205 J-8.1042
G2 X14.0025 Y48.1495 I0.015 J-11.4582
G2 X14.0044 Y48.1487 I-0.7658 J-1.8476
G2 X17.7311 Y45.6553 I-4.426 J-10.6467
G2 X21.1001 Y37.5228 I-8.1003 J-8.1198
G1 F50.0 Z-6.0
G2 F100.0 X19.6462 Y31.9239 I-11.4493 J-0.0152
G2 X19.6461 Y31.9235 I-1.746 J0.9754
G2 X16.6005 Y28.4001 I-10.0756 J5.631
G1 Y11.9944
G2 X14.6005 Y9.9944 I-2.0 J0.0
G1 X4.6004
G2 X2.6004 Y11.9944 I0.0 J2.0
G1 Y28.4003
G2 X-0.445 Y31.9227 I7.0387 J9.1632
G2 X-0.4457 Y31.9239 I1.7455 J0.9764
G2 X-1.8996 Y37.5228 I10.0005 J5.5851
G2 X1.4686 Y45.6544 I11.4712 J0.0119
G2 X9.5999 Y49.0228 I8.1205 J-8.1042
G2 X14.0025 Y48.1495 I0.015 J-11.4582
G2 X14.0044 Y48.1487 I-0.7658 J-1.8476
G2 X17.7311 Y45.6553 I-4.426 J-10.6467
G2 X21.1001 Y37.5228 I-8.1003 J-8.1198
G1 F50.0 Z-7.0
G2 F100.0 X19.6462 Y31.9239 I-11.4493 J-0.0152
G2 X19.6461 Y31.9235 I-1.746 J0.9754
G2 X16.6005 Y28.4001 I-10.0756 J5.631
G1 Y11.9944
G2 X14.6005 Y9.9944 I-2.0 J0.0
G1 X4.6004
G2 X2.6004 Y11.9944 I0.0 J2.0
G1 Y28.4003
G2 X-0.445 Y31.9227 I7.0387 J9.1632
G2 X-0.4457 Y31.9239 I1.7455 J0.9764
G2 X-1.8996 Y37.5228 I10.0005 J5.5851
G2 X1.4686 Y45.6544 I11.4712 J0.0119
G2 X9.5999 Y49.0228 I8.1205 J-8.1042
G2 X14.0025 Y48.1495 I0.015 J-11.4582
G2 X14.0044 Y48.1487 I-0.7658 J-1.8476
G2 X17.7311 Y45.6553 I-4.426 J-10.6467
G2 X21.1001 Y37.5228 I-8.1003 J-8.1198
G1 F50.0 Z-8.0
G2 F100.0 X19.6462 Y31.9239 I-11.4493 J-0.0152
G2 X19.6461 Y31.9235 I-1.746 J0.9754
G2 X16.6005 Y28.4001 I-10.0756 J5.631
G1 Y11.9944
G2 X14.6005 Y9.9944 I-2.0 J0.0
G1 X4.6004
G2 X2.6004 Y11.9944 I0.0 J2.0
G1 Y28.4003
G2 X-0.445 Y31.9227 I7.0387 J9.1632
G2 X-0.4457 Y31.9239 I1.7455 J0.9764
G2 X-1.8996 Y37.5228 I10.0005 J5.5851
G2 X1.4686 Y45.6544 I11.4712 J0.0119
G2 X9.5999 Y49.0228 I8.1205 J-8.1042
G2 X14.0025 Y48.1495 I0.015 J-11.4582
G2 X14.0044 Y48.1487 I-0.7658 J-1.8476
G2 X17.7311 Y45.6553 I-4.426 J-10.6467
G2 X21.1001 Y37.5228 I-8.1003 J-8.1198
G1 F50.0 Z-9.0
G2 F100.0 X19.6462 Y31.9239 I-11.4493 J-0.0152
G2 X19.6461 Y31.9235 I-1.746 J0.9754
G2 X16.6005 Y28.4001 I-10.0756 J5.631
G1 Y11.9944
G2 X14.6005 Y9.9944 I-2.0 J0.0
G1 X4.6004
G2 X2.6004 Y11.9944 I0.0 J2.0
G1 Y28.4003
G2 X-0.445 Y31.9227 I7.0387 J9.1632
G2 X-0.4457 Y31.9239 I1.7455 J0.9764
G2 X-1.8996 Y37.5228 I10.0005 J5.5851
G2 X1.4686 Y45.6544 I11.4712 J0.0119
G2 X9.5999 Y49.0228 I8.1205 J-8.1042
G2 X14.0025 Y48.1495 I0.015 J-11.4582
G2 X14.0044 Y48.1487 I-0.7658 J-1.8476
G2 X17.7311 Y45.6553 I-4.426 J-10.6467
G2 X21.1001 Y37.5228 I-8.1003 J-8.1198
G1 F50.0 Z-10.0
G2 F100.0 X19.6462 Y31.9239 I-11.4493 J-0.0152
G2 X19.6461 Y31.9235 I-1.746 J0.9754
G2 X16.6005 Y28.4001 I-10.0756 J5.631
G1 Y11.9944
G2 X14.6005 Y9.9944 I-2.0 J0.0
G1 X4.6004
G2 X2.6004 Y11.9944 I0.0 J2.0
G1 Y28.4003
G2 X-0.445 Y31.9227 I7.0387 J9.1632
G2 X-0.4457 Y31.9239 I1.7455 J0.9764
G2 X-1.8996 Y37.5228 I10.0005 J5.5851
G2 X1.4686 Y45.6544 I11.4712 J0.0119
G2 X9.5999 Y49.0228 I8.1205 J-8.1042
G2 X14.0025 Y48.1495 I0.015 J-11.4582
G2 X14.0044 Y48.1487 I-0.7658 J-1.8476
G2 X17.7311 Y45.6553 I-4.426 J-10.6467
G2 X21.1001 Y37.5228 I-8.1003 J-8.1198
G1 F50.0 Z-11.0
G2 F100.0 X19.6462 Y31.9239 I-11.4493 J-0.0152
G2 X19.6461 Y31.9235 I-1.746 J0.9754
G2 X16.6005 Y28.4001 I-10.0756 J5.631
G1 Y11.9944
G2 X14.6005 Y9.9944 I-2.0 J0.0
G1 X4.6004
G2 X2.6004 Y11.9944 I0.0 J2.0
G1 Y28.4003
G2 X-0.445 Y31.9227 I7.0387 J9.1632
G2 X-0.4457 Y31.9239 I1.7455 J0.9764
G2 X-1.8996 Y37.5228 I10.0005 J5.5851
G2 X1.4686 Y45.6544 I11.4712 J0.0119
G2 X9.5999 Y49.0228 I8.1205 J-8.1042
G2 X14.0025 Y48.1495 I0.015 J-11.4582
G2 X14.0044 Y48.1487 I-0.7658 J-1.8476
G2 X17.7311 Y45.6553 I-4.426 J-10.6467
G2 X21.1001 Y37.5228 I-8.1003 J-8.1198
G0 Z3.0
G0 X24.1596
G1 F50.0 Z-1.0
G1 F100.0 Y47.0369
G2 X26.1596 Y49.0369 I2.0 J0.0
G1 X36.1597
G2 X38.1597 Y47.0369 I0.0 J-2.0
G1 Y30.6311
G2 X41.2052 Y27.1086 I-7.0387 J-9.1632
G2 X41.2058 Y27.1074 I-1.7455 J-0.9764
G2 X42.6597 Y21.5086 I-10.0005 J-5.5851
G2 X39.2915 Y13.3769 I-11.4712 J-0.0119
G2 X31.1602 Y10.0086 I-8.1205 J8.1042
G2 X26.7576 Y10.8819 I-0.015 J11.4582
G2 X26.7557 Y10.8827 I0.7658 J1.8476
G2 X23.0291 Y13.3761 I4.426 J10.6467
G2 X19.66 Y21.5085 I8.1003 J8.1198
G2 X21.1139 Y27.1075 I11.4493 J0.0152
G2 X21.1141 Y27.1078 I1.746 J-0.9754
G2 X24.1596 Y30.6313 I10.0756 J-5.631
G1 Y37.5228
G1 F50.0 Z-2.0
G1 F100.0 Y47.0369
G2 X26.1596 Y49.0369 I2.0 J0.0
G1 X36.1597
G2 X38.1597 Y47.0369 I0.0 J-2.0
G1 Y30.6311
G2 X41.2052 Y27.1086 I-7.0387 J-9.1632
G2 X41.2058 Y27.1074 I-1.7455 J-0.9764
G2 X42.6597 Y21.5086 I-10.0005 J-5.5851
G2 X39.2915 Y13.3769 I-11.4712 J-0.0119
G2 X31.1602 Y10.0086 I-8.1205 J8.1042
G2 X26.7576 Y10.8819 I-0.015 J11.4582
G2 X26.7557 Y10.8827 I0.7658 J1.8476
G2 X23.0291 Y13.3761 I4.426 J10.6467
G2 X19.66 Y21.5085 I8.1003 J8.1198
G2 X21.1139 Y27.1075 I11.4493 J0.0152
G2 X21.1141 Y27.1078 I1.746 J-0.9754
G2 X24.1596 Y30.6313 I10.0756 J-5.631
G1 Y37.5228
G1 F50.0 Z-3.0
G1 F100.0 Y47.0369
G2 X26.1596 Y49.0369 I2.0 J0.0
G1 X36.1597
G2 X38.1597 Y47.0369 I0.0 J-2.0
G1 Y30.6311
G2 X41.2052 Y27.1086 I-7.0387 J-9.1632
G2 X41.2058 Y27.1074 I-1.7455 J-0.9764
G2 X42.6597 Y21.5086 I-10.0005 J-5.5851
G2 X39.2915 Y13.3769 I-11.4712 J-0.0119
G2 X31.1602 Y10.0086 I-8.1205 J8.1042
G2 X26.7576 Y10.8819 I-0.015 J11.4582
G2 X26.7557 Y10.8827 I0.7658 J1.8476
G2 X23.0291 Y13.3761 I4.426 J10.6467
G2 X19.66 Y21.5085 I8.1003 J8.1198
G2 X21.1139 Y27.1075 I11.4493 J0.0152
G2 X21.1141 Y27.1078 I1.746 J-0.9754
G2 X24.1596 Y30.6313 I10.0756 J-5.631
G1 Y37.5228
G1 F50.0 Z-4.0
G1 F100.0 Y47.0369
G2 X26.1596 Y49.0369 I2.0 J0.0
G1 X36.1597
G2 X38.1597 Y47.0369 I0.0 J-2.0
G1 Y30.6311
G2 X41.2052 Y27.1086 I-7.0387 J-9.1632
G2 X41.2058 Y27.1074 I-1.7455 J-0.9764
G2 X42.6597 Y21.5086 I-10.0005 J-5.5851
G2 X39.2915 Y13.3769 I-11.4712 J-0.0119
G2 X31.1602 Y10.0086 I-8.1205 J8.1042
G2 X26.7576 Y10.8819 I-0.015 J11.4582
G2 X26.7557 Y10.8827 I0.7658 J1.8476
G2 X23.0291 Y13.3761 I4.426 J10.6467
G2 X19.66 Y21.5085 I8.1003 J8.1198
G2 X21.1139 Y27.1075 I11.4493 J0.0152
G2 X21.1141 Y27.1078 I1.746 J-0.9754
G2 X24.1596 Y30.6313 I10.0756 J-5.631
G1 Y37.5228
G1 F50.0 Z-5.0
G1 F100.0 Y47.0369
G2 X26.1596 Y49.0369 I2.0 J0.0
G1 X36.1597
G2 X38.1597 Y47.0369 I0.0 J-2.0
G1 Y30.6311
G2 X41.2052 Y27.1086 I-7.0387 J-9.1632
G2 X41.2058 Y27.1074 I-1.7455 J-0.9764
G2 X42.6597 Y21.5086 I-10.0005 J-5.5851
G2 X39.2915 Y13.3769 I-11.4712 J-0.0119
G2 X31.1602 Y10.0086 I-8.1205 J8.1042
G2 X26.7576 Y10.8819 I-0.015 J11.4582
G2 X26.7557 Y10.8827 I0.7658 J1.8476
G2 X23.0291 Y13.3761 I4.426 J10.6467
G2 X19.66 Y21.5085 I8.1003 J8.1198
G2 X21.1139 Y27.1075 I11.4493 J0.0152
G2 X21.1141 Y27.1078 I1.746 J-0.9754
G2 X24.1596 Y30.6313 I10.0756 J-5.631
G1 Y37.5228
G1 F50.0 Z-6.0
G1 F100.0 Y47.0369
G2 X26.1596 Y49.0369 I2.0 J0.0
G1 X36.1597
G2 X38.1597 Y47.0369 I0.0 J-2.0
G1 Y30.6311
G2 X41.2052 Y27.1086 I-7.0387 J-9.1632
G2 X41.2058 Y27.1074 I-1.7455 J-0.9764
G2 X42.6597 Y21.5086 I-10.0005 J-5.5851
G2 X39.2915 Y13.3769 I-11.4712 J-0.0119
G2 X31.1602 Y10.0086 I-8.1205 J8.1042
G2 X26.7576 Y10.8819 I-0.015 J11.4582
G2 X26.7557 Y10.8827 I0.7658 J1.8476
G2 X23.0291 Y13.3761 I4.426 J10.6467
G2 X19.66 Y21.5085 I8.1003 J8.1198
G2 X21.1139 Y27.1075 I11.4493 J0.0152
G2 X21.1141 Y27.1078 I1.746 J-0.9754
G2 X24.1596 Y30.6313 I10.0756 J-5.631
G1 Y37.5228
G1 F50.0 Z-7.0
G1 F100.0 Y47.0369
G2 X26.1596 Y49.0369 I2.0 J0.0
G1 X36.1597
G2 X38.1597 Y47.0369 I0.0 J-2.0
G1 Y30.6311
G2 X41.2052 Y27.1086 I-7.0387 J-9.1632
G2 X41.2058 Y27.1074 I-1.7455 J-0.9764
G2 X42.6597 Y21.5086 I-10.0005 J-5.5851
G2 X39.2915 Y13.3769 I-11.4712 J-0.0119
G2 X31.1602 Y10.0086 I-8.1205 J8.1042
G2 X26.7576 Y10.8819 I-0.015 J11.4582
G2 X26.7557 Y10.8827 I0.7658 J1.8476
G2 X23.0291 Y13.3761 I4.426 J10.6467
G2 X19.66 Y21.5085 I8.1003 J8.1198
G2 X21.1139 Y27.1075 I11.4493 J0.0152
G2 X21.1141 Y27.1078 I1.746 J-0.9754
G2 X24.1596 Y30.6313 I10.0756 J-5.631
G1 Y37.5228
G1 F50.0 Z-8.0
G1 F100.0 Y47.0369
G2 X26.1596 Y49.0369 I2.0 J0.0
G1 X36.1597
G2 X38.1597 Y47.0369 I0.0 J-2.0
G1 Y30.6311
G2 X41.2052 Y27.1086 I-7.0387 J-9.1632
G2 X41.2058 Y27.1074 I-1.7455 J-0.9764
G2 X42.6597 Y21.5086 I-10.0005 J-5.5851
G2 X39.2915 Y13.3769 I-11.4712 J-0.0119
G2 X31.1602 Y10.0086 I-8.1205 J8.1042
G2 X26.7576 Y10.8819 I-0.015 J11.4582
G2 X26.7557 Y10.8827 I0.7658 J1.8476
G2 X23.0291 Y13.3761 I4.426 J10.6467
G2 X19.66 Y21.5085 I8.1003 J8.1198
G2 X21.1139 Y27.1075 I11.4493 J0.0152
G2 X21.1141 Y27.1078 I1.746 J-0.9754
G2 X24.1596 Y30.6313 I10.0756 J-5.631
G1 Y37.5228
G1 F50.0 Z-9.0
G1 F100.0 Y47.0369
G2 X26.1596 Y49.0369 I2.0 J0.0
G1 X36.1597
G2 X38.1597 Y47.0369 I0.0 J-2.0
G1 Y30.6311
G2 X41.2052 Y27.1086 I-7.0387 J-9.1632
G2 X41.2058 Y27.1074 I-1.7455 J-0.9764
G2 X42.6597 Y21.5086 I-10.0005 J-5.5851
G2 X39.2915 Y13.3769 I-11.4712 J-0.0119
G2 X31.1602 Y10.0086 I-8.1205 J8.1042
G2 X26.7576 Y10.8819 I-0.015 J11.4582
G2 X26.7557 Y10.8827 I0.7658 J1.8476
G2 X23.0291 Y13.3761 I4.426 J10.6467
G2 X19.66 Y21.5085 I8.1003 J8.1198
G2 X21.1139 Y27.1075 I11.4493 J0.0152
G2 X21.1141 Y27.1078 I1.746 J-0.9754
G2 X24.1596 Y30.6313 I10.0756 J-5.631
G1 Y37.5228
G1 F50.0 Z-10.0
G1 F100.0 Y47.0369
G2 X26.1596 Y49.0369 I2.0 J0.0
G1 X36.1597
G2 X38.1597 Y47.0369 I0.0 J-2.0
G1 Y30.6311
G2 X41.2052 Y27.1086 I-7.0387 J-9.1632
G2 X41.2058 Y27.1074 I-1.7455 J-0.9764
G2 X42.6597 Y21.5086 I-10.0005 J-5.5851
G2 X39.2915 Y13.3769 I-11.4712 J-0.0119
G2 X31.1602 Y10.0086 I-8.1205 J8.1042
G2 X26.7576 Y10.8819 I-0.015 J11.4582
G2 X26.7557 Y10.8827 I0.7658 J1.8476
G2 X23.0291 Y13.3761 I4.426 J10.6467
G2 X19.66 Y21.5085 I8.1003 J8.1198
G2 X21.1139 Y27.1075 I11.4493 J0.0152
G2 X21.1141 Y27.1078 I1.746 J-0.9754
G2 X24.1596 Y30.6313 I10.0756 J-5.631
G1 Y37.5228
G1 F50.0 Z-11.0
G1 F100.0 Y47.0369
G2 X26.1596 Y49.0369 I2.0 J0.0
G1 X36.1597
G2 X38.1597 Y47.0369 I0.0 J-2.0
G1 Y30.6311
G2 X41.2052 Y27.1086 I-7.0387 J-9.1632
G2 X41.2058 Y27.1074 I-1.7455 J-0.9764
G2 X42.6597 Y21.5086 I-10.0005 J-5.5851
G2 X39.2915 Y13.3769 I-11.4712 J-0.0119
G2 X31.1602 Y10.0086 I-8.1205 J8.1042
G2 X26.7576 Y10.8819 I-0.015 J11.4582
G2 X26.7557 Y10.8827 I0.7658 J1.8476
G2 X23.0291 Y13.3761 I4.426 J10.6467
G2 X19.66 Y21.5085 I8.1003 J8.1198
G2 X21.1139 Y27.1075 I11.4493 J0.0152
G2 X21.1141 Y27.1078 I1.746 J-0.9754
G2 X24.1596 Y30.6313 I10.0756 J-5.631
G1 Y37.5228
G0 Z3.0
G0 X41.298 Y37.5188
G1 F50.0 Z-1.0
G2 F100.0 Y37.5298 I11.4544 J-0.0027
G2 X44.6662 Y45.6615 I11.4712 J0.0119
G2 X52.7974 Y49.0299 I8.1205 J-8.1042
G2 X57.2 Y48.1566 I0.015 J-11.4582
G2 X57.2019 Y48.1558 I-0.7658 J-1.8476
G2 X60.9286 Y45.6624 I-4.426 J-10.6467
G2 X64.2977 Y37.5299 I-8.1003 J-8.1198
G2 X62.8438 Y31.9309 I-11.4493 J-0.0152
G2 X62.8436 Y31.9306 I-1.746 J0.9754
G2 X59.798 Y28.4071 I-10.0756 J5.631
G1 Y12.0015
G2 X57.798 Y10.0015 I-2.0 J0.0
G1 X47.7979
G2 X45.7979 Y12.0015 I0.0 J2.0
G1 Y28.4074
G2 X42.7525 Y31.9298 I7.0387 J9.1632
G2 X42.7518 Y31.931 I1.7455 J0.9764
G2 X41.298 Y37.5188 I10.0005 J5.5851
G1 F50.0 Z-2.0
G2 F100.0 Y37.5298 I11.4544 J-0.0027
G2 X44.6662 Y45.6615 I11.4712 J0.0119
G2 X52.7974 Y49.0299 I8.1205 J-8.1042
G2 X57.2 Y48.1566 I0.015 J-11.4582
G2 X57.2019 Y48.1558 I-0.7658 J-1.8476
G2 X60.9286 Y45.6624 I-4.426 J-10.6467
G2 X64.2977 Y37.5299 I-8.1003 J-8.1198
G2 X62.8438 Y31.9309 I-11.4493 J-0.0152
G2 X62.8436 Y31.9306 I-1.746 J0.9754
G2 X59.798 Y28.4071 I-10.0756 J5.631
G1 Y12.0015
G2 X57.798 Y10.0015 I-2.0 J0.0
G1 X47.7979
G2 X45.7979 Y12.0015 I0.0 J2.0
G1 Y28.4074
G2 X42.7525 Y31.9298 I7.0387 J9.1632
G2 X42.7518 Y31.931 I1.7455 J0.9764
G2 X41.298 Y37.5188 I10.0005 J5.5851
G1 F50.0 Z-3.0
G2 F100.0 Y37.5298 I11.4544 J-0.0027
G2 X44.6662 Y45.6615 I11.4712 J0.0119
G2 X52.7974 Y49.0299 I8.1205 J-8.1042
G2 X57.2 Y48.1566 I0.015 J-11.4582
G2 X57.2019 Y48.1558 I-0.7658 J-1.8476
G2 X60.9286 Y45.6624 I-4.426 J-10.6467
G2 X64.2977 Y37.5299 I-8.1003 J-8.1198
G2 X62.8438 Y31.9309 I-11.4493 J-0.0152
G2 X62.8436 Y31.9306 I-1.746 J0.9754
G2 X59.798 Y28.4071 I-10.0756 J5.631
G1 Y12.0015
G2 X57.798 Y10.0015 I-2.0 J0.0
G1 X47.7979
G2 X45.7979 Y12.0015 I0.0 J2.0
G1 Y28.4074
G2 X42.7525 Y31.9298 I7.0387 J9.1632
G2 X42.7518 Y31.931 I1.7455 J0.9764
G2 X41.298 Y37.5188 I10.0005 J5.5851
G1 F50.0 Z-4.0
G2 F100.0 Y37.5298 I11.4544 J-0.0027
G2 X44.6662 Y45.6615 I11.4712 J0.0119
G2 X52.7974 Y49.0299 I8.1205 J-8.1042
G2 X57.2 Y48.1566 I0.015 J-11.4582
G2 X57.2019 Y48.1558 I-0.7658 J-1.8476
G2 X60.9286 Y45.6624 I-4.426 J-10.6467
G2 X64.2977 Y37.5299 I-8.1003 J-8.1198
G2 X62.8438 Y31.9309 I-11.4493 J-0.0152
G2 X62.8436 Y31.9306 I-1.746 J0.9754
G2 X59.798 Y28.4071 I-10.0756 J5.631
G1 Y12.0015
G2 X57.798 Y10.0015 I-2.0 J0.0
G1 X47.7979
G2 X45.7979 Y12.0015 I0.0 J2.0
G1 Y28.4074
G2 X42.7525 Y31.9298 I7.0387 J9.1632
G2 X42.7518 Y31.931 I1.7455 J0.9764
G2 X41.298 Y37.5188 I10.0005 J5.5851
G1 F50.0 Z-5.0
G2 F100.0 Y37.5298 I11.4544 J-0.0027
G2 X44.6662 Y45.6615 I11.4712 J0.0119
G2 X52.7974 Y49.0299 I8.1205 J-8.1042
G2 X57.2 Y48.1566 I0.015 J-11.4582
G2 X57.2019 Y48.1558 I-0.7658 J-1.8476
G2 X60.9286 Y45.6624 I-4.426 J-10.6467
G2 X64.2977 Y37.5299 I-8.1003 J-8.1198
G2 X62.8438 Y31.9309 I-11.4493 J-0.0152
G2 X62.8436 Y31.9306 I-1.746 J0.9754
G2 X59.798 Y28.4071 I-10.0756 J5.631
G1 Y12.0015
G2 X57.798 Y10.0015 I-2.0 J0.0
G1 X47.7979
G2 X45.7979 Y12.0015 I0.0 J2.0
G1 Y28.4074
G2 X42.7525 Y31.9298 I7.0387 J9.1632
G2 X42.7518 Y31.931 I1.7455 J0.9764
G2 X41.298 Y37.5188 I10.0005 J5.5851
G1 F50.0 Z-6.0
G2 F100.0 Y37.5298 I11.4544 J-0.0027
G2 X44.6662 Y45.6615 I11.4712 J0.0119
G2 X52.7974 Y49.0299 I8.1205 J-8.1042
G2 X57.2 Y48.1566 I0.015 J-11.4582
G2 X57.2019 Y48.1558 I-0.7658 J-1.8476
G2 X60.9286 Y45.6624 I-4.426 J-10.6467
G2 X64.2977 Y37.5299 I-8.1003 J-8.1198
G2 X62.8438 Y31.9309 I-11.4493 J-0.0152
G2 X62.8436 Y31.9306 I-1.746 J0.9754
G2 X59.798 Y28.4071 I-10.0756 J5.631
G1 Y12.0015
G2 X57.798 Y10.0015 I-2.0 J0.0
G1 X47.7979
G2 X45.7979 Y12.0015 I0.0 J2.0
G1 Y28.4074
G2 X42.7525 Y31.9298 I7.0387 J9.1632
G2 X42.7518 Y31.931 I1.7455 J0.9764
G2 X41.298 Y37.5188 I10.0005 J5.5851
G1 F50.0 Z-7.0
G2 F100.0 Y37.5298 I11.4544 J-0.0027
G2 X44.6662 Y45.6615 I11.4712 J0.0119
G2 X52.7974 Y49.0299 I8.1205 J-8.1042
G2 X57.2 Y48.1566 I0.015 J-11.4582
G2 X57.2019 Y48.1558 I-0.7658 J-1.8476
G2 X60.9286 Y45.6624 I-4.426 J-10.6467
G2 X64.2977 Y37.5299 I-8.1003 J-8.1198
G2 X62.8438 Y31.9309 I-11.4493 J-0.0152
G2 X62.8436 Y31.9306 I-1.746 J0.9754
G2 X59.798 Y28.4071 I-10.0756 J5.631
G1 Y12.0015
G2 X57.798 Y10.0015 I-2.0 J0.0
G1 X47.7979
G2 X45.7979 Y12.0015 I0.0 J2.0
G1 Y28.4074
G2 X42.7525 Y31.9298 I7.0387 J9.1632
G2 X42.7518 Y31.931 I1.7455 J0.9764
G2 X41.298 Y37.5188 I10.0005 J5.5851
G1 F50.0 Z-8.0
G2 F100.0 Y37.5298 I11.4544 J-0.0027
G2 X44.6662 Y45.6615 I11.4712 J0.0119
G2 X52.7974 Y49.0299 I8.1205 J-8.1042
G2 X57.2 Y48.1566 I0.015 J-11.4582
G2 X57.2019 Y48.1558 I-0.7658 J-1.8476
G2 X60.9286 Y45.6624 I-4.426 J-10.6467
G2 X64.2977 Y37.5299 I-8.1003 J-8.1198
G2 X62.8438 Y31.9309 I-11.4493 J-0.0152
G2 X62.8436 Y31.9306 I-1.746 J0.9754
G2 X59.798 Y28.4071 I-10.0756 J5.631
G1 Y12.0015
G2 X57.798 Y10.0015 I-2.0 J0.0
G1 X47.7979
G2 X45.7979 Y12.0015 I0.0 J2.0
G1 Y28.4074
G2 X42.7525 Y31.9298 I7.0387 J9.1632
G2 X42.7518 Y31.931 I1.7455 J0.9764
G2 X41.298 Y37.5188 I10.0005 J5.5851
G1 F50.0 Z-9.0
G2 F100.0 Y37.5298 I11.4544 J-0.0027
G2 X44.6662 Y45.6615 I11.4712 J0.0119
G2 X52.7974 Y49.0299 I8.1205 J-8.1042
G2 X57.2 Y48.1566 I0.015 J-11.4582
G2 X57.2019 Y48.1558 I-0.7658 J-1.8476
G2 X60.9286 Y45.6624 I-4.426 J-10.6467
G2 X64.2977 Y37.5299 I-8.1003 J-8.1198
G2 X62.8438 Y31.9309 I-11.4493 J-0.0152
G2 X62.8436 Y31.9306 I-1.746 J0.9754
G2 X59.798 Y28.4071 I-10.0756 J5.631
G1 Y12.0015
G2 X57.798 Y10.0015 I-2.0 J0.0
G1 X47.7979
G2 X45.7979 Y12.0015 I0.0 J2.0
G1 Y28.4074
G2 X42.7525 Y31.9298 I7.0387 J9.1632
G2 X42.7518 Y31.931 I1.7455 J0.9764
G2 X41.298 Y37.5188 I10.0005 J5.5851
G1 F50.0 Z-10.0
G2 F100.0 Y37.5298 I11.4544 J-0.0027
G2 X44.6662 Y45.6615 I11.4712 J0.0119
G2 X52.7974 Y49.0299 I8.1205 J-8.1042
G2 X57.2 Y48.1566 I0.015 J-11.4582
G2 X57.2019 Y48.1558 I-0.7658 J-1.8476
G2 X60.9286 Y45.6624 I-4.426 J-10.6467
G2 X64.2977 Y37.5299 I-8.1003 J-8.1198
G2 X62.8438 Y31.9309 I-11.4493 J-0.0152
G2 X62.8436 Y31.9306 I-1.746 J0.9754
G2 X59.798 Y28.4071 I-10.0756 J5.631
G1 Y12.0015
G2 X57.798 Y10.0015 I-2.0 J0.0
G1 X47.7979
G2 X45.7979 Y12.0015 I0.0 J2.0
G1 Y28.4074
G2 X42.7525 Y31.9298 I7.0387 J9.1632
G2 X42.7518 Y31.931 I1.7455 J0.9764
G2 X41.298 Y37.5188 I10.0005 J5.5851
G1 F50.0 Z-11.0
G2 F100.0 Y37.5298 I11.4544 J-0.0027
G2 X44.6662 Y45.6615 I11.4712 J0.0119
G2 X52.7974 Y49.0299 I8.1205 J-8.1042
G2 X57.2 Y48.1566 I0.015 J-11.4582
G2 X57.2019 Y48.1558 I-0.7658 J-1.8476
G2 X60.9286 Y45.6624 I-4.426 J-10.6467
G2 X64.2977 Y37.5299 I-8.1003 J-8.1198
G2 X62.8438 Y31.9309 I-11.4493 J-0.0152
G2 X62.8436 Y31.9306 I-1.746 J0.9754
G2 X59.798 Y28.4071 I-10.0756 J5.631
G1 Y12.0015
G2 X57.798 Y10.0015 I-2.0 J0.0
G1 X47.7979
G2 X45.7979 Y12.0015 I0.0 J2.0
G1 Y28.4074
G2 X42.7525 Y31.9298 I7.0387 J9.1632
G2 X42.7518 Y31.931 I1.7455 J0.9764
G2 X41.298 Y37.5188 I10.0005 J5.5851
G0 Z3.0
G0 X64.0026 Y26.5217
G1 F50.0 Z-1.0
G2 F100.0 X64.3114 Y27.1146 I10.3043 J-4.9909
G2 X64.3116 Y27.1149 I1.746 J-0.9754
G2 X67.3572 Y30.6384 I10.0756 J-5.631
G1 Y47.044
G2 X69.3572 Y49.044 I2.0 J0.0
G1 X79.3573
G2 X81.3573 Y47.044 I0.0 J-2.0
G1 Y30.6381
G2 X84.4027 Y27.1157 I-7.0387 J-9.1632
G2 X84.4034 Y27.1145 I-1.7455 J-0.9764
G2 X85.8572 Y21.5157 I-10.0005 J-5.5851
G2 X82.489 Y13.384 I-11.4712 J-0.0119
G2 X74.3578 Y10.0156 I-8.1205 J8.1042
G2 X69.9552 Y10.8889 I-0.015 J11.4582
G2 X69.9533 Y10.8897 I0.7658 J1.8476
G2 X66.2266 Y13.3831 I4.426 J10.6467
G2 X62.8575 Y21.5156 I8.1003 J8.1198
G2 X64.0026 Y26.5217 I11.4493 J0.0152
G1 F50.0 Z-2.0
G2 F100.0 X64.3114 Y27.1146 I10.3043 J-4.9909
G2 X64.3116 Y27.1149 I1.746 J-0.9754
G2 X67.3572 Y30.6384 I10.0756 J-5.631
G1 Y47.044
G2 X69.3572 Y49.044 I2.0 J0.0
G1 X79.3573
G2 X81.3573 Y47.044 I0.0 J-2.0
G1 Y30.6381
G2 X84.4027 Y27.1157 I-7.0387 J-9.1632
G2 X84.4034 Y27.1145 I-1.7455 J-0.9764
G2 X85.8572 Y21.5157 I-10.0005 J-5.5851
G2 X82.489 Y13.384 I-11.4712 J-0.0119
G2 X74.3578 Y10.0156 I-8.1205 J8.1042
G2 X69.9552 Y10.8889 I-0.015 J11.4582
G2 X69.9533 Y10.8897 I0.7658 J1.8476
G2 X66.2266 Y13.3831 I4.426 J10.6467
G2 X62.8575 Y21.5156 I8.1003 J8.1198
G2 X64.0026 Y26.5217 I11.4493 J0.0152
G1 F50.0 Z-3.0
G2 F100.0 X64.3114 Y27.1146 I10.3043 J-4.9909
G2 X64.3116 Y27.1149 I1.746 J-0.9754
G2 X67.3572 Y30.6384 I10.0756 J-5.631
G1 Y47.044
G2 X69.3572 Y49.044 I2.0 J0.0
G1 X79.3573
G2 X81.3573 Y47.044 I0.0 J-2.0
G1 Y30.6381
G2 X84.4027 Y27.1157 I-7.0387 J-9.1632
G2 X84.4034 Y27.1145 I-1.7455 J-0.9764
G2 X85.8572 Y21.5157 I-10.0005 J-5.5851
G2 X82.489 Y13.384 I-11.4712 J-0.0119
G2 X74.3578 Y10.0156 I-8.1205 J8.1042
G2 X69.9552 Y10.8889 I-0.015 J11.4582
G2 X69.9533 Y10.8897 I0.7658 J1.8476
G2 X66.2266 Y13.3831 I4.426 J10.6467
G2 X62.8575 Y21.5156 I8.1003 J8.1198
G2 X64.0026 Y26.5217 I11.4493 J0.0152
G1 F50.0 Z-4.0
G2 F100.0 X64.3114 Y27.1146 I10.3043 J-4.9909
G2 X64.3116 Y27.1149 I1.746 J-0.9754
G2 X67.3572 Y30.6384 I10.0756 J-5.631
G1 Y47.044
G2 X69.3572 Y49.044 I2.0 J0.0
G1 X79.3573
G2 X81.3573 Y47.044 I0.0 J-2.0
G1 Y30.6381
G2 X84.4027 Y27.1157 I-7.0387 J-9.1632
G2 X84.4034 Y27.1145 I-1.7455 J-0.9764
G2 X85.8572 Y21.5157 I-10.0005 J-5.5851
G2 X82.489 Y13.384 I-11.4712 J-0.0119
G2 X74.3578 Y10.0156 I-8.1205 J8.1042
G2 X69.9552 Y10.8889 I-0.015 J11.4582
G2 X69.9533 Y10.8897 I0.7658 J1.8476
G2 X66.2266 Y13.3831 I4.426 J10.6467
G2 X62.8575 Y21.5156 I8.1003 J8.1198
G2 X64.0026 Y26.5217 I11.4493 J0.0152
G1 F50.0 Z-5.0
G2 F100.0 X64.3114 Y27.1146 I10.3043 J-4.9909
G2 X64.3116 Y27.1149 I1.746 J-0.9754
G2 X67.3572 Y30.6384 I10.0756 J-5.631
G1 Y47.044
G2 X69.3572 Y49.044 I2.0 J0.0
G1 X79.3573
G2 X81.3573 Y47.044 I0.0 J-2.0
G1 Y30.6381
G2 X84.4027 Y27.1157 I-7.0387 J-9.1632
G2 X84.4034 Y27.1145 I-1.7455 J-0.9764
G2 X85.8572 Y21.5157 I-10.0005 J-5.5851
G2 X82.489 Y13.384 I-11.4712 J-0.0119
G2 X74.3578 Y10.0156 I-8.1205 J8.1042
G2 X69.9552 Y10.8889 I-0.015 J11.4582
G2 X69.9533 Y10.8897 I0.7658 J1.8476
G2 X66.2266 Y13.3831 I4.426 J10.6467
G2 X62.8575 Y21.5156 I8.1003 J8.1198
G2 X64.0026 Y26.5217 I11.4493 J0.0152
G1 F50.0 Z-6.0
G2 F100.0 X64.3114 Y27.1146 I10.3043 J-4.9909
G2 X64.3116 Y27.1149 I1.746 J-0.9754
G2 X67.3572 Y30.6384 I10.0756 J-5.631
G1 Y47.044
G2 X69.3572 Y49.044 I2.0 J0.0
G1 X79.3573
G2 X81.3573 Y47.044 I0.0 J-2.0
G1 Y30.6381
G2 X84.4027 Y27.1157 I-7.0387 J-9.1632
G2 X84.4034 Y27.1145 I-1.7455 J-0.9764
G2 X85.8572 Y21.5157 I-10.0005 J-5.5851
G2 X82.489 Y13.384 I-11.4712 J-0.0119
G2 X74.3578 Y10.0156 I-8.1205 J8.1042
G2 X69.9552 Y10.8889 I-0.015 J11.4582
G2 X69.9533 Y10.8897 I0.7658 J1.8476
G2 X66.2266 Y13.3831 I4.426 J10.6467
G2 X62.8575 Y21.5156 I8.1003 J8.1198
G2 X64.0026 Y26.5217 I11.4493 J0.0152
G1 F50.0 Z-7.0
G2 F100.0 X64.3114 Y27.1146 I10.3043 J-4.9909
G2 X64.3116 Y27.1149 I1.746 J-0.9754
G2 X67.3572 Y30.6384 I10.0756 J-5.631
G1 Y47.044
G2 X69.3572 Y49.044 I2.0 J0.0
G1 X79.3573
G2 X81.3573 Y47.044 I0.0 J-2.0
G1 Y30.6381
G2 X84.4027 Y27.1157 I-7.0387 J-9.1632
G2 X84.4034 Y27.1145 I-1.7455 J-0.9764
G2 X85.8572 Y21.5157 I-10.0005 J-5.5851
G2 X82.489 Y13.384 I-11.4712 J-0.0119
G2 X74.3578 Y10.0156 I-8.1205 J8.1042
G2 X69.9552 Y10.8889 I-0.015 J11.4582
G2 X69.9533 Y10.8897 I0.7658 J1.8476
G2 X66.2266 Y13.3831 I4.426 J10.6467
G2 X62.8575 Y21.5156 I8.1003 J8.1198
G2 X64.0026 Y26.5217 I11.4493 J0.0152
G1 F50.0 Z-8.0
G2 F100.0 X64.3114 Y27.1146 I10.3043 J-4.9909
G2 X64.3116 Y27.1149 I1.746 J-0.9754
G2 X67.3572 Y30.6384 I10.0756 J-5.631
G1 Y47.044
G2 X69.3572 Y49.044 I2.0 J0.0
G1 X79.3573
G2 X81.3573 Y47.044 I0.0 J-2.0
G1 Y30.6381
G2 X84.4027 Y27.1157 I-7.0387 J-9.1632
G2 X84.4034 Y27.1145 I-1.7455 J-0.9764
G2 X85.8572 Y21.5157 I-10.0005 J-5.5851
G2 X82.489 Y13.384 I-11.4712 J-0.0119
G2 X74.3578 Y10.0156 I-8.1205 J8.1042
G2 X69.9552 Y10.8889 I-0.015 J11.4582
G2 X69.9533 Y10.8897 I0.7658 J1.8476
G2 X66.2266 Y13.3831 I4.426 J10.6467
G2 X62.8575 Y21.5156 I8.1003 J8.1198
G2 X64.0026 Y26.5217 I11.4493 J0.0152
G1 F50.0 Z-9.0
G2 F100.0 X64.3114 Y27.1146 I10.3043 J-4.9909
G2 X64.3116 Y27.1149 I1.746 J-0.9754
G2 X67.3572 Y30.6384 I10.0756 J-5.631
G1 Y47.044
G2 X69.3572 Y49.044 I2.0 J0.0
G1 X79.3573
G2 X81.3573 Y47.044 I0.0 J-2.0
G1 Y30.6381
G2 X84.4027 Y27.1157 I-7.0387 J-9.1632
G2 X84.4034 Y27.1145 I-1.7455 J-0.9764
G2 X85.8572 Y21.5157 I-10.0005 J-5.5851
G2 X82.489 Y13.384 I-11.4712 J-0.0119
G2 X74.3578 Y10.0156 I-8.1205 J8.1042
G2 X69.9552 Y10.8889 I-0.015 J11.4582
G2 X69.9533 Y10.8897 I0.7658 J1.8476
G2 X66.2266 Y13.3831 I4.426 J10.6467
G2 X62.8575 Y21.5156 I8.1003 J8.1198
G2 X64.0026 Y26.5217 I11.4493 J0.0152
G1 F50.0 Z-10.0
G2 F100.0 X64.3114 Y27.1146 I10.3043 J-4.9909
G2 X64.3116 Y27.1149 I1.746 J-0.9754
G2 X67.3572 Y30.6384 I10.0756 J-5.631
G1 Y47.044
G2 X69.3572 Y49.044 I2.0 J0.0
G1 X79.3573
G2 X81.3573 Y47.044 I0.0 J-2.0
G1 Y30.6381
G2 X84.4027 Y27.1157 I-7.0387 J-9.1632
G2 X84.4034 Y27.1145 I-1.7455 J-0.9764
G2 X85.8572 Y21.5157 I-10.0005 J-5.5851
G2 X82.489 Y13.384 I-11.4712 J-0.0119
G2 X74.3578 Y10.0156 I-8.1205 J8.1042
G2 X69.9552 Y10.8889 I-0.015 J11.4582
G2 X69.9533 Y10.8897 I0.7658 J1.8476
G2 X66.2266 Y13.3831 I4.426 J10.6467
G2 X62.8575 Y21.5156 I8.1003 J8.1198
G2 X64.0026 Y26.5217 I11.4493 J0.0152
G1 F50.0 Z-11.0
G2 F100.0 X64.3114 Y27.1146 I10.3043 J-4.9909
G2 X64.3116 Y27.1149 I1.746 J-0.9754
G2 X67.3572 Y30.6384 I10.0756 J-5.631
G1 Y47.044
G2 X69.3572 Y49.044 I2.0 J0.0
G1 X79.3573
G2 X81.3573 Y47.044 I0.0 J-2.0
G1 Y30.6381
G2 X84.4027 Y27.1157 I-7.0387 J-9.1632
G2 X84.4034 Y27.1145 I-1.7455 J-0.9764
G2 X85.8572 Y21.5157 I-10.0005 J-5.5851
G2 X82.489 Y13.384 I-11.4712 J-0.0119
G2 X74.3578 Y10.0156 I-8.1205 J8.1042
G2 X69.9552 Y10.8889 I-0.015 J11.4582
G2 X69.9533 Y10.8897 I0.7658 J1.8476
G2 X66.2266 Y13.3831 I4.426 J10.6467
G2 X62.8575 Y21.5156 I8.1003 J8.1198
G2 X64.0026 Y26.5217 I11.4493 J0.0152
G0 Z3.0
G0 X85.2253 Y33.805
G1 F50.0 Z-1.0
G2 F100.0 X84.605 Y37.5369 I10.8342 J3.7181
G2 X87.9733 Y45.6686 I11.4712 J0.0119
G2 X96.1045 Y49.0369 I8.1205 J-8.1042
G2 X100.5071 Y48.1636 I0.015 J-11.4582
G2 X100.509 Y48.1628 I-0.7658 J-1.8476
G2 X104.2357 Y45.6694 I-4.426 J-10.6467
G2 X107.6048 Y37.537 I-8.1003 J-8.1198
G2 X106.1509 Y31.938 I-11.4493 J-0.0152
G2 X106.1507 Y31.9377 I-1.746 J0.9754
G2 X103.1051 Y28.4142 I-10.0756 J5.631
G1 Y12.0086
G2 X101.1051 Y10.0086 I-2.0 J0.0
G1 X91.105
G2 X89.105 Y12.0086 I0.0 J2.0
G1 Y28.4144
G2 X86.0596 Y31.9369 I7.0387 J9.1632
G2 X86.0589 Y31.9381 I1.7455 J0.9764
G2 X85.2253 Y33.805 I10.0005 J5.5851
G1 F50.0 Z-2.0
G2 F100.0 X84.605 Y37.5369 I10.8342 J3.7181
G2 X87.9733 Y45.6686 I11.4712 J0.0119
G2 X96.1045 Y49.0369 I8.1205 J-8.1042
G2 X100.5071 Y48.1636 I0.015 J-11.4582
G2 X100.509 Y48.1628 I-0.7658 J-1.8476
G2 X104.2357 Y45.6694 I-4.426 J-10.6467
G2 X107.6048 Y37.537 I-8.1003 J-8.1198
G2 X106.1509 Y31.938 I-11.4493 J-0.0152
G2 X106.1507 Y31.9377 I-1.746 J0.9754
G2 X103.1051 Y28.4142 I-10.0756 J5.631
G1 Y12.0086
G2 X101.1051 Y10.0086 I-2.0 J0.0
G1 X91.105
G2 X89.105 Y12.0086 I0.0 J2.0
G1 Y28.4144
G2 X86.0596 Y31.9369 I7.0387 J9.1632
G2 X86.0589 Y31.9381 I1.7455 J0.9764
G2 X85.2253 Y33.805 I10.0005 J5.5851
G1 F50.0 Z-3.0
G2 F100.0 X84.605 Y37.5369 I10.8342 J3.7181
G2 X87.9733 Y45.6686 I11.4712 J0.0119
G2 X96.1045 Y49.0369 I8.1205 J-8.1042
G2 X100.5071 Y48.1636 I0.015 J-11.4582
G2 X100.509 Y48.1628 I-0.7658 J-1.8476
G2 X104.2357 Y45.6694 I-4.426 J-10.6467
G2 X107.6048 Y37.537 I-8.1003 J-8.1198
G2 X106.1509 Y31.938 I-11.4493 J-0.0152
G2 X106.1507 Y31.9377 I-1.746 J0.9754
G2 X103.1051 Y28.4142 I-10.0756 J5.631
G1 Y12.0086
G2 X101.1051 Y10.0086 I-2.0 J0.0
G1 X91.105
G2 X89.105 Y12.0086 I0.0 J2.0
G1 Y28.4144
G2 X86.0596 Y31.9369 I7.0387 J9.1632
G2 X86.0589 Y31.9381 I1.7455 J0.9764
G2 X85.2253 Y33.805 I10.0005 J5.5851
G1 F50.0 Z-4.0
G2 F100.0 X84.605 Y37.5369 I10.8342 J3.7181
G2 X87.9733 Y45.6686 I11.4712 J0.0119
G2 X96.1045 Y49.0369 I8.1205 J-8.1042
G2 X100.5071 Y48.1636 I0.015 J-11.4582
G2 X100.509 Y48.1628 I-0.7658 J-1.8476
G2 X104.2357 Y45.6694 I-4.426 J-10.6467
G2 X107.6048 Y37.537 I-8.1003 J-8.1198
G2 X106.1509 Y31.938 I-11.4493 J-0.0152
G2 X106.1507 Y31.9377 I-1.746 J0.9754
G2 X103.1051 Y28.4142 I-10.0756 J5.631
G1 Y12.0086
G2 X101.1051 Y10.0086 I-2.0 J0.0
G1 X91.105
G2 X89.105 Y12.0086 I0.0 J2.0
G1 Y28.4144
G2 X86.0596 Y31.9369 I7.0387 J9.1632
G2 X86.0589 Y31.9381 I1.7455 J0.9764
G2 X85.2253 Y33.805 I10.0005 J5.5851
G1 F50.0 Z-5.0
G2 F100.0 X84.605 Y37.5369 I10.8342 J3.7181
G2 X87.9733 Y45.6686 I11.4712 J0.0119
G2 X96.1045 Y49.0369 I8.1205 J-8.1042
G2 X100.5071 Y48.1636 I0.015 J-11.4582
G2 X100.509 Y48.1628 I-0.7658 J-1.8476
G2 X104.2357 Y45.6694 I-4.426 J-10.6467
G2 X107.6048 Y37.537 I-8.1003 J-8.1198
G2 X106.1509 Y31.938 I-11.4493 J-0.0152
G2 X106.1507 Y31.9377 I-1.746 J0.9754
G2 X103.1051 Y28.4142 I-10.0756 J5.631
G1 Y12.0086
G2 X101.1051 Y10.0086 I-2.0 J0.0
G1 X91.105
G2 X89.105 Y12.0086 I0.0 J2.0
G1 Y28.4144
G2 X86.0596 Y31.9369 I7.0387 J9.1632
G2 X86.0589 Y31.9381 I1.7455 J0.9764
G2 X85.2253 Y33.805 I10.0005 J5.5851
G1 F50.0 Z-6.0
G2 F100.0 X84.605 Y37.5369 I10.8342 J3.7181
G2 X87.9733 Y45.6686 I11.4712 J0.0119
G2 X96.1045 Y49.0369 I8.1205 J-8.1042
G2 X100.5071 Y48.1636 I0.015 J-11.4582
G2 X100.509 Y48.1628 I-0.7658 J-1.8476
G2 X104.2357 Y45.6694 I-4.426 J-10.6467
G2 X107.6048 Y37.537 I-8.1003 J-8.1198
G2 X106.1509 Y31.938 I-11.4493 J-0.0152
G2 X106.1507 Y31.9377 I-1.746 J0.9754
G2 X103.1051 Y28.4142 I-10.0756 J5.631
G1 Y12.0086
G2 X101.1051 Y10.0086 I-2.0 J0.0
G1 X91.105
G2 X89.105 Y12.0086 I0.0 J2.0
G1 Y28.4144
G2 X86.0596 Y31.9369 I7.0387 J9.1632
G2 X86.0589 Y31.9381 I1.7455 J0.9764
G2 X85.2253 Y33.805 I10.0005 J5.5851
G1 F50.0 Z-7.0
G2 F100.0 X84.605 Y37.5369 I10.8342 J3.7181
G2 X87.9733 Y45.6686 I11.4712 J0.0119
G2 X96.1045 Y49.0369 I8.1205 J-8.1042
G2 X100.5071 Y48.1636 I0.015 J-11.4582
G2 X100.509 Y48.1628 I-0.7658 J-1.8476
G2 X104.2357 Y45.6694 I-4.426 J-10.6467
G2 X107.6048 Y37.537 I-8.1003 J-8.1198
G2 X106.1509 Y31.938 I-11.4493 J-0.0152
G2 X106.1507 Y31.9377 I-1.746 J0.9754
G2 X103.1051 Y28.4142 I-10.0756 J5.631
G1 Y12.0086
G2 X101.1051 Y10.0086 I-2.0 J0.0
G1 X91.105
G2 X89.105 Y12.0086 I0.0 J2.0
G1 Y28.4144
G2 X86.0596 Y31.9369 I7.0387 J9.1632
G2 X86.0589 Y31.9381 I1.7455 J0.9764
G2 X85.2253 Y33.805 I10.0005 J5.5851
G1 F50.0 Z-8.0
G2 F100.0 X84.605 Y37.5369 I10.8342 J3.7181
G2 X87.9733 Y45.6686 I11.4712 J0.0119
G2 X96.1045 Y49.0369 I8.1205 J-8.1042
G2 X100.5071 Y48.1636 I0.015 J-11.4582
G2 X100.509 Y48.1628 I-0.7658 J-1.8476
G2 X104.2357 Y45.6694 I-4.426 J-10.6467
G2 X107.6048 Y37.537 I-8.1003 J-8.1198
G2 X106.1509 Y31.938 I-11.4493 J-0.0152
G2 X106.1507 Y31.9377 I-1.746 J0.9754
G2 X103.1051 Y28.4142 I-10.0756 J5.631
G1 Y12.0086
G2 X101.1051 Y10.0086 I-2.0 J0.0
G1 X91.105
G2 X89.105 Y12.0086 I0.0 J2.0
G1 Y28.4144
G2 X86.0596 Y31.9369 I7.0387 J9.1632
G2 X86.0589 Y31.9381 I1.7455 J0.9764
G2 X85.2253 Y33.805 I10.0005 J5.5851
G1 F50.0 Z-9.0
G2 F100.0 X84.605 Y37.5369 I10.8342 J3.7181
G2 X87.9733 Y45.6686 I11.4712 J0.0119
G2 X96.1045 Y49.0369 I8.1205 J-8.1042
G2 X100.5071 Y48.1636 I0.015 J-11.4582
G2 X100.509 Y48.1628 I-0.7658 J-1.8476
G2 X104.2357 Y45.6694 I-4.426 J-10.6467
G2 X107.6048 Y37.537 I-8.1003 J-8.1198
G2 X106.1509 Y31.938 I-11.4493 J-0.0152
G2 X106.1507 Y31.9377 I-1.746 J0.9754
G2 X103.1051 Y28.4142 I-10.0756 J5.631
G1 Y12.0086
G2 X101.1051 Y10.0086 I-2.0 J0.0
G1 X91.105
G2 X89.105 Y12.0086 I0.0 J2.0
G1 Y28.4144
G2 X86.0596 Y31.9369 I7.0387 J9.1632
G2 X86.0589 Y31.9381 I1.7455 J0.9764
G2 X85.2253 Y33.805 I10.0005 J5.5851
G1 F50.0 Z-10.0
G2 F100.0 X84.605 Y37.5369 I10.8342 J3.7181
G2 X87.9733 Y45.6686 I11.4712 J0.0119
G2 X96.1045 Y49.0369 I8.1205 J-8.1042
G2 X100.5071 Y48.1636 I0.015 J-11.4582
G2 X100.509 Y48.1628 I-0.7658 J-1.8476
G2 X104.2357 Y45.6694 I-4.426 J-10.6467
G2 X107.6048 Y37.537 I-8.1003 J-8.1198
G2 X106.1509 Y31.938 I-11.4493 J-0.0152
G2 X106.1507 Y31.9377 I-1.746 J0.9754
G2 X103.1051 Y28.4142 I-10.0756 J5.631
G1 Y12.0086
G2 X101.1051 Y10.0086 I-2.0 J0.0
G1 X91.105
G2 X89.105 Y12.0086 I0.0 J2.0
G1 Y28.4144
G2 X86.0596 Y31.9369 I7.0387 J9.1632
G2 X86.0589 Y31.9381 I1.7455 J0.9764
G2 X85.2253 Y33.805 I10.0005 J5.5851
G1 F50.0 Z-11.0
G2 F100.0 X84.605 Y37.5369 I10.8342 J3.7181
G2 X87.9733 Y45.6686 I11.4712 J0.0119
G2 X96.1045 Y49.0369 I8.1205 J-8.1042
G2 X100.5071 Y48.1636 I0.015 J-11.4582
G2 X100.509 Y48.1628 I-0.7658 J-1.8476
G2 X104.2357 Y45.6694 I-4.426 J-10.6467
G2 X107.6048 Y37.537 I-8.1003 J-8.1198
G2 X106.1509 Y31.938 I-11.4493 J-0.0152
G2 X106.1507 Y31.9377 I-1.746 J0.9754
G2 X103.1051 Y28.4142 I-10.0756 J5.631
G1 Y12.0086
G2 X101.1051 Y10.0086 I-2.0 J0.0
G1 X91.105
G2 X89.105 Y12.0086 I0.0 J2.0
G1 Y28.4144
G2 X86.0596 Y31.9369 I7.0387 J9.1632
G2 X86.0589 Y31.9381 I1.7455 J0.9764
G2 X85.2253 Y33.805 I10.0005 J5.5851
G0 Z3.0
G0 X106.9069 Y25.5932
G1 F50.0 Z-1.0
G2 F100.0 X107.6185 Y27.1216 I10.7071 J-4.0553
G2 X107.6187 Y27.122 I1.746 J-0.9754
G2 X110.6643 Y30.6454 I10.0756 J-5.631
G1 Y47.051
G2 X112.6643 Y49.051 I2.0 J0.0
G1 X122.6643
G2 X124.6643 Y47.051 I0.0 J-2.0
G1 Y30.6452
G2 X127.7098 Y27.1227 I-7.0387 J-9.1632
G2 X127.7104 Y27.1216 I-1.7455 J-0.9764
G2 X129.1643 Y21.5227 I-10.0005 J-5.5851
G2 X125.7961 Y13.3911 I-11.4712 J-0.0119
G2 X117.6649 Y10.0227 I-8.1205 J8.1042
G2 X113.2623 Y10.896 I-0.015 J11.4582
G2 X113.2604 Y10.8968 I0.7658 J1.8476
G2 X109.5337 Y13.3902 I4.426 J10.6467
G2 X106.1646 Y21.5227 I8.1003 J8.1198
G2 X106.9069 Y25.5932 I11.4493 J0.0152
G1 F50.0 Z-2.0
G2 F100.0 X107.6185 Y27.1216 I10.7071 J-4.0553
G2 X107.6187 Y27.122 I1.746 J-0.9754
G2 X110.6643 Y30.6454 I10.0756 J-5.631
G1 Y47.051
G2 X112.6643 Y49.051 I2.0 J0.0
G1 X122.6643
G2 X124.6643 Y47.051 I0.0 J-2.0
G1 Y30.6452
G2 X127.7098 Y27.1227 I-7.0387 J-9.1632
G2 X127.7104 Y27.1216 I-1.7455 J-0.9764
G2 X129.1643 Y21.5227 I-10.0005 J-5.5851
G2 X125.7961 Y13.3911 I-11.4712 J-0.0119
G2 X117.6649 Y10.0227 I-8.1205 J8.1042
G2 X113.2623 Y10.896 I-0.015 J11.4582
G2 X113.2604 Y10.8968 I0.7658 J1.8476
G2 X109.5337 Y13.3902 I4.426 J10.6467
G2 X106.1646 Y21.5227 I8.1003 J8.1198
G2 X106.9069 Y25.5932 I11.4493 J0.0152
G1 F50.0 Z-3.0
G2 F100.0 X107.6185 Y27.1216 I10.7071 J-4.0553
G2 X107.6187 Y27.122 I1.746 J-0.9754
G2 X110.6643 Y30.6454 I10.0756 J-5.631
G1 Y47.051
G2 X112.6643 Y49.051 I2.0 J0.0
G1 X122.6643
G2 X124.6643 Y47.051 I0.0 J-2.0
G1 Y30.6452
G2 X127.7098 Y27.1227 I-7.0387 J-9.1632
G2 X127.7104 Y27.1216 I-1.7455 J-0.9764
G2 X129.1643 Y21.5227 I-10.0005 J-5.5851
G2 X125.7961 Y13.3911 I-11.4712 J-0.0119
G2 X117.6649 Y10.0227 I-8.1205 J8.1042
G2 X113.2623 Y10.896 I-0.015 J11.4582
G2 X113.2604 Y10.8968 I0.7658 J1.8476
G2 X109.5337 Y13.3902 I4.426 J10.6467
G2 X106.1646 Y21.5227 I8.1003 J8.1198
G2 X106.9069 Y25.5932 I11.4493 J0.0152
G1 F50.0 Z-4.0
G2 F100.0 X107.6185 Y27.1216 I10.7071 J-4.0553
G2 X107.6187 Y27.122 I1.746 J-0.9754
G2 X110.6643 Y30.6454 I10.0756 J-5.631
G1 Y47.051
G2 X112.6643 Y49.051 I2.0 J0.0
G1 X122.6643
G2 X124.6643 Y47.051 I0.0 J-2.0
G1 Y30.6452
G2 X127.7098 Y27.1227 I-7.0387 J-9.1632
G2 X127.7104 Y27.1216 I-1.7455 J-0.9764
G2 X129.1643 Y21.5227 I-10.0005 J-5.5851
G2 X125.7961 Y13.3911 I-11.4712 J-0.0119
G2 X117.6649 Y10.0227 I-8.1205 J8.1042
G2 X113.2623 Y10.896 I-0.015 J11.4582
G2 X113.2604 Y10.8968 I0.7658 J1.8476
G2 X109.5337 Y13.3902 I4.426 J10.6467
G2 X106.1646 Y21.5227 I8.1003 J8.1198
G2 X106.9069 Y25.5932 I11.4493 J0.0152
G1 F50.0 Z-5.0
G2 F100.0 X107.6185 Y27.1216 I10.7071 J-4.0553
G2 X107.6187 Y27.122 I1.746 J-0.9754
G2 X110.6643 Y30.6454 I10.0756 J-5.631
G1 Y47.051
G2 X112.6643 Y49.051 I2.0 J0.0
G1 X122.6643
G2 X124.6643 Y47.051 I0.0 J-2.0
G1 Y30.6452
G2 X127.7098 Y27.1227 I-7.0387 J-9.1632
G2 X127.7104 Y27.1216 I-1.7455 J-0.9764
G2 X129.1643 Y21.5227 I-10.0005 J-5.5851
G2 X125.7961 Y13.3911 I-11.4712 J-0.0119
G2 X117.6649 Y10.0227 I-8.1205 J8.1042
G2 X113.2623 Y10.896 I-0.015 J11.4582
G2 X113.2604 Y10.8968 I0.7658 J1.8476
G2 X109.5337 Y13.3902 I4.426 J10.6467
G2 X106.1646 Y21.5227 I8.1003 J8.1198
G2 X106.9069 Y25.5932 I11.4493 J0.0152
G1 F50.0 Z-6.0
G2 F100.0 X107.6185 Y27.1216 I10.7071 J-4.0553
G2 X107.6187 Y27.122 I1.746 J-0.9754
G2 X110.6643 Y30.6454 I10.0756 J-5.631
G1 Y47.051
G2 X112.6643 Y49.051 I2.0 J0.0
G1 X122.6643
G2 X124.6643 Y47.051 I0.0 J-2.0
G1 Y30.6452
G2 X127.7098 Y27.1227 I-7.0387 J-9.1632
G2 X127.7104 Y27.1216 I-1.7455 J-0.9764
G2 X129.1643 Y21.5227 I-10.0005 J-5.5851
G2 X125.7961 Y13.3911 I-11.4712 J-0.0119
G2 X117.6649 Y10.0227 I-8.1205 J8.1042
G2 X113.2623 Y10.896 I-0.015 J11.4582
G2 X113.2604 Y10.8968 I0.7658 J1.8476
G2 X109.5337 Y13.3902 I4.426 J10.6467
G2 X106.1646 Y21.5227 I8.1003 J8.1198
G2 X106.9069 Y25.5932 I11.4493 J0.0152
G1 F50.0 Z-7.0
G2 F100.0 X107.6185 Y27.1216 I10.7071 J-4.0553
G2 X107.6187 Y27.122 I1.746 J-0.9754
G2 X110.6643 Y30.6454 I10.0756 J-5.631
G1 Y47.051
G2 X112.6643 Y49.051 I2.0 J0.0
G1 X122.6643
G2 X124.6643 Y47.051 I0.0 J-2.0
G1 Y30.6452
G2 X127.7098 Y27.1227 I-7.0387 J-9.1632
G2 X127.7104 Y27.1216 I-1.7455 J-0.9764
G2 X129.1643 Y21.5227 I-10.0005 J-5.5851
G2 X125.7961 Y13.3911 I-11.4712 J-0.0119
G2 X117.6649 Y10.0227 I-8.1205 J8.1042
G2 X113.2623 Y10.896 I-0.015 J11.4582
G2 X113.2604 Y10.8968 I0.7658 J1.8476
G2 X109.5337 Y13.3902 I4.426 J10.6467
G2 X106.1646 Y21.5227 I8.1003 J8.1198
G2 X106.9069 Y25.5932 I11.4493 J0.0152
G1 F50.0 Z-8.0
G2 F100.0 X107.6185 Y27.1216 I10.7071 J-4.0553
G2 X107.6187 Y27.122 I1.746 J-0.9754
G2 X110.6643 Y30.6454 I10.0756 J-5.631
G1 Y47.051
G2 X112.6643 Y49.051 I2.0 J0.0
G1 X122.6643
G2 X124.6643 Y47.051 I0.0 J-2.0
G1 Y30.6452
G2 X127.7098 Y27.1227 I-7.0387 J-9.1632
G2 X127.7104 Y27.1216 I-1.7455 J-0.9764
G2 X129.1643 Y21.5227 I-10.0005 J-5.5851
G2 X125.7961 Y13.3911 I-11.4712 J-0.0119
G2 X117.6649 Y10.0227 I-8.1205 J8.1042
G2 X113.2623 Y10.896 I-0.015 J11.4582
G2 X113.2604 Y10.8968 I0.7658 J1.8476
G2 X109.5337 Y13.3902 I4.426 J10.6467
G2 X106.1646 Y21.5227 I8.1003 J8.1198
G2 X106.9069 Y25.5932 I11.4493 J0.0152
G1 F50.0 Z-9.0
G2 F100.0 X107.6185 Y27.1216 I10.7071 J-4.0553
G2 X107.6187 Y27.122 I1.746 J-0.9754
G2 X110.6643 Y30.6454 I10.0756 J-5.631
G1 Y47.051
G2 X112.6643 Y49.051 I2.0 J0.0
G1 X122.6643
G2 X124.6643 Y47.051 I0.0 J-2.0
G1 Y30.6452
G2 X127.7098 Y27.1227 I-7.0387 J-9.1632
G2 X127.7104 Y27.1216 I-1.7455 J-0.9764
G2 X129.1643 Y21.5227 I-10.0005 J-5.5851
G2 X125.7961 Y13.3911 I-11.4712 J-0.0119
G2 X117.6649 Y10.0227 I-8.1205 J8.1042
G2 X113.2623 Y10.896 I-0.015 J11.4582
G2 X113.2604 Y10.8968 I0.7658 J1.8476
G2 X109.5337 Y13.3902 I4.426 J10.6467
G2 X106.1646 Y21.5227 I8.1003 J8.1198
G2 X106.9069 Y25.5932 I11.4493 J0.0152
G1 F50.0 Z-10.0
G2 F100.0 X107.6185 Y27.1216 I10.7071 J-4.0553
G2 X107.6187 Y27.122 I1.746 J-0.9754
G2 X110.6643 Y30.6454 I10.0756 J-5.631
G1 Y47.051
G2 X112.6643 Y49.051 I2.0 J0.0
G1 X122.6643
G2 X124.6643 Y47.051 I0.0 J-2.0
G1 Y30.6452
G2 X127.7098 Y27.1227 I-7.0387 J-9.1632
G2 X127.7104 Y27.1216 I-1.7455 J-0.9764
G2 X129.1643 Y21.5227 I-10.0005 J-5.5851
G2 X125.7961 Y13.3911 I-11.4712 J-0.0119
G2 X117.6649 Y10.0227 I-8.1205 J8.1042
G2 X113.2623 Y10.896 I-0.015 J11.4582
G2 X113.2604 Y10.8968 I0.7658 J1.8476
G2 X109.5337 Y13.3902 I4.426 J10.6467
G2 X106.1646 Y21.5227 I8.1003 J8.1198
G2 X106.9069 Y25.5932 I11.4493 J0.0152
G1 F50.0 Z-11.0
G2 F100.0 X107.6185 Y27.1216 I10.7071 J-4.0553
G2 X107.6187 Y27.122 I1.746 J-0.9754
G2 X110.6643 Y30.6454 I10.0756 J-5.631
G1 Y47.051
G2 X112.6643 Y49.051 I2.0 J0.0
G1 X122.6643
G2 X124.6643 Y47.051 I0.0 J-2.0
G1 Y30.6452
G2 X127.7098 Y27.1227 I-7.0387 J-9.1632
G2 X127.7104 Y27.1216 I-1.7455 J-0.9764
G2 X129.1643 Y21.5227 I-10.0005 J-5.5851
G2 X125.7961 Y13.3911 I-11.4712 J-0.0119
G2 X117.6649 Y10.0227 I-8.1205 J8.1042
G2 X113.2623 Y10.896 I-0.015 J11.4582
G2 X113.2604 Y10.8968 I0.7658 J1.8476
G2 X109.5337 Y13.3902 I4.426 J10.6467
G2 X106.1646 Y21.5227 I8.1003 J8.1198
G2 X106.9069 Y25.5932 I11.4493 J0.0152
G0 Z3.0
G0 X128.2861 Y41.8138
G1 F50.0 Z-1.0
G2 F100.0 X127.8794 Y43.0227 I1.5933 J1.2089
G1 Y47.0228
G2 X129.8794 Y49.0228 I2.0 J0.0
G1 X159.9547
G2 X161.9547 Y47.0228 I0.0 J-2.0
G1 Y43.0227
G2 X159.9547 Y41.0227 I-2.0 J0.0
G1 X151.8792
G1 Y26.0225
G2 X149.8792 Y24.0225 I-2.0 J0.0
G1 X139.8791
G2 X137.8791 Y26.0225 I0.0 J2.0
G1 Y41.0227
G1 X129.8794
G2 X128.2861 Y41.8138 I0.0 J2.0
G1 F50.0 Z-2.0
G2 F100.0 X127.8794 Y43.0227 I1.5933 J1.2089
G1 Y47.0228
G2 X129.8794 Y49.0228 I2.0 J0.0
G1 X159.9547
G2 X161.9547 Y47.0228 I0.0 J-2.0
G1 Y43.0227
G2 X159.9547 Y41.0227 I-2.0 J0.0
G1 X151.8792
G1 Y26.0225
G2 X149.8792 Y24.0225 I-2.0 J0.0
G1 X139.8791
G2 X137.8791 Y26.0225 I0.0 J2.0
G1 Y41.0227
G1 X129.8794
G2 X128.2861 Y41.8138 I0.0 J2.0
G1 F50.0 Z-3.0
G2 F100.0 X127.8794 Y43.0227 I1.5933 J1.2089
G1 Y47.0228
G2 X129.8794 Y49.0228 I2.0 J0.0
G1 X159.9547
G2 X161.9547 Y47.0228 I0.0 J-2.0
G1 Y43.0227
G2 X159.9547 Y41.0227 I-2.0 J0.0
G1 X151.8792
G1 Y26.0225
G2 X149.8792 Y24.0225 I-2.0 J0.0
G1 X139.8791
G2 X137.8791 Y26.0225 I0.0 J2.0
G1 Y41.0227
G1 X129.8794
G2 X128.2861 Y41.8138 I0.0 J2.0
G1 F50.0 Z-4.0
G2 F100.0 X127.8794 Y43.0227 I1.5933 J1.2089
G1 Y47.0228
G2 X129.8794 Y49.0228 I2.0 J0.0
G1 X159.9547
G2 X161.9547 Y47.0228 I0.0 J-2.0
G1 Y43.0227
G2 X159.9547 Y41.0227 I-2.0 J0.0
G1 X151.8792
G1 Y26.0225
G2 X149.8792 Y24.0225 I-2.0 J0.0
G1 X139.8791
G2 X137.8791 Y26.0225 I0.0 J2.0
G1 Y41.0227
G1 X129.8794
G2 X128.2861 Y41.8138 I0.0 J2.0
G1 F50.0 Z-5.0
G2 F100.0 X127.8794 Y43.0227 I1.5933 J1.2089
G1 Y47.0228
G2 X129.8794 Y49.0228 I2.0 J0.0
G1 X159.9547
G2 X161.9547 Y47.0228 I0.0 J-2.0
G1 Y43.0227
G2 X159.9547 Y41.0227 I-2.0 J0.0
G1 X151.8792
G1 Y26.0225
G2 X149.8792 Y24.0225 I-2.0 J0.0
G1 X139.8791
G2 X137.8791 Y26.0225 I0.0 J2.0
G1 Y41.0227
G1 X129.8794
G2 X128.2861 Y41.8138 I0.0 J2.0
G1 F50.0 Z-6.0
G2 F100.0 X127.8794 Y43.0227 I1.5933 J1.2089
G1 Y47.0228
G2 X129.8794 Y49.0228 I2.0 J0.0
G1 X159.9547
G2 X161.9547 Y47.0228 I0.0 J-2.0
G1 Y43.0227
G2 X159.9547 Y41.0227 I-2.0 J0.0
G1 X151.8792
G1 Y26.0225
G2 X149.8792 Y24.0225 I-2.0 J0.0
G1 X139.8791
G2 X137.8791 Y26.0225 I0.0 J2.0
G1 Y41.0227
G1 X129.8794
G2 X128.2861 Y41.8138 I0.0 J2.0
G1 F50.0 Z-7.0
G2 F100.0 X127.8794 Y43.0227 I1.5933 J1.2089
G1 Y47.0228
G2 X129.8794 Y49.0228 I2.0 J0.0
G1 X159.9547
G2 X161.9547 Y47.0228 I0.0 J-2.0
G1 Y43.0227
G2 X159.9547 Y41.0227 I-2.0 J0.0
G1 X151.8792
G1 Y26.0225
G2 X149.8792 Y24.0225 I-2.0 J0.0
G1 X139.8791
G2 X137.8791 Y26.0225 I0.0 J2.0
G1 Y41.0227
G1 X129.8794
G2 X128.2861 Y41.8138 I0.0 J2.0
G1 F50.0 Z-8.0
G2 F100.0 X127.8794 Y43.0227 I1.5933 J1.2089
G1 Y47.0228
G2 X129.8794 Y49.0228 I2.0 J0.0
G1 X159.9547
G2 X161.9547 Y47.0228 I0.0 J-2.0
G1 Y43.0227
G2 X159.9547 Y41.0227 I-2.0 J0.0
G1 X151.8792
G1 Y26.0225
G2 X149.8792 Y24.0225 I-2.0 J0.0
G1 X139.8791
G2 X137.8791 Y26.0225 I0.0 J2.0
G1 Y41.0227
G1 X129.8794
G2 X128.2861 Y41.8138 I0.0 J2.0
G1 F50.0 Z-9.0
G2 F100.0 X127.8794 Y43.0227 I1.5933 J1.2089
G1 Y47.0228
G2 X129.8794 Y49.0228 I2.0 J0.0
G1 X159.9547
G2 X161.9547 Y47.0228 I0.0 J-2.0
G1 Y43.0227
G2 X159.9547 Y41.0227 I-2.0 J0.0
G1 X151.8792
G1 Y26.0225
G2 X149.8792 Y24.0225 I-2.0 J0.0
G1 X139.8791
G2 X137.8791 Y26.0225 I0.0 J2.0
G1 Y41.0227
G1 X129.8794
G2 X128.2861 Y41.8138 I0.0 J2.0
G1 F50.0 Z-10.0
G2 F100.0 X127.8794 Y43.0227 I1.5933 J1.2089
G1 Y47.0228
G2 X129.8794 Y49.0228 I2.0 J0.0
G1 X159.9547
G2 X161.9547 Y47.0228 I0.0 J-2.0
G1 Y43.0227
G2 X159.9547 Y41.0227 I-2.0 J0.0
G1 X151.8792
G1 Y26.0225
G2 X149.8792 Y24.0225 I-2.0 J0.0
G1 X139.8791
G2 X137.8791 Y26.0225 I0.0 J2.0
G1 Y41.0227
G1 X129.8794
G2 X128.2861 Y41.8138 I0.0 J2.0
G1 F50.0 Z-11.0
G2 F100.0 X127.8794 Y43.0227 I1.5933 J1.2089
G1 Y47.0228
G2 X129.8794 Y49.0228 I2.0 J0.0
G1 X159.9547
G2 X161.9547 Y47.0228 I0.0 J-2.0
G1 Y43.0227
G2 X159.9547 Y41.0227 I-2.0 J0.0
G1 X151.8792
G1 Y26.0225
G2 X149.8792 Y24.0225 I-2.0 J0.0
G1 X139.8791
G2 X137.8791 Y26.0225 I0.0 J2.0
G1 Y41.0227
G1 X129.8794
G2 X128.2861 Y41.8138 I0.0 J2.0
G0 Z3.0
G0 X155.3224 Y32.6372
G1 F50.0 Z-1.0
G2 F100.0 X157.2162 Y33.9944 I1.8939 J-0.6428
G1 X167.2167
G2 X169.2167 Y31.9944 I0.0 J-2.0
G1 Y11.9944
G2 X167.2167 Y9.9944 I-2.0 J0.0
G1 X157.2162
G2 X155.2162 Y11.9944 I0.0 J2.0
G1 Y31.9944
G2 X155.3224 Y32.6372 I2.0 J0.0
G1 F50.0 Z-2.0
G2 F100.0 X157.2162 Y33.9944 I1.8939 J-0.6428
G1 X167.2167
G2 X169.2167 Y31.9944 I0.0 J-2.0
G1 Y11.9944
G2 X167.2167 Y9.9944 I-2.0 J0.0
G1 X157.2162
G2 X155.2162 Y11.9944 I0.0 J2.0
G1 Y31.9944
G2 X155.3224 Y32.6372 I2.0 J0.0
G1 F50.0 Z-3.0
G2 F100.0 X157.2162 Y33.9944 I1.8939 J-0.6428
G1 X167.2167
G2 X169.2167 Y31.9944 I0.0 J-2.0
G1 Y11.9944
G2 X167.2167 Y9.9944 I-2.0 J0.0
G1 X157.2162
G2 X155.2162 Y11.9944 I0.0 J2.0
G1 Y31.9944
G2 X155.3224 Y32.6372 I2.0 J0.0
G1 F50.0 Z-4.0
G2 F100.0 X157.2162 Y33.9944 I1.8939 J-0.6428
G1 X167.2167
G2 X169.2167 Y31.9944 I0.0 J-2.0
G1 Y11.9944
G2 X167.2167 Y9.9944 I-2.0 J0.0
G1 X157.2162
G2 X155.2162 Y11.9944 I0.0 J2.0
G1 Y31.9944
G2 X155.3224 Y32.6372 I2.0 J0.0
G1 F50.0 Z-5.0
G2 F100.0 X157.2162 Y33.9944 I1.8939 J-0.6428
G1 X167.2167
G2 X169.2167 Y31.9944 I0.0 J-2.0
G1 Y11.9944
G2 X167.2167 Y9.9944 I-2.0 J0.0
G1 X157.2162
G2 X155.2162 Y11.9944 I0.0 J2.0
G1 Y31.9944
G2 X155.3224 Y32.6372 I2.0 J0.0
G1 F50.0 Z-6.0
G2 F100.0 X157.2162 Y33.9944 I1.8939 J-0.6428
G1 X167.2167
G2 X169.2167 Y31.9944 I0.0 J-2.0
G1 Y11.9944
G2 X167.2167 Y9.9944 I-2.0 J0.0
G1 X157.2162
G2 X155.2162 Y11.9944 I0.0 J2.0
G1 Y31.9944
G2 X155.3224 Y32.6372 I2.0 J0.0
G1 F50.0 Z-7.0
G2 F100.0 X157.2162 Y33.9944 I1.8939 J-0.6428
G1 X167.2167
G2 X169.2167 Y31.9944 I0.0 J-2.0
G1 Y11.9944
G2 X167.2167 Y9.9944 I-2.0 J0.0
G1 X157.2162
G2 X155.2162 Y11.9944 I0.0 J2.0
G1 Y31.9944
G2 X155.3224 Y32.6372 I2.0 J0.0
G1 F50.0 Z-8.0
G2 F100.0 X157.2162 Y33.9944 I1.8939 J-0.6428
G1 X167.2167
G2 X169.2167 Y31.9944 I0.0 J-2.0
G1 Y11.9944
G2 X167.2167 Y9.9944 I-2.0 J0.0
G1 X157.2162
G2 X155.2162 Y11.9944 I0.0 J2.0
G1 Y31.9944
G2 X155.3224 Y32.6372 I2.0 J0.0
G1 F50.0 Z-9.0
G2 F100.0 X157.2162 Y33.9944 I1.8939 J-0.6428
G1 X167.2167
G2 X169.2167 Y31.9944 I0.0 J-2.0
G1 Y11.9944
G2 X167.2167 Y9.9944 I-2.0 J0.0
G1 X157.2162
G2 X155.2162 Y11.9944 I0.0 J2.0
G1 Y31.9944
G2 X155.3224 Y32.6372 I2.0 J0.0
G1 F50.0 Z-10.0
G2 F100.0 X157.2162 Y33.9944 I1.8939 J-0.6428
G1 X167.2167
G2 X169.2167 Y31.9944 I0.0 J-2.0
G1 Y11.9944
G2 X167.2167 Y9.9944 I-2.0 J0.0
G1 X157.2162
G2 X155.2162 Y11.9944 I0.0 J2.0
G1 Y31.9944
G2 X155.3224 Y32.6372 I2.0 J0.0
G1 F50.0 Z-11.0
G2 F100.0 X157.2162 Y33.9944 I1.8939 J-0.6428
G1 X167.2167
G2 X169.2167 Y31.9944 I0.0 J-2.0
G1 Y11.9944
G2 X167.2167 Y9.9944 I-2.0 J0.0
G1 X157.2162
G2 X155.2162 Y11.9944 I0.0 J2.0
G1 Y31.9944
G2 X155.3224 Y32.6372 I2.0 J0.0
G0 Z3.0
M5
M30
