( Made using CamBam - http://www.cambam.co.uk )
( pick and place parts - 6mm 9/26/2012 4:56:27 PM )
( T7 : 4.0 )
G21 G90 G91.1 G64 G40
G0 Z3.0
( T7 : 4.0 )
T7 M6
( Centre removal )
G17
M3 S1000
G0 X6.7098 Y23.4881
G1 F50.0 Z-1.0
G3 F100.0 X7.3797 Y23.6237 I0.002 J1.7123
G3 X7.8965 Y23.9879 I-0.586 J1.3802
G3 X8.1092 Y24.3071 I-0.9479 J0.862
G3 X8.2076 Y24.7563 I-0.9707 J0.4482
G2 Y24.7582 I2.0 J0.0018
G1 Y65.2156
G3 X7.9847 Y65.8805 I-1.1143 J-0.0037
G3 X7.3126 Y66.3797 I-1.1861 J-0.8949
G2 X7.31 Y66.3807 I0.6918 J1.8765
G3 X6.7089 Y66.4882 I-0.5998 J-1.6198
G2 X6.7043 I-0.0015 J2.0
G3 X6.0358 Y66.3527 I-0.0027 J-1.7041
G2 X6.0352 Y66.3525 I-0.7813 J1.8411
G3 X5.5188 Y65.9885 I0.5832 J-1.3754
G3 X5.3061 Y65.6692 I0.9453 J-0.8604
G3 X5.2076 Y65.2199 I0.9705 J-0.4483
G2 Y65.2181 I-2.0 J-0.0019
G1 Y24.7598
G3 X5.4298 Y24.0966 I1.108 J0.0024
G3 X6.1031 Y23.5963 I1.1889 J0.897
G2 X6.1095 Y23.594 I-0.6925 J-1.8763
G3 X6.7014 Y23.4881 I0.5868 J1.5734
G2 X6.7098 I0.006 J-2.0
G1 F50.0 Z-2.0
G3 F100.0 X7.3797 Y23.6237 I0.002 J1.7123
G3 X7.8965 Y23.9879 I-0.586 J1.3802
G3 X8.1092 Y24.3071 I-0.9479 J0.862
G3 X8.2076 Y24.7563 I-0.9707 J0.4482
G2 Y24.7582 I2.0 J0.0018
G1 Y65.2156
G3 X7.9847 Y65.8805 I-1.1143 J-0.0037
G3 X7.3126 Y66.3797 I-1.1861 J-0.8949
G2 X7.31 Y66.3807 I0.6918 J1.8765
G3 X6.7089 Y66.4882 I-0.5998 J-1.6198
G2 X6.7043 I-0.0015 J2.0
G3 X6.0358 Y66.3527 I-0.0027 J-1.7041
G2 X6.0352 Y66.3525 I-0.7813 J1.8411
G3 X5.5188 Y65.9885 I0.5832 J-1.3754
G3 X5.3061 Y65.6692 I0.9453 J-0.8604
G3 X5.2076 Y65.2199 I0.9705 J-0.4483
G2 Y65.2181 I-2.0 J-0.0019
G1 Y24.7598
G3 X5.4298 Y24.0966 I1.108 J0.0024
G3 X6.1031 Y23.5963 I1.1889 J0.897
G2 X6.1095 Y23.594 I-0.6925 J-1.8763
G3 X6.7014 Y23.4881 I0.5868 J1.5734
G2 X6.7098 I0.006 J-2.0
G1 F50.0 Z-3.0
G3 F100.0 X7.3797 Y23.6237 I0.002 J1.7123
G3 X7.8965 Y23.9879 I-0.586 J1.3802
G3 X8.1092 Y24.3071 I-0.9479 J0.862
G3 X8.2076 Y24.7563 I-0.9707 J0.4482
G2 Y24.7582 I2.0 J0.0018
G1 Y65.2156
G3 X7.9847 Y65.8805 I-1.1143 J-0.0037
G3 X7.3126 Y66.3797 I-1.1861 J-0.8949
G2 X7.31 Y66.3807 I0.6918 J1.8765
G3 X6.7089 Y66.4882 I-0.5998 J-1.6198
G2 X6.7043 I-0.0015 J2.0
G3 X6.0358 Y66.3527 I-0.0027 J-1.7041
G2 X6.0352 Y66.3525 I-0.7813 J1.8411
G3 X5.5188 Y65.9885 I0.5832 J-1.3754
G3 X5.3061 Y65.6692 I0.9453 J-0.8604
G3 X5.2076 Y65.2199 I0.9705 J-0.4483
G2 Y65.2181 I-2.0 J-0.0019
G1 Y24.7598
G3 X5.4298 Y24.0966 I1.108 J0.0024
G3 X6.1031 Y23.5963 I1.1889 J0.897
G2 X6.1095 Y23.594 I-0.6925 J-1.8763
G3 X6.7014 Y23.4881 I0.5868 J1.5734
G2 X6.7098 I0.006 J-2.0
G1 F50.0 Z-4.0
G3 F100.0 X7.3797 Y23.6237 I0.002 J1.7123
G3 X7.8965 Y23.9879 I-0.586 J1.3802
G3 X8.1092 Y24.3071 I-0.9479 J0.862
G3 X8.2076 Y24.7563 I-0.9707 J0.4482
G2 Y24.7582 I2.0 J0.0018
G1 Y65.2156
G3 X7.9847 Y65.8805 I-1.1143 J-0.0037
G3 X7.3126 Y66.3797 I-1.1861 J-0.8949
G2 X7.31 Y66.3807 I0.6918 J1.8765
G3 X6.7089 Y66.4882 I-0.5998 J-1.6198
G2 X6.7043 I-0.0015 J2.0
G3 X6.0358 Y66.3527 I-0.0027 J-1.7041
G2 X6.0352 Y66.3525 I-0.7813 J1.8411
G3 X5.5188 Y65.9885 I0.5832 J-1.3754
G3 X5.3061 Y65.6692 I0.9453 J-0.8604
G3 X5.2076 Y65.2199 I0.9705 J-0.4483
G2 Y65.2181 I-2.0 J-0.0019
G1 Y24.7598
G3 X5.4298 Y24.0966 I1.108 J0.0024
G3 X6.1031 Y23.5963 I1.1889 J0.897
G2 X6.1095 Y23.594 I-0.6925 J-1.8763
G3 X6.7014 Y23.4881 I0.5868 J1.5734
G2 X6.7098 I0.006 J-2.0
G1 F50.0 Z-5.0
G3 F100.0 X7.3797 Y23.6237 I0.002 J1.7123
G3 X7.8965 Y23.9879 I-0.586 J1.3802
G3 X8.1092 Y24.3071 I-0.9479 J0.862
G3 X8.2076 Y24.7563 I-0.9707 J0.4482
G2 Y24.7582 I2.0 J0.0018
G1 Y65.2156
G3 X7.9847 Y65.8805 I-1.1143 J-0.0037
G3 X7.3126 Y66.3797 I-1.1861 J-0.8949
G2 X7.31 Y66.3807 I0.6918 J1.8765
G3 X6.7089 Y66.4882 I-0.5998 J-1.6198
G2 X6.7043 I-0.0015 J2.0
G3 X6.0358 Y66.3527 I-0.0027 J-1.7041
G2 X6.0352 Y66.3525 I-0.7813 J1.8411
G3 X5.5188 Y65.9885 I0.5832 J-1.3754
G3 X5.3061 Y65.6692 I0.9453 J-0.8604
G3 X5.2076 Y65.2199 I0.9705 J-0.4483
G2 Y65.2181 I-2.0 J-0.0019
G1 Y24.7598
G3 X5.4298 Y24.0966 I1.108 J0.0024
G3 X6.1031 Y23.5963 I1.1889 J0.897
G2 X6.1095 Y23.594 I-0.6925 J-1.8763
G3 X6.7014 Y23.4881 I0.5868 J1.5734
G2 X6.7098 I0.006 J-2.0
G1 F50.0 Z-6.0
G3 F100.0 X7.3797 Y23.6237 I0.002 J1.7123
G3 X7.8965 Y23.9879 I-0.586 J1.3802
G3 X8.1092 Y24.3071 I-0.9479 J0.862
G3 X8.2076 Y24.7563 I-0.9707 J0.4482
G2 Y24.7582 I2.0 J0.0018
G1 Y65.2156
G3 X7.9847 Y65.8805 I-1.1143 J-0.0037
G3 X7.3126 Y66.3797 I-1.1861 J-0.8949
G2 X7.31 Y66.3807 I0.6918 J1.8765
G3 X6.7089 Y66.4882 I-0.5998 J-1.6198
G2 X6.7043 I-0.0015 J2.0
G3 X6.0358 Y66.3527 I-0.0027 J-1.7041
G2 X6.0352 Y66.3525 I-0.7813 J1.8411
G3 X5.5188 Y65.9885 I0.5832 J-1.3754
G3 X5.3061 Y65.6692 I0.9453 J-0.8604
G3 X5.2076 Y65.2199 I0.9705 J-0.4483
G2 Y65.2181 I-2.0 J-0.0019
G1 Y24.7598
G3 X5.4298 Y24.0966 I1.108 J0.0024
G3 X6.1031 Y23.5963 I1.1889 J0.897
G2 X6.1095 Y23.594 I-0.6925 J-1.8763
G3 X6.7014 Y23.4881 I0.5868 J1.5734
G2 X6.7098 I0.006 J-2.0
G1 F50.0 Z-7.0
G3 F100.0 X7.3797 Y23.6237 I0.002 J1.7123
G3 X7.8965 Y23.9879 I-0.586 J1.3802
G3 X8.1092 Y24.3071 I-0.9479 J0.862
G3 X8.2076 Y24.7563 I-0.9707 J0.4482
G2 Y24.7582 I2.0 J0.0018
G1 Y65.2156
G3 X7.9847 Y65.8805 I-1.1143 J-0.0037
G3 X7.3126 Y66.3797 I-1.1861 J-0.8949
G2 X7.31 Y66.3807 I0.6918 J1.8765
G3 X6.7089 Y66.4882 I-0.5998 J-1.6198
G2 X6.7043 I-0.0015 J2.0
G3 X6.0358 Y66.3527 I-0.0027 J-1.7041
G2 X6.0352 Y66.3525 I-0.7813 J1.8411
G3 X5.5188 Y65.9885 I0.5832 J-1.3754
G3 X5.3061 Y65.6692 I0.9453 J-0.8604
G3 X5.2076 Y65.2199 I0.9705 J-0.4483
G2 Y65.2181 I-2.0 J-0.0019
G1 Y24.7598
G3 X5.4298 Y24.0966 I1.108 J0.0024
G3 X6.1031 Y23.5963 I1.1889 J0.897
G2 X6.1095 Y23.594 I-0.6925 J-1.8763
G3 X6.7014 Y23.4881 I0.5868 J1.5734
G2 X6.7098 I0.006 J-2.0
G0 Z3.0
G0 X24.3591 Y24.6872
G1 F50.0 Z-1.0
G3 F100.0 X24.5789 Y24.0966 I1.1055 J0.0751
G3 X25.2521 Y23.5963 I1.1889 J0.897
G2 X25.2585 Y23.594 I-0.6925 J-1.8763
G3 X25.8504 Y23.4881 I0.5868 J1.5734
G2 X25.8589 I0.006 J-2.0
G3 X26.5287 Y23.6237 I0.002 J1.7123
G3 X27.0455 Y23.9879 I-0.586 J1.3802
G3 X27.2582 Y24.3071 I-0.9479 J0.862
G3 X27.3567 Y24.7563 I-0.9707 J0.4482
G2 Y24.7582 I2.0 J0.0018
G1 Y65.2156
G3 X27.1338 Y65.8805 I-1.1143 J-0.0037
G3 X26.4617 Y66.3797 I-1.1861 J-0.8949
G2 X26.459 Y66.3807 I0.6918 J1.8765
G3 X25.8579 Y66.4882 I-0.5998 J-1.6198
G2 X25.8533 I-0.0015 J2.0
G3 X25.1849 Y66.3527 I-0.0027 J-1.7041
G2 X25.1842 Y66.3525 I-0.7813 J1.8411
G3 X24.6679 Y65.9885 I0.5832 J-1.3754
G3 X24.4551 Y65.6692 I0.9453 J-0.8604
G3 X24.3566 Y65.2199 I0.9705 J-0.4483
G2 Y65.2181 I-2.0 J-0.0019
G1 Y24.7598
G3 X24.3591 Y24.6872 I1.108 J0.0024
G1 F50.0 Z-2.0
G3 F100.0 X24.5789 Y24.0966 I1.1055 J0.0751
G3 X25.2521 Y23.5963 I1.1889 J0.897
G2 X25.2585 Y23.594 I-0.6925 J-1.8763
G3 X25.8504 Y23.4881 I0.5868 J1.5734
G2 X25.8589 I0.006 J-2.0
G3 X26.5287 Y23.6237 I0.002 J1.7123
G3 X27.0455 Y23.9879 I-0.586 J1.3802
G3 X27.2582 Y24.3071 I-0.9479 J0.862
G3 X27.3567 Y24.7563 I-0.9707 J0.4482
G2 Y24.7582 I2.0 J0.0018
G1 Y65.2156
G3 X27.1338 Y65.8805 I-1.1143 J-0.0037
G3 X26.4617 Y66.3797 I-1.1861 J-0.8949
G2 X26.459 Y66.3807 I0.6918 J1.8765
G3 X25.8579 Y66.4882 I-0.5998 J-1.6198
G2 X25.8533 I-0.0015 J2.0
G3 X25.1849 Y66.3527 I-0.0027 J-1.7041
G2 X25.1842 Y66.3525 I-0.7813 J1.8411
G3 X24.6679 Y65.9885 I0.5832 J-1.3754
G3 X24.4551 Y65.6692 I0.9453 J-0.8604
G3 X24.3566 Y65.2199 I0.9705 J-0.4483
G2 Y65.2181 I-2.0 J-0.0019
G1 Y24.7598
G3 X24.3591 Y24.6872 I1.108 J0.0024
G1 F50.0 Z-3.0
G3 F100.0 X24.5789 Y24.0966 I1.1055 J0.0751
G3 X25.2521 Y23.5963 I1.1889 J0.897
G2 X25.2585 Y23.594 I-0.6925 J-1.8763
G3 X25.8504 Y23.4881 I0.5868 J1.5734
G2 X25.8589 I0.006 J-2.0
G3 X26.5287 Y23.6237 I0.002 J1.7123
G3 X27.0455 Y23.9879 I-0.586 J1.3802
G3 X27.2582 Y24.3071 I-0.9479 J0.862
G3 X27.3567 Y24.7563 I-0.9707 J0.4482
G2 Y24.7582 I2.0 J0.0018
G1 Y65.2156
G3 X27.1338 Y65.8805 I-1.1143 J-0.0037
G3 X26.4617 Y66.3797 I-1.1861 J-0.8949
G2 X26.459 Y66.3807 I0.6918 J1.8765
G3 X25.8579 Y66.4882 I-0.5998 J-1.6198
G2 X25.8533 I-0.0015 J2.0
G3 X25.1849 Y66.3527 I-0.0027 J-1.7041
G2 X25.1842 Y66.3525 I-0.7813 J1.8411
G3 X24.6679 Y65.9885 I0.5832 J-1.3754
G3 X24.4551 Y65.6692 I0.9453 J-0.8604
G3 X24.3566 Y65.2199 I0.9705 J-0.4483
G2 Y65.2181 I-2.0 J-0.0019
G1 Y24.7598
G3 X24.3591 Y24.6872 I1.108 J0.0024
G1 F50.0 Z-4.0
G3 F100.0 X24.5789 Y24.0966 I1.1055 J0.0751
G3 X25.2521 Y23.5963 I1.1889 J0.897
G2 X25.2585 Y23.594 I-0.6925 J-1.8763
G3 X25.8504 Y23.4881 I0.5868 J1.5734
G2 X25.8589 I0.006 J-2.0
G3 X26.5287 Y23.6237 I0.002 J1.7123
G3 X27.0455 Y23.9879 I-0.586 J1.3802
G3 X27.2582 Y24.3071 I-0.9479 J0.862
G3 X27.3567 Y24.7563 I-0.9707 J0.4482
G2 Y24.7582 I2.0 J0.0018
G1 Y65.2156
G3 X27.1338 Y65.8805 I-1.1143 J-0.0037
G3 X26.4617 Y66.3797 I-1.1861 J-0.8949
G2 X26.459 Y66.3807 I0.6918 J1.8765
G3 X25.8579 Y66.4882 I-0.5998 J-1.6198
G2 X25.8533 I-0.0015 J2.0
G3 X25.1849 Y66.3527 I-0.0027 J-1.7041
G2 X25.1842 Y66.3525 I-0.7813 J1.8411
G3 X24.6679 Y65.9885 I0.5832 J-1.3754
G3 X24.4551 Y65.6692 I0.9453 J-0.8604
G3 X24.3566 Y65.2199 I0.9705 J-0.4483
G2 Y65.2181 I-2.0 J-0.0019
G1 Y24.7598
G3 X24.3591 Y24.6872 I1.108 J0.0024
G1 F50.0 Z-5.0
G3 F100.0 X24.5789 Y24.0966 I1.1055 J0.0751
G3 X25.2521 Y23.5963 I1.1889 J0.897
G2 X25.2585 Y23.594 I-0.6925 J-1.8763
G3 X25.8504 Y23.4881 I0.5868 J1.5734
G2 X25.8589 I0.006 J-2.0
G3 X26.5287 Y23.6237 I0.002 J1.7123
G3 X27.0455 Y23.9879 I-0.586 J1.3802
G3 X27.2582 Y24.3071 I-0.9479 J0.862
G3 X27.3567 Y24.7563 I-0.9707 J0.4482
G2 Y24.7582 I2.0 J0.0018
G1 Y65.2156
G3 X27.1338 Y65.8805 I-1.1143 J-0.0037
G3 X26.4617 Y66.3797 I-1.1861 J-0.8949
G2 X26.459 Y66.3807 I0.6918 J1.8765
G3 X25.8579 Y66.4882 I-0.5998 J-1.6198
G2 X25.8533 I-0.0015 J2.0
G3 X25.1849 Y66.3527 I-0.0027 J-1.7041
G2 X25.1842 Y66.3525 I-0.7813 J1.8411
G3 X24.6679 Y65.9885 I0.5832 J-1.3754
G3 X24.4551 Y65.6692 I0.9453 J-0.8604
G3 X24.3566 Y65.2199 I0.9705 J-0.4483
G2 Y65.2181 I-2.0 J-0.0019
G1 Y24.7598
G3 X24.3591 Y24.6872 I1.108 J0.0024
G1 F50.0 Z-6.0
G3 F100.0 X24.5789 Y24.0966 I1.1055 J0.0751
G3 X25.2521 Y23.5963 I1.1889 J0.897
G2 X25.2585 Y23.594 I-0.6925 J-1.8763
G3 X25.8504 Y23.4881 I0.5868 J1.5734
G2 X25.8589 I0.006 J-2.0
G3 X26.5287 Y23.6237 I0.002 J1.7123
G3 X27.0455 Y23.9879 I-0.586 J1.3802
G3 X27.2582 Y24.3071 I-0.9479 J0.862
G3 X27.3567 Y24.7563 I-0.9707 J0.4482
G2 Y24.7582 I2.0 J0.0018
G1 Y65.2156
G3 X27.1338 Y65.8805 I-1.1143 J-0.0037
G3 X26.4617 Y66.3797 I-1.1861 J-0.8949
G2 X26.459 Y66.3807 I0.6918 J1.8765
G3 X25.8579 Y66.4882 I-0.5998 J-1.6198
G2 X25.8533 I-0.0015 J2.0
G3 X25.1849 Y66.3527 I-0.0027 J-1.7041
G2 X25.1842 Y66.3525 I-0.7813 J1.8411
G3 X24.6679 Y65.9885 I0.5832 J-1.3754
G3 X24.4551 Y65.6692 I0.9453 J-0.8604
G3 X24.3566 Y65.2199 I0.9705 J-0.4483
G2 Y65.2181 I-2.0 J-0.0019
G1 Y24.7598
G3 X24.3591 Y24.6872 I1.108 J0.0024
G1 F50.0 Z-7.0
G3 F100.0 X24.5789 Y24.0966 I1.1055 J0.0751
G3 X25.2521 Y23.5963 I1.1889 J0.897
G2 X25.2585 Y23.594 I-0.6925 J-1.8763
G3 X25.8504 Y23.4881 I0.5868 J1.5734
G2 X25.8589 I0.006 J-2.0
G3 X26.5287 Y23.6237 I0.002 J1.7123
G3 X27.0455 Y23.9879 I-0.586 J1.3802
G3 X27.2582 Y24.3071 I-0.9479 J0.862
G3 X27.3567 Y24.7563 I-0.9707 J0.4482
G2 Y24.7582 I2.0 J0.0018
G1 Y65.2156
G3 X27.1338 Y65.8805 I-1.1143 J-0.0037
G3 X26.4617 Y66.3797 I-1.1861 J-0.8949
G2 X26.459 Y66.3807 I0.6918 J1.8765
G3 X25.8579 Y66.4882 I-0.5998 J-1.6198
G2 X25.8533 I-0.0015 J2.0
G3 X25.1849 Y66.3527 I-0.0027 J-1.7041
G2 X25.1842 Y66.3525 I-0.7813 J1.8411
G3 X24.6679 Y65.9885 I0.5832 J-1.3754
G3 X24.4551 Y65.6692 I0.9453 J-0.8604
G3 X24.3566 Y65.2199 I0.9705 J-0.4483
G2 Y65.2181 I-2.0 J-0.0019
G1 Y24.7598
G3 X24.3591 Y24.6872 I1.108 J0.0024
G0 Z3.0
G0 X43.3572 Y24.7581
G1 F50.0 Z-1.0
G3 F100.0 X43.5794 Y24.0966 I1.108 J0.0041
G3 X44.2527 Y23.5963 I1.1889 J0.897
G2 X44.2591 Y23.594 I-0.6925 J-1.8763
G3 X44.851 Y23.4881 I0.5868 J1.5734
G2 X44.8594 I0.006 J-2.0
G3 X45.5293 Y23.6237 I0.002 J1.7123
G3 X46.0461 Y23.9879 I-0.586 J1.3802
G3 X46.2588 Y24.3071 I-0.9479 J0.862
G3 X46.3573 Y24.7563 I-0.9707 J0.4482
G2 Y24.7582 I2.0 J0.0018
G1 Y65.2156
G3 X46.1343 Y65.8805 I-1.1143 J-0.0037
G3 X45.4622 Y66.3797 I-1.1861 J-0.8949
G2 X45.4596 Y66.3807 I0.6918 J1.8765
G3 X44.8585 Y66.4882 I-0.5998 J-1.6198
G2 X44.8539 I-0.0015 J2.0
G3 X44.1854 Y66.3527 I-0.0027 J-1.7041
G2 X44.1848 Y66.3525 I-0.7813 J1.8411
G3 X43.6684 Y65.9885 I0.5832 J-1.3754
G3 X43.4557 Y65.6692 I0.9453 J-0.8604
G3 X43.3572 Y65.2199 I0.9705 J-0.4483
G2 Y65.2181 I-2.0 J-0.0019
G1 Y24.7598
G3 Y24.7581 I1.108 J0.0024
G1 F50.0 Z-2.0
G3 F100.0 X43.5794 Y24.0966 I1.108 J0.0041
G3 X44.2527 Y23.5963 I1.1889 J0.897
G2 X44.2591 Y23.594 I-0.6925 J-1.8763
G3 X44.851 Y23.4881 I0.5868 J1.5734
G2 X44.8594 I0.006 J-2.0
G3 X45.5293 Y23.6237 I0.002 J1.7123
G3 X46.0461 Y23.9879 I-0.586 J1.3802
G3 X46.2588 Y24.3071 I-0.9479 J0.862
G3 X46.3573 Y24.7563 I-0.9707 J0.4482
G2 Y24.7582 I2.0 J0.0018
G1 Y65.2156
G3 X46.1343 Y65.8805 I-1.1143 J-0.0037
G3 X45.4622 Y66.3797 I-1.1861 J-0.8949
G2 X45.4596 Y66.3807 I0.6918 J1.8765
G3 X44.8585 Y66.4882 I-0.5998 J-1.6198
G2 X44.8539 I-0.0015 J2.0
G3 X44.1854 Y66.3527 I-0.0027 J-1.7041
G2 X44.1848 Y66.3525 I-0.7813 J1.8411
G3 X43.6684 Y65.9885 I0.5832 J-1.3754
G3 X43.4557 Y65.6692 I0.9453 J-0.8604
G3 X43.3572 Y65.2199 I0.9705 J-0.4483
G2 Y65.2181 I-2.0 J-0.0019
G1 Y24.7598
G3 Y24.7581 I1.108 J0.0024
G1 F50.0 Z-3.0
G3 F100.0 X43.5794 Y24.0966 I1.108 J0.0041
G3 X44.2527 Y23.5963 I1.1889 J0.897
G2 X44.2591 Y23.594 I-0.6925 J-1.8763
G3 X44.851 Y23.4881 I0.5868 J1.5734
G2 X44.8594 I0.006 J-2.0
G3 X45.5293 Y23.6237 I0.002 J1.7123
G3 X46.0461 Y23.9879 I-0.586 J1.3802
G3 X46.2588 Y24.3071 I-0.9479 J0.862
G3 X46.3573 Y24.7563 I-0.9707 J0.4482
G2 Y24.7582 I2.0 J0.0018
G1 Y65.2156
G3 X46.1343 Y65.8805 I-1.1143 J-0.0037
G3 X45.4622 Y66.3797 I-1.1861 J-0.8949
G2 X45.4596 Y66.3807 I0.6918 J1.8765
G3 X44.8585 Y66.4882 I-0.5998 J-1.6198
G2 X44.8539 I-0.0015 J2.0
G3 X44.1854 Y66.3527 I-0.0027 J-1.7041
G2 X44.1848 Y66.3525 I-0.7813 J1.8411
G3 X43.6684 Y65.9885 I0.5832 J-1.3754
G3 X43.4557 Y65.6692 I0.9453 J-0.8604
G3 X43.3572 Y65.2199 I0.9705 J-0.4483
G2 Y65.2181 I-2.0 J-0.0019
G1 Y24.7598
G3 Y24.7581 I1.108 J0.0024
G1 F50.0 Z-4.0
G3 F100.0 X43.5794 Y24.0966 I1.108 J0.0041
G3 X44.2527 Y23.5963 I1.1889 J0.897
G2 X44.2591 Y23.594 I-0.6925 J-1.8763
G3 X44.851 Y23.4881 I0.5868 J1.5734
G2 X44.8594 I0.006 J-2.0
G3 X45.5293 Y23.6237 I0.002 J1.7123
G3 X46.0461 Y23.9879 I-0.586 J1.3802
G3 X46.2588 Y24.3071 I-0.9479 J0.862
G3 X46.3573 Y24.7563 I-0.9707 J0.4482
G2 Y24.7582 I2.0 J0.0018
G1 Y65.2156
G3 X46.1343 Y65.8805 I-1.1143 J-0.0037
G3 X45.4622 Y66.3797 I-1.1861 J-0.8949
G2 X45.4596 Y66.3807 I0.6918 J1.8765
G3 X44.8585 Y66.4882 I-0.5998 J-1.6198
G2 X44.8539 I-0.0015 J2.0
G3 X44.1854 Y66.3527 I-0.0027 J-1.7041
G2 X44.1848 Y66.3525 I-0.7813 J1.8411
G3 X43.6684 Y65.9885 I0.5832 J-1.3754
G3 X43.4557 Y65.6692 I0.9453 J-0.8604
G3 X43.3572 Y65.2199 I0.9705 J-0.4483
G2 Y65.2181 I-2.0 J-0.0019
G1 Y24.7598
G3 Y24.7581 I1.108 J0.0024
G1 F50.0 Z-5.0
G3 F100.0 X43.5794 Y24.0966 I1.108 J0.0041
G3 X44.2527 Y23.5963 I1.1889 J0.897
G2 X44.2591 Y23.594 I-0.6925 J-1.8763
G3 X44.851 Y23.4881 I0.5868 J1.5734
G2 X44.8594 I0.006 J-2.0
G3 X45.5293 Y23.6237 I0.002 J1.7123
G3 X46.0461 Y23.9879 I-0.586 J1.3802
G3 X46.2588 Y24.3071 I-0.9479 J0.862
G3 X46.3573 Y24.7563 I-0.9707 J0.4482
G2 Y24.7582 I2.0 J0.0018
G1 Y65.2156
G3 X46.1343 Y65.8805 I-1.1143 J-0.0037
G3 X45.4622 Y66.3797 I-1.1861 J-0.8949
G2 X45.4596 Y66.3807 I0.6918 J1.8765
G3 X44.8585 Y66.4882 I-0.5998 J-1.6198
G2 X44.8539 I-0.0015 J2.0
G3 X44.1854 Y66.3527 I-0.0027 J-1.7041
G2 X44.1848 Y66.3525 I-0.7813 J1.8411
G3 X43.6684 Y65.9885 I0.5832 J-1.3754
G3 X43.4557 Y65.6692 I0.9453 J-0.8604
G3 X43.3572 Y65.2199 I0.9705 J-0.4483
G2 Y65.2181 I-2.0 J-0.0019
G1 Y24.7598
G3 Y24.7581 I1.108 J0.0024
G1 F50.0 Z-6.0
G3 F100.0 X43.5794 Y24.0966 I1.108 J0.0041
G3 X44.2527 Y23.5963 I1.1889 J0.897
G2 X44.2591 Y23.594 I-0.6925 J-1.8763
G3 X44.851 Y23.4881 I0.5868 J1.5734
G2 X44.8594 I0.006 J-2.0
G3 X45.5293 Y23.6237 I0.002 J1.7123
G3 X46.0461 Y23.9879 I-0.586 J1.3802
G3 X46.2588 Y24.3071 I-0.9479 J0.862
G3 X46.3573 Y24.7563 I-0.9707 J0.4482
G2 Y24.7582 I2.0 J0.0018
G1 Y65.2156
G3 X46.1343 Y65.8805 I-1.1143 J-0.0037
G3 X45.4622 Y66.3797 I-1.1861 J-0.8949
G2 X45.4596 Y66.3807 I0.6918 J1.8765
G3 X44.8585 Y66.4882 I-0.5998 J-1.6198
G2 X44.8539 I-0.0015 J2.0
G3 X44.1854 Y66.3527 I-0.0027 J-1.7041
G2 X44.1848 Y66.3525 I-0.7813 J1.8411
G3 X43.6684 Y65.9885 I0.5832 J-1.3754
G3 X43.4557 Y65.6692 I0.9453 J-0.8604
G3 X43.3572 Y65.2199 I0.9705 J-0.4483
G2 Y65.2181 I-2.0 J-0.0019
G1 Y24.7598
G3 Y24.7581 I1.108 J0.0024
G1 F50.0 Z-7.0
G3 F100.0 X43.5794 Y24.0966 I1.108 J0.0041
G3 X44.2527 Y23.5963 I1.1889 J0.897
G2 X44.2591 Y23.594 I-0.6925 J-1.8763
G3 X44.851 Y23.4881 I0.5868 J1.5734
G2 X44.8594 I0.006 J-2.0
G3 X45.5293 Y23.6237 I0.002 J1.7123
G3 X46.0461 Y23.9879 I-0.586 J1.3802
G3 X46.2588 Y24.3071 I-0.9479 J0.862
G3 X46.3573 Y24.7563 I-0.9707 J0.4482
G2 Y24.7582 I2.0 J0.0018
G1 Y65.2156
G3 X46.1343 Y65.8805 I-1.1143 J-0.0037
G3 X45.4622 Y66.3797 I-1.1861 J-0.8949
G2 X45.4596 Y66.3807 I0.6918 J1.8765
G3 X44.8585 Y66.4882 I-0.5998 J-1.6198
G2 X44.8539 I-0.0015 J2.0
G3 X44.1854 Y66.3527 I-0.0027 J-1.7041
G2 X44.1848 Y66.3525 I-0.7813 J1.8411
G3 X43.6684 Y65.9885 I0.5832 J-1.3754
G3 X43.4557 Y65.6692 I0.9453 J-0.8604
G3 X43.3572 Y65.2199 I0.9705 J-0.4483
G2 Y65.2181 I-2.0 J-0.0019
G1 Y24.7598
G3 Y24.7581 I1.108 J0.0024
G0 Z3.0
G0 X62.3252 Y24.7598
G1 F50.0 Z-1.0
G3 F100.0 X62.5475 Y24.0966 I1.108 J0.0024
G3 X63.2207 Y23.5963 I1.1889 J0.897
G2 X63.2271 Y23.594 I-0.6925 J-1.8763
G3 X63.819 Y23.4881 I0.5868 J1.5734
G2 X63.8274 I0.006 J-2.0
G3 X64.4973 Y23.6237 I0.002 J1.7123
G3 X65.0141 Y23.9879 I-0.586 J1.3802
G3 X65.2268 Y24.3071 I-0.9479 J0.862
G3 X65.3253 Y24.7563 I-0.9707 J0.4482
G2 Y24.7582 I2.0 J0.0018
G1 Y65.2156
G3 X65.1024 Y65.8805 I-1.1143 J-0.0037
G3 X64.4303 Y66.3797 I-1.1861 J-0.8949
G2 X64.4276 Y66.3807 I0.6918 J1.8765
G3 X63.8265 Y66.4882 I-0.5998 J-1.6198
G2 X63.8219 I-0.0015 J2.0
G3 X63.1534 Y66.3527 I-0.0027 J-1.7041
G2 X63.1528 Y66.3525 I-0.7813 J1.8411
G3 X62.6364 Y65.9885 I0.5832 J-1.3754
G3 X62.4237 Y65.6692 I0.9453 J-0.8604
G3 X62.3252 Y65.2199 I0.9705 J-0.4483
G2 Y65.2181 I-2.0 J-0.0019
G1 Y24.7598
G1 F50.0 Z-2.0
G3 F100.0 X62.5475 Y24.0966 I1.108 J0.0024
G3 X63.2207 Y23.5963 I1.1889 J0.897
G2 X63.2271 Y23.594 I-0.6925 J-1.8763
G3 X63.819 Y23.4881 I0.5868 J1.5734
G2 X63.8274 I0.006 J-2.0
G3 X64.4973 Y23.6237 I0.002 J1.7123
G3 X65.0141 Y23.9879 I-0.586 J1.3802
G3 X65.2268 Y24.3071 I-0.9479 J0.862
G3 X65.3253 Y24.7563 I-0.9707 J0.4482
G2 Y24.7582 I2.0 J0.0018
G1 Y65.2156
G3 X65.1024 Y65.8805 I-1.1143 J-0.0037
G3 X64.4303 Y66.3797 I-1.1861 J-0.8949
G2 X64.4276 Y66.3807 I0.6918 J1.8765
G3 X63.8265 Y66.4882 I-0.5998 J-1.6198
G2 X63.8219 I-0.0015 J2.0
G3 X63.1534 Y66.3527 I-0.0027 J-1.7041
G2 X63.1528 Y66.3525 I-0.7813 J1.8411
G3 X62.6364 Y65.9885 I0.5832 J-1.3754
G3 X62.4237 Y65.6692 I0.9453 J-0.8604
G3 X62.3252 Y65.2199 I0.9705 J-0.4483
G2 Y65.2181 I-2.0 J-0.0019
G1 Y24.7598
G1 F50.0 Z-3.0
G3 F100.0 X62.5475 Y24.0966 I1.108 J0.0024
G3 X63.2207 Y23.5963 I1.1889 J0.897
G2 X63.2271 Y23.594 I-0.6925 J-1.8763
G3 X63.819 Y23.4881 I0.5868 J1.5734
G2 X63.8274 I0.006 J-2.0
G3 X64.4973 Y23.6237 I0.002 J1.7123
G3 X65.0141 Y23.9879 I-0.586 J1.3802
G3 X65.2268 Y24.3071 I-0.9479 J0.862
G3 X65.3253 Y24.7563 I-0.9707 J0.4482
G2 Y24.7582 I2.0 J0.0018
G1 Y65.2156
G3 X65.1024 Y65.8805 I-1.1143 J-0.0037
G3 X64.4303 Y66.3797 I-1.1861 J-0.8949
G2 X64.4276 Y66.3807 I0.6918 J1.8765
G3 X63.8265 Y66.4882 I-0.5998 J-1.6198
G2 X63.8219 I-0.0015 J2.0
G3 X63.1534 Y66.3527 I-0.0027 J-1.7041
G2 X63.1528 Y66.3525 I-0.7813 J1.8411
G3 X62.6364 Y65.9885 I0.5832 J-1.3754
G3 X62.4237 Y65.6692 I0.9453 J-0.8604
G3 X62.3252 Y65.2199 I0.9705 J-0.4483
G2 Y65.2181 I-2.0 J-0.0019
G1 Y24.7598
G1 F50.0 Z-4.0
G3 F100.0 X62.5475 Y24.0966 I1.108 J0.0024
G3 X63.2207 Y23.5963 I1.1889 J0.897
G2 X63.2271 Y23.594 I-0.6925 J-1.8763
G3 X63.819 Y23.4881 I0.5868 J1.5734
G2 X63.8274 I0.006 J-2.0
G3 X64.4973 Y23.6237 I0.002 J1.7123
G3 X65.0141 Y23.9879 I-0.586 J1.3802
G3 X65.2268 Y24.3071 I-0.9479 J0.862
G3 X65.3253 Y24.7563 I-0.9707 J0.4482
G2 Y24.7582 I2.0 J0.0018
G1 Y65.2156
G3 X65.1024 Y65.8805 I-1.1143 J-0.0037
G3 X64.4303 Y66.3797 I-1.1861 J-0.8949
G2 X64.4276 Y66.3807 I0.6918 J1.8765
G3 X63.8265 Y66.4882 I-0.5998 J-1.6198
G2 X63.8219 I-0.0015 J2.0
G3 X63.1534 Y66.3527 I-0.0027 J-1.7041
G2 X63.1528 Y66.3525 I-0.7813 J1.8411
G3 X62.6364 Y65.9885 I0.5832 J-1.3754
G3 X62.4237 Y65.6692 I0.9453 J-0.8604
G3 X62.3252 Y65.2199 I0.9705 J-0.4483
G2 Y65.2181 I-2.0 J-0.0019
G1 Y24.7598
G1 F50.0 Z-5.0
G3 F100.0 X62.5475 Y24.0966 I1.108 J0.0024
G3 X63.2207 Y23.5963 I1.1889 J0.897
G2 X63.2271 Y23.594 I-0.6925 J-1.8763
G3 X63.819 Y23.4881 I0.5868 J1.5734
G2 X63.8274 I0.006 J-2.0
G3 X64.4973 Y23.6237 I0.002 J1.7123
G3 X65.0141 Y23.9879 I-0.586 J1.3802
G3 X65.2268 Y24.3071 I-0.9479 J0.862
G3 X65.3253 Y24.7563 I-0.9707 J0.4482
G2 Y24.7582 I2.0 J0.0018
G1 Y65.2156
G3 X65.1024 Y65.8805 I-1.1143 J-0.0037
G3 X64.4303 Y66.3797 I-1.1861 J-0.8949
G2 X64.4276 Y66.3807 I0.6918 J1.8765
G3 X63.8265 Y66.4882 I-0.5998 J-1.6198
G2 X63.8219 I-0.0015 J2.0
G3 X63.1534 Y66.3527 I-0.0027 J-1.7041
G2 X63.1528 Y66.3525 I-0.7813 J1.8411
G3 X62.6364 Y65.9885 I0.5832 J-1.3754
G3 X62.4237 Y65.6692 I0.9453 J-0.8604
G3 X62.3252 Y65.2199 I0.9705 J-0.4483
G2 Y65.2181 I-2.0 J-0.0019
G1 Y24.7598
G1 F50.0 Z-6.0
G3 F100.0 X62.5475 Y24.0966 I1.108 J0.0024
G3 X63.2207 Y23.5963 I1.1889 J0.897
G2 X63.2271 Y23.594 I-0.6925 J-1.8763
G3 X63.819 Y23.4881 I0.5868 J1.5734
G2 X63.8274 I0.006 J-2.0
G3 X64.4973 Y23.6237 I0.002 J1.7123
G3 X65.0141 Y23.9879 I-0.586 J1.3802
G3 X65.2268 Y24.3071 I-0.9479 J0.862
G3 X65.3253 Y24.7563 I-0.9707 J0.4482
G2 Y24.7582 I2.0 J0.0018
G1 Y65.2156
G3 X65.1024 Y65.8805 I-1.1143 J-0.0037
G3 X64.4303 Y66.3797 I-1.1861 J-0.8949
G2 X64.4276 Y66.3807 I0.6918 J1.8765
G3 X63.8265 Y66.4882 I-0.5998 J-1.6198
G2 X63.8219 I-0.0015 J2.0
G3 X63.1534 Y66.3527 I-0.0027 J-1.7041
G2 X63.1528 Y66.3525 I-0.7813 J1.8411
G3 X62.6364 Y65.9885 I0.5832 J-1.3754
G3 X62.4237 Y65.6692 I0.9453 J-0.8604
G3 X62.3252 Y65.2199 I0.9705 J-0.4483
G2 Y65.2181 I-2.0 J-0.0019
G1 Y24.7598
G1 F50.0 Z-7.0
G3 F100.0 X62.5475 Y24.0966 I1.108 J0.0024
G3 X63.2207 Y23.5963 I1.1889 J0.897
G2 X63.2271 Y23.594 I-0.6925 J-1.8763
G3 X63.819 Y23.4881 I0.5868 J1.5734
G2 X63.8274 I0.006 J-2.0
G3 X64.4973 Y23.6237 I0.002 J1.7123
G3 X65.0141 Y23.9879 I-0.586 J1.3802
G3 X65.2268 Y24.3071 I-0.9479 J0.862
G3 X65.3253 Y24.7563 I-0.9707 J0.4482
G2 Y24.7582 I2.0 J0.0018
G1 Y65.2156
G3 X65.1024 Y65.8805 I-1.1143 J-0.0037
G3 X64.4303 Y66.3797 I-1.1861 J-0.8949
G2 X64.4276 Y66.3807 I0.6918 J1.8765
G3 X63.8265 Y66.4882 I-0.5998 J-1.6198
G2 X63.8219 I-0.0015 J2.0
G3 X63.1534 Y66.3527 I-0.0027 J-1.7041
G2 X63.1528 Y66.3525 I-0.7813 J1.8411
G3 X62.6364 Y65.9885 I0.5832 J-1.3754
G3 X62.4237 Y65.6692 I0.9453 J-0.8604
G3 X62.3252 Y65.2199 I0.9705 J-0.4483
G2 Y65.2181 I-2.0 J-0.0019
G1 Y24.7598
( Cutout )
S1000
G0 Z3.0
G0 X-1.7711 Y11.8729
G1 F50.0 Z-1.0
G2 F100.0 X-1.7928 Y12.4897 I8.4568 J0.6067
G1 Y77.4513
G2 X-1.7931 Y77.4862 I1.9997 J0.0371
G2 X0.6964 Y83.4986 I8.4817 J0.0096
G2 X6.7074 Y85.9883 I6.001 J-5.9873
G2 X12.7173 Y83.4991 I0.0069 J-8.4827
G2 X15.2073 Y77.4871 I-5.9865 J-6.0011
G1 Y12.5256
G2 X15.2076 Y12.4909 I-1.9997 J-0.0371
G2 X12.718 Y6.4781 I-8.4807 J-0.0104
G2 X6.7073 Y3.9883 I-6.0017 J5.9887
G2 X0.697 Y6.4779 I-0.0078 J8.4807
G2 X-1.7711 Y11.8729 I5.9887 J6.0017
G1 F50.0 Z-2.0
G2 F100.0 X-1.7928 Y12.4897 I8.4568 J0.6067
G1 Y77.4513
G2 X-1.7931 Y77.4862 I1.9997 J0.0371
G2 X0.6964 Y83.4986 I8.4817 J0.0096
G2 X6.7074 Y85.9883 I6.001 J-5.9873
G2 X12.7173 Y83.4991 I0.0069 J-8.4827
G2 X15.2073 Y77.4871 I-5.9865 J-6.0011
G1 Y12.5256
G2 X15.2076 Y12.4909 I-1.9997 J-0.0371
G2 X12.718 Y6.4781 I-8.4807 J-0.0104
G2 X6.7073 Y3.9883 I-6.0017 J5.9887
G2 X0.697 Y6.4779 I-0.0078 J8.4807
G2 X-1.7711 Y11.8729 I5.9887 J6.0017
G1 F50.0 Z-3.0
G2 F100.0 X-1.7928 Y12.4897 I8.4568 J0.6067
G1 Y77.4513
G2 X-1.7931 Y77.4862 I1.9997 J0.0371
G2 X0.6964 Y83.4986 I8.4817 J0.0096
G2 X6.7074 Y85.9883 I6.001 J-5.9873
G2 X12.7173 Y83.4991 I0.0069 J-8.4827
G2 X15.2073 Y77.4871 I-5.9865 J-6.0011
G1 Y12.5256
G2 X15.2076 Y12.4909 I-1.9997 J-0.0371
G2 X12.718 Y6.4781 I-8.4807 J-0.0104
G2 X6.7073 Y3.9883 I-6.0017 J5.9887
G2 X0.697 Y6.4779 I-0.0078 J8.4807
G2 X-1.7711 Y11.8729 I5.9887 J6.0017
G1 F50.0 Z-4.0
G2 F100.0 X-1.7928 Y12.4897 I8.4568 J0.6067
G1 Y77.4513
G2 X-1.7931 Y77.4862 I1.9997 J0.0371
G2 X0.6964 Y83.4986 I8.4817 J0.0096
G2 X6.7074 Y85.9883 I6.001 J-5.9873
G2 X12.7173 Y83.4991 I0.0069 J-8.4827
G2 X15.2073 Y77.4871 I-5.9865 J-6.0011
G1 Y12.5256
G2 X15.2076 Y12.4909 I-1.9997 J-0.0371
G2 X12.718 Y6.4781 I-8.4807 J-0.0104
G2 X6.7073 Y3.9883 I-6.0017 J5.9887
G2 X0.697 Y6.4779 I-0.0078 J8.4807
G2 X-1.7711 Y11.8729 I5.9887 J6.0017
G1 F50.0 Z-5.0
G2 F100.0 X-1.7928 Y12.4897 I8.4568 J0.6067
G1 Y77.4513
G2 X-1.7931 Y77.4862 I1.9997 J0.0371
G2 X0.6964 Y83.4986 I8.4817 J0.0096
G2 X6.7074 Y85.9883 I6.001 J-5.9873
G2 X12.7173 Y83.4991 I0.0069 J-8.4827
G2 X15.2073 Y77.4871 I-5.9865 J-6.0011
G1 Y12.5256
G2 X15.2076 Y12.4909 I-1.9997 J-0.0371
G2 X12.718 Y6.4781 I-8.4807 J-0.0104
G2 X6.7073 Y3.9883 I-6.0017 J5.9887
G2 X0.697 Y6.4779 I-0.0078 J8.4807
G2 X-1.7711 Y11.8729 I5.9887 J6.0017
G1 F50.0 Z-6.0
G2 F100.0 X-1.7928 Y12.4897 I8.4568 J0.6067
G1 Y77.4513
G2 X-1.7931 Y77.4862 I1.9997 J0.0371
G2 X0.6964 Y83.4986 I8.4817 J0.0096
G2 X6.7074 Y85.9883 I6.001 J-5.9873
G2 X12.7173 Y83.4991 I0.0069 J-8.4827
G2 X15.2073 Y77.4871 I-5.9865 J-6.0011
G1 Y12.5256
G2 X15.2076 Y12.4909 I-1.9997 J-0.0371
G2 X12.718 Y6.4781 I-8.4807 J-0.0104
G2 X6.7073 Y3.9883 I-6.0017 J5.9887
G2 X0.697 Y6.4779 I-0.0078 J8.4807
G2 X-1.7711 Y11.8729 I5.9887 J6.0017
G1 F50.0 Z-7.0
G2 F100.0 X-1.7928 Y12.4897 I8.4568 J0.6067
G1 Y77.4513
G2 X-1.7931 Y77.4862 I1.9997 J0.0371
G2 X0.6964 Y83.4986 I8.4817 J0.0096
G2 X6.7074 Y85.9883 I6.001 J-5.9873
G2 X12.7173 Y83.4991 I0.0069 J-8.4827
G2 X15.2073 Y77.4871 I-5.9865 J-6.0011
G1 Y12.5256
G2 X15.2076 Y12.4909 I-1.9997 J-0.0371
G2 X12.718 Y6.4781 I-8.4807 J-0.0104
G2 X6.7073 Y3.9883 I-6.0017 J5.9887
G2 X0.697 Y6.4779 I-0.0078 J8.4807
G2 X-1.7711 Y11.8729 I5.9887 J6.0017
( Cutout1 )
S1000
G0 Z3.0
G0 X17.3563 Y13.0
G1 F50.0 Z-1.0
G1 F100.0 Y77.4513
G2 X17.3559 Y77.4862 I1.9997 J0.0371
G2 X19.8455 Y83.4986 I8.4817 J0.0096
G2 X25.8565 Y85.9883 I6.001 J-5.9873
G2 X31.8663 Y83.4991 I0.0069 J-8.4827
G2 X34.3563 Y77.4871 I-5.9865 J-6.0011
G1 Y12.5256
G2 X34.3567 Y12.4909 I-1.9997 J-0.0371
G2 X31.8671 Y6.4781 I-8.4807 J-0.0104
G2 X25.8563 Y3.9883 I-6.0017 J5.9887
G2 X19.8461 Y6.4779 I-0.0078 J8.4807
G2 X17.3563 Y12.4897 I5.9887 J6.0017
G1 Y13.0
G1 F50.0 Z-2.0
G1 F100.0 Y77.4513
G2 X17.3559 Y77.4862 I1.9997 J0.0371
G2 X19.8455 Y83.4986 I8.4817 J0.0096
G2 X25.8565 Y85.9883 I6.001 J-5.9873
G2 X31.8663 Y83.4991 I0.0069 J-8.4827
G2 X34.3563 Y77.4871 I-5.9865 J-6.0011
G1 Y12.5256
G2 X34.3567 Y12.4909 I-1.9997 J-0.0371
G2 X31.8671 Y6.4781 I-8.4807 J-0.0104
G2 X25.8563 Y3.9883 I-6.0017 J5.9887
G2 X19.8461 Y6.4779 I-0.0078 J8.4807
G2 X17.3563 Y12.4897 I5.9887 J6.0017
G1 Y13.0
G1 F50.0 Z-3.0
G1 F100.0 Y77.4513
G2 X17.3559 Y77.4862 I1.9997 J0.0371
G2 X19.8455 Y83.4986 I8.4817 J0.0096
G2 X25.8565 Y85.9883 I6.001 J-5.9873
G2 X31.8663 Y83.4991 I0.0069 J-8.4827
G2 X34.3563 Y77.4871 I-5.9865 J-6.0011
G1 Y12.5256
G2 X34.3567 Y12.4909 I-1.9997 J-0.0371
G2 X31.8671 Y6.4781 I-8.4807 J-0.0104
G2 X25.8563 Y3.9883 I-6.0017 J5.9887
G2 X19.8461 Y6.4779 I-0.0078 J8.4807
G2 X17.3563 Y12.4897 I5.9887 J6.0017
G1 Y13.0
G1 F50.0 Z-4.0
G1 F100.0 Y77.4513
G2 X17.3559 Y77.4862 I1.9997 J0.0371
G2 X19.8455 Y83.4986 I8.4817 J0.0096
G2 X25.8565 Y85.9883 I6.001 J-5.9873
G2 X31.8663 Y83.4991 I0.0069 J-8.4827
G2 X34.3563 Y77.4871 I-5.9865 J-6.0011
G1 Y12.5256
G2 X34.3567 Y12.4909 I-1.9997 J-0.0371
G2 X31.8671 Y6.4781 I-8.4807 J-0.0104
G2 X25.8563 Y3.9883 I-6.0017 J5.9887
G2 X19.8461 Y6.4779 I-0.0078 J8.4807
G2 X17.3563 Y12.4897 I5.9887 J6.0017
G1 Y13.0
G1 F50.0 Z-5.0
G1 F100.0 Y77.4513
G2 X17.3559 Y77.4862 I1.9997 J0.0371
G2 X19.8455 Y83.4986 I8.4817 J0.0096
G2 X25.8565 Y85.9883 I6.001 J-5.9873
G2 X31.8663 Y83.4991 I0.0069 J-8.4827
G2 X34.3563 Y77.4871 I-5.9865 J-6.0011
G1 Y12.5256
G2 X34.3567 Y12.4909 I-1.9997 J-0.0371
G2 X31.8671 Y6.4781 I-8.4807 J-0.0104
G2 X25.8563 Y3.9883 I-6.0017 J5.9887
G2 X19.8461 Y6.4779 I-0.0078 J8.4807
G2 X17.3563 Y12.4897 I5.9887 J6.0017
G1 Y13.0
G1 F50.0 Z-6.0
G1 F100.0 Y77.4513
G2 X17.3559 Y77.4862 I1.9997 J0.0371
G2 X19.8455 Y83.4986 I8.4817 J0.0096
G2 X25.8565 Y85.9883 I6.001 J-5.9873
G2 X31.8663 Y83.4991 I0.0069 J-8.4827
G2 X34.3563 Y77.4871 I-5.9865 J-6.0011
G1 Y12.5256
G2 X34.3567 Y12.4909 I-1.9997 J-0.0371
G2 X31.8671 Y6.4781 I-8.4807 J-0.0104
G2 X25.8563 Y3.9883 I-6.0017 J5.9887
G2 X19.8461 Y6.4779 I-0.0078 J8.4807
G2 X17.3563 Y12.4897 I5.9887 J6.0017
G1 Y13.0
G1 F50.0 Z-7.0
G1 F100.0 Y77.4513
G2 X17.3559 Y77.4862 I1.9997 J0.0371
G2 X19.8455 Y83.4986 I8.4817 J0.0096
G2 X25.8565 Y85.9883 I6.001 J-5.9873
G2 X31.8663 Y83.4991 I0.0069 J-8.4827
G2 X34.3563 Y77.4871 I-5.9865 J-6.0011
G1 Y12.5256
G2 X34.3567 Y12.4909 I-1.9997 J-0.0371
G2 X31.8671 Y6.4781 I-8.4807 J-0.0104
G2 X25.8563 Y3.9883 I-6.0017 J5.9887
G2 X19.8461 Y6.4779 I-0.0078 J8.4807
G2 X17.3563 Y12.4897 I5.9887 J6.0017
G1 Y13.0
( Cutout2 )
S1000
G0 Z3.0
G0 X36.3568
G1 F50.0 Z-1.0
G1 F100.0 Y77.4513
G2 X36.3565 Y77.4862 I1.9997 J0.0371
G2 X38.846 Y83.4986 I8.4817 J0.0096
G2 X44.8571 Y85.9883 I6.001 J-5.9873
G2 X50.8669 Y83.4991 I0.0069 J-8.4827
G2 X53.3569 Y77.4871 I-5.9865 J-6.0011
G1 Y12.5256
G2 X53.3572 Y12.4909 I-1.9997 J-0.0371
G2 X50.8676 Y6.4781 I-8.4807 J-0.0104
G2 X44.8569 Y3.9883 I-6.0017 J5.9887
G2 X38.8466 Y6.4779 I-0.0078 J8.4807
G2 X36.3568 Y12.4897 I5.9887 J6.0017
G1 Y13.0
G1 F50.0 Z-2.0
G1 F100.0 Y77.4513
G2 X36.3565 Y77.4862 I1.9997 J0.0371
G2 X38.846 Y83.4986 I8.4817 J0.0096
G2 X44.8571 Y85.9883 I6.001 J-5.9873
G2 X50.8669 Y83.4991 I0.0069 J-8.4827
G2 X53.3569 Y77.4871 I-5.9865 J-6.0011
G1 Y12.5256
G2 X53.3572 Y12.4909 I-1.9997 J-0.0371
G2 X50.8676 Y6.4781 I-8.4807 J-0.0104
G2 X44.8569 Y3.9883 I-6.0017 J5.9887
G2 X38.8466 Y6.4779 I-0.0078 J8.4807
G2 X36.3568 Y12.4897 I5.9887 J6.0017
G1 Y13.0
G1 F50.0 Z-3.0
G1 F100.0 Y77.4513
G2 X36.3565 Y77.4862 I1.9997 J0.0371
G2 X38.846 Y83.4986 I8.4817 J0.0096
G2 X44.8571 Y85.9883 I6.001 J-5.9873
G2 X50.8669 Y83.4991 I0.0069 J-8.4827
G2 X53.3569 Y77.4871 I-5.9865 J-6.0011
G1 Y12.5256
G2 X53.3572 Y12.4909 I-1.9997 J-0.0371
G2 X50.8676 Y6.4781 I-8.4807 J-0.0104
G2 X44.8569 Y3.9883 I-6.0017 J5.9887
G2 X38.8466 Y6.4779 I-0.0078 J8.4807
G2 X36.3568 Y12.4897 I5.9887 J6.0017
G1 Y13.0
G1 F50.0 Z-4.0
G1 F100.0 Y77.4513
G2 X36.3565 Y77.4862 I1.9997 J0.0371
G2 X38.846 Y83.4986 I8.4817 J0.0096
G2 X44.8571 Y85.9883 I6.001 J-5.9873
G2 X50.8669 Y83.4991 I0.0069 J-8.4827
G2 X53.3569 Y77.4871 I-5.9865 J-6.0011
G1 Y12.5256
G2 X53.3572 Y12.4909 I-1.9997 J-0.0371
G2 X50.8676 Y6.4781 I-8.4807 J-0.0104
G2 X44.8569 Y3.9883 I-6.0017 J5.9887
G2 X38.8466 Y6.4779 I-0.0078 J8.4807
G2 X36.3568 Y12.4897 I5.9887 J6.0017
G1 Y13.0
G1 F50.0 Z-5.0
G1 F100.0 Y77.4513
G2 X36.3565 Y77.4862 I1.9997 J0.0371
G2 X38.846 Y83.4986 I8.4817 J0.0096
G2 X44.8571 Y85.9883 I6.001 J-5.9873
G2 X50.8669 Y83.4991 I0.0069 J-8.4827
G2 X53.3569 Y77.4871 I-5.9865 J-6.0011
G1 Y12.5256
G2 X53.3572 Y12.4909 I-1.9997 J-0.0371
G2 X50.8676 Y6.4781 I-8.4807 J-0.0104
G2 X44.8569 Y3.9883 I-6.0017 J5.9887
G2 X38.8466 Y6.4779 I-0.0078 J8.4807
G2 X36.3568 Y12.4897 I5.9887 J6.0017
G1 Y13.0
G1 F50.0 Z-6.0
G1 F100.0 Y77.4513
G2 X36.3565 Y77.4862 I1.9997 J0.0371
G2 X38.846 Y83.4986 I8.4817 J0.0096
G2 X44.8571 Y85.9883 I6.001 J-5.9873
G2 X50.8669 Y83.4991 I0.0069 J-8.4827
G2 X53.3569 Y77.4871 I-5.9865 J-6.0011
G1 Y12.5256
G2 X53.3572 Y12.4909 I-1.9997 J-0.0371
G2 X50.8676 Y6.4781 I-8.4807 J-0.0104
G2 X44.8569 Y3.9883 I-6.0017 J5.9887
G2 X38.8466 Y6.4779 I-0.0078 J8.4807
G2 X36.3568 Y12.4897 I5.9887 J6.0017
G1 Y13.0
G1 F50.0 Z-7.0
G1 F100.0 Y77.4513
G2 X36.3565 Y77.4862 I1.9997 J0.0371
G2 X38.846 Y83.4986 I8.4817 J0.0096
G2 X44.8571 Y85.9883 I6.001 J-5.9873
G2 X50.8669 Y83.4991 I0.0069 J-8.4827
G2 X53.3569 Y77.4871 I-5.9865 J-6.0011
G1 Y12.5256
G2 X53.3572 Y12.4909 I-1.9997 J-0.0371
G2 X50.8676 Y6.4781 I-8.4807 J-0.0104
G2 X44.8569 Y3.9883 I-6.0017 J5.9887
G2 X38.8466 Y6.4779 I-0.0078 J8.4807
G2 X36.3568 Y12.4897 I5.9887 J6.0017
G1 Y13.0
( Cutout3 )
S1000
G0 Z3.0
G0 X55.3248
G1 F50.0 Z-1.0
G1 F100.0 Y77.4513
G2 X55.3245 Y77.4862 I1.9997 J0.0371
G2 X57.814 Y83.4986 I8.4817 J0.0096
G2 X63.8251 Y85.9883 I6.001 J-5.9873
G2 X69.8349 Y83.4991 I0.0069 J-8.4827
G2 X72.3249 Y77.4871 I-5.9865 J-6.0011
G1 Y12.5256
G2 X72.3252 Y12.4909 I-1.9997 J-0.0371
G2 X69.8356 Y6.4781 I-8.4807 J-0.0104
G2 X63.8249 Y3.9883 I-6.0017 J5.9887
G2 X57.8147 Y6.4779 I-0.0078 J8.4807
G2 X55.3248 Y12.4897 I5.9887 J6.0017
G1 Y13.0
G1 F50.0 Z-2.0
G1 F100.0 Y77.4513
G2 X55.3245 Y77.4862 I1.9997 J0.0371
G2 X57.814 Y83.4986 I8.4817 J0.0096
G2 X63.8251 Y85.9883 I6.001 J-5.9873
G2 X69.8349 Y83.4991 I0.0069 J-8.4827
G2 X72.3249 Y77.4871 I-5.9865 J-6.0011
G1 Y12.5256
G2 X72.3252 Y12.4909 I-1.9997 J-0.0371
G2 X69.8356 Y6.4781 I-8.4807 J-0.0104
G2 X63.8249 Y3.9883 I-6.0017 J5.9887
G2 X57.8147 Y6.4779 I-0.0078 J8.4807
G2 X55.3248 Y12.4897 I5.9887 J6.0017
G1 Y13.0
G1 F50.0 Z-3.0
G1 F100.0 Y77.4513
G2 X55.3245 Y77.4862 I1.9997 J0.0371
G2 X57.814 Y83.4986 I8.4817 J0.0096
G2 X63.8251 Y85.9883 I6.001 J-5.9873
G2 X69.8349 Y83.4991 I0.0069 J-8.4827
G2 X72.3249 Y77.4871 I-5.9865 J-6.0011
G1 Y12.5256
G2 X72.3252 Y12.4909 I-1.9997 J-0.0371
G2 X69.8356 Y6.4781 I-8.4807 J-0.0104
G2 X63.8249 Y3.9883 I-6.0017 J5.9887
G2 X57.8147 Y6.4779 I-0.0078 J8.4807
G2 X55.3248 Y12.4897 I5.9887 J6.0017
G1 Y13.0
G1 F50.0 Z-4.0
G1 F100.0 Y77.4513
G2 X55.3245 Y77.4862 I1.9997 J0.0371
G2 X57.814 Y83.4986 I8.4817 J0.0096
G2 X63.8251 Y85.9883 I6.001 J-5.9873
G2 X69.8349 Y83.4991 I0.0069 J-8.4827
G2 X72.3249 Y77.4871 I-5.9865 J-6.0011
G1 Y12.5256
G2 X72.3252 Y12.4909 I-1.9997 J-0.0371
G2 X69.8356 Y6.4781 I-8.4807 J-0.0104
G2 X63.8249 Y3.9883 I-6.0017 J5.9887
G2 X57.8147 Y6.4779 I-0.0078 J8.4807
G2 X55.3248 Y12.4897 I5.9887 J6.0017
G1 Y13.0
G1 F50.0 Z-5.0
G1 F100.0 Y77.4513
G2 X55.3245 Y77.4862 I1.9997 J0.0371
G2 X57.814 Y83.4986 I8.4817 J0.0096
G2 X63.8251 Y85.9883 I6.001 J-5.9873
G2 X69.8349 Y83.4991 I0.0069 J-8.4827
G2 X72.3249 Y77.4871 I-5.9865 J-6.0011
G1 Y12.5256
G2 X72.3252 Y12.4909 I-1.9997 J-0.0371
G2 X69.8356 Y6.4781 I-8.4807 J-0.0104
G2 X63.8249 Y3.9883 I-6.0017 J5.9887
G2 X57.8147 Y6.4779 I-0.0078 J8.4807
G2 X55.3248 Y12.4897 I5.9887 J6.0017
G1 Y13.0
G1 F50.0 Z-6.0
G1 F100.0 Y77.4513
G2 X55.3245 Y77.4862 I1.9997 J0.0371
G2 X57.814 Y83.4986 I8.4817 J0.0096
G2 X63.8251 Y85.9883 I6.001 J-5.9873
G2 X69.8349 Y83.4991 I0.0069 J-8.4827
G2 X72.3249 Y77.4871 I-5.9865 J-6.0011
G1 Y12.5256
G2 X72.3252 Y12.4909 I-1.9997 J-0.0371
G2 X69.8356 Y6.4781 I-8.4807 J-0.0104
G2 X63.8249 Y3.9883 I-6.0017 J5.9887
G2 X57.8147 Y6.4779 I-0.0078 J8.4807
G2 X55.3248 Y12.4897 I5.9887 J6.0017
G1 Y13.0
G1 F50.0 Z-7.0
G1 F100.0 Y77.4513
G2 X55.3245 Y77.4862 I1.9997 J0.0371
G2 X57.814 Y83.4986 I8.4817 J0.0096
G2 X63.8251 Y85.9883 I6.001 J-5.9873
G2 X69.8349 Y83.4991 I0.0069 J-8.4827
G2 X72.3249 Y77.4871 I-5.9865 J-6.0011
G1 Y12.5256
G2 X72.3252 Y12.4909 I-1.9997 J-0.0371
G2 X69.8356 Y6.4781 I-8.4807 J-0.0104
G2 X63.8249 Y3.9883 I-6.0017 J5.9887
G2 X57.8147 Y6.4779 I-0.0078 J8.4807
G2 X55.3248 Y12.4897 I5.9887 J6.0017
G1 Y13.0
( Cutout4 )
S1000
G0 Z3.0
G0 X74.3312 Y12.9553
G1 F50.0 Z-1.0
G2 F100.0 X74.3254 Y13.4124 I16.3084 J0.4365
G1 Y76.5655
G2 Y76.5714 I2.0 J0.0
G2 X74.3873 Y77.9988 I17.6928 J-0.0518
G2 X74.3876 Y78.003 I1.993 J-0.1672
G2 X75.7477 Y83.2355 I16.0615 J-1.3817
G1 Y83.2356
G1 X75.7476 Y83.2354
G1 X75.7477 Y83.2355
G2 X77.9084 Y86.7178 I14.1258 J-6.3534
G1 X77.9085 Y86.718
G2 X80.1101 Y88.8939 I11.6119 J-9.547
G2 X84.1882 Y91.1827 I8.891 J-11.0644
G2 X84.1909 Y91.1836 I0.6782 J-1.8815
G2 X88.8258 Y91.9883 I4.6251 J-12.8899
G2 X94.6235 Y90.7059 I0.0018 J-13.7387
G2 X94.6249 Y90.7053 I-0.8437 J-1.8133
G2 X98.2954 Y88.2464 I-6.0849 J-13.0522
G2 X100.4583 Y85.7752 I-10.3577 J-11.2479
G2 X100.4598 Y85.7731 I-1.6377 J-1.148
G2 X102.6057 Y81.3768 I-12.9074 J-9.0222
G1 Y81.3769
G1 Y81.3768
G2 X103.3254 Y76.5642 I-15.5908 J-4.7917
G1 Y13.4111
G2 Y13.4052 I-2.0 J0.0
G2 X103.2635 Y11.9778 I-17.6946 J0.052
G2 X103.2633 Y11.9749 I-1.993 J0.1672
G2 X101.9027 Y6.7403 I-16.0064 J1.3662
G2 X99.7422 Y3.2587 I-14.1304 J6.3577
G2 X99.7419 Y3.2584 I-1.545 J1.27
G2 X97.5404 Y1.0826 I-11.6156 J9.5514
G2 X93.4622 Y-1.2061 I-8.8905 J11.0638
G2 X93.4597 Y-1.207 I-0.6781 J1.8815
G2 X88.8247 Y-2.0117 I-4.6242 J12.8838
G2 X83.0268 Y-0.7292 I-0.0029 J13.7338
G2 X83.0256 Y-0.7287 I0.8439 J1.8132
G2 X79.3552 Y1.7303 I6.0846 J13.0513
G1 X79.3551
G2 X77.1924 Y4.2013 I10.3619 J11.251
G2 X77.1908 Y4.2037 I1.6377 J1.148
G2 X75.0451 Y8.5997 I12.9128 J9.0243
G1 Y8.5998
G2 X74.3312 Y12.9553 I15.5946 J4.792
G1 F50.0 Z-2.0
G2 F100.0 X74.3254 Y13.4124 I16.3084 J0.4365
G1 Y76.5655
G2 Y76.5714 I2.0 J0.0
G2 X74.3873 Y77.9988 I17.6928 J-0.0518
G2 X74.3876 Y78.003 I1.993 J-0.1672
G2 X75.7477 Y83.2355 I16.0615 J-1.3817
G1 Y83.2356
G1 X75.7476 Y83.2354
G1 X75.7477 Y83.2355
G2 X77.9084 Y86.7178 I14.1258 J-6.3534
G1 X77.9085 Y86.718
G2 X80.1101 Y88.8939 I11.6119 J-9.547
G2 X84.1882 Y91.1827 I8.891 J-11.0644
G2 X84.1909 Y91.1836 I0.6782 J-1.8815
G2 X88.8258 Y91.9883 I4.6251 J-12.8899
G2 X94.6235 Y90.7059 I0.0018 J-13.7387
G2 X94.6249 Y90.7053 I-0.8437 J-1.8133
G2 X98.2954 Y88.2464 I-6.0849 J-13.0522
G2 X100.4583 Y85.7752 I-10.3577 J-11.2479
G2 X100.4598 Y85.7731 I-1.6377 J-1.148
G2 X102.6057 Y81.3768 I-12.9074 J-9.0222
G1 Y81.3769
G1 Y81.3768
G2 X103.3254 Y76.5642 I-15.5908 J-4.7917
G1 Y13.4111
G2 Y13.4052 I-2.0 J0.0
G2 X103.2635 Y11.9778 I-17.6946 J0.052
G2 X103.2633 Y11.9749 I-1.993 J0.1672
G2 X101.9027 Y6.7403 I-16.0064 J1.3662
G2 X99.7422 Y3.2587 I-14.1304 J6.3577
G2 X99.7419 Y3.2584 I-1.545 J1.27
G2 X97.5404 Y1.0826 I-11.6156 J9.5514
G2 X93.4622 Y-1.2061 I-8.8905 J11.0638
G2 X93.4597 Y-1.207 I-0.6781 J1.8815
G2 X88.8247 Y-2.0117 I-4.6242 J12.8838
G2 X83.0268 Y-0.7292 I-0.0029 J13.7338
G2 X83.0256 Y-0.7287 I0.8439 J1.8132
G2 X79.3552 Y1.7303 I6.0846 J13.0513
G1 X79.3551
G2 X77.1924 Y4.2013 I10.3619 J11.251
G2 X77.1908 Y4.2037 I1.6377 J1.148
G2 X75.0451 Y8.5997 I12.9128 J9.0243
G1 Y8.5998
G2 X74.3312 Y12.9553 I15.5946 J4.792
G1 F50.0 Z-3.0
G2 F100.0 X74.3254 Y13.4124 I16.3084 J0.4365
G1 Y76.5655
G2 Y76.5714 I2.0 J0.0
G2 X74.3873 Y77.9988 I17.6928 J-0.0518
G2 X74.3876 Y78.003 I1.993 J-0.1672
G2 X75.7477 Y83.2355 I16.0615 J-1.3817
G1 Y83.2356
G1 X75.7476 Y83.2354
G1 X75.7477 Y83.2355
G2 X77.9084 Y86.7178 I14.1258 J-6.3534
G1 X77.9085 Y86.718
G2 X80.1101 Y88.8939 I11.6119 J-9.547
G2 X84.1882 Y91.1827 I8.891 J-11.0644
G2 X84.1909 Y91.1836 I0.6782 J-1.8815
G2 X88.8258 Y91.9883 I4.6251 J-12.8899
G2 X94.6235 Y90.7059 I0.0018 J-13.7387
G2 X94.6249 Y90.7053 I-0.8437 J-1.8133
G2 X98.2954 Y88.2464 I-6.0849 J-13.0522
G2 X100.4583 Y85.7752 I-10.3577 J-11.2479
G2 X100.4598 Y85.7731 I-1.6377 J-1.148
G2 X102.6057 Y81.3768 I-12.9074 J-9.0222
G1 Y81.3769
G1 Y81.3768
G2 X103.3254 Y76.5642 I-15.5908 J-4.7917
G1 Y13.4111
G2 Y13.4052 I-2.0 J0.0
G2 X103.2635 Y11.9778 I-17.6946 J0.052
G2 X103.2633 Y11.9749 I-1.993 J0.1672
G2 X101.9027 Y6.7403 I-16.0064 J1.3662
G2 X99.7422 Y3.2587 I-14.1304 J6.3577
G2 X99.7419 Y3.2584 I-1.545 J1.27
G2 X97.5404 Y1.0826 I-11.6156 J9.5514
G2 X93.4622 Y-1.2061 I-8.8905 J11.0638
G2 X93.4597 Y-1.207 I-0.6781 J1.8815
G2 X88.8247 Y-2.0117 I-4.6242 J12.8838
G2 X83.0268 Y-0.7292 I-0.0029 J13.7338
G2 X83.0256 Y-0.7287 I0.8439 J1.8132
G2 X79.3552 Y1.7303 I6.0846 J13.0513
G1 X79.3551
G2 X77.1924 Y4.2013 I10.3619 J11.251
G2 X77.1908 Y4.2037 I1.6377 J1.148
G2 X75.0451 Y8.5997 I12.9128 J9.0243
G1 Y8.5998
G2 X74.3312 Y12.9553 I15.5946 J4.792
G1 F50.0 Z-4.0
G2 F100.0 X74.3254 Y13.4124 I16.3084 J0.4365
G1 Y76.5655
G2 Y76.5714 I2.0 J0.0
G2 X74.3873 Y77.9988 I17.6928 J-0.0518
G2 X74.3876 Y78.003 I1.993 J-0.1672
G2 X75.7477 Y83.2355 I16.0615 J-1.3817
G1 Y83.2356
G1 X75.7476 Y83.2354
G1 X75.7477 Y83.2355
G2 X77.9084 Y86.7178 I14.1258 J-6.3534
G1 X77.9085 Y86.718
G2 X80.1101 Y88.8939 I11.6119 J-9.547
G2 X84.1882 Y91.1827 I8.891 J-11.0644
G2 X84.1909 Y91.1836 I0.6782 J-1.8815
G2 X88.8258 Y91.9883 I4.6251 J-12.8899
G2 X94.6235 Y90.7059 I0.0018 J-13.7387
G2 X94.6249 Y90.7053 I-0.8437 J-1.8133
G2 X98.2954 Y88.2464 I-6.0849 J-13.0522
G2 X100.4583 Y85.7752 I-10.3577 J-11.2479
G2 X100.4598 Y85.7731 I-1.6377 J-1.148
G2 X102.6057 Y81.3768 I-12.9074 J-9.0222
G1 Y81.3769
G1 Y81.3768
G2 X103.3254 Y76.5642 I-15.5908 J-4.7917
G1 Y13.4111
G2 Y13.4052 I-2.0 J0.0
G2 X103.2635 Y11.9778 I-17.6946 J0.052
G2 X103.2633 Y11.9749 I-1.993 J0.1672
G2 X101.9027 Y6.7403 I-16.0064 J1.3662
G2 X99.7422 Y3.2587 I-14.1304 J6.3577
G2 X99.7419 Y3.2584 I-1.545 J1.27
G2 X97.5404 Y1.0826 I-11.6156 J9.5514
G2 X93.4622 Y-1.2061 I-8.8905 J11.0638
G2 X93.4597 Y-1.207 I-0.6781 J1.8815
G2 X88.8247 Y-2.0117 I-4.6242 J12.8838
G2 X83.0268 Y-0.7292 I-0.0029 J13.7338
G2 X83.0256 Y-0.7287 I0.8439 J1.8132
G2 X79.3552 Y1.7303 I6.0846 J13.0513
G1 X79.3551
G2 X77.1924 Y4.2013 I10.3619 J11.251
G2 X77.1908 Y4.2037 I1.6377 J1.148
G2 X75.0451 Y8.5997 I12.9128 J9.0243
G1 Y8.5998
G2 X74.3312 Y12.9553 I15.5946 J4.792
G1 F50.0 Z-5.0
G2 F100.0 X74.3254 Y13.4124 I16.3084 J0.4365
G1 Y76.5655
G2 Y76.5714 I2.0 J0.0
G2 X74.3873 Y77.9988 I17.6928 J-0.0518
G2 X74.3876 Y78.003 I1.993 J-0.1672
G2 X75.7477 Y83.2355 I16.0615 J-1.3817
G1 Y83.2356
G1 X75.7476 Y83.2354
G1 X75.7477 Y83.2355
G2 X77.9084 Y86.7178 I14.1258 J-6.3534
G1 X77.9085 Y86.718
G2 X80.1101 Y88.8939 I11.6119 J-9.547
G2 X84.1882 Y91.1827 I8.891 J-11.0644
G2 X84.1909 Y91.1836 I0.6782 J-1.8815
G2 X88.8258 Y91.9883 I4.6251 J-12.8899
G2 X94.6235 Y90.7059 I0.0018 J-13.7387
G2 X94.6249 Y90.7053 I-0.8437 J-1.8133
G2 X98.2954 Y88.2464 I-6.0849 J-13.0522
G2 X100.4583 Y85.7752 I-10.3577 J-11.2479
G2 X100.4598 Y85.7731 I-1.6377 J-1.148
G2 X102.6057 Y81.3768 I-12.9074 J-9.0222
G1 Y81.3769
G1 Y81.3768
G2 X103.3254 Y76.5642 I-15.5908 J-4.7917
G1 Y13.4111
G2 Y13.4052 I-2.0 J0.0
G2 X103.2635 Y11.9778 I-17.6946 J0.052
G2 X103.2633 Y11.9749 I-1.993 J0.1672
G2 X101.9027 Y6.7403 I-16.0064 J1.3662
G2 X99.7422 Y3.2587 I-14.1304 J6.3577
G2 X99.7419 Y3.2584 I-1.545 J1.27
G2 X97.5404 Y1.0826 I-11.6156 J9.5514
G2 X93.4622 Y-1.2061 I-8.8905 J11.0638
G2 X93.4597 Y-1.207 I-0.6781 J1.8815
G2 X88.8247 Y-2.0117 I-4.6242 J12.8838
G2 X83.0268 Y-0.7292 I-0.0029 J13.7338
G2 X83.0256 Y-0.7287 I0.8439 J1.8132
G2 X79.3552 Y1.7303 I6.0846 J13.0513
G1 X79.3551
G2 X77.1924 Y4.2013 I10.3619 J11.251
G2 X77.1908 Y4.2037 I1.6377 J1.148
G2 X75.0451 Y8.5997 I12.9128 J9.0243
G1 Y8.5998
G2 X74.3312 Y12.9553 I15.5946 J4.792
G1 F50.0 Z-6.0
G2 F100.0 X74.3254 Y13.4124 I16.3084 J0.4365
G1 Y76.5655
G2 Y76.5714 I2.0 J0.0
G2 X74.3873 Y77.9988 I17.6928 J-0.0518
G2 X74.3876 Y78.003 I1.993 J-0.1672
G2 X75.7477 Y83.2355 I16.0615 J-1.3817
G1 Y83.2356
G1 X75.7476 Y83.2354
G1 X75.7477 Y83.2355
G2 X77.9084 Y86.7178 I14.1258 J-6.3534
G1 X77.9085 Y86.718
G2 X80.1101 Y88.8939 I11.6119 J-9.547
G2 X84.1882 Y91.1827 I8.891 J-11.0644
G2 X84.1909 Y91.1836 I0.6782 J-1.8815
G2 X88.8258 Y91.9883 I4.6251 J-12.8899
G2 X94.6235 Y90.7059 I0.0018 J-13.7387
G2 X94.6249 Y90.7053 I-0.8437 J-1.8133
G2 X98.2954 Y88.2464 I-6.0849 J-13.0522
G2 X100.4583 Y85.7752 I-10.3577 J-11.2479
G2 X100.4598 Y85.7731 I-1.6377 J-1.148
G2 X102.6057 Y81.3768 I-12.9074 J-9.0222
G1 Y81.3769
G1 Y81.3768
G2 X103.3254 Y76.5642 I-15.5908 J-4.7917
G1 Y13.4111
G2 Y13.4052 I-2.0 J0.0
G2 X103.2635 Y11.9778 I-17.6946 J0.052
G2 X103.2633 Y11.9749 I-1.993 J0.1672
G2 X101.9027 Y6.7403 I-16.0064 J1.3662
G2 X99.7422 Y3.2587 I-14.1304 J6.3577
G2 X99.7419 Y3.2584 I-1.545 J1.27
G2 X97.5404 Y1.0826 I-11.6156 J9.5514
G2 X93.4622 Y-1.2061 I-8.8905 J11.0638
G2 X93.4597 Y-1.207 I-0.6781 J1.8815
G2 X88.8247 Y-2.0117 I-4.6242 J12.8838
G2 X83.0268 Y-0.7292 I-0.0029 J13.7338
G2 X83.0256 Y-0.7287 I0.8439 J1.8132
G2 X79.3552 Y1.7303 I6.0846 J13.0513
G1 X79.3551
G2 X77.1924 Y4.2013 I10.3619 J11.251
G2 X77.1908 Y4.2037 I1.6377 J1.148
G2 X75.0451 Y8.5997 I12.9128 J9.0243
G1 Y8.5998
G2 X74.3312 Y12.9553 I15.5946 J4.792
G1 F50.0 Z-7.0
G2 F100.0 X74.3254 Y13.4124 I16.3084 J0.4365
G1 Y76.5655
G2 Y76.5714 I2.0 J0.0
G2 X74.3873 Y77.9988 I17.6928 J-0.0518
G2 X74.3876 Y78.003 I1.993 J-0.1672
G2 X75.7477 Y83.2355 I16.0615 J-1.3817
G1 Y83.2356
G1 X75.7476 Y83.2354
G1 X75.7477 Y83.2355
G2 X77.9084 Y86.7178 I14.1258 J-6.3534
G1 X77.9085 Y86.718
G2 X80.1101 Y88.8939 I11.6119 J-9.547
G2 X84.1882 Y91.1827 I8.891 J-11.0644
G2 X84.1909 Y91.1836 I0.6782 J-1.8815
G2 X88.8258 Y91.9883 I4.6251 J-12.8899
G2 X94.6235 Y90.7059 I0.0018 J-13.7387
G2 X94.6249 Y90.7053 I-0.8437 J-1.8133
G2 X98.2954 Y88.2464 I-6.0849 J-13.0522
G2 X100.4583 Y85.7752 I-10.3577 J-11.2479
G2 X100.4598 Y85.7731 I-1.6377 J-1.148
G2 X102.6057 Y81.3768 I-12.9074 J-9.0222
G1 Y81.3769
G1 Y81.3768
G2 X103.3254 Y76.5642 I-15.5908 J-4.7917
G1 Y13.4111
G2 Y13.4052 I-2.0 J0.0
G2 X103.2635 Y11.9778 I-17.6946 J0.052
G2 X103.2633 Y11.9749 I-1.993 J0.1672
G2 X101.9027 Y6.7403 I-16.0064 J1.3662
G2 X99.7422 Y3.2587 I-14.1304 J6.3577
G2 X99.7419 Y3.2584 I-1.545 J1.27
G2 X97.5404 Y1.0826 I-11.6156 J9.5514
G2 X93.4622 Y-1.2061 I-8.8905 J11.0638
G2 X93.4597 Y-1.207 I-0.6781 J1.8815
G2 X88.8247 Y-2.0117 I-4.6242 J12.8838
G2 X83.0268 Y-0.7292 I-0.0029 J13.7338
G2 X83.0256 Y-0.7287 I0.8439 J1.8132
G2 X79.3552 Y1.7303 I6.0846 J13.0513
G1 X79.3551
G2 X77.1924 Y4.2013 I10.3619 J11.251
G2 X77.1908 Y4.2037 I1.6377 J1.148
G2 X75.0451 Y8.5997 I12.9128 J9.0243
G1 Y8.5998
G2 X74.3312 Y12.9553 I15.5946 J4.792
( Cutout5 )
S1000
G0 Z3.0
G0 X105.3314
G1 F50.0 Z-1.0
G2 F100.0 X105.3256 Y13.4124 I16.3084 J0.4365
G1 Y76.5655
G2 Y76.5714 I2.0 J0.0
G2 X105.3875 Y77.9988 I17.6928 J-0.0518
G2 X105.3878 Y78.003 I1.993 J-0.1672
G2 X106.7478 Y83.2355 I16.0615 J-1.3817
G1 X106.7479 Y83.2356
G1 X106.7478 Y83.2354
G1 Y83.2355
G2 X108.9086 Y86.7178 I14.1258 J-6.3534
G1 X108.9087 Y86.718
G2 X111.1103 Y88.8939 I11.6119 J-9.547
G2 X115.1884 Y91.1827 I8.891 J-11.0644
G2 X115.1911 Y91.1836 I0.6782 J-1.8815
G2 X119.826 Y91.9883 I4.6251 J-12.8899
G2 X125.6237 Y90.7059 I0.0018 J-13.7387
G2 X125.6251 Y90.7053 I-0.8437 J-1.8133
G2 X129.2956 Y88.2464 I-6.0849 J-13.0522
G1 X129.2955
G1 X129.2956
G2 X131.4585 Y85.7752 I-10.3577 J-11.2479
G2 X131.46 Y85.7731 I-1.6377 J-1.148
G2 X133.6059 Y81.3768 I-12.9074 J-9.0222
G1 Y81.3769
G1 Y81.3768
G2 X134.3256 Y76.5642 I-15.5908 J-4.7917
G1 Y13.4111
G2 Y13.4052 I-2.0 J0.0
G2 X134.2637 Y11.9778 I-17.6946 J0.052
G2 X134.2635 Y11.9749 I-1.993 J0.1672
G2 X132.9029 Y6.7403 I-16.0064 J1.3662
G2 X130.7423 Y3.2587 I-14.1304 J6.3577
G2 X130.7421 Y3.2584 I-1.545 J1.27
G2 X128.5406 Y1.0826 I-11.6156 J9.5514
G2 X124.4624 Y-1.2061 I-8.8905 J11.0638
G2 X124.4599 Y-1.207 I-0.6781 J1.8815
G2 X119.8248 Y-2.0117 I-4.6242 J12.8838
G2 X114.027 Y-0.7292 I-0.0029 J13.7338
G2 X114.0258 Y-0.7287 I0.8439 J1.8132
G2 X110.3553 Y1.7303 I6.0846 J13.0513
G2 X108.1926 Y4.2013 I10.3619 J11.251
G2 X108.1909 Y4.2037 I1.6377 J1.148
G2 X106.0453 Y8.5997 I12.9128 J9.0243
G1 X106.0452 Y8.5998
G2 X105.3314 Y12.9553 I15.5946 J4.792
G1 F50.0 Z-2.0
G2 F100.0 X105.3256 Y13.4124 I16.3084 J0.4365
G1 Y76.5655
G2 Y76.5714 I2.0 J0.0
G2 X105.3875 Y77.9988 I17.6928 J-0.0518
G2 X105.3878 Y78.003 I1.993 J-0.1672
G2 X106.7478 Y83.2355 I16.0615 J-1.3817
G1 X106.7479 Y83.2356
G1 X106.7478 Y83.2354
G1 Y83.2355
G2 X108.9086 Y86.7178 I14.1258 J-6.3534
G1 X108.9087 Y86.718
G2 X111.1103 Y88.8939 I11.6119 J-9.547
G2 X115.1884 Y91.1827 I8.891 J-11.0644
G2 X115.1911 Y91.1836 I0.6782 J-1.8815
G2 X119.826 Y91.9883 I4.6251 J-12.8899
G2 X125.6237 Y90.7059 I0.0018 J-13.7387
G2 X125.6251 Y90.7053 I-0.8437 J-1.8133
G2 X129.2956 Y88.2464 I-6.0849 J-13.0522
G1 X129.2955
G1 X129.2956
G2 X131.4585 Y85.7752 I-10.3577 J-11.2479
G2 X131.46 Y85.7731 I-1.6377 J-1.148
G2 X133.6059 Y81.3768 I-12.9074 J-9.0222
G1 Y81.3769
G1 Y81.3768
G2 X134.3256 Y76.5642 I-15.5908 J-4.7917
G1 Y13.4111
G2 Y13.4052 I-2.0 J0.0
G2 X134.2637 Y11.9778 I-17.6946 J0.052
G2 X134.2635 Y11.9749 I-1.993 J0.1672
G2 X132.9029 Y6.7403 I-16.0064 J1.3662
G2 X130.7423 Y3.2587 I-14.1304 J6.3577
G2 X130.7421 Y3.2584 I-1.545 J1.27
G2 X128.5406 Y1.0826 I-11.6156 J9.5514
G2 X124.4624 Y-1.2061 I-8.8905 J11.0638
G2 X124.4599 Y-1.207 I-0.6781 J1.8815
G2 X119.8248 Y-2.0117 I-4.6242 J12.8838
G2 X114.027 Y-0.7292 I-0.0029 J13.7338
G2 X114.0258 Y-0.7287 I0.8439 J1.8132
G2 X110.3553 Y1.7303 I6.0846 J13.0513
G2 X108.1926 Y4.2013 I10.3619 J11.251
G2 X108.1909 Y4.2037 I1.6377 J1.148
G2 X106.0453 Y8.5997 I12.9128 J9.0243
G1 X106.0452 Y8.5998
G2 X105.3314 Y12.9553 I15.5946 J4.792
G1 F50.0 Z-3.0
G2 F100.0 X105.3256 Y13.4124 I16.3084 J0.4365
G1 Y76.5655
G2 Y76.5714 I2.0 J0.0
G2 X105.3875 Y77.9988 I17.6928 J-0.0518
G2 X105.3878 Y78.003 I1.993 J-0.1672
G2 X106.7478 Y83.2355 I16.0615 J-1.3817
G1 X106.7479 Y83.2356
G1 X106.7478 Y83.2354
G1 Y83.2355
G2 X108.9086 Y86.7178 I14.1258 J-6.3534
G1 X108.9087 Y86.718
G2 X111.1103 Y88.8939 I11.6119 J-9.547
G2 X115.1884 Y91.1827 I8.891 J-11.0644
G2 X115.1911 Y91.1836 I0.6782 J-1.8815
G2 X119.826 Y91.9883 I4.6251 J-12.8899
G2 X125.6237 Y90.7059 I0.0018 J-13.7387
G2 X125.6251 Y90.7053 I-0.8437 J-1.8133
G2 X129.2956 Y88.2464 I-6.0849 J-13.0522
G1 X129.2955
G1 X129.2956
G2 X131.4585 Y85.7752 I-10.3577 J-11.2479
G2 X131.46 Y85.7731 I-1.6377 J-1.148
G2 X133.6059 Y81.3768 I-12.9074 J-9.0222
G1 Y81.3769
G1 Y81.3768
G2 X134.3256 Y76.5642 I-15.5908 J-4.7917
G1 Y13.4111
G2 Y13.4052 I-2.0 J0.0
G2 X134.2637 Y11.9778 I-17.6946 J0.052
G2 X134.2635 Y11.9749 I-1.993 J0.1672
G2 X132.9029 Y6.7403 I-16.0064 J1.3662
G2 X130.7423 Y3.2587 I-14.1304 J6.3577
G2 X130.7421 Y3.2584 I-1.545 J1.27
G2 X128.5406 Y1.0826 I-11.6156 J9.5514
G2 X124.4624 Y-1.2061 I-8.8905 J11.0638
G2 X124.4599 Y-1.207 I-0.6781 J1.8815
G2 X119.8248 Y-2.0117 I-4.6242 J12.8838
G2 X114.027 Y-0.7292 I-0.0029 J13.7338
G2 X114.0258 Y-0.7287 I0.8439 J1.8132
G2 X110.3553 Y1.7303 I6.0846 J13.0513
G2 X108.1926 Y4.2013 I10.3619 J11.251
G2 X108.1909 Y4.2037 I1.6377 J1.148
G2 X106.0453 Y8.5997 I12.9128 J9.0243
G1 X106.0452 Y8.5998
G2 X105.3314 Y12.9553 I15.5946 J4.792
G1 F50.0 Z-4.0
G2 F100.0 X105.3256 Y13.4124 I16.3084 J0.4365
G1 Y76.5655
G2 Y76.5714 I2.0 J0.0
G2 X105.3875 Y77.9988 I17.6928 J-0.0518
G2 X105.3878 Y78.003 I1.993 J-0.1672
G2 X106.7478 Y83.2355 I16.0615 J-1.3817
G1 X106.7479 Y83.2356
G1 X106.7478 Y83.2354
G1 Y83.2355
G2 X108.9086 Y86.7178 I14.1258 J-6.3534
G1 X108.9087 Y86.718
G2 X111.1103 Y88.8939 I11.6119 J-9.547
G2 X115.1884 Y91.1827 I8.891 J-11.0644
G2 X115.1911 Y91.1836 I0.6782 J-1.8815
G2 X119.826 Y91.9883 I4.6251 J-12.8899
G2 X125.6237 Y90.7059 I0.0018 J-13.7387
G2 X125.6251 Y90.7053 I-0.8437 J-1.8133
G2 X129.2956 Y88.2464 I-6.0849 J-13.0522
G1 X129.2955
G1 X129.2956
G2 X131.4585 Y85.7752 I-10.3577 J-11.2479
G2 X131.46 Y85.7731 I-1.6377 J-1.148
G2 X133.6059 Y81.3768 I-12.9074 J-9.0222
G1 Y81.3769
G1 Y81.3768
G2 X134.3256 Y76.5642 I-15.5908 J-4.7917
G1 Y13.4111
G2 Y13.4052 I-2.0 J0.0
G2 X134.2637 Y11.9778 I-17.6946 J0.052
G2 X134.2635 Y11.9749 I-1.993 J0.1672
G2 X132.9029 Y6.7403 I-16.0064 J1.3662
G2 X130.7423 Y3.2587 I-14.1304 J6.3577
G2 X130.7421 Y3.2584 I-1.545 J1.27
G2 X128.5406 Y1.0826 I-11.6156 J9.5514
G2 X124.4624 Y-1.2061 I-8.8905 J11.0638
G2 X124.4599 Y-1.207 I-0.6781 J1.8815
G2 X119.8248 Y-2.0117 I-4.6242 J12.8838
G2 X114.027 Y-0.7292 I-0.0029 J13.7338
G2 X114.0258 Y-0.7287 I0.8439 J1.8132
G2 X110.3553 Y1.7303 I6.0846 J13.0513
G2 X108.1926 Y4.2013 I10.3619 J11.251
G2 X108.1909 Y4.2037 I1.6377 J1.148
G2 X106.0453 Y8.5997 I12.9128 J9.0243
G1 X106.0452 Y8.5998
G2 X105.3314 Y12.9553 I15.5946 J4.792
G1 F50.0 Z-5.0
G2 F100.0 X105.3256 Y13.4124 I16.3084 J0.4365
G1 Y76.5655
G2 Y76.5714 I2.0 J0.0
G2 X105.3875 Y77.9988 I17.6928 J-0.0518
G2 X105.3878 Y78.003 I1.993 J-0.1672
G2 X106.7478 Y83.2355 I16.0615 J-1.3817
G1 X106.7479 Y83.2356
G1 X106.7478 Y83.2354
G1 Y83.2355
G2 X108.9086 Y86.7178 I14.1258 J-6.3534
G1 X108.9087 Y86.718
G2 X111.1103 Y88.8939 I11.6119 J-9.547
G2 X115.1884 Y91.1827 I8.891 J-11.0644
G2 X115.1911 Y91.1836 I0.6782 J-1.8815
G2 X119.826 Y91.9883 I4.6251 J-12.8899
G2 X125.6237 Y90.7059 I0.0018 J-13.7387
G2 X125.6251 Y90.7053 I-0.8437 J-1.8133
G2 X129.2956 Y88.2464 I-6.0849 J-13.0522
G1 X129.2955
G1 X129.2956
G2 X131.4585 Y85.7752 I-10.3577 J-11.2479
G2 X131.46 Y85.7731 I-1.6377 J-1.148
G2 X133.6059 Y81.3768 I-12.9074 J-9.0222
G1 Y81.3769
G1 Y81.3768
G2 X134.3256 Y76.5642 I-15.5908 J-4.7917
G1 Y13.4111
G2 Y13.4052 I-2.0 J0.0
G2 X134.2637 Y11.9778 I-17.6946 J0.052
G2 X134.2635 Y11.9749 I-1.993 J0.1672
G2 X132.9029 Y6.7403 I-16.0064 J1.3662
G2 X130.7423 Y3.2587 I-14.1304 J6.3577
G2 X130.7421 Y3.2584 I-1.545 J1.27
G2 X128.5406 Y1.0826 I-11.6156 J9.5514
G2 X124.4624 Y-1.2061 I-8.8905 J11.0638
G2 X124.4599 Y-1.207 I-0.6781 J1.8815
G2 X119.8248 Y-2.0117 I-4.6242 J12.8838
G2 X114.027 Y-0.7292 I-0.0029 J13.7338
G2 X114.0258 Y-0.7287 I0.8439 J1.8132
G2 X110.3553 Y1.7303 I6.0846 J13.0513
G2 X108.1926 Y4.2013 I10.3619 J11.251
G2 X108.1909 Y4.2037 I1.6377 J1.148
G2 X106.0453 Y8.5997 I12.9128 J9.0243
G1 X106.0452 Y8.5998
G2 X105.3314 Y12.9553 I15.5946 J4.792
G1 F50.0 Z-6.0
G2 F100.0 X105.3256 Y13.4124 I16.3084 J0.4365
G1 Y76.5655
G2 Y76.5714 I2.0 J0.0
G2 X105.3875 Y77.9988 I17.6928 J-0.0518
G2 X105.3878 Y78.003 I1.993 J-0.1672
G2 X106.7478 Y83.2355 I16.0615 J-1.3817
G1 X106.7479 Y83.2356
G1 X106.7478 Y83.2354
G1 Y83.2355
G2 X108.9086 Y86.7178 I14.1258 J-6.3534
G1 X108.9087 Y86.718
G2 X111.1103 Y88.8939 I11.6119 J-9.547
G2 X115.1884 Y91.1827 I8.891 J-11.0644
G2 X115.1911 Y91.1836 I0.6782 J-1.8815
G2 X119.826 Y91.9883 I4.6251 J-12.8899
G2 X125.6237 Y90.7059 I0.0018 J-13.7387
G2 X125.6251 Y90.7053 I-0.8437 J-1.8133
G2 X129.2956 Y88.2464 I-6.0849 J-13.0522
G1 X129.2955
G1 X129.2956
G2 X131.4585 Y85.7752 I-10.3577 J-11.2479
G2 X131.46 Y85.7731 I-1.6377 J-1.148
G2 X133.6059 Y81.3768 I-12.9074 J-9.0222
G1 Y81.3769
G1 Y81.3768
G2 X134.3256 Y76.5642 I-15.5908 J-4.7917
G1 Y13.4111
G2 Y13.4052 I-2.0 J0.0
G2 X134.2637 Y11.9778 I-17.6946 J0.052
G2 X134.2635 Y11.9749 I-1.993 J0.1672
G2 X132.9029 Y6.7403 I-16.0064 J1.3662
G2 X130.7423 Y3.2587 I-14.1304 J6.3577
G2 X130.7421 Y3.2584 I-1.545 J1.27
G2 X128.5406 Y1.0826 I-11.6156 J9.5514
G2 X124.4624 Y-1.2061 I-8.8905 J11.0638
G2 X124.4599 Y-1.207 I-0.6781 J1.8815
G2 X119.8248 Y-2.0117 I-4.6242 J12.8838
G2 X114.027 Y-0.7292 I-0.0029 J13.7338
G2 X114.0258 Y-0.7287 I0.8439 J1.8132
G2 X110.3553 Y1.7303 I6.0846 J13.0513
G2 X108.1926 Y4.2013 I10.3619 J11.251
G2 X108.1909 Y4.2037 I1.6377 J1.148
G2 X106.0453 Y8.5997 I12.9128 J9.0243
G1 X106.0452 Y8.5998
G2 X105.3314 Y12.9553 I15.5946 J4.792
G1 F50.0 Z-7.0
G2 F100.0 X105.3256 Y13.4124 I16.3084 J0.4365
G1 Y76.5655
G2 Y76.5714 I2.0 J0.0
G2 X105.3875 Y77.9988 I17.6928 J-0.0518
G2 X105.3878 Y78.003 I1.993 J-0.1672
G2 X106.7478 Y83.2355 I16.0615 J-1.3817
G1 X106.7479 Y83.2356
G1 X106.7478 Y83.2354
G1 Y83.2355
G2 X108.9086 Y86.7178 I14.1258 J-6.3534
G1 X108.9087 Y86.718
G2 X111.1103 Y88.8939 I11.6119 J-9.547
G2 X115.1884 Y91.1827 I8.891 J-11.0644
G2 X115.1911 Y91.1836 I0.6782 J-1.8815
G2 X119.826 Y91.9883 I4.6251 J-12.8899
G2 X125.6237 Y90.7059 I0.0018 J-13.7387
G2 X125.6251 Y90.7053 I-0.8437 J-1.8133
G2 X129.2956 Y88.2464 I-6.0849 J-13.0522
G1 X129.2955
G1 X129.2956
G2 X131.4585 Y85.7752 I-10.3577 J-11.2479
G2 X131.46 Y85.7731 I-1.6377 J-1.148
G2 X133.6059 Y81.3768 I-12.9074 J-9.0222
G1 Y81.3769
G1 Y81.3768
G2 X134.3256 Y76.5642 I-15.5908 J-4.7917
G1 Y13.4111
G2 Y13.4052 I-2.0 J0.0
G2 X134.2637 Y11.9778 I-17.6946 J0.052
G2 X134.2635 Y11.9749 I-1.993 J0.1672
G2 X132.9029 Y6.7403 I-16.0064 J1.3662
G2 X130.7423 Y3.2587 I-14.1304 J6.3577
G2 X130.7421 Y3.2584 I-1.545 J1.27
G2 X128.5406 Y1.0826 I-11.6156 J9.5514
G2 X124.4624 Y-1.2061 I-8.8905 J11.0638
G2 X124.4599 Y-1.207 I-0.6781 J1.8815
G2 X119.8248 Y-2.0117 I-4.6242 J12.8838
G2 X114.027 Y-0.7292 I-0.0029 J13.7338
G2 X114.0258 Y-0.7287 I0.8439 J1.8132
G2 X110.3553 Y1.7303 I6.0846 J13.0513
G2 X108.1926 Y4.2013 I10.3619 J11.251
G2 X108.1909 Y4.2037 I1.6377 J1.148
G2 X106.0453 Y8.5997 I12.9128 J9.0243
G1 X106.0452 Y8.5998
G2 X105.3314 Y12.9553 I15.5946 J4.792
G0 Z3.0
M5
M30
