( Made using CamBam - http://www.cambam.co.uk )
( stepper mounts - motor 9/20/2013 12:15:09 PM )
( T16 : 1.0 )
G21 G90 G64 G40
G0 Z3.0
( T16 : 1.0 )
T16 M6
( Spot Drill )
G17
M3 S1000
G0 X5.5002 Y24.086
G98
G81 X5.5002 Y24.086 Z-1.0 R3.0 F50.0
G81 Y55.0858 Z-1.0
G81 X36.5002 Z-1.0
G81 X54.0002 Y39.5865 Z-1.0
G81 X36.5002 Y24.0862 Z-1.0
G81 X54.0002 Y7.5299 Z-1.0
G81 Y71.6421 Z-1.0
G80
G0 Z3.0
M5
M30
