( Made using CamBam - http://www.cambam.co.uk )
( stepper mounts - motor 9/20/2013 12:15:36 PM )
( T4 : 4.0 )
G21 G90 G64 G40
G0 Z3.0
( T4 : 4.0 )
T4 M6
( Profile1 )
G17
M3 S1000
G0 X33.0001 Y39.5893
G0 Z1.0
G1 F50.0 Z-1.0
G3 F120.0 X32.0904 Y44.1788 I-11.9404 J0.0182
G3 X29.4862 Y48.0705 I-11.0883 J-4.6028
G2 X29.4835 Y48.0732 I1.4134 J1.4151
G3 X21.0029 Y51.5861 I-8.4649 J-8.4425
G2 X20.9971 I-0.0026 J2.0
G3 X14.3343 Y49.5661 I-0.0191 J-11.9354
G2 X14.3333 Y49.5654 I-1.1133 J1.6615
G3 X9.9099 Y44.179 I6.6981 J-10.01
G3 X9.0001 Y39.5882 I11.0664 J-4.5786
G2 Y39.5835 I-2.0 J-0.002
G3 X9.9099 Y34.9933 I11.9534 J-0.0161
G3 X12.5141 Y31.1018 I11.0907 J4.6047
G2 X12.5167 Y31.0991 I-1.4134 J-1.415
G3 X20.9977 Y27.5864 I8.4653 J8.4438
G2 X21.0036 I0.0026 J-2.0
G3 X27.666 Y29.6063 I0.0198 J11.9321
G2 X27.6667 Y29.6067 I1.1134 J-1.6614
G3 X32.0906 Y34.9939 I-6.7086 J10.0191
G3 X33.0001 Y39.5838 I-11.0543 J4.5756
G2 Y39.5893 I2.0 J0.0024
G1 F50.0 Z-2.0
G3 F120.0 X32.0904 Y44.1788 I-11.9404 J0.0182
G3 X29.4862 Y48.0705 I-11.0883 J-4.6028
G2 X29.4835 Y48.0732 I1.4134 J1.4151
G3 X21.0029 Y51.5861 I-8.4649 J-8.4425
G2 X20.9971 I-0.0026 J2.0
G3 X14.3343 Y49.5661 I-0.0191 J-11.9354
G2 X14.3333 Y49.5654 I-1.1133 J1.6615
G3 X9.9099 Y44.179 I6.6981 J-10.01
G3 X9.0001 Y39.5882 I11.0664 J-4.5786
G2 Y39.5835 I-2.0 J-0.002
G3 X9.9099 Y34.9933 I11.9534 J-0.0161
G3 X12.5141 Y31.1018 I11.0907 J4.6047
G2 X12.5167 Y31.0991 I-1.4134 J-1.415
G3 X20.9977 Y27.5864 I8.4653 J8.4438
G2 X21.0036 I0.0026 J-2.0
G3 X27.666 Y29.6063 I0.0198 J11.9321
G2 X27.6667 Y29.6067 I1.1134 J-1.6614
G3 X32.0906 Y34.9939 I-6.7086 J10.0191
G3 X33.0001 Y39.5838 I-11.0543 J4.5756
G2 Y39.5893 I2.0 J0.0024
G1 F50.0 Z-3.0
G3 F120.0 X32.0904 Y44.1788 I-11.9404 J0.0182
G3 X29.4862 Y48.0705 I-11.0883 J-4.6028
G2 X29.4835 Y48.0732 I1.4134 J1.4151
G3 X21.0029 Y51.5861 I-8.4649 J-8.4425
G2 X20.9971 I-0.0026 J2.0
G3 X14.3343 Y49.5661 I-0.0191 J-11.9354
G2 X14.3333 Y49.5654 I-1.1133 J1.6615
G3 X9.9099 Y44.179 I6.6981 J-10.01
G3 X9.0001 Y39.5882 I11.0664 J-4.5786
G2 Y39.5835 I-2.0 J-0.002
G3 X9.9099 Y34.9933 I11.9534 J-0.0161
G3 X12.5141 Y31.1018 I11.0907 J4.6047
G2 X12.5167 Y31.0991 I-1.4134 J-1.415
G3 X20.9977 Y27.5864 I8.4653 J8.4438
G2 X21.0036 I0.0026 J-2.0
G3 X27.666 Y29.6063 I0.0198 J11.9321
G2 X27.6667 Y29.6067 I1.1134 J-1.6614
G3 X32.0906 Y34.9939 I-6.7086 J10.0191
G3 X33.0001 Y39.5838 I-11.0543 J4.5756
G2 Y39.5893 I2.0 J0.0024
G1 F50.0 Z-4.0
G3 F120.0 X32.0904 Y44.1788 I-11.9404 J0.0182
G3 X29.4862 Y48.0705 I-11.0883 J-4.6028
G2 X29.4835 Y48.0732 I1.4134 J1.4151
G3 X21.0029 Y51.5861 I-8.4649 J-8.4425
G2 X20.9971 I-0.0026 J2.0
G3 X14.3343 Y49.5661 I-0.0191 J-11.9354
G2 X14.3333 Y49.5654 I-1.1133 J1.6615
G3 X9.9099 Y44.179 I6.6981 J-10.01
G3 X9.0001 Y39.5882 I11.0664 J-4.5786
G2 Y39.5835 I-2.0 J-0.002
G3 X9.9099 Y34.9933 I11.9534 J-0.0161
G3 X12.5141 Y31.1018 I11.0907 J4.6047
G2 X12.5167 Y31.0991 I-1.4134 J-1.415
G3 X20.9977 Y27.5864 I8.4653 J8.4438
G2 X21.0036 I0.0026 J-2.0
G3 X27.666 Y29.6063 I0.0198 J11.9321
G2 X27.6667 Y29.6067 I1.1134 J-1.6614
G3 X32.0906 Y34.9939 I-6.7086 J10.0191
G3 X33.0001 Y39.5838 I-11.0543 J4.5756
G2 Y39.5893 I2.0 J0.0024
G1 F50.0 Z-5.0
G3 F120.0 X32.0904 Y44.1788 I-11.9404 J0.0182
G3 X29.4862 Y48.0705 I-11.0883 J-4.6028
G2 X29.4835 Y48.0732 I1.4134 J1.4151
G3 X21.0029 Y51.5861 I-8.4649 J-8.4425
G2 X20.9971 I-0.0026 J2.0
G3 X14.3343 Y49.5661 I-0.0191 J-11.9354
G2 X14.3333 Y49.5654 I-1.1133 J1.6615
G3 X9.9099 Y44.179 I6.6981 J-10.01
G3 X9.0001 Y39.5882 I11.0664 J-4.5786
G2 Y39.5835 I-2.0 J-0.002
G3 X9.9099 Y34.9933 I11.9534 J-0.0161
G3 X12.5141 Y31.1018 I11.0907 J4.6047
G2 X12.5167 Y31.0991 I-1.4134 J-1.415
G3 X20.9977 Y27.5864 I8.4653 J8.4438
G2 X21.0036 I0.0026 J-2.0
G3 X27.666 Y29.6063 I0.0198 J11.9321
G2 X27.6667 Y29.6067 I1.1134 J-1.6614
G3 X32.0906 Y34.9939 I-6.7086 J10.0191
G3 X33.0001 Y39.5838 I-11.0543 J4.5756
G2 Y39.5893 I2.0 J0.0024
G1 F50.0 Z-6.0
G3 F120.0 X32.0904 Y44.1788 I-11.9404 J0.0182
G3 X29.4862 Y48.0705 I-11.0883 J-4.6028
G2 X29.4835 Y48.0732 I1.4134 J1.4151
G3 X21.0029 Y51.5861 I-8.4649 J-8.4425
G2 X20.9971 I-0.0026 J2.0
G3 X14.3343 Y49.5661 I-0.0191 J-11.9354
G2 X14.3333 Y49.5654 I-1.1133 J1.6615
G3 X9.9099 Y44.179 I6.6981 J-10.01
G3 X9.0001 Y39.5882 I11.0664 J-4.5786
G2 Y39.5835 I-2.0 J-0.002
G3 X9.9099 Y34.9933 I11.9534 J-0.0161
G3 X12.5141 Y31.1018 I11.0907 J4.6047
G2 X12.5167 Y31.0991 I-1.4134 J-1.415
G3 X20.9977 Y27.5864 I8.4653 J8.4438
G2 X21.0036 I0.0026 J-2.0
G3 X27.666 Y29.6063 I0.0198 J11.9321
G2 X27.6667 Y29.6067 I1.1134 J-1.6614
G3 X32.0906 Y34.9939 I-6.7086 J10.0191
G3 X33.0001 Y39.5838 I-11.0543 J4.5756
G2 Y39.5893 I2.0 J0.0024
G1 F50.0 Z-6.5
G3 F120.0 X32.0904 Y44.1788 I-11.9404 J0.0182
G3 X29.4862 Y48.0705 I-11.0883 J-4.6028
G2 X29.4835 Y48.0732 I1.4134 J1.4151
G3 X21.0029 Y51.5861 I-8.4649 J-8.4425
G2 X20.9971 I-0.0026 J2.0
G3 X14.3343 Y49.5661 I-0.0191 J-11.9354
G2 X14.3333 Y49.5654 I-1.1133 J1.6615
G3 X9.9099 Y44.179 I6.6981 J-10.01
G3 X9.0001 Y39.5882 I11.0664 J-4.5786
G2 Y39.5835 I-2.0 J-0.002
G3 X9.9099 Y34.9933 I11.9534 J-0.0161
G3 X12.5141 Y31.1018 I11.0907 J4.6047
G2 X12.5167 Y31.0991 I-1.4134 J-1.415
G3 X20.9977 Y27.5864 I8.4653 J8.4438
G2 X21.0036 I0.0026 J-2.0
G3 X27.666 Y29.6063 I0.0198 J11.9321
G2 X27.6667 Y29.6067 I1.1134 J-1.6614
G3 X32.0906 Y34.9939 I-6.7086 J10.0191
G3 X33.0001 Y39.5838 I-11.0543 J4.5756
G2 Y39.5893 I2.0 J0.0024
( Profile2 )
S1000
G0 Z3.0
G0 X-2.0 Y58.5874
G0 Z1.0
G1 F50.0 Z-1.0
G2 F120.0 X-0.8273 Y61.4119 I3.9959 J-0.0034
G2 X2.0001 Y62.5858 I2.8273 J-2.8176
G1 X34.4837
G3 X34.7485 Y62.6317 I-0.0207 J0.9054
G2 X34.7592 Y62.6353 I0.6306 J-1.898
G3 X35.3464 Y62.9434 I-0.6139 J1.8833
G2 X35.3516 Y62.9474 I1.2127 J-1.5904
G3 X35.5798 Y63.1552 I-1.0311 J1.3615
G2 X35.5856 Y63.1615 I1.4747 J-1.351
G3 X35.6357 Y63.2222 I-0.5129 J0.4739
G1 X41.1814 Y78.1078
G2 X41.2918 Y78.3525 I1.8742 J-0.6982
G2 X41.7331 Y79.0245 I3.9397 J-2.1062
G2 X42.6031 Y79.8978 I4.2023 J-3.3162
G2 X44.1014 Y80.7802 I3.7835 J-4.7113
G2 X44.1107 Y80.784 I0.7564 J-1.8515
G2 X44.9649 Y81.0534 I2.1656 J-5.3778
G2 X44.9695 Y81.0544 I0.4524 J-1.9482
G2 X45.9914 Y81.1726 I1.0422 J-4.5364
G2 X46.0001 I0.0087 J-2.0
G1 X62.0002
G2 X62.0019 I0.0 J-2.0
G2 X64.8263 Y79.9999 I-0.0034 J-3.9959
G2 X66.0002 Y77.1725 I-2.8176 J-2.8273
G1 Y77.1726
G1 Y77.1725
G1 Y1.9999
G2 Y1.9985 I-2.0 J0.0
G2 X64.8272 Y-0.8265 I-3.9948 J0.0027
G2 X62.0004 Y-2.0 I-2.8273 J2.819
G1 X62.0002
G1 X46.0001
G2 X45.9747 Y-1.9998 I0.0 J2.0
G2 X44.4963 Y-1.7519 I0.0624 J4.9044
G2 X42.7314 Y-0.8255 I1.8573 J5.6825
G2 X41.9743 Y-0.1363 I3.4397 J4.5394
G2 X41.2971 Y0.8102 I3.4416 J3.1779
G2 X41.1814 Y1.0646 I1.7585 J0.9527
G1 X35.6361 Y15.9489
G3 X35.6335 Y15.9522 I-0.3829 J-0.2991
G2 X35.6283 Y15.9587 I1.5654 J1.2448
G3 X35.4051 Y16.1827 I-1.0712 J-0.8445
G2 X35.3946 Y16.191 I1.2433 J1.5666
G3 X34.8906 Y16.4891 I-1.2836 J-1.5952
G3 X34.6331 Y16.5701 I-0.6678 J-1.6726
G3 X34.4942 Y16.5863 I-0.1447 J-0.639
G1 X2.0001
G2 X1.9988 I0.0 J2.0
G2 X-0.8262 Y17.759 I0.0026 J3.9951
G2 X-2.0 Y20.586 I2.8183 J2.8273
G1 Y20.5862
G1 Y58.5857
G2 Y58.5874 I2.0 J0.0
G1 F50.0 Z-2.0
G2 F120.0 X-0.8273 Y61.4119 I3.9959 J-0.0034
G2 X2.0001 Y62.5858 I2.8273 J-2.8176
G1 X34.4837
G3 X34.7485 Y62.6317 I-0.0207 J0.9054
G2 X34.7592 Y62.6353 I0.6306 J-1.898
G3 X35.3464 Y62.9434 I-0.6139 J1.8833
G2 X35.3516 Y62.9474 I1.2127 J-1.5904
G3 X35.5798 Y63.1552 I-1.0311 J1.3615
G2 X35.5856 Y63.1615 I1.4747 J-1.351
G3 X35.6357 Y63.2222 I-0.5129 J0.4739
G1 X41.1814 Y78.1078
G2 X41.2918 Y78.3525 I1.8742 J-0.6982
G2 X41.7331 Y79.0245 I3.9397 J-2.1062
G2 X42.6031 Y79.8978 I4.2023 J-3.3162
G2 X44.1014 Y80.7802 I3.7835 J-4.7113
G2 X44.1107 Y80.784 I0.7564 J-1.8515
G2 X44.9649 Y81.0534 I2.1656 J-5.3778
G2 X44.9695 Y81.0544 I0.4524 J-1.9482
G2 X45.9914 Y81.1726 I1.0422 J-4.5364
G2 X46.0001 I0.0087 J-2.0
G1 X62.0002
G2 X62.0019 I0.0 J-2.0
G2 X64.8263 Y79.9999 I-0.0034 J-3.9959
G2 X66.0002 Y77.1725 I-2.8176 J-2.8273
G1 Y77.1726
G1 Y77.1725
G1 Y1.9999
G2 Y1.9985 I-2.0 J0.0
G2 X64.8272 Y-0.8265 I-3.9948 J0.0027
G2 X62.0004 Y-2.0 I-2.8273 J2.819
G1 X62.0002
G1 X46.0001
G2 X45.9747 Y-1.9998 I0.0 J2.0
G2 X44.4963 Y-1.7519 I0.0624 J4.9044
G2 X42.7314 Y-0.8255 I1.8573 J5.6825
G2 X41.9743 Y-0.1363 I3.4397 J4.5394
G2 X41.2971 Y0.8102 I3.4416 J3.1779
G2 X41.1814 Y1.0646 I1.7585 J0.9527
G1 X35.6361 Y15.9489
G3 X35.6335 Y15.9522 I-0.3829 J-0.2991
G2 X35.6283 Y15.9587 I1.5654 J1.2448
G3 X35.4051 Y16.1827 I-1.0712 J-0.8445
G2 X35.3946 Y16.191 I1.2433 J1.5666
G3 X34.8906 Y16.4891 I-1.2836 J-1.5952
G3 X34.6331 Y16.5701 I-0.6678 J-1.6726
G3 X34.4942 Y16.5863 I-0.1447 J-0.639
G1 X2.0001
G2 X1.9988 I0.0 J2.0
G2 X-0.8262 Y17.759 I0.0026 J3.9951
G2 X-2.0 Y20.586 I2.8183 J2.8273
G1 Y20.5862
G1 Y58.5857
G2 Y58.5874 I2.0 J0.0
G1 F50.0 Z-3.0
G2 F120.0 X-0.8273 Y61.4119 I3.9959 J-0.0034
G2 X2.0001 Y62.5858 I2.8273 J-2.8176
G1 X34.4837
G3 X34.7485 Y62.6317 I-0.0207 J0.9054
G2 X34.7592 Y62.6353 I0.6306 J-1.898
G3 X35.3464 Y62.9434 I-0.6139 J1.8833
G2 X35.3516 Y62.9474 I1.2127 J-1.5904
G3 X35.5798 Y63.1552 I-1.0311 J1.3615
G2 X35.5856 Y63.1615 I1.4747 J-1.351
G3 X35.6357 Y63.2222 I-0.5129 J0.4739
G1 X41.1814 Y78.1078
G2 X41.2918 Y78.3525 I1.8742 J-0.6982
G2 X41.7331 Y79.0245 I3.9397 J-2.1062
G2 X42.6031 Y79.8978 I4.2023 J-3.3162
G2 X44.1014 Y80.7802 I3.7835 J-4.7113
G2 X44.1107 Y80.784 I0.7564 J-1.8515
G2 X44.9649 Y81.0534 I2.1656 J-5.3778
G2 X44.9695 Y81.0544 I0.4524 J-1.9482
G2 X45.9914 Y81.1726 I1.0422 J-4.5364
G2 X46.0001 I0.0087 J-2.0
G1 X62.0002
G2 X62.0019 I0.0 J-2.0
G2 X64.8263 Y79.9999 I-0.0034 J-3.9959
G2 X66.0002 Y77.1725 I-2.8176 J-2.8273
G1 Y77.1726
G1 Y77.1725
G1 Y1.9999
G2 Y1.9985 I-2.0 J0.0
G2 X64.8272 Y-0.8265 I-3.9948 J0.0027
G2 X62.0004 Y-2.0 I-2.8273 J2.819
G1 X62.0002
G1 X46.0001
G2 X45.9747 Y-1.9998 I0.0 J2.0
G2 X44.4963 Y-1.7519 I0.0624 J4.9044
G2 X42.7314 Y-0.8255 I1.8573 J5.6825
G2 X41.9743 Y-0.1363 I3.4397 J4.5394
G2 X41.2971 Y0.8102 I3.4416 J3.1779
G2 X41.1814 Y1.0646 I1.7585 J0.9527
G1 X35.6361 Y15.9489
G3 X35.6335 Y15.9522 I-0.3829 J-0.2991
G2 X35.6283 Y15.9587 I1.5654 J1.2448
G3 X35.4051 Y16.1827 I-1.0712 J-0.8445
G2 X35.3946 Y16.191 I1.2433 J1.5666
G3 X34.8906 Y16.4891 I-1.2836 J-1.5952
G3 X34.6331 Y16.5701 I-0.6678 J-1.6726
G3 X34.4942 Y16.5863 I-0.1447 J-0.639
G1 X2.0001
G2 X1.9988 I0.0 J2.0
G2 X-0.8262 Y17.759 I0.0026 J3.9951
G2 X-2.0 Y20.586 I2.8183 J2.8273
G1 Y20.5862
G1 Y58.5857
G2 Y58.5874 I2.0 J0.0
G1 F50.0 Z-4.0
G2 F120.0 X-0.8273 Y61.4119 I3.9959 J-0.0034
G2 X2.0001 Y62.5858 I2.8273 J-2.8176
G1 X34.4837
G3 X34.7485 Y62.6317 I-0.0207 J0.9054
G2 X34.7592 Y62.6353 I0.6306 J-1.898
G3 X35.3464 Y62.9434 I-0.6139 J1.8833
G2 X35.3516 Y62.9474 I1.2127 J-1.5904
G3 X35.5798 Y63.1552 I-1.0311 J1.3615
G2 X35.5856 Y63.1615 I1.4747 J-1.351
G3 X35.6357 Y63.2222 I-0.5129 J0.4739
G1 X41.1814 Y78.1078
G2 X41.2918 Y78.3525 I1.8742 J-0.6982
G2 X41.7331 Y79.0245 I3.9397 J-2.1062
G2 X42.6031 Y79.8978 I4.2023 J-3.3162
G2 X44.1014 Y80.7802 I3.7835 J-4.7113
G2 X44.1107 Y80.784 I0.7564 J-1.8515
G2 X44.9649 Y81.0534 I2.1656 J-5.3778
G2 X44.9695 Y81.0544 I0.4524 J-1.9482
G2 X45.9914 Y81.1726 I1.0422 J-4.5364
G2 X46.0001 I0.0087 J-2.0
G1 X62.0002
G2 X62.0019 I0.0 J-2.0
G2 X64.8263 Y79.9999 I-0.0034 J-3.9959
G2 X66.0002 Y77.1725 I-2.8176 J-2.8273
G1 Y77.1726
G1 Y77.1725
G1 Y1.9999
G2 Y1.9985 I-2.0 J0.0
G2 X64.8272 Y-0.8265 I-3.9948 J0.0027
G2 X62.0004 Y-2.0 I-2.8273 J2.819
G1 X62.0002
G1 X46.0001
G2 X45.9747 Y-1.9998 I0.0 J2.0
G2 X44.4963 Y-1.7519 I0.0624 J4.9044
G2 X42.7314 Y-0.8255 I1.8573 J5.6825
G2 X41.9743 Y-0.1363 I3.4397 J4.5394
G2 X41.2971 Y0.8102 I3.4416 J3.1779
G2 X41.1814 Y1.0646 I1.7585 J0.9527
G1 X35.6361 Y15.9489
G3 X35.6335 Y15.9522 I-0.3829 J-0.2991
G2 X35.6283 Y15.9587 I1.5654 J1.2448
G3 X35.4051 Y16.1827 I-1.0712 J-0.8445
G2 X35.3946 Y16.191 I1.2433 J1.5666
G3 X34.8906 Y16.4891 I-1.2836 J-1.5952
G3 X34.6331 Y16.5701 I-0.6678 J-1.6726
G3 X34.4942 Y16.5863 I-0.1447 J-0.639
G1 X2.0001
G2 X1.9988 I0.0 J2.0
G2 X-0.8262 Y17.759 I0.0026 J3.9951
G2 X-2.0 Y20.586 I2.8183 J2.8273
G1 Y20.5862
G1 Y58.5857
G2 Y58.5874 I2.0 J0.0
G1 F50.0 Z-5.0
G2 F120.0 X-0.8273 Y61.4119 I3.9959 J-0.0034
G2 X2.0001 Y62.5858 I2.8273 J-2.8176
G1 X34.4837
G3 X34.7485 Y62.6317 I-0.0207 J0.9054
G2 X34.7592 Y62.6353 I0.6306 J-1.898
G3 X35.3464 Y62.9434 I-0.6139 J1.8833
G2 X35.3516 Y62.9474 I1.2127 J-1.5904
G3 X35.5798 Y63.1552 I-1.0311 J1.3615
G2 X35.5856 Y63.1615 I1.4747 J-1.351
G3 X35.6357 Y63.2222 I-0.5129 J0.4739
G1 X41.1814 Y78.1078
G2 X41.2918 Y78.3525 I1.8742 J-0.6982
G2 X41.7331 Y79.0245 I3.9397 J-2.1062
G2 X42.6031 Y79.8978 I4.2023 J-3.3162
G2 X44.1014 Y80.7802 I3.7835 J-4.7113
G2 X44.1107 Y80.784 I0.7564 J-1.8515
G2 X44.9649 Y81.0534 I2.1656 J-5.3778
G2 X44.9695 Y81.0544 I0.4524 J-1.9482
G2 X45.9914 Y81.1726 I1.0422 J-4.5364
G2 X46.0001 I0.0087 J-2.0
G1 X62.0002
G2 X62.0019 I0.0 J-2.0
G2 X64.8263 Y79.9999 I-0.0034 J-3.9959
G2 X66.0002 Y77.1725 I-2.8176 J-2.8273
G1 Y77.1726
G1 Y77.1725
G1 Y1.9999
G2 Y1.9985 I-2.0 J0.0
G2 X64.8272 Y-0.8265 I-3.9948 J0.0027
G2 X62.0004 Y-2.0 I-2.8273 J2.819
G1 X62.0002
G1 X46.0001
G2 X45.9747 Y-1.9998 I0.0 J2.0
G2 X44.4963 Y-1.7519 I0.0624 J4.9044
G2 X42.7314 Y-0.8255 I1.8573 J5.6825
G2 X41.9743 Y-0.1363 I3.4397 J4.5394
G2 X41.2971 Y0.8102 I3.4416 J3.1779
G2 X41.1814 Y1.0646 I1.7585 J0.9527
G1 X35.6361 Y15.9489
G3 X35.6335 Y15.9522 I-0.3829 J-0.2991
G2 X35.6283 Y15.9587 I1.5654 J1.2448
G3 X35.4051 Y16.1827 I-1.0712 J-0.8445
G2 X35.3946 Y16.191 I1.2433 J1.5666
G3 X34.8906 Y16.4891 I-1.2836 J-1.5952
G3 X34.6331 Y16.5701 I-0.6678 J-1.6726
G3 X34.4942 Y16.5863 I-0.1447 J-0.639
G1 X2.0001
G2 X1.9988 I0.0 J2.0
G2 X-0.8262 Y17.759 I0.0026 J3.9951
G2 X-2.0 Y20.586 I2.8183 J2.8273
G1 Y20.5862
G1 Y58.5857
G2 Y58.5874 I2.0 J0.0
G1 F50.0 Z-6.0
G2 F120.0 X-0.8273 Y61.4119 I3.9959 J-0.0034
G2 X2.0001 Y62.5858 I2.8273 J-2.8176
G1 X34.4837
G3 X34.7485 Y62.6317 I-0.0207 J0.9054
G2 X34.7592 Y62.6353 I0.6306 J-1.898
G3 X35.3464 Y62.9434 I-0.6139 J1.8833
G2 X35.3516 Y62.9474 I1.2127 J-1.5904
G3 X35.5798 Y63.1552 I-1.0311 J1.3615
G2 X35.5856 Y63.1615 I1.4747 J-1.351
G3 X35.6357 Y63.2222 I-0.5129 J0.4739
G1 X41.1814 Y78.1078
G2 X41.2918 Y78.3525 I1.8742 J-0.6982
G2 X41.7331 Y79.0245 I3.9397 J-2.1062
G2 X42.6031 Y79.8978 I4.2023 J-3.3162
G2 X44.1014 Y80.7802 I3.7835 J-4.7113
G2 X44.1107 Y80.784 I0.7564 J-1.8515
G2 X44.9649 Y81.0534 I2.1656 J-5.3778
G2 X44.9695 Y81.0544 I0.4524 J-1.9482
G2 X45.9914 Y81.1726 I1.0422 J-4.5364
G2 X46.0001 I0.0087 J-2.0
G1 X62.0002
G2 X62.0019 I0.0 J-2.0
G2 X64.8263 Y79.9999 I-0.0034 J-3.9959
G2 X66.0002 Y77.1725 I-2.8176 J-2.8273
G1 Y77.1726
G1 Y77.1725
G1 Y1.9999
G2 Y1.9985 I-2.0 J0.0
G2 X64.8272 Y-0.8265 I-3.9948 J0.0027
G2 X62.0004 Y-2.0 I-2.8273 J2.819
G1 X62.0002
G1 X46.0001
G2 X45.9747 Y-1.9998 I0.0 J2.0
G2 X44.4963 Y-1.7519 I0.0624 J4.9044
G2 X42.7314 Y-0.8255 I1.8573 J5.6825
G2 X41.9743 Y-0.1363 I3.4397 J4.5394
G2 X41.2971 Y0.8102 I3.4416 J3.1779
G2 X41.1814 Y1.0646 I1.7585 J0.9527
G1 X35.6361 Y15.9489
G3 X35.6335 Y15.9522 I-0.3829 J-0.2991
G2 X35.6283 Y15.9587 I1.5654 J1.2448
G3 X35.4051 Y16.1827 I-1.0712 J-0.8445
G2 X35.3946 Y16.191 I1.2433 J1.5666
G3 X34.8906 Y16.4891 I-1.2836 J-1.5952
G3 X34.6331 Y16.5701 I-0.6678 J-1.6726
G3 X34.4942 Y16.5863 I-0.1447 J-0.639
G1 X2.0001
G2 X1.9988 I0.0 J2.0
G2 X-0.8262 Y17.759 I0.0026 J3.9951
G2 X-2.0 Y20.586 I2.8183 J2.8273
G1 Y20.5862
G1 Y58.5857
G2 Y58.5874 I2.0 J0.0
G1 F50.0 Z-7
G2 F120.0 X-0.8273 Y61.4119 I3.9959 J-0.0034
G2 X2.0001 Y62.5858 I2.8273 J-2.8176
G1 X34.4837
G3 X34.7485 Y62.6317 I-0.0207 J0.9054
G2 X34.7592 Y62.6353 I0.6306 J-1.898
G3 X35.3464 Y62.9434 I-0.6139 J1.8833
G2 X35.3516 Y62.9474 I1.2127 J-1.5904
G3 X35.5798 Y63.1552 I-1.0311 J1.3615
G2 X35.5856 Y63.1615 I1.4747 J-1.351
G3 X35.6357 Y63.2222 I-0.5129 J0.4739
G1 X41.1814 Y78.1078
G2 X41.2918 Y78.3525 I1.8742 J-0.6982
G2 X41.7331 Y79.0245 I3.9397 J-2.1062
G2 X42.6031 Y79.8978 I4.2023 J-3.3162
G2 X44.1014 Y80.7802 I3.7835 J-4.7113
G2 X44.1107 Y80.784 I0.7564 J-1.8515
G2 X44.9649 Y81.0534 I2.1656 J-5.3778
G2 X44.9695 Y81.0544 I0.4524 J-1.9482
G2 X45.9914 Y81.1726 I1.0422 J-4.5364
G2 X46.0001 I0.0087 J-2.0
G1 X62.0002
G2 X62.0019 I0.0 J-2.0
G2 X64.8263 Y79.9999 I-0.0034 J-3.9959
G2 X66.0002 Y77.1725 I-2.8176 J-2.8273
G1 Y77.1726
G1 Y77.1725
G1 Y1.9999
G2 Y1.9985 I-2.0 J0.0
G2 X64.8272 Y-0.8265 I-3.9948 J0.0027
G2 X62.0004 Y-2.0 I-2.8273 J2.819
G1 X62.0002
G1 X46.0001
G2 X45.9747 Y-1.9998 I0.0 J2.0
G2 X44.4963 Y-1.7519 I0.0624 J4.9044
G2 X42.7314 Y-0.8255 I1.8573 J5.6825
G2 X41.9743 Y-0.1363 I3.4397 J4.5394
G2 X41.2971 Y0.8102 I3.4416 J3.1779
G2 X41.1814 Y1.0646 I1.7585 J0.9527
G1 X35.6361 Y15.9489
G3 X35.6335 Y15.9522 I-0.3829 J-0.2991
G2 X35.6283 Y15.9587 I1.5654 J1.2448
G3 X35.4051 Y16.1827 I-1.0712 J-0.8445
G2 X35.3946 Y16.191 I1.2433 J1.5666
G3 X34.8906 Y16.4891 I-1.2836 J-1.5952
G3 X34.6331 Y16.5701 I-0.6678 J-1.6726
G3 X34.4942 Y16.5863 I-0.1447 J-0.639
G1 X2.0001
G2 X1.9988 I0.0 J2.0
G2 X-0.8262 Y17.759 I0.0026 J3.9951
G2 X-2.0 Y20.586 I2.8183 J2.8273
G1 Y20.5862
G1 Y58.5857
G2 Y58.5874 I2.0 J0.0
G0 Z3.0
M5
M30
