( Made using CamBam - http://www.cambam.co.uk )
( stepper mounts - motor 9/20/2013 12:59:22 PM )
( T4 : 4.0 )
G21 G90 G64 G40
G0 Z3.0
( T4 : 4.0 )
T4 M6
( Profile2 )
G17
M3 S1000
G0 X-2.0 Y58.5874
G0 Z1.0
G1 F50.0 Z-2.0
G2 F120.0 X-0.8273 Y61.4119 I3.9959 J-0.0034
G2 X2.0001 Y62.5858 I2.8273 J-2.8176
G1 X34.4837
G3 X34.7485 Y62.6317 I-0.0207 J0.9054
G2 X34.7592 Y62.6353 I0.6306 J-1.898
G3 X35.3464 Y62.9434 I-0.6139 J1.8833
G2 X35.3516 Y62.9474 I1.2127 J-1.5904
G3 X35.5798 Y63.1552 I-1.0311 J1.3615
G2 X35.5856 Y63.1615 I1.4747 J-1.351
G3 X35.6357 Y63.2222 I-0.5129 J0.4739
G1 X41.1814 Y78.1078
G2 X41.2918 Y78.3525 I1.8742 J-0.6982
G2 X41.7331 Y79.0245 I3.9397 J-2.1062
G2 X42.6031 Y79.8978 I4.2023 J-3.3162
G2 X44.1014 Y80.7802 I3.7835 J-4.7113
G2 X44.1107 Y80.784 I0.7564 J-1.8515
G2 X44.9649 Y81.0534 I2.1656 J-5.3778
G2 X44.9695 Y81.0544 I0.4524 J-1.9482
G2 X45.9914 Y81.1726 I1.0422 J-4.5364
G2 X46.0001 I0.0087 J-2.0
G1 X62.0002
G2 X62.0019 I0.0 J-2.0
G2 X64.8263 Y79.9999 I-0.0034 J-3.9959
G2 X66.0002 Y77.1725 I-2.8176 J-2.8273
G1 Y77.1726
G1 Y77.1725
G1 Y1.9999
G2 Y1.9985 I-2.0 J0.0
G2 X64.8272 Y-0.8265 I-3.9948 J0.0027
G2 X62.0004 Y-2.0 I-2.8273 J2.819
G1 X62.0002
G1 X46.0001
G2 X45.9747 Y-1.9998 I0.0 J2.0
G2 X44.4963 Y-1.7519 I0.0624 J4.9044
G2 X42.7314 Y-0.8255 I1.8573 J5.6825
G2 X41.9743 Y-0.1363 I3.4397 J4.5394
G2 X41.2971 Y0.8102 I3.4416 J3.1779
G2 X41.1814 Y1.0646 I1.7585 J0.9527
G1 X35.6361 Y15.9489
G3 X35.6335 Y15.9522 I-0.3829 J-0.2991
G2 X35.6283 Y15.9587 I1.5654 J1.2448
G3 X35.4051 Y16.1827 I-1.0712 J-0.8445
G2 X35.3946 Y16.191 I1.2433 J1.5666
G3 X34.8906 Y16.4891 I-1.2836 J-1.5952
G3 X34.6331 Y16.5701 I-0.6678 J-1.6726
G3 X34.4942 Y16.5863 I-0.1447 J-0.639
G1 X2.0001
G2 X1.9988 I0.0 J2.0
G2 X-0.8262 Y17.759 I0.0026 J3.9951
G2 X-2.0 Y20.586 I2.8183 J2.8273
G1 Y20.5862
G1 Y58.5857
G2 Y58.5874 I2.0 J0.0
G1 F50.0 Z-4.0
G2 F120.0 X-0.8273 Y61.4119 I3.9959 J-0.0034
G2 X2.0001 Y62.5858 I2.8273 J-2.8176
G1 X34.4837
G3 X34.7485 Y62.6317 I-0.0207 J0.9054
G2 X34.7592 Y62.6353 I0.6306 J-1.898
G3 X35.3464 Y62.9434 I-0.6139 J1.8833
G2 X35.3516 Y62.9474 I1.2127 J-1.5904
G3 X35.5798 Y63.1552 I-1.0311 J1.3615
G2 X35.5856 Y63.1615 I1.4747 J-1.351
G3 X35.6357 Y63.2222 I-0.5129 J0.4739
G1 X41.1814 Y78.1078
G2 X41.2918 Y78.3525 I1.8742 J-0.6982
G2 X41.7331 Y79.0245 I3.9397 J-2.1062
G2 X42.6031 Y79.8978 I4.2023 J-3.3162
G2 X44.1014 Y80.7802 I3.7835 J-4.7113
G2 X44.1107 Y80.784 I0.7564 J-1.8515
G2 X44.9649 Y81.0534 I2.1656 J-5.3778
G2 X44.9695 Y81.0544 I0.4524 J-1.9482
G2 X45.9914 Y81.1726 I1.0422 J-4.5364
G2 X46.0001 I0.0087 J-2.0
G1 X62.0002
G2 X62.0019 I0.0 J-2.0
G2 X64.8263 Y79.9999 I-0.0034 J-3.9959
G2 X66.0002 Y77.1725 I-2.8176 J-2.8273
G1 Y77.1726
G1 Y77.1725
G1 Y1.9999
G2 Y1.9985 I-2.0 J0.0
G2 X64.8272 Y-0.8265 I-3.9948 J0.0027
G2 X62.0004 Y-2.0 I-2.8273 J2.819
G1 X62.0002
G1 X46.0001
G2 X45.9747 Y-1.9998 I0.0 J2.0
G2 X44.4963 Y-1.7519 I0.0624 J4.9044
G2 X42.7314 Y-0.8255 I1.8573 J5.6825
G2 X41.9743 Y-0.1363 I3.4397 J4.5394
G2 X41.2971 Y0.8102 I3.4416 J3.1779
G2 X41.1814 Y1.0646 I1.7585 J0.9527
G1 X35.6361 Y15.9489
G3 X35.6335 Y15.9522 I-0.3829 J-0.2991
G2 X35.6283 Y15.9587 I1.5654 J1.2448
G3 X35.4051 Y16.1827 I-1.0712 J-0.8445
G2 X35.3946 Y16.191 I1.2433 J1.5666
G3 X34.8906 Y16.4891 I-1.2836 J-1.5952
G3 X34.6331 Y16.5701 I-0.6678 J-1.6726
G3 X34.4942 Y16.5863 I-0.1447 J-0.639
G1 X2.0001
G2 X1.9988 I0.0 J2.0
G2 X-0.8262 Y17.759 I0.0026 J3.9951
G2 X-2.0 Y20.586 I2.8183 J2.8273
G1 Y20.5862
G1 Y58.5857
G2 Y58.5874 I2.0 J0.0
G1 F50.0 Z-6.0
G2 F120.0 X-0.8273 Y61.4119 I3.9959 J-0.0034
G2 X2.0001 Y62.5858 I2.8273 J-2.8176
G1 X34.4837
G3 X34.7485 Y62.6317 I-0.0207 J0.9054
G2 X34.7592 Y62.6353 I0.6306 J-1.898
G3 X35.3464 Y62.9434 I-0.6139 J1.8833
G2 X35.3516 Y62.9474 I1.2127 J-1.5904
G3 X35.5798 Y63.1552 I-1.0311 J1.3615
G2 X35.5856 Y63.1615 I1.4747 J-1.351
G3 X35.6357 Y63.2222 I-0.5129 J0.4739
G1 X41.1814 Y78.1078
G2 X41.2918 Y78.3525 I1.8742 J-0.6982
G2 X41.7331 Y79.0245 I3.9397 J-2.1062
G2 X42.6031 Y79.8978 I4.2023 J-3.3162
G2 X44.1014 Y80.7802 I3.7835 J-4.7113
G2 X44.1107 Y80.784 I0.7564 J-1.8515
G2 X44.9649 Y81.0534 I2.1656 J-5.3778
G2 X44.9695 Y81.0544 I0.4524 J-1.9482
G2 X45.9914 Y81.1726 I1.0422 J-4.5364
G2 X46.0001 I0.0087 J-2.0
G1 X62.0002
G2 X62.0019 I0.0 J-2.0
G2 X64.8263 Y79.9999 I-0.0034 J-3.9959
G2 X66.0002 Y77.1725 I-2.8176 J-2.8273
G1 Y77.1726
G1 Y77.1725
G1 Y1.9999
G2 Y1.9985 I-2.0 J0.0
G2 X64.8272 Y-0.8265 I-3.9948 J0.0027
G2 X62.0004 Y-2.0 I-2.8273 J2.819
G1 X62.0002
G1 X46.0001
G2 X45.9747 Y-1.9998 I0.0 J2.0
G2 X44.4963 Y-1.7519 I0.0624 J4.9044
G2 X42.7314 Y-0.8255 I1.8573 J5.6825
G2 X41.9743 Y-0.1363 I3.4397 J4.5394
G2 X41.2971 Y0.8102 I3.4416 J3.1779
G2 X41.1814 Y1.0646 I1.7585 J0.9527
G1 X35.6361 Y15.9489
G3 X35.6335 Y15.9522 I-0.3829 J-0.2991
G2 X35.6283 Y15.9587 I1.5654 J1.2448
G3 X35.4051 Y16.1827 I-1.0712 J-0.8445
G2 X35.3946 Y16.191 I1.2433 J1.5666
G3 X34.8906 Y16.4891 I-1.2836 J-1.5952
G3 X34.6331 Y16.5701 I-0.6678 J-1.6726
G3 X34.4942 Y16.5863 I-0.1447 J-0.639
G1 X2.0001
G2 X1.9988 I0.0 J2.0
G2 X-0.8262 Y17.759 I0.0026 J3.9951
G2 X-2.0 Y20.586 I2.8183 J2.8273
G1 Y20.5862
G1 Y58.5857
G2 Y58.5874 I2.0 J0.0
G1 F50.0 Z-7.0
G2 F120.0 X-0.8273 Y61.4119 I3.9959 J-0.0034
G2 X2.0001 Y62.5858 I2.8273 J-2.8176
G1 X34.4837
G3 X34.7485 Y62.6317 I-0.0207 J0.9054
G2 X34.7592 Y62.6353 I0.6306 J-1.898
G3 X35.3464 Y62.9434 I-0.6139 J1.8833
G2 X35.3516 Y62.9474 I1.2127 J-1.5904
G3 X35.5798 Y63.1552 I-1.0311 J1.3615
G2 X35.5856 Y63.1615 I1.4747 J-1.351
G3 X35.6357 Y63.2222 I-0.5129 J0.4739
G1 X41.1814 Y78.1078
G2 X41.2918 Y78.3525 I1.8742 J-0.6982
G2 X41.7331 Y79.0245 I3.9397 J-2.1062
G2 X42.6031 Y79.8978 I4.2023 J-3.3162
G2 X44.1014 Y80.7802 I3.7835 J-4.7113
G2 X44.1107 Y80.784 I0.7564 J-1.8515
G2 X44.9649 Y81.0534 I2.1656 J-5.3778
G2 X44.9695 Y81.0544 I0.4524 J-1.9482
G2 X45.9914 Y81.1726 I1.0422 J-4.5364
G2 X46.0001 I0.0087 J-2.0
G1 X62.0002
G2 X62.0019 I0.0 J-2.0
G2 X64.8263 Y79.9999 I-0.0034 J-3.9959
G2 X66.0002 Y77.1725 I-2.8176 J-2.8273
G1 Y77.1726
G1 Y77.1725
G1 Y1.9999
G2 Y1.9985 I-2.0 J0.0
G2 X64.8272 Y-0.8265 I-3.9948 J0.0027
G2 X62.0004 Y-2.0 I-2.8273 J2.819
G1 X62.0002
G1 X46.0001
G2 X45.9747 Y-1.9998 I0.0 J2.0
G2 X44.4963 Y-1.7519 I0.0624 J4.9044
G2 X42.7314 Y-0.8255 I1.8573 J5.6825
G2 X41.9743 Y-0.1363 I3.4397 J4.5394
G2 X41.2971 Y0.8102 I3.4416 J3.1779
G2 X41.1814 Y1.0646 I1.7585 J0.9527
G1 X35.6361 Y15.9489
G3 X35.6335 Y15.9522 I-0.3829 J-0.2991
G2 X35.6283 Y15.9587 I1.5654 J1.2448
G3 X35.4051 Y16.1827 I-1.0712 J-0.8445
G2 X35.3946 Y16.191 I1.2433 J1.5666
G3 X34.8906 Y16.4891 I-1.2836 J-1.5952
G3 X34.6331 Y16.5701 I-0.6678 J-1.6726
G3 X34.4942 Y16.5863 I-0.1447 J-0.639
G1 X2.0001
G2 X1.9988 I0.0 J2.0
G2 X-0.8262 Y17.759 I0.0026 J3.9951
G2 X-2.0 Y20.586 I2.8183 J2.8273
G1 Y20.5862
G1 Y58.5857
G2 Y58.5874 I2.0 J0.0
G0 Z3.0
M5
M30
