( Made using CamBam - http://www.cambam.co.uk )
( echain corner plate 10/2/2013 7:10:19 PM )
( T4 : 4.0 )
G21 G90 G64 G40
G0 Z3.0
( T4 : 4.0 )
T4 M6
( Cutout )
G17
M3 S1000
G0 X42.0 Y99.9999
G0 Z1.0
G1 F50.0 Z-1.0
G1 F120.0 Y62.0
G1 X99.9999
G2 X101.9999 Y60.0 I0.0 J-2.0
G1 Y12.0006
G2 X99.6278 Y4.2234 I-13.9073 J-0.0085
G2 X93.3615 Y-0.9276 I-11.7174 J7.8676
G2 X93.3586 Y-0.9288 I-0.7725 J1.8448
G2 X87.9996 Y-2.0 I-5.3535 J12.8419
G1 X12.0007
G2 X4.2234 Y0.3722 I-0.0097 J13.9035
G2 X-0.9276 Y6.6384 I7.8677 J11.7175
G2 X-0.9288 Y6.6414 I1.8448 J0.7725
G2 X-2.0 Y12.0003 I12.8428 J5.3537
G1 Y87.9994
G2 X0.3722 Y95.7764 I13.9103 J0.0073
G2 X6.6384 Y100.9274 I11.7187 J-7.8689
G2 X6.6404 Y100.9283 I0.7726 J-1.8448
G2 X12.0008 Y101.9999 I5.3487 J-12.8121
G1 X40.0
G2 X42.0 Y99.9999 I0.0 J-2.0
G1 F50.0 Z-2.0
G1 F120.0 Y62.0
G1 X99.9999
G2 X101.9999 Y60.0 I0.0 J-2.0
G1 Y12.0006
G2 X99.6278 Y4.2234 I-13.9073 J-0.0085
G2 X93.3615 Y-0.9276 I-11.7174 J7.8676
G2 X93.3586 Y-0.9288 I-0.7725 J1.8448
G2 X87.9996 Y-2.0 I-5.3535 J12.8419
G1 X12.0007
G2 X4.2234 Y0.3722 I-0.0097 J13.9035
G2 X-0.9276 Y6.6384 I7.8677 J11.7175
G2 X-0.9288 Y6.6414 I1.8448 J0.7725
G2 X-2.0 Y12.0003 I12.8428 J5.3537
G1 Y87.9994
G2 X0.3722 Y95.7764 I13.9103 J0.0073
G2 X6.6384 Y100.9274 I11.7187 J-7.8689
G2 X6.6404 Y100.9283 I0.7726 J-1.8448
G2 X12.0008 Y101.9999 I5.3487 J-12.8121
G1 X40.0
G2 X42.0 Y99.9999 I0.0 J-2.0
G1 F50.0 Z-3.0
G1 F120.0 Y62.0
G1 X99.9999
G2 X101.9999 Y60.0 I0.0 J-2.0
G1 Y12.0006
G2 X99.6278 Y4.2234 I-13.9073 J-0.0085
G2 X93.3615 Y-0.9276 I-11.7174 J7.8676
G2 X93.3586 Y-0.9288 I-0.7725 J1.8448
G2 X87.9996 Y-2.0 I-5.3535 J12.8419
G1 X12.0007
G2 X4.2234 Y0.3722 I-0.0097 J13.9035
G2 X-0.9276 Y6.6384 I7.8677 J11.7175
G2 X-0.9288 Y6.6414 I1.8448 J0.7725
G2 X-2.0 Y12.0003 I12.8428 J5.3537
G1 Y87.9994
G2 X0.3722 Y95.7764 I13.9103 J0.0073
G2 X6.6384 Y100.9274 I11.7187 J-7.8689
G2 X6.6404 Y100.9283 I0.7726 J-1.8448
G2 X12.0008 Y101.9999 I5.3487 J-12.8121
G1 X40.0
G2 X42.0 Y99.9999 I0.0 J-2.0
G1 F50.0 Z-4.0
G1 F120.0 Y62.0
G1 X99.9999
G2 X101.9999 Y60.0 I0.0 J-2.0
G1 Y12.0006
G2 X99.6278 Y4.2234 I-13.9073 J-0.0085
G2 X93.3615 Y-0.9276 I-11.7174 J7.8676
G2 X93.3586 Y-0.9288 I-0.7725 J1.8448
G2 X87.9996 Y-2.0 I-5.3535 J12.8419
G1 X12.0007
G2 X4.2234 Y0.3722 I-0.0097 J13.9035
G2 X-0.9276 Y6.6384 I7.8677 J11.7175
G2 X-0.9288 Y6.6414 I1.8448 J0.7725
G2 X-2.0 Y12.0003 I12.8428 J5.3537
G1 Y87.9994
G2 X0.3722 Y95.7764 I13.9103 J0.0073
G2 X6.6384 Y100.9274 I11.7187 J-7.8689
G2 X6.6404 Y100.9283 I0.7726 J-1.8448
G2 X12.0008 Y101.9999 I5.3487 J-12.8121
G1 X40.0
G2 X42.0 Y99.9999 I0.0 J-2.0
G1 F50.0 Z-4.5
G1 F120.0 Y62.0
G1 X99.9999
G2 X101.9999 Y60.0 I0.0 J-2.0
G1 Y12.0006
G2 X99.6278 Y4.2234 I-13.9073 J-0.0085
G2 X93.3615 Y-0.9276 I-11.7174 J7.8676
G2 X93.3586 Y-0.9288 I-0.7725 J1.8448
G2 X87.9996 Y-2.0 I-5.3535 J12.8419
G1 X12.0007
G2 X4.2234 Y0.3722 I-0.0097 J13.9035
G2 X-0.9276 Y6.6384 I7.8677 J11.7175
G2 X-0.9288 Y6.6414 I1.8448 J0.7725
G2 X-2.0 Y12.0003 I12.8428 J5.3537
G1 Y87.9994
G2 X0.3722 Y95.7764 I13.9103 J0.0073
G2 X6.6384 Y100.9274 I11.7187 J-7.8689
G2 X6.6404 Y100.9283 I0.7726 J-1.8448
G2 X12.0008 Y101.9999 I5.3487 J-12.8121
G1 X40.0
G2 X42.0 Y99.9999 I0.0 J-2.0
G0 Z3.0
M5
M30
