( Made using CamBam - http://www.cambam.co.uk )
( motor mount 11/30/2012 2:59:00 PM )
( T9 : 4.0 )
G21 G90 G64 G40
G0 Z3.0
( T9 : 4.0 )
T9 M6
( Drill1 )
G17
M3 S1000
G0 X10.0273 Y4.9999
G98
G83 X10.0273 Y4.9999 Z-6.0 Q1.0 R2.0 F40.0
G83 X27.25 Y19.75 Z-6.0
G83 Y45.2062 Z-6.0
G83 X52.7501 Y45.2501 Z-6.0
G83 Y19.75 Z-6.0
G83 X69.9999 Y8.492 Z-6.0
G83 Y4.0001 Z-6.0
G80
G0 Z3.0
M5
M30
