( Made using CamBam - http://www.cambam.co.uk )
( motor mount 11/30/2012 2:56:49 PM )
( T4 : 4.0 )
G21 G90 G64 G40
G0 Z3.0
( T4 : 4.0 )
T4 M6
( Profile1 )
G17
M3 S1000
G0 X46.95 Y32.5026
G1 F40.0 Z-0.5
G3 F80.0 X44.9016 Y37.4479 I-6.9713 J0.0092
G2 X44.8979 Y37.4516 I1.4123 J1.4161
G3 X39.9526 Y39.5 I-4.9361 J-4.9232
G2 X39.9474 I-0.0026 J2.0
G3 X35.0021 Y37.4516 I-0.0092 J-6.9713
G2 X34.9984 Y37.4479 I-1.4161 J1.4123
G3 X32.95 Y32.5026 I4.9232 J-4.9361
G2 Y32.4973 I-2.0 J-0.0026
G3 X34.9984 Y27.5521 I6.9713 J-0.0092
G2 X35.0021 Y27.5484 I-1.4123 J-1.4161
G3 X39.9474 Y25.5 I4.9361 J4.9232
G2 X39.9527 I0.0026 J-2.0
G3 X44.8979 Y27.5484 I0.0092 J6.9713
G2 X44.9016 Y27.5521 I1.4161 J-1.4123
G3 X46.95 Y32.4974 I-4.9232 J4.9361
G2 Y32.5026 I2.0 J0.0026
G1 F40.0 Z-1.0
G3 F80.0 X44.9016 Y37.4479 I-6.9713 J0.0092
G2 X44.8979 Y37.4516 I1.4123 J1.4161
G3 X39.9526 Y39.5 I-4.9361 J-4.9232
G2 X39.9474 I-0.0026 J2.0
G3 X35.0021 Y37.4516 I-0.0092 J-6.9713
G2 X34.9984 Y37.4479 I-1.4161 J1.4123
G3 X32.95 Y32.5026 I4.9232 J-4.9361
G2 Y32.4973 I-2.0 J-0.0026
G3 X34.9984 Y27.5521 I6.9713 J-0.0092
G2 X35.0021 Y27.5484 I-1.4123 J-1.4161
G3 X39.9474 Y25.5 I4.9361 J4.9232
G2 X39.9527 I0.0026 J-2.0
G3 X44.8979 Y27.5484 I0.0092 J6.9713
G2 X44.9016 Y27.5521 I1.4161 J-1.4123
G3 X46.95 Y32.4974 I-4.9232 J4.9361
G2 Y32.5026 I2.0 J0.0026
G1 F40.0 Z-1.5
G3 F80.0 X44.9016 Y37.4479 I-6.9713 J0.0092
G2 X44.8979 Y37.4516 I1.4123 J1.4161
G3 X39.9526 Y39.5 I-4.9361 J-4.9232
G2 X39.9474 I-0.0026 J2.0
G3 X35.0021 Y37.4516 I-0.0092 J-6.9713
G2 X34.9984 Y37.4479 I-1.4161 J1.4123
G3 X32.95 Y32.5026 I4.9232 J-4.9361
G2 Y32.4973 I-2.0 J-0.0026
G3 X34.9984 Y27.5521 I6.9713 J-0.0092
G2 X35.0021 Y27.5484 I-1.4123 J-1.4161
G3 X39.9474 Y25.5 I4.9361 J4.9232
G2 X39.9527 I0.0026 J-2.0
G3 X44.8979 Y27.5484 I0.0092 J6.9713
G2 X44.9016 Y27.5521 I1.4161 J-1.4123
G3 X46.95 Y32.4974 I-4.9232 J4.9361
G2 Y32.5026 I2.0 J0.0026
G1 F40.0 Z-2.0
G3 F80.0 X44.9016 Y37.4479 I-6.9713 J0.0092
G2 X44.8979 Y37.4516 I1.4123 J1.4161
G3 X39.9526 Y39.5 I-4.9361 J-4.9232
G2 X39.9474 I-0.0026 J2.0
G3 X35.0021 Y37.4516 I-0.0092 J-6.9713
G2 X34.9984 Y37.4479 I-1.4161 J1.4123
G3 X32.95 Y32.5026 I4.9232 J-4.9361
G2 Y32.4973 I-2.0 J-0.0026
G3 X34.9984 Y27.5521 I6.9713 J-0.0092
G2 X35.0021 Y27.5484 I-1.4123 J-1.4161
G3 X39.9474 Y25.5 I4.9361 J4.9232
G2 X39.9527 I0.0026 J-2.0
G3 X44.8979 Y27.5484 I0.0092 J6.9713
G2 X44.9016 Y27.5521 I1.4161 J-1.4123
G3 X46.95 Y32.4974 I-4.9232 J4.9361
G2 Y32.5026 I2.0 J0.0026
G1 F40.0 Z-2.5
G3 F80.0 X44.9016 Y37.4479 I-6.9713 J0.0092
G2 X44.8979 Y37.4516 I1.4123 J1.4161
G3 X39.9526 Y39.5 I-4.9361 J-4.9232
G2 X39.9474 I-0.0026 J2.0
G3 X35.0021 Y37.4516 I-0.0092 J-6.9713
G2 X34.9984 Y37.4479 I-1.4161 J1.4123
G3 X32.95 Y32.5026 I4.9232 J-4.9361
G2 Y32.4973 I-2.0 J-0.0026
G3 X34.9984 Y27.5521 I6.9713 J-0.0092
G2 X35.0021 Y27.5484 I-1.4123 J-1.4161
G3 X39.9474 Y25.5 I4.9361 J4.9232
G2 X39.9527 I0.0026 J-2.0
G3 X44.8979 Y27.5484 I0.0092 J6.9713
G2 X44.9016 Y27.5521 I1.4161 J-1.4123
G3 X46.95 Y32.4974 I-4.9232 J4.9361
G2 Y32.5026 I2.0 J0.0026
G1 F40.0 Z-3.0
G3 F80.0 X44.9016 Y37.4479 I-6.9713 J0.0092
G2 X44.8979 Y37.4516 I1.4123 J1.4161
G3 X39.9526 Y39.5 I-4.9361 J-4.9232
G2 X39.9474 I-0.0026 J2.0
G3 X35.0021 Y37.4516 I-0.0092 J-6.9713
G2 X34.9984 Y37.4479 I-1.4161 J1.4123
G3 X32.95 Y32.5026 I4.9232 J-4.9361
G2 Y32.4973 I-2.0 J-0.0026
G3 X34.9984 Y27.5521 I6.9713 J-0.0092
G2 X35.0021 Y27.5484 I-1.4123 J-1.4161
G3 X39.9474 Y25.5 I4.9361 J4.9232
G2 X39.9527 I0.0026 J-2.0
G3 X44.8979 Y27.5484 I0.0092 J6.9713
G2 X44.9016 Y27.5521 I1.4161 J-1.4123
G3 X46.95 Y32.4974 I-4.9232 J4.9361
G2 Y32.5026 I2.0 J0.0026
G1 F40.0 Z-3.5
G3 F80.0 X44.9016 Y37.4479 I-6.9713 J0.0092
G2 X44.8979 Y37.4516 I1.4123 J1.4161
G3 X39.9526 Y39.5 I-4.9361 J-4.9232
G2 X39.9474 I-0.0026 J2.0
G3 X35.0021 Y37.4516 I-0.0092 J-6.9713
G2 X34.9984 Y37.4479 I-1.4161 J1.4123
G3 X32.95 Y32.5026 I4.9232 J-4.9361
G2 Y32.4973 I-2.0 J-0.0026
G3 X34.9984 Y27.5521 I6.9713 J-0.0092
G2 X35.0021 Y27.5484 I-1.4123 J-1.4161
G3 X39.9474 Y25.5 I4.9361 J4.9232
G2 X39.9527 I0.0026 J-2.0
G3 X44.8979 Y27.5484 I0.0092 J6.9713
G2 X44.9016 Y27.5521 I1.4161 J-1.4123
G3 X46.95 Y32.4974 I-4.9232 J4.9361
G2 Y32.5026 I2.0 J0.0026
G1 F40.0 Z-4.0
G3 F80.0 X44.9016 Y37.4479 I-6.9713 J0.0092
G2 X44.8979 Y37.4516 I1.4123 J1.4161
G3 X39.9526 Y39.5 I-4.9361 J-4.9232
G2 X39.9474 I-0.0026 J2.0
G3 X35.0021 Y37.4516 I-0.0092 J-6.9713
G2 X34.9984 Y37.4479 I-1.4161 J1.4123
G3 X32.95 Y32.5026 I4.9232 J-4.9361
G2 Y32.4973 I-2.0 J-0.0026
G3 X34.9984 Y27.5521 I6.9713 J-0.0092
G2 X35.0021 Y27.5484 I-1.4123 J-1.4161
G3 X39.9474 Y25.5 I4.9361 J4.9232
G2 X39.9527 I0.0026 J-2.0
G3 X44.8979 Y27.5484 I0.0092 J6.9713
G2 X44.9016 Y27.5521 I1.4161 J-1.4123
G3 X46.95 Y32.4974 I-4.9232 J4.9361
G2 Y32.5026 I2.0 J0.0026
G1 F40.0 Z-4.5
G3 F80.0 X44.9016 Y37.4479 I-6.9713 J0.0092
G2 X44.8979 Y37.4516 I1.4123 J1.4161
G3 X39.9526 Y39.5 I-4.9361 J-4.9232
G2 X39.9474 I-0.0026 J2.0
G3 X35.0021 Y37.4516 I-0.0092 J-6.9713
G2 X34.9984 Y37.4479 I-1.4161 J1.4123
G3 X32.95 Y32.5026 I4.9232 J-4.9361
G2 Y32.4973 I-2.0 J-0.0026
G3 X34.9984 Y27.5521 I6.9713 J-0.0092
G2 X35.0021 Y27.5484 I-1.4123 J-1.4161
G3 X39.9474 Y25.5 I4.9361 J4.9232
G2 X39.9527 I0.0026 J-2.0
G3 X44.8979 Y27.5484 I0.0092 J6.9713
G2 X44.9016 Y27.5521 I1.4161 J-1.4123
G3 X46.95 Y32.4974 I-4.9232 J4.9361
G2 Y32.5026 I2.0 J0.0026
( Profile2 )
S1000
G0 Z3.0
G0 X-2.0 Y9.0066
G1 F40.0 Z-0.5
G2 F80.0 X-1.6197 Y10.9463 I5.2116 J-0.0145
G2 X0.046 Y13.2086 I5.2335 J-2.109
G2 X1.2693 Y13.9674 I3.4756 J-4.2379
G2 X2.7058 Y14.3793 I2.1292 J-4.7141
G2 X2.7094 Y14.3798 I0.2678 J-1.982
G1 X19.2584 Y16.5857
G3 X19.6928 Y16.7332 I-0.1667 J1.2046
G2 X19.6956 Y16.7348 I0.9886 J-1.7386
G3 X20.2859 Y17.3042 I-0.8109 J1.4315
G2 X20.2892 Y17.3095 I1.7034 J-1.048
G3 X20.45 Y17.6667 I-1.2669 J0.7849
G2 X20.4502 Y17.6674 I1.9159 J-0.574
G3 X20.5001 Y18.003 I-1.1334 J0.3401
G1 Y47.0001
G2 Y47.0015 I2.0 J0.0
G2 X21.9666 Y50.5326 I4.9929 J-0.0036
G2 X25.5 Y52.0 I3.5336 J-3.5206
G1 X25.5001
G1 X54.5
G2 X54.5008 I0.0 J-2.0
G2 X58.0329 Y50.5332 I-0.0018 J-4.9905
G2 X59.5 Y47.0003 I-3.5216 J-3.5335
G1 Y47.0001
G1 Y18.0035
G3 X59.5886 Y17.5543 I1.2108 J0.0054
G2 X59.5901 Y17.5506 I-1.8537 J-0.7508
G3 X60.0762 Y16.8905 I1.5249 J0.614
G2 X60.0809 Y16.8867 I-1.2637 J-1.5502
G3 X60.4143 Y16.6798 I0.9483 J1.1561
G2 X60.4202 Y16.6772 I-0.8223 J-1.8231
G3 X60.7365 Y16.5864 I0.4632 J1.0181
G2 X60.7381 Y16.5862 I-0.2627 J-1.9827
G1 X77.2904 Y14.3798
G2 X77.2949 Y14.3792 I-0.2643 J-1.9825
G2 X79.1688 Y13.7457 I-0.6992 J-5.157
G2 X81.1912 Y11.7955 I-2.7824 J-4.9089
G2 X81.7814 Y10.4829 I-4.6695 J-2.8888
G2 X81.9999 Y9.0054 I-4.9622 J-1.4889
G2 Y9.001 I-2.0 J-0.0044
G1 Y3.0
G2 Y2.9987 I-2.0 J0.0
G2 X80.5332 Y-0.5328 I-4.9924 J0.0032
G2 X77.0007 Y-2.0 I-3.5343 J3.5232
G2 X77.0 I-0.0007 J2.0
G1 X3.0
G2 X2.9985 I0.0 J2.0
G2 X-0.5325 Y-0.5335 I0.0036 J4.9929
G2 X-2.0 Y2.9999 I3.5206 J3.5336
G1 Y3.0
G1 Y9.001
G2 Y9.0066 I2.0 J0.0
G1 F40.0 Z-1.0
G2 F80.0 X-1.6197 Y10.9463 I5.2116 J-0.0145
G2 X0.046 Y13.2086 I5.2335 J-2.109
G2 X1.2693 Y13.9674 I3.4756 J-4.2379
G2 X2.7058 Y14.3793 I2.1292 J-4.7141
G2 X2.7094 Y14.3798 I0.2678 J-1.982
G1 X19.2584 Y16.5857
G3 X19.6928 Y16.7332 I-0.1667 J1.2046
G2 X19.6956 Y16.7348 I0.9886 J-1.7386
G3 X20.2859 Y17.3042 I-0.8109 J1.4315
G2 X20.2892 Y17.3095 I1.7034 J-1.048
G3 X20.45 Y17.6667 I-1.2669 J0.7849
G2 X20.4502 Y17.6674 I1.9159 J-0.574
G3 X20.5001 Y18.003 I-1.1334 J0.3401
G1 Y47.0001
G2 Y47.0015 I2.0 J0.0
G2 X21.9666 Y50.5326 I4.9929 J-0.0036
G2 X25.5 Y52.0 I3.5336 J-3.5206
G1 X25.5001
G1 X54.5
G2 X54.5008 I0.0 J-2.0
G2 X58.0329 Y50.5332 I-0.0018 J-4.9905
G2 X59.5 Y47.0003 I-3.5216 J-3.5335
G1 Y47.0001
G1 Y18.0035
G3 X59.5886 Y17.5543 I1.2108 J0.0054
G2 X59.5901 Y17.5506 I-1.8537 J-0.7508
G3 X60.0762 Y16.8905 I1.5249 J0.614
G2 X60.0809 Y16.8867 I-1.2637 J-1.5502
G3 X60.4143 Y16.6798 I0.9483 J1.1561
G2 X60.4202 Y16.6772 I-0.8223 J-1.8231
G3 X60.7365 Y16.5864 I0.4632 J1.0181
G2 X60.7381 Y16.5862 I-0.2627 J-1.9827
G1 X77.2904 Y14.3798
G2 X77.2949 Y14.3792 I-0.2643 J-1.9825
G2 X79.1688 Y13.7457 I-0.6992 J-5.157
G2 X81.1912 Y11.7955 I-2.7824 J-4.9089
G2 X81.7814 Y10.4829 I-4.6695 J-2.8888
G2 X81.9999 Y9.0054 I-4.9622 J-1.4889
G2 Y9.001 I-2.0 J-0.0044
G1 Y3.0
G2 Y2.9987 I-2.0 J0.0
G2 X80.5332 Y-0.5328 I-4.9924 J0.0032
G2 X77.0007 Y-2.0 I-3.5343 J3.5232
G2 X77.0 I-0.0007 J2.0
G1 X3.0
G2 X2.9985 I0.0 J2.0
G2 X-0.5325 Y-0.5335 I0.0036 J4.9929
G2 X-2.0 Y2.9999 I3.5206 J3.5336
G1 Y3.0
G1 Y9.001
G2 Y9.0066 I2.0 J0.0
G1 F40.0 Z-1.5
G2 F80.0 X-1.6197 Y10.9463 I5.2116 J-0.0145
G2 X0.046 Y13.2086 I5.2335 J-2.109
G2 X1.2693 Y13.9674 I3.4756 J-4.2379
G2 X2.7058 Y14.3793 I2.1292 J-4.7141
G2 X2.7094 Y14.3798 I0.2678 J-1.982
G1 X19.2584 Y16.5857
G3 X19.6928 Y16.7332 I-0.1667 J1.2046
G2 X19.6956 Y16.7348 I0.9886 J-1.7386
G3 X20.2859 Y17.3042 I-0.8109 J1.4315
G2 X20.2892 Y17.3095 I1.7034 J-1.048
G3 X20.45 Y17.6667 I-1.2669 J0.7849
G2 X20.4502 Y17.6674 I1.9159 J-0.574
G3 X20.5001 Y18.003 I-1.1334 J0.3401
G1 Y47.0001
G2 Y47.0015 I2.0 J0.0
G2 X21.9666 Y50.5326 I4.9929 J-0.0036
G2 X25.5 Y52.0 I3.5336 J-3.5206
G1 X25.5001
G1 X54.5
G2 X54.5008 I0.0 J-2.0
G2 X58.0329 Y50.5332 I-0.0018 J-4.9905
G2 X59.5 Y47.0003 I-3.5216 J-3.5335
G1 Y47.0001
G1 Y18.0035
G3 X59.5886 Y17.5543 I1.2108 J0.0054
G2 X59.5901 Y17.5506 I-1.8537 J-0.7508
G3 X60.0762 Y16.8905 I1.5249 J0.614
G2 X60.0809 Y16.8867 I-1.2637 J-1.5502
G3 X60.4143 Y16.6798 I0.9483 J1.1561
G2 X60.4202 Y16.6772 I-0.8223 J-1.8231
G3 X60.7365 Y16.5864 I0.4632 J1.0181
G2 X60.7381 Y16.5862 I-0.2627 J-1.9827
G1 X77.2904 Y14.3798
G2 X77.2949 Y14.3792 I-0.2643 J-1.9825
G2 X79.1688 Y13.7457 I-0.6992 J-5.157
G2 X81.1912 Y11.7955 I-2.7824 J-4.9089
G2 X81.7814 Y10.4829 I-4.6695 J-2.8888
G2 X81.9999 Y9.0054 I-4.9622 J-1.4889
G2 Y9.001 I-2.0 J-0.0044
G1 Y3.0
G2 Y2.9987 I-2.0 J0.0
G2 X80.5332 Y-0.5328 I-4.9924 J0.0032
G2 X77.0007 Y-2.0 I-3.5343 J3.5232
G2 X77.0 I-0.0007 J2.0
G1 X3.0
G2 X2.9985 I0.0 J2.0
G2 X-0.5325 Y-0.5335 I0.0036 J4.9929
G2 X-2.0 Y2.9999 I3.5206 J3.5336
G1 Y3.0
G1 Y9.001
G2 Y9.0066 I2.0 J0.0
G1 F40.0 Z-2.0
G2 F80.0 X-1.6197 Y10.9463 I5.2116 J-0.0145
G2 X0.046 Y13.2086 I5.2335 J-2.109
G2 X1.2693 Y13.9674 I3.4756 J-4.2379
G2 X2.7058 Y14.3793 I2.1292 J-4.7141
G2 X2.7094 Y14.3798 I0.2678 J-1.982
G1 X19.2584 Y16.5857
G3 X19.6928 Y16.7332 I-0.1667 J1.2046
G2 X19.6956 Y16.7348 I0.9886 J-1.7386
G3 X20.2859 Y17.3042 I-0.8109 J1.4315
G2 X20.2892 Y17.3095 I1.7034 J-1.048
G3 X20.45 Y17.6667 I-1.2669 J0.7849
G2 X20.4502 Y17.6674 I1.9159 J-0.574
G3 X20.5001 Y18.003 I-1.1334 J0.3401
G1 Y47.0001
G2 Y47.0015 I2.0 J0.0
G2 X21.9666 Y50.5326 I4.9929 J-0.0036
G2 X25.5 Y52.0 I3.5336 J-3.5206
G1 X25.5001
G1 X54.5
G2 X54.5008 I0.0 J-2.0
G2 X58.0329 Y50.5332 I-0.0018 J-4.9905
G2 X59.5 Y47.0003 I-3.5216 J-3.5335
G1 Y47.0001
G1 Y18.0035
G3 X59.5886 Y17.5543 I1.2108 J0.0054
G2 X59.5901 Y17.5506 I-1.8537 J-0.7508
G3 X60.0762 Y16.8905 I1.5249 J0.614
G2 X60.0809 Y16.8867 I-1.2637 J-1.5502
G3 X60.4143 Y16.6798 I0.9483 J1.1561
G2 X60.4202 Y16.6772 I-0.8223 J-1.8231
G3 X60.7365 Y16.5864 I0.4632 J1.0181
G2 X60.7381 Y16.5862 I-0.2627 J-1.9827
G1 X77.2904 Y14.3798
G2 X77.2949 Y14.3792 I-0.2643 J-1.9825
G2 X79.1688 Y13.7457 I-0.6992 J-5.157
G2 X81.1912 Y11.7955 I-2.7824 J-4.9089
G2 X81.7814 Y10.4829 I-4.6695 J-2.8888
G2 X81.9999 Y9.0054 I-4.9622 J-1.4889
G2 Y9.001 I-2.0 J-0.0044
G1 Y3.0
G2 Y2.9987 I-2.0 J0.0
G2 X80.5332 Y-0.5328 I-4.9924 J0.0032
G2 X77.0007 Y-2.0 I-3.5343 J3.5232
G2 X77.0 I-0.0007 J2.0
G1 X3.0
G2 X2.9985 I0.0 J2.0
G2 X-0.5325 Y-0.5335 I0.0036 J4.9929
G2 X-2.0 Y2.9999 I3.5206 J3.5336
G1 Y3.0
G1 Y9.001
G2 Y9.0066 I2.0 J0.0
G1 F40.0 Z-2.5
G2 F80.0 X-1.6197 Y10.9463 I5.2116 J-0.0145
G2 X0.046 Y13.2086 I5.2335 J-2.109
G2 X1.2693 Y13.9674 I3.4756 J-4.2379
G2 X2.7058 Y14.3793 I2.1292 J-4.7141
G2 X2.7094 Y14.3798 I0.2678 J-1.982
G1 X19.2584 Y16.5857
G3 X19.6928 Y16.7332 I-0.1667 J1.2046
G2 X19.6956 Y16.7348 I0.9886 J-1.7386
G3 X20.2859 Y17.3042 I-0.8109 J1.4315
G2 X20.2892 Y17.3095 I1.7034 J-1.048
G3 X20.45 Y17.6667 I-1.2669 J0.7849
G2 X20.4502 Y17.6674 I1.9159 J-0.574
G3 X20.5001 Y18.003 I-1.1334 J0.3401
G1 Y47.0001
G2 Y47.0015 I2.0 J0.0
G2 X21.9666 Y50.5326 I4.9929 J-0.0036
G2 X25.5 Y52.0 I3.5336 J-3.5206
G1 X25.5001
G1 X54.5
G2 X54.5008 I0.0 J-2.0
G2 X58.0329 Y50.5332 I-0.0018 J-4.9905
G2 X59.5 Y47.0003 I-3.5216 J-3.5335
G1 Y47.0001
G1 Y18.0035
G3 X59.5886 Y17.5543 I1.2108 J0.0054
G2 X59.5901 Y17.5506 I-1.8537 J-0.7508
G3 X60.0762 Y16.8905 I1.5249 J0.614
G2 X60.0809 Y16.8867 I-1.2637 J-1.5502
G3 X60.4143 Y16.6798 I0.9483 J1.1561
G2 X60.4202 Y16.6772 I-0.8223 J-1.8231
G3 X60.7365 Y16.5864 I0.4632 J1.0181
G2 X60.7381 Y16.5862 I-0.2627 J-1.9827
G1 X77.2904 Y14.3798
G2 X77.2949 Y14.3792 I-0.2643 J-1.9825
G2 X79.1688 Y13.7457 I-0.6992 J-5.157
G2 X81.1912 Y11.7955 I-2.7824 J-4.9089
G2 X81.7814 Y10.4829 I-4.6695 J-2.8888
G2 X81.9999 Y9.0054 I-4.9622 J-1.4889
G2 Y9.001 I-2.0 J-0.0044
G1 Y3.0
G2 Y2.9987 I-2.0 J0.0
G2 X80.5332 Y-0.5328 I-4.9924 J0.0032
G2 X77.0007 Y-2.0 I-3.5343 J3.5232
G2 X77.0 I-0.0007 J2.0
G1 X3.0
G2 X2.9985 I0.0 J2.0
G2 X-0.5325 Y-0.5335 I0.0036 J4.9929
G2 X-2.0 Y2.9999 I3.5206 J3.5336
G1 Y3.0
G1 Y9.001
G2 Y9.0066 I2.0 J0.0
G1 F40.0 Z-3.0
G2 F80.0 X-1.6197 Y10.9463 I5.2116 J-0.0145
G2 X0.046 Y13.2086 I5.2335 J-2.109
G2 X1.2693 Y13.9674 I3.4756 J-4.2379
G2 X2.7058 Y14.3793 I2.1292 J-4.7141
G2 X2.7094 Y14.3798 I0.2678 J-1.982
G1 X19.2584 Y16.5857
G3 X19.6928 Y16.7332 I-0.1667 J1.2046
G2 X19.6956 Y16.7348 I0.9886 J-1.7386
G3 X20.2859 Y17.3042 I-0.8109 J1.4315
G2 X20.2892 Y17.3095 I1.7034 J-1.048
G3 X20.45 Y17.6667 I-1.2669 J0.7849
G2 X20.4502 Y17.6674 I1.9159 J-0.574
G3 X20.5001 Y18.003 I-1.1334 J0.3401
G1 Y47.0001
G2 Y47.0015 I2.0 J0.0
G2 X21.9666 Y50.5326 I4.9929 J-0.0036
G2 X25.5 Y52.0 I3.5336 J-3.5206
G1 X25.5001
G1 X54.5
G2 X54.5008 I0.0 J-2.0
G2 X58.0329 Y50.5332 I-0.0018 J-4.9905
G2 X59.5 Y47.0003 I-3.5216 J-3.5335
G1 Y47.0001
G1 Y18.0035
G3 X59.5886 Y17.5543 I1.2108 J0.0054
G2 X59.5901 Y17.5506 I-1.8537 J-0.7508
G3 X60.0762 Y16.8905 I1.5249 J0.614
G2 X60.0809 Y16.8867 I-1.2637 J-1.5502
G3 X60.4143 Y16.6798 I0.9483 J1.1561
G2 X60.4202 Y16.6772 I-0.8223 J-1.8231
G3 X60.7365 Y16.5864 I0.4632 J1.0181
G2 X60.7381 Y16.5862 I-0.2627 J-1.9827
G1 X77.2904 Y14.3798
G2 X77.2949 Y14.3792 I-0.2643 J-1.9825
G2 X79.1688 Y13.7457 I-0.6992 J-5.157
G2 X81.1912 Y11.7955 I-2.7824 J-4.9089
G2 X81.7814 Y10.4829 I-4.6695 J-2.8888
G2 X81.9999 Y9.0054 I-4.9622 J-1.4889
G2 Y9.001 I-2.0 J-0.0044
G1 Y3.0
G2 Y2.9987 I-2.0 J0.0
G2 X80.5332 Y-0.5328 I-4.9924 J0.0032
G2 X77.0007 Y-2.0 I-3.5343 J3.5232
G2 X77.0 I-0.0007 J2.0
G1 X3.0
G2 X2.9985 I0.0 J2.0
G2 X-0.5325 Y-0.5335 I0.0036 J4.9929
G2 X-2.0 Y2.9999 I3.5206 J3.5336
G1 Y3.0
G1 Y9.001
G2 Y9.0066 I2.0 J0.0
G1 F40.0 Z-3.5
G2 F80.0 X-1.6197 Y10.9463 I5.2116 J-0.0145
G2 X0.046 Y13.2086 I5.2335 J-2.109
G2 X1.2693 Y13.9674 I3.4756 J-4.2379
G2 X2.7058 Y14.3793 I2.1292 J-4.7141
G2 X2.7094 Y14.3798 I0.2678 J-1.982
G1 X19.2584 Y16.5857
G3 X19.6928 Y16.7332 I-0.1667 J1.2046
G2 X19.6956 Y16.7348 I0.9886 J-1.7386
G3 X20.2859 Y17.3042 I-0.8109 J1.4315
G2 X20.2892 Y17.3095 I1.7034 J-1.048
G3 X20.45 Y17.6667 I-1.2669 J0.7849
G2 X20.4502 Y17.6674 I1.9159 J-0.574
G3 X20.5001 Y18.003 I-1.1334 J0.3401
G1 Y47.0001
G2 Y47.0015 I2.0 J0.0
G2 X21.9666 Y50.5326 I4.9929 J-0.0036
G2 X25.5 Y52.0 I3.5336 J-3.5206
G1 X25.5001
G1 X54.5
G2 X54.5008 I0.0 J-2.0
G2 X58.0329 Y50.5332 I-0.0018 J-4.9905
G2 X59.5 Y47.0003 I-3.5216 J-3.5335
G1 Y47.0001
G1 Y18.0035
G3 X59.5886 Y17.5543 I1.2108 J0.0054
G2 X59.5901 Y17.5506 I-1.8537 J-0.7508
G3 X60.0762 Y16.8905 I1.5249 J0.614
G2 X60.0809 Y16.8867 I-1.2637 J-1.5502
G3 X60.4143 Y16.6798 I0.9483 J1.1561
G2 X60.4202 Y16.6772 I-0.8223 J-1.8231
G3 X60.7365 Y16.5864 I0.4632 J1.0181
G2 X60.7381 Y16.5862 I-0.2627 J-1.9827
G1 X77.2904 Y14.3798
G2 X77.2949 Y14.3792 I-0.2643 J-1.9825
G2 X79.1688 Y13.7457 I-0.6992 J-5.157
G2 X81.1912 Y11.7955 I-2.7824 J-4.9089
G2 X81.7814 Y10.4829 I-4.6695 J-2.8888
G2 X81.9999 Y9.0054 I-4.9622 J-1.4889
G2 Y9.001 I-2.0 J-0.0044
G1 Y3.0
G2 Y2.9987 I-2.0 J0.0
G2 X80.5332 Y-0.5328 I-4.9924 J0.0032
G2 X77.0007 Y-2.0 I-3.5343 J3.5232
G2 X77.0 I-0.0007 J2.0
G1 X3.0
G2 X2.9985 I0.0 J2.0
G2 X-0.5325 Y-0.5335 I0.0036 J4.9929
G2 X-2.0 Y2.9999 I3.5206 J3.5336
G1 Y3.0
G1 Y9.001
G2 Y9.0066 I2.0 J0.0
G1 F40.0 Z-4.0
G2 F80.0 X-1.6197 Y10.9463 I5.2116 J-0.0145
G2 X0.046 Y13.2086 I5.2335 J-2.109
G2 X1.2693 Y13.9674 I3.4756 J-4.2379
G2 X2.7058 Y14.3793 I2.1292 J-4.7141
G2 X2.7094 Y14.3798 I0.2678 J-1.982
G1 X19.2584 Y16.5857
G3 X19.6928 Y16.7332 I-0.1667 J1.2046
G2 X19.6956 Y16.7348 I0.9886 J-1.7386
G3 X20.2859 Y17.3042 I-0.8109 J1.4315
G2 X20.2892 Y17.3095 I1.7034 J-1.048
G3 X20.45 Y17.6667 I-1.2669 J0.7849
G2 X20.4502 Y17.6674 I1.9159 J-0.574
G3 X20.5001 Y18.003 I-1.1334 J0.3401
G1 Y47.0001
G2 Y47.0015 I2.0 J0.0
G2 X21.9666 Y50.5326 I4.9929 J-0.0036
G2 X25.5 Y52.0 I3.5336 J-3.5206
G1 X25.5001
G1 X54.5
G2 X54.5008 I0.0 J-2.0
G2 X58.0329 Y50.5332 I-0.0018 J-4.9905
G2 X59.5 Y47.0003 I-3.5216 J-3.5335
G1 Y47.0001
G1 Y18.0035
G3 X59.5886 Y17.5543 I1.2108 J0.0054
G2 X59.5901 Y17.5506 I-1.8537 J-0.7508
G3 X60.0762 Y16.8905 I1.5249 J0.614
G2 X60.0809 Y16.8867 I-1.2637 J-1.5502
G3 X60.4143 Y16.6798 I0.9483 J1.1561
G2 X60.4202 Y16.6772 I-0.8223 J-1.8231
G3 X60.7365 Y16.5864 I0.4632 J1.0181
G2 X60.7381 Y16.5862 I-0.2627 J-1.9827
G1 X77.2904 Y14.3798
G2 X77.2949 Y14.3792 I-0.2643 J-1.9825
G2 X79.1688 Y13.7457 I-0.6992 J-5.157
G2 X81.1912 Y11.7955 I-2.7824 J-4.9089
G2 X81.7814 Y10.4829 I-4.6695 J-2.8888
G2 X81.9999 Y9.0054 I-4.9622 J-1.4889
G2 Y9.001 I-2.0 J-0.0044
G1 Y3.0
G2 Y2.9987 I-2.0 J0.0
G2 X80.5332 Y-0.5328 I-4.9924 J0.0032
G2 X77.0007 Y-2.0 I-3.5343 J3.5232
G2 X77.0 I-0.0007 J2.0
G1 X3.0
G2 X2.9985 I0.0 J2.0
G2 X-0.5325 Y-0.5335 I0.0036 J4.9929
G2 X-2.0 Y2.9999 I3.5206 J3.5336
G1 Y3.0
G1 Y9.001
G2 Y9.0066 I2.0 J0.0
G1 F40.0 Z-4.5
G2 F80.0 X-1.6197 Y10.9463 I5.2116 J-0.0145
G2 X0.046 Y13.2086 I5.2335 J-2.109
G2 X1.2693 Y13.9674 I3.4756 J-4.2379
G2 X2.7058 Y14.3793 I2.1292 J-4.7141
G2 X2.7094 Y14.3798 I0.2678 J-1.982
G1 X19.2584 Y16.5857
G3 X19.6928 Y16.7332 I-0.1667 J1.2046
G2 X19.6956 Y16.7348 I0.9886 J-1.7386
G3 X20.2859 Y17.3042 I-0.8109 J1.4315
G2 X20.2892 Y17.3095 I1.7034 J-1.048
G3 X20.45 Y17.6667 I-1.2669 J0.7849
G2 X20.4502 Y17.6674 I1.9159 J-0.574
G3 X20.5001 Y18.003 I-1.1334 J0.3401
G1 Y47.0001
G2 Y47.0015 I2.0 J0.0
G2 X21.9666 Y50.5326 I4.9929 J-0.0036
G2 X25.5 Y52.0 I3.5336 J-3.5206
G1 X25.5001
G1 X54.5
G2 X54.5008 I0.0 J-2.0
G2 X58.0329 Y50.5332 I-0.0018 J-4.9905
G2 X59.5 Y47.0003 I-3.5216 J-3.5335
G1 Y47.0001
G1 Y18.0035
G3 X59.5886 Y17.5543 I1.2108 J0.0054
G2 X59.5901 Y17.5506 I-1.8537 J-0.7508
G3 X60.0762 Y16.8905 I1.5249 J0.614
G2 X60.0809 Y16.8867 I-1.2637 J-1.5502
G3 X60.4143 Y16.6798 I0.9483 J1.1561
G2 X60.4202 Y16.6772 I-0.8223 J-1.8231
G3 X60.7365 Y16.5864 I0.4632 J1.0181
G2 X60.7381 Y16.5862 I-0.2627 J-1.9827
G1 X77.2904 Y14.3798
G2 X77.2949 Y14.3792 I-0.2643 J-1.9825
G2 X79.1688 Y13.7457 I-0.6992 J-5.157
G2 X81.1912 Y11.7955 I-2.7824 J-4.9089
G2 X81.7814 Y10.4829 I-4.6695 J-2.8888
G2 X81.9999 Y9.0054 I-4.9622 J-1.4889
G2 Y9.001 I-2.0 J-0.0044
G1 Y3.0
G2 Y2.9987 I-2.0 J0.0
G2 X80.5332 Y-0.5328 I-4.9924 J0.0032
G2 X77.0007 Y-2.0 I-3.5343 J3.5232
G2 X77.0 I-0.0007 J2.0
G1 X3.0
G2 X2.9985 I0.0 J2.0
G2 X-0.5325 Y-0.5335 I0.0036 J4.9929
G2 X-2.0 Y2.9999 I3.5206 J3.5336
G1 Y3.0
G1 Y9.001
G2 Y9.0066 I2.0 J0.0
G0 Z3.0
M5
M30
