( Made using CamBam - http://www.cambam.co.uk )
( End Stops 2 9/27/2013 2:02:30 PM )
( T16 : 1.0 )
G21 G90 G64 G40
G0 Z3.0
( T16 : 1.0 )
T16 M6
( Spot Drill )
G17
M3 S1000
G0 X10.0003 Y45.4999
G98
G81 X10.0003 Y45.4999 Z-2.0 R3.0 F50.0
G81 X30.0001 Y45.5002 Z-2.0
G81 X35.188 Y29.9998 Z-2.0
G81 X55.1878 Y30.0001 Z-2.0
G81 X30.0001 Y9.9999 Z-2.0
G81 X10.0002 Y10.0001 Z-2.0
G81 X35.1879 Y65.5001 Z-2.0
G81 X55.1879 Y65.4999 Z-2.0
G80
G0 Z3.0
M5
M30
