( Made using CamBam - http://www.cambam.co.uk )
( End Stops 2 9/27/2013 2:02:41 PM )
( T11 : 5.0 )
G21 G90 G64 G40
G0 Z3.0
( T11 : 5.0 )
T11 M6
( 5mm Drill )
G17
M3 S1000
G0 X10.0003 Y45.4999
G98
G83 X10.0003 Y45.4999 Z-6.0 Q2.0 R2.0 F50.0
G83 X30.0001 Y45.5002 Z-6.0
G83 X35.188 Y29.9998 Z-6.0
G83 X55.1878 Y30.0001 Z-6.0
G83 X30.0001 Y9.9999 Z-6.0
G83 X10.0002 Y10.0001 Z-6.0
G83 X35.1879 Y65.5001 Z-6.0
G83 X55.1879 Y65.4999 Z-6.0
G80
G0 Z3.0
M5
M30
