( Made using CamBam - http://www.cambam.co.uk )
( End Stops 2 9/27/2013 2:04:26 PM )
( T4 : 4.0 )
G21 G90 G64 G40
G0 Z3.0
( T4 : 4.0 )
T4 M6
( Profile1 )
G17
M3 S1000
G0 X-0.8261 Y60.8275
G0 Z1.0
G1 F50.0 Z-1.0
G2 F120.0 X1.9983 Y62.0001 I2.8278 J-2.8232
G2 X2.0001 I0.0017 J-2.0
G1 X18.0001
G1 X18.0
G1 X18.0001
G2 X20.8275 Y60.8262 I0.0001 J-3.9916
G2 X22.0002 Y58.0018 I-2.8232 J-2.8278
G2 Y58.0001 I-2.0 J-0.0017
G1 Y52.5036
G2 X22.0036 Y52.5001 I-1.4125 J-1.4159
G1 X37.9999
G1 X37.9998
G1 X37.9999
G2 X40.8273 Y51.3262 I0.0001 J-3.9916
G2 X42.0 Y48.5018 I-2.8232 J-2.8278
G2 Y48.5001 I-2.0 J-0.0017
G1 Y42.5001
G1 Y42.5002
G1 Y42.5001
G2 X40.826 Y39.6727 I-3.9916 J-0.0001
G2 X38.0016 Y38.5 I-2.8278 J2.8232
G2 X37.9999 I-0.0017 J2.0
G1 X22.0036
G2 X22.0002 Y38.4966 I-1.4159 J1.4125
G1 Y22.0036
G2 X22.0036 Y22.0002 I-1.4125 J-1.4159
G1 X38.0001
G1 X38.0
G1 X38.0001
G2 X40.8275 Y20.8262 I0.0001 J-3.9916
G2 X42.0001 Y18.0018 I-2.8232 J-2.8278
G2 Y18.0001 I-2.0 J-0.0017
G1 Y2.0001
G2 X40.8262 Y-0.8273 I-3.9916 J-0.0001
G2 X38.0018 Y-2.0 I-2.8278 J2.8232
G2 X38.0001 I-0.0017 J2.0
G1 X22.0002
G1 X18.0001
G1 X2.0001
G2 X-0.8273 Y-0.8261 I-0.0001 J3.9916
G2 X-2.0 Y1.9983 I2.8232 J2.8278
G2 Y2.0001 I2.0 J0.0017
G1 Y18.0001
G1 Y22.0002
G1 Y38.4998
G1 Y42.4999
G1 Y48.4999
G1 Y52.5
G1 Y58.0
G1 Y58.0001
G1 Y58.0
G2 X-0.8261 Y60.8275 I3.9916 J0.0001
G1 F50.0 Z-2.0
G2 F120.0 X1.9983 Y62.0001 I2.8278 J-2.8232
G2 X2.0001 I0.0017 J-2.0
G1 X18.0001
G1 X18.0
G1 X18.0001
G2 X20.8275 Y60.8262 I0.0001 J-3.9916
G2 X22.0002 Y58.0018 I-2.8232 J-2.8278
G2 Y58.0001 I-2.0 J-0.0017
G1 Y52.5036
G2 X22.0036 Y52.5001 I-1.4125 J-1.4159
G1 X37.9999
G1 X37.9998
G1 X37.9999
G2 X40.8273 Y51.3262 I0.0001 J-3.9916
G2 X42.0 Y48.5018 I-2.8232 J-2.8278
G2 Y48.5001 I-2.0 J-0.0017
G1 Y42.5001
G1 Y42.5002
G1 Y42.5001
G2 X40.826 Y39.6727 I-3.9916 J-0.0001
G2 X38.0016 Y38.5 I-2.8278 J2.8232
G2 X37.9999 I-0.0017 J2.0
G1 X22.0036
G2 X22.0002 Y38.4966 I-1.4159 J1.4125
G1 Y22.0036
G2 X22.0036 Y22.0002 I-1.4125 J-1.4159
G1 X38.0001
G1 X38.0
G1 X38.0001
G2 X40.8275 Y20.8262 I0.0001 J-3.9916
G2 X42.0001 Y18.0018 I-2.8232 J-2.8278
G2 Y18.0001 I-2.0 J-0.0017
G1 Y2.0001
G2 X40.8262 Y-0.8273 I-3.9916 J-0.0001
G2 X38.0018 Y-2.0 I-2.8278 J2.8232
G2 X38.0001 I-0.0017 J2.0
G1 X22.0002
G1 X18.0001
G1 X2.0001
G2 X-0.8273 Y-0.8261 I-0.0001 J3.9916
G2 X-2.0 Y1.9983 I2.8232 J2.8278
G2 Y2.0001 I2.0 J0.0017
G1 Y18.0001
G1 Y22.0002
G1 Y38.4998
G1 Y42.4999
G1 Y48.4999
G1 Y52.5
G1 Y58.0
G1 Y58.0001
G1 Y58.0
G2 X-0.8261 Y60.8275 I3.9916 J0.0001
G1 F50.0 Z-3.0
G2 F120.0 X1.9983 Y62.0001 I2.8278 J-2.8232
G2 X2.0001 I0.0017 J-2.0
G1 X18.0001
G1 X18.0
G1 X18.0001
G2 X20.8275 Y60.8262 I0.0001 J-3.9916
G2 X22.0002 Y58.0018 I-2.8232 J-2.8278
G2 Y58.0001 I-2.0 J-0.0017
G1 Y52.5036
G2 X22.0036 Y52.5001 I-1.4125 J-1.4159
G1 X37.9999
G1 X37.9998
G1 X37.9999
G2 X40.8273 Y51.3262 I0.0001 J-3.9916
G2 X42.0 Y48.5018 I-2.8232 J-2.8278
G2 Y48.5001 I-2.0 J-0.0017
G1 Y42.5001
G1 Y42.5002
G1 Y42.5001
G2 X40.826 Y39.6727 I-3.9916 J-0.0001
G2 X38.0016 Y38.5 I-2.8278 J2.8232
G2 X37.9999 I-0.0017 J2.0
G1 X22.0036
G2 X22.0002 Y38.4966 I-1.4159 J1.4125
G1 Y22.0036
G2 X22.0036 Y22.0002 I-1.4125 J-1.4159
G1 X38.0001
G1 X38.0
G1 X38.0001
G2 X40.8275 Y20.8262 I0.0001 J-3.9916
G2 X42.0001 Y18.0018 I-2.8232 J-2.8278
G2 Y18.0001 I-2.0 J-0.0017
G1 Y2.0001
G2 X40.8262 Y-0.8273 I-3.9916 J-0.0001
G2 X38.0018 Y-2.0 I-2.8278 J2.8232
G2 X38.0001 I-0.0017 J2.0
G1 X22.0002
G1 X18.0001
G1 X2.0001
G2 X-0.8273 Y-0.8261 I-0.0001 J3.9916
G2 X-2.0 Y1.9983 I2.8232 J2.8278
G2 Y2.0001 I2.0 J0.0017
G1 Y18.0001
G1 Y22.0002
G1 Y38.4998
G1 Y42.4999
G1 Y48.4999
G1 Y52.5
G1 Y58.0
G1 Y58.0001
G1 Y58.0
G2 X-0.8261 Y60.8275 I3.9916 J0.0001
G1 F50.0 Z-4.0
G2 F120.0 X1.9983 Y62.0001 I2.8278 J-2.8232
G2 X2.0001 I0.0017 J-2.0
G1 X18.0001
G1 X18.0
G1 X18.0001
G2 X20.8275 Y60.8262 I0.0001 J-3.9916
G2 X22.0002 Y58.0018 I-2.8232 J-2.8278
G2 Y58.0001 I-2.0 J-0.0017
G1 Y52.5036
G2 X22.0036 Y52.5001 I-1.4125 J-1.4159
G1 X37.9999
G1 X37.9998
G1 X37.9999
G2 X40.8273 Y51.3262 I0.0001 J-3.9916
G2 X42.0 Y48.5018 I-2.8232 J-2.8278
G2 Y48.5001 I-2.0 J-0.0017
G1 Y42.5001
G1 Y42.5002
G1 Y42.5001
G2 X40.826 Y39.6727 I-3.9916 J-0.0001
G2 X38.0016 Y38.5 I-2.8278 J2.8232
G2 X37.9999 I-0.0017 J2.0
G1 X22.0036
G2 X22.0002 Y38.4966 I-1.4159 J1.4125
G1 Y22.0036
G2 X22.0036 Y22.0002 I-1.4125 J-1.4159
G1 X38.0001
G1 X38.0
G1 X38.0001
G2 X40.8275 Y20.8262 I0.0001 J-3.9916
G2 X42.0001 Y18.0018 I-2.8232 J-2.8278
G2 Y18.0001 I-2.0 J-0.0017
G1 Y2.0001
G2 X40.8262 Y-0.8273 I-3.9916 J-0.0001
G2 X38.0018 Y-2.0 I-2.8278 J2.8232
G2 X38.0001 I-0.0017 J2.0
G1 X22.0002
G1 X18.0001
G1 X2.0001
G2 X-0.8273 Y-0.8261 I-0.0001 J3.9916
G2 X-2.0 Y1.9983 I2.8232 J2.8278
G2 Y2.0001 I2.0 J0.0017
G1 Y18.0001
G1 Y22.0002
G1 Y38.4998
G1 Y42.4999
G1 Y48.4999
G1 Y52.5
G1 Y58.0
G1 Y58.0001
G1 Y58.0
G2 X-0.8261 Y60.8275 I3.9916 J0.0001
G1 F50.0 Z-4.5
G2 F120.0 X1.9983 Y62.0001 I2.8278 J-2.8232
G2 X2.0001 I0.0017 J-2.0
G1 X18.0001
G1 X18.0
G1 X18.0001
G2 X20.8275 Y60.8262 I0.0001 J-3.9916
G2 X22.0002 Y58.0018 I-2.8232 J-2.8278
G2 Y58.0001 I-2.0 J-0.0017
G1 Y52.5036
G2 X22.0036 Y52.5001 I-1.4125 J-1.4159
G1 X37.9999
G1 X37.9998
G1 X37.9999
G2 X40.8273 Y51.3262 I0.0001 J-3.9916
G2 X42.0 Y48.5018 I-2.8232 J-2.8278
G2 Y48.5001 I-2.0 J-0.0017
G1 Y42.5001
G1 Y42.5002
G1 Y42.5001
G2 X40.826 Y39.6727 I-3.9916 J-0.0001
G2 X38.0016 Y38.5 I-2.8278 J2.8232
G2 X37.9999 I-0.0017 J2.0
G1 X22.0036
G2 X22.0002 Y38.4966 I-1.4159 J1.4125
G1 Y22.0036
G2 X22.0036 Y22.0002 I-1.4125 J-1.4159
G1 X38.0001
G1 X38.0
G1 X38.0001
G2 X40.8275 Y20.8262 I0.0001 J-3.9916
G2 X42.0001 Y18.0018 I-2.8232 J-2.8278
G2 Y18.0001 I-2.0 J-0.0017
G1 Y2.0001
G2 X40.8262 Y-0.8273 I-3.9916 J-0.0001
G2 X38.0018 Y-2.0 I-2.8278 J2.8232
G2 X38.0001 I-0.0017 J2.0
G1 X22.0002
G1 X18.0001
G1 X2.0001
G2 X-0.8273 Y-0.8261 I-0.0001 J3.9916
G2 X-2.0 Y1.9983 I2.8232 J2.8278
G2 Y2.0001 I2.0 J0.0017
G1 Y18.0001
G1 Y22.0002
G1 Y38.4998
G1 Y42.4999
G1 Y48.4999
G1 Y52.5
G1 Y58.0
G1 Y58.0001
G1 Y58.0
G2 X-0.8261 Y60.8275 I3.9916 J0.0001
( Profile2 )
S1000
G0 Z3.0
G0 X66.2655 Y14.9476
G0 Z1.0
G1 F50.0 Z-1.0
G2 F120.0 X66.0142 Y14.6725 I-3.069 J2.5522
G2 X63.1897 Y13.4998 I-2.8278 J2.8232
G2 X63.188 I-0.0017 J2.0
G1 X47.188
G1 X47.1881
G1 X47.188
G2 X44.3606 Y14.6738 I-0.0001 J3.9916
G2 X43.1879 Y17.4982 I2.8232 J2.8278
G2 Y17.4999 I2.0 J0.0017
G1 Y22.9964
G2 X43.1845 Y22.9999 I1.4125 J1.4159
G1 X27.1882
G1 X27.1883
G1 X27.1882
G2 X24.3608 Y24.1738 I-0.0001 J3.9916
G2 X23.1881 Y26.9982 I2.8232 J2.8278
G2 Y26.9999 I2.0 J0.0017
G1 Y32.9998
G1 Y32.9999
G1 Y32.9998
G2 X24.3621 Y35.8273 I3.9916 J0.0001
G2 X27.1865 Y36.9999 I2.8278 J-2.8232
G2 X27.1882 I0.0017 J-2.0
G1 X43.1845
G2 X43.1879 Y37.0034 I1.4159 J-1.4125
G1 Y53.4963
G2 X43.1845 Y53.4998 I1.4125 J1.4159
G1 X27.188
G1 X27.1881
G1 X27.188
G2 X24.3606 Y54.6737 I-0.0001 J3.9916
G2 X23.188 Y57.4981 I2.8232 J2.8278
G2 Y57.4998 I2.0 J0.0017
G1 Y73.4999
G1 Y73.4998
G1 Y73.4999
G2 X24.3619 Y76.3273 I3.9916 J0.0001
G2 X27.1863 Y77.5 I2.8278 J-2.8232
G2 X27.188 I0.0017 J-2.0
G1 X43.1879
G1 X47.188
G1 X63.188
G2 X66.0154 Y76.326 I0.0001 J-3.9916
G2 X67.1881 Y73.5016 I-2.8232 J-2.8278
G2 Y73.4999 I-2.0 J-0.0017
G1 Y57.4998
G1 Y53.4997
G1 Y37.0002
G1 Y33.0001
G1 Y27.0001
G1 Y23.0
G1 Y17.4999
G1 Y17.5
G1 Y17.4999
G2 X66.2655 Y14.9476 I-3.9916 J-0.0001
G1 F50.0 Z-2.0
G2 F120.0 X66.0142 Y14.6725 I-3.069 J2.5522
G2 X63.1897 Y13.4998 I-2.8278 J2.8232
G2 X63.188 I-0.0017 J2.0
G1 X47.188
G1 X47.1881
G1 X47.188
G2 X44.3606 Y14.6738 I-0.0001 J3.9916
G2 X43.1879 Y17.4982 I2.8232 J2.8278
G2 Y17.4999 I2.0 J0.0017
G1 Y22.9964
G2 X43.1845 Y22.9999 I1.4125 J1.4159
G1 X27.1882
G1 X27.1883
G1 X27.1882
G2 X24.3608 Y24.1738 I-0.0001 J3.9916
G2 X23.1881 Y26.9982 I2.8232 J2.8278
G2 Y26.9999 I2.0 J0.0017
G1 Y32.9998
G1 Y32.9999
G1 Y32.9998
G2 X24.3621 Y35.8273 I3.9916 J0.0001
G2 X27.1865 Y36.9999 I2.8278 J-2.8232
G2 X27.1882 I0.0017 J-2.0
G1 X43.1845
G2 X43.1879 Y37.0034 I1.4159 J-1.4125
G1 Y53.4963
G2 X43.1845 Y53.4998 I1.4125 J1.4159
G1 X27.188
G1 X27.1881
G1 X27.188
G2 X24.3606 Y54.6737 I-0.0001 J3.9916
G2 X23.188 Y57.4981 I2.8232 J2.8278
G2 Y57.4998 I2.0 J0.0017
G1 Y73.4999
G1 Y73.4998
G1 Y73.4999
G2 X24.3619 Y76.3273 I3.9916 J0.0001
G2 X27.1863 Y77.5 I2.8278 J-2.8232
G2 X27.188 I0.0017 J-2.0
G1 X43.1879
G1 X47.188
G1 X63.188
G2 X66.0154 Y76.326 I0.0001 J-3.9916
G2 X67.1881 Y73.5016 I-2.8232 J-2.8278
G2 Y73.4999 I-2.0 J-0.0017
G1 Y57.4998
G1 Y53.4997
G1 Y37.0002
G1 Y33.0001
G1 Y27.0001
G1 Y23.0
G1 Y17.4999
G1 Y17.5
G1 Y17.4999
G2 X66.2655 Y14.9476 I-3.9916 J-0.0001
G1 F50.0 Z-3.0
G2 F120.0 X66.0142 Y14.6725 I-3.069 J2.5522
G2 X63.1897 Y13.4998 I-2.8278 J2.8232
G2 X63.188 I-0.0017 J2.0
G1 X47.188
G1 X47.1881
G1 X47.188
G2 X44.3606 Y14.6738 I-0.0001 J3.9916
G2 X43.1879 Y17.4982 I2.8232 J2.8278
G2 Y17.4999 I2.0 J0.0017
G1 Y22.9964
G2 X43.1845 Y22.9999 I1.4125 J1.4159
G1 X27.1882
G1 X27.1883
G1 X27.1882
G2 X24.3608 Y24.1738 I-0.0001 J3.9916
G2 X23.1881 Y26.9982 I2.8232 J2.8278
G2 Y26.9999 I2.0 J0.0017
G1 Y32.9998
G1 Y32.9999
G1 Y32.9998
G2 X24.3621 Y35.8273 I3.9916 J0.0001
G2 X27.1865 Y36.9999 I2.8278 J-2.8232
G2 X27.1882 I0.0017 J-2.0
G1 X43.1845
G2 X43.1879 Y37.0034 I1.4159 J-1.4125
G1 Y53.4963
G2 X43.1845 Y53.4998 I1.4125 J1.4159
G1 X27.188
G1 X27.1881
G1 X27.188
G2 X24.3606 Y54.6737 I-0.0001 J3.9916
G2 X23.188 Y57.4981 I2.8232 J2.8278
G2 Y57.4998 I2.0 J0.0017
G1 Y73.4999
G1 Y73.4998
G1 Y73.4999
G2 X24.3619 Y76.3273 I3.9916 J0.0001
G2 X27.1863 Y77.5 I2.8278 J-2.8232
G2 X27.188 I0.0017 J-2.0
G1 X43.1879
G1 X47.188
G1 X63.188
G2 X66.0154 Y76.326 I0.0001 J-3.9916
G2 X67.1881 Y73.5016 I-2.8232 J-2.8278
G2 Y73.4999 I-2.0 J-0.0017
G1 Y57.4998
G1 Y53.4997
G1 Y37.0002
G1 Y33.0001
G1 Y27.0001
G1 Y23.0
G1 Y17.4999
G1 Y17.5
G1 Y17.4999
G2 X66.2655 Y14.9476 I-3.9916 J-0.0001
G1 F50.0 Z-4.0
G2 F120.0 X66.0142 Y14.6725 I-3.069 J2.5522
G2 X63.1897 Y13.4998 I-2.8278 J2.8232
G2 X63.188 I-0.0017 J2.0
G1 X47.188
G1 X47.1881
G1 X47.188
G2 X44.3606 Y14.6738 I-0.0001 J3.9916
G2 X43.1879 Y17.4982 I2.8232 J2.8278
G2 Y17.4999 I2.0 J0.0017
G1 Y22.9964
G2 X43.1845 Y22.9999 I1.4125 J1.4159
G1 X27.1882
G1 X27.1883
G1 X27.1882
G2 X24.3608 Y24.1738 I-0.0001 J3.9916
G2 X23.1881 Y26.9982 I2.8232 J2.8278
G2 Y26.9999 I2.0 J0.0017
G1 Y32.9998
G1 Y32.9999
G1 Y32.9998
G2 X24.3621 Y35.8273 I3.9916 J0.0001
G2 X27.1865 Y36.9999 I2.8278 J-2.8232
G2 X27.1882 I0.0017 J-2.0
G1 X43.1845
G2 X43.1879 Y37.0034 I1.4159 J-1.4125
G1 Y53.4963
G2 X43.1845 Y53.4998 I1.4125 J1.4159
G1 X27.188
G1 X27.1881
G1 X27.188
G2 X24.3606 Y54.6737 I-0.0001 J3.9916
G2 X23.188 Y57.4981 I2.8232 J2.8278
G2 Y57.4998 I2.0 J0.0017
G1 Y73.4999
G1 Y73.4998
G1 Y73.4999
G2 X24.3619 Y76.3273 I3.9916 J0.0001
G2 X27.1863 Y77.5 I2.8278 J-2.8232
G2 X27.188 I0.0017 J-2.0
G1 X43.1879
G1 X47.188
G1 X63.188
G2 X66.0154 Y76.326 I0.0001 J-3.9916
G2 X67.1881 Y73.5016 I-2.8232 J-2.8278
G2 Y73.4999 I-2.0 J-0.0017
G1 Y57.4998
G1 Y53.4997
G1 Y37.0002
G1 Y33.0001
G1 Y27.0001
G1 Y23.0
G1 Y17.4999
G1 Y17.5
G1 Y17.4999
G2 X66.2655 Y14.9476 I-3.9916 J-0.0001
G1 F50.0 Z-4.5
G2 F120.0 X66.0142 Y14.6725 I-3.069 J2.5522
G2 X63.1897 Y13.4998 I-2.8278 J2.8232
G2 X63.188 I-0.0017 J2.0
G1 X47.188
G1 X47.1881
G1 X47.188
G2 X44.3606 Y14.6738 I-0.0001 J3.9916
G2 X43.1879 Y17.4982 I2.8232 J2.8278
G2 Y17.4999 I2.0 J0.0017
G1 Y22.9964
G2 X43.1845 Y22.9999 I1.4125 J1.4159
G1 X27.1882
G1 X27.1883
G1 X27.1882
G2 X24.3608 Y24.1738 I-0.0001 J3.9916
G2 X23.1881 Y26.9982 I2.8232 J2.8278
G2 Y26.9999 I2.0 J0.0017
G1 Y32.9998
G1 Y32.9999
G1 Y32.9998
G2 X24.3621 Y35.8273 I3.9916 J0.0001
G2 X27.1865 Y36.9999 I2.8278 J-2.8232
G2 X27.1882 I0.0017 J-2.0
G1 X43.1845
G2 X43.1879 Y37.0034 I1.4159 J-1.4125
G1 Y53.4963
G2 X43.1845 Y53.4998 I1.4125 J1.4159
G1 X27.188
G1 X27.1881
G1 X27.188
G2 X24.3606 Y54.6737 I-0.0001 J3.9916
G2 X23.188 Y57.4981 I2.8232 J2.8278
G2 Y57.4998 I2.0 J0.0017
G1 Y73.4999
G1 Y73.4998
G1 Y73.4999
G2 X24.3619 Y76.3273 I3.9916 J0.0001
G2 X27.1863 Y77.5 I2.8278 J-2.8232
G2 X27.188 I0.0017 J-2.0
G1 X43.1879
G1 X47.188
G1 X63.188
G2 X66.0154 Y76.326 I0.0001 J-3.9916
G2 X67.1881 Y73.5016 I-2.8232 J-2.8278
G2 Y73.4999 I-2.0 J-0.0017
G1 Y57.4998
G1 Y53.4997
G1 Y37.0002
G1 Y33.0001
G1 Y27.0001
G1 Y23.0
G1 Y17.4999
G1 Y17.5
G1 Y17.4999
G2 X66.2655 Y14.9476 I-3.9916 J-0.0001
G0 Z3.0
M5
M30
