( Made using CamBam - http://www.cambam.co.uk )
( ram mount 2 11/19/2013 9:51:59 AM )
( T4 : 4.0 )
G21 G90 G91.1 G64 G40
G0 Z3.0
( T4 : 4.0 )
T4 M6
( Profile1 )
G17
M3 S1000
G0 X20.0023 Y32.1504
G0 Z1.0
G1 F25.0 Z-1.0
G2 F150.0 X19.9974 I-0.0025 J2.0
G3 X15.6528 Y30.3507 I-0.0073 J-6.1266
G2 X15.6495 Y30.3475 I-1.4159 J1.4125
G3 X13.8499 Y26.0025 I4.328 J-4.3377
G2 Y25.9975 I-2.0 J-0.0024
G3 X15.6493 Y21.6534 I6.1243 J-0.008
G2 X15.6528 Y21.6498 I-1.4124 J-1.416
G3 X19.9973 Y19.8504 I4.3368 J4.3264
G2 X20.0027 I0.0025 J-2.0
G3 X24.3465 Y21.6495 I0.0089 J6.122
G2 X24.3504 Y21.6533 I1.4162 J-1.4122
G3 X26.1499 Y25.9975 I-4.3248 J4.3362
G2 Y26.0026 I2.0 J0.0026
G3 X24.3503 Y30.3474 I-6.1266 J0.0075
G2 X24.3466 Y30.3511 I1.4125 J1.4159
G3 X20.0027 Y32.1504 I-4.3352 J-4.3229
G2 X20.0023 I-0.0029 J2.0
G1 F25.0 Z-2.0
G2 F150.0 X19.9974 I-0.0025 J2.0
G3 X15.6528 Y30.3507 I-0.0073 J-6.1266
G2 X15.6495 Y30.3475 I-1.4159 J1.4125
G3 X13.8499 Y26.0025 I4.328 J-4.3377
G2 Y25.9975 I-2.0 J-0.0024
G3 X15.6493 Y21.6534 I6.1243 J-0.008
G2 X15.6528 Y21.6498 I-1.4124 J-1.416
G3 X19.9973 Y19.8504 I4.3368 J4.3264
G2 X20.0027 I0.0025 J-2.0
G3 X24.3465 Y21.6495 I0.0089 J6.122
G2 X24.3504 Y21.6533 I1.4162 J-1.4122
G3 X26.1499 Y25.9975 I-4.3248 J4.3362
G2 Y26.0026 I2.0 J0.0026
G3 X24.3503 Y30.3474 I-6.1266 J0.0075
G2 X24.3466 Y30.3511 I1.4125 J1.4159
G3 X20.0027 Y32.1504 I-4.3352 J-4.3229
G2 X20.0023 I-0.0029 J2.0
G1 F25.0 Z-3.0
G2 F150.0 X19.9974 I-0.0025 J2.0
G3 X15.6528 Y30.3507 I-0.0073 J-6.1266
G2 X15.6495 Y30.3475 I-1.4159 J1.4125
G3 X13.8499 Y26.0025 I4.328 J-4.3377
G2 Y25.9975 I-2.0 J-0.0024
G3 X15.6493 Y21.6534 I6.1243 J-0.008
G2 X15.6528 Y21.6498 I-1.4124 J-1.416
G3 X19.9973 Y19.8504 I4.3368 J4.3264
G2 X20.0027 I0.0025 J-2.0
G3 X24.3465 Y21.6495 I0.0089 J6.122
G2 X24.3504 Y21.6533 I1.4162 J-1.4122
G3 X26.1499 Y25.9975 I-4.3248 J4.3362
G2 Y26.0026 I2.0 J0.0026
G3 X24.3503 Y30.3474 I-6.1266 J0.0075
G2 X24.3466 Y30.3511 I1.4125 J1.4159
G3 X20.0027 Y32.1504 I-4.3352 J-4.3229
G2 X20.0023 I-0.0029 J2.0
G1 F25.0 Z-4.0
G2 F150.0 X19.9974 I-0.0025 J2.0
G3 X15.6528 Y30.3507 I-0.0073 J-6.1266
G2 X15.6495 Y30.3475 I-1.4159 J1.4125
G3 X13.8499 Y26.0025 I4.328 J-4.3377
G2 Y25.9975 I-2.0 J-0.0024
G3 X15.6493 Y21.6534 I6.1243 J-0.008
G2 X15.6528 Y21.6498 I-1.4124 J-1.416
G3 X19.9973 Y19.8504 I4.3368 J4.3264
G2 X20.0027 I0.0025 J-2.0
G3 X24.3465 Y21.6495 I0.0089 J6.122
G2 X24.3504 Y21.6533 I1.4162 J-1.4122
G3 X26.1499 Y25.9975 I-4.3248 J4.3362
G2 Y26.0026 I2.0 J0.0026
G3 X24.3503 Y30.3474 I-6.1266 J0.0075
G2 X24.3466 Y30.3511 I1.4125 J1.4159
G3 X20.0027 Y32.1504 I-4.3352 J-4.3229
G2 X20.0023 I-0.0029 J2.0
G1 F25.0 Z-5.0
G2 F150.0 X19.9974 I-0.0025 J2.0
G3 X15.6528 Y30.3507 I-0.0073 J-6.1266
G2 X15.6495 Y30.3475 I-1.4159 J1.4125
G3 X13.8499 Y26.0025 I4.328 J-4.3377
G2 Y25.9975 I-2.0 J-0.0024
G3 X15.6493 Y21.6534 I6.1243 J-0.008
G2 X15.6528 Y21.6498 I-1.4124 J-1.416
G3 X19.9973 Y19.8504 I4.3368 J4.3264
G2 X20.0027 I0.0025 J-2.0
G3 X24.3465 Y21.6495 I0.0089 J6.122
G2 X24.3504 Y21.6533 I1.4162 J-1.4122
G3 X26.1499 Y25.9975 I-4.3248 J4.3362
G2 Y26.0026 I2.0 J0.0026
G3 X24.3503 Y30.3474 I-6.1266 J0.0075
G2 X24.3466 Y30.3511 I1.4125 J1.4159
G3 X20.0027 Y32.1504 I-4.3352 J-4.3229
G2 X20.0023 I-0.0029 J2.0
G1 F25.0 Z-6.0
G2 F150.0 X19.9974 I-0.0025 J2.0
G3 X15.6528 Y30.3507 I-0.0073 J-6.1266
G2 X15.6495 Y30.3475 I-1.4159 J1.4125
G3 X13.8499 Y26.0025 I4.328 J-4.3377
G2 Y25.9975 I-2.0 J-0.0024
G3 X15.6493 Y21.6534 I6.1243 J-0.008
G2 X15.6528 Y21.6498 I-1.4124 J-1.416
G3 X19.9973 Y19.8504 I4.3368 J4.3264
G2 X20.0027 I0.0025 J-2.0
G3 X24.3465 Y21.6495 I0.0089 J6.122
G2 X24.3504 Y21.6533 I1.4162 J-1.4122
G3 X26.1499 Y25.9975 I-4.3248 J4.3362
G2 Y26.0026 I2.0 J0.0026
G3 X24.3503 Y30.3474 I-6.1266 J0.0075
G2 X24.3466 Y30.3511 I1.4125 J1.4159
G3 X20.0027 Y32.1504 I-4.3352 J-4.3229
G2 X20.0023 I-0.0029 J2.0
G1 F25.0 Z-7.0
G2 F150.0 X19.9974 I-0.0025 J2.0
G3 X15.6528 Y30.3507 I-0.0073 J-6.1266
G2 X15.6495 Y30.3475 I-1.4159 J1.4125
G3 X13.8499 Y26.0025 I4.328 J-4.3377
G2 Y25.9975 I-2.0 J-0.0024
G3 X15.6493 Y21.6534 I6.1243 J-0.008
G2 X15.6528 Y21.6498 I-1.4124 J-1.416
G3 X19.9973 Y19.8504 I4.3368 J4.3264
G2 X20.0027 I0.0025 J-2.0
G3 X24.3465 Y21.6495 I0.0089 J6.122
G2 X24.3504 Y21.6533 I1.4162 J-1.4122
G3 X26.1499 Y25.9975 I-4.3248 J4.3362
G2 Y26.0026 I2.0 J0.0026
G3 X24.3503 Y30.3474 I-6.1266 J0.0075
G2 X24.3466 Y30.3511 I1.4125 J1.4159
G3 X20.0027 Y32.1504 I-4.3352 J-4.3229
G2 X20.0023 I-0.0029 J2.0
( Profile2 )
S1000
G0 Z3.0
G0 X40.0 Y-2.0
G0 Z1.0
G1 F25.0 Z-1.0
G1 F150.0 X29.7498
G2 X27.7498 Y0.0 I0.0 J2.0
G1 Y13.5002
G1 X12.2498
G1 Y0.0
G2 X10.2498 Y-2.0 I-2.0 J0.0
G1 X0.0
G2 X-2.0 Y0.0 I0.0 J2.0
G1 Y10.9392
G2 X-1.9319 Y11.4566 I2.0 J0.0
G1 X1.998 Y26.1314
G1 Y26.9997
G2 X4.8781 Y36.4418 I16.8891 J0.0087
G2 X12.4891 Y42.6984 I14.2331 J-9.5568
G2 X12.4911 Y42.6992 I0.7725 J-1.8448
G2 X18.9989 Y44.0002 I6.4929 J-15.552
G1 X20.9997
G2 X30.4418 Y41.1201 I0.0087 J-16.8891
G2 X36.6984 Y33.5091 I-9.5568 J-14.2331
G2 X36.6992 Y33.5071 I-1.8448 J-0.7725
G2 X38.0002 Y26.9993 I-15.552 J-6.4929
G1 Y26.8307
G1 Y26.4858
G1 X41.9352 Y11.4454
G2 X42.0003 Y10.9392 I-1.9349 J-0.5062
G1 Y0.0
G2 X40.0003 Y-2.0 I-2.0 J0.0
G1 X40.0
G1 F25.0 Z-2.0
G1 F150.0 X29.7498
G2 X27.7498 Y0.0 I0.0 J2.0
G1 Y13.5002
G1 X12.2498
G1 Y0.0
G2 X10.2498 Y-2.0 I-2.0 J0.0
G1 X0.0
G2 X-2.0 Y0.0 I0.0 J2.0
G1 Y10.9392
G2 X-1.9319 Y11.4566 I2.0 J0.0
G1 X1.998 Y26.1314
G1 Y26.9997
G2 X4.8781 Y36.4418 I16.8891 J0.0087
G2 X12.4891 Y42.6984 I14.2331 J-9.5568
G2 X12.4911 Y42.6992 I0.7725 J-1.8448
G2 X18.9989 Y44.0002 I6.4929 J-15.552
G1 X20.9997
G2 X30.4418 Y41.1201 I0.0087 J-16.8891
G2 X36.6984 Y33.5091 I-9.5568 J-14.2331
G2 X36.6992 Y33.5071 I-1.8448 J-0.7725
G2 X38.0002 Y26.9993 I-15.552 J-6.4929
G1 Y26.8307
G1 Y26.4858
G1 X41.9352 Y11.4454
G2 X42.0003 Y10.9392 I-1.9349 J-0.5062
G1 Y0.0
G2 X40.0003 Y-2.0 I-2.0 J0.0
G1 X40.0
G1 F25.0 Z-3.0
G1 F150.0 X29.7498
G2 X27.7498 Y0.0 I0.0 J2.0
G1 Y13.5002
G1 X12.2498
G1 Y0.0
G2 X10.2498 Y-2.0 I-2.0 J0.0
G1 X0.0
G2 X-2.0 Y0.0 I0.0 J2.0
G1 Y10.9392
G2 X-1.9319 Y11.4566 I2.0 J0.0
G1 X1.998 Y26.1314
G1 Y26.9997
G2 X4.8781 Y36.4418 I16.8891 J0.0087
G2 X12.4891 Y42.6984 I14.2331 J-9.5568
G2 X12.4911 Y42.6992 I0.7725 J-1.8448
G2 X18.9989 Y44.0002 I6.4929 J-15.552
G1 X20.9997
G2 X30.4418 Y41.1201 I0.0087 J-16.8891
G2 X36.6984 Y33.5091 I-9.5568 J-14.2331
G2 X36.6992 Y33.5071 I-1.8448 J-0.7725
G2 X38.0002 Y26.9993 I-15.552 J-6.4929
G1 Y26.8307
G1 Y26.4858
G1 X41.9352 Y11.4454
G2 X42.0003 Y10.9392 I-1.9349 J-0.5062
G1 Y0.0
G2 X40.0003 Y-2.0 I-2.0 J0.0
G1 X40.0
G1 F25.0 Z-4.0
G1 F150.0 X29.7498
G2 X27.7498 Y0.0 I0.0 J2.0
G1 Y13.5002
G1 X12.2498
G1 Y0.0
G2 X10.2498 Y-2.0 I-2.0 J0.0
G1 X0.0
G2 X-2.0 Y0.0 I0.0 J2.0
G1 Y10.9392
G2 X-1.9319 Y11.4566 I2.0 J0.0
G1 X1.998 Y26.1314
G1 Y26.9997
G2 X4.8781 Y36.4418 I16.8891 J0.0087
G2 X12.4891 Y42.6984 I14.2331 J-9.5568
G2 X12.4911 Y42.6992 I0.7725 J-1.8448
G2 X18.9989 Y44.0002 I6.4929 J-15.552
G1 X20.9997
G2 X30.4418 Y41.1201 I0.0087 J-16.8891
G2 X36.6984 Y33.5091 I-9.5568 J-14.2331
G2 X36.6992 Y33.5071 I-1.8448 J-0.7725
G2 X38.0002 Y26.9993 I-15.552 J-6.4929
G1 Y26.8307
G1 Y26.4858
G1 X41.9352 Y11.4454
G2 X42.0003 Y10.9392 I-1.9349 J-0.5062
G1 Y0.0
G2 X40.0003 Y-2.0 I-2.0 J0.0
G1 X40.0
G1 F25.0 Z-5.0
G1 F150.0 X29.7498
G2 X27.7498 Y0.0 I0.0 J2.0
G1 Y13.5002
G1 X12.2498
G1 Y0.0
G2 X10.2498 Y-2.0 I-2.0 J0.0
G1 X0.0
G2 X-2.0 Y0.0 I0.0 J2.0
G1 Y10.9392
G2 X-1.9319 Y11.4566 I2.0 J0.0
G1 X1.998 Y26.1314
G1 Y26.9997
G2 X4.8781 Y36.4418 I16.8891 J0.0087
G2 X12.4891 Y42.6984 I14.2331 J-9.5568
G2 X12.4911 Y42.6992 I0.7725 J-1.8448
G2 X18.9989 Y44.0002 I6.4929 J-15.552
G1 X20.9997
G2 X30.4418 Y41.1201 I0.0087 J-16.8891
G2 X36.6984 Y33.5091 I-9.5568 J-14.2331
G2 X36.6992 Y33.5071 I-1.8448 J-0.7725
G2 X38.0002 Y26.9993 I-15.552 J-6.4929
G1 Y26.8307
G1 Y26.4858
G1 X41.9352 Y11.4454
G2 X42.0003 Y10.9392 I-1.9349 J-0.5062
G1 Y0.0
G2 X40.0003 Y-2.0 I-2.0 J0.0
G1 X40.0
G1 F25.0 Z-6.0
G1 F150.0 X29.7498
G2 X27.7498 Y0.0 I0.0 J2.0
G1 Y13.5002
G1 X12.2498
G1 Y0.0
G2 X10.2498 Y-2.0 I-2.0 J0.0
G1 X0.0
G2 X-2.0 Y0.0 I0.0 J2.0
G1 Y10.9392
G2 X-1.9319 Y11.4566 I2.0 J0.0
G1 X1.998 Y26.1314
G1 Y26.9997
G2 X4.8781 Y36.4418 I16.8891 J0.0087
G2 X12.4891 Y42.6984 I14.2331 J-9.5568
G2 X12.4911 Y42.6992 I0.7725 J-1.8448
G2 X18.9989 Y44.0002 I6.4929 J-15.552
G1 X20.9997
G2 X30.4418 Y41.1201 I0.0087 J-16.8891
G2 X36.6984 Y33.5091 I-9.5568 J-14.2331
G2 X36.6992 Y33.5071 I-1.8448 J-0.7725
G2 X38.0002 Y26.9993 I-15.552 J-6.4929
G1 Y26.8307
G1 Y26.4858
G1 X41.9352 Y11.4454
G2 X42.0003 Y10.9392 I-1.9349 J-0.5062
G1 Y0.0
G2 X40.0003 Y-2.0 I-2.0 J0.0
G1 X40.0
G1 F25.0 Z-7.0
G1 F150.0 X29.7498
G2 X27.7498 Y0.0 I0.0 J2.0
G1 Y13.5002
G1 X12.2498
G1 Y0.0
G2 X10.2498 Y-2.0 I-2.0 J0.0
G1 X0.0
G2 X-2.0 Y0.0 I0.0 J2.0
G1 Y10.9392
G2 X-1.9319 Y11.4566 I2.0 J0.0
G1 X1.998 Y26.1314
G1 Y26.9997
G2 X4.8781 Y36.4418 I16.8891 J0.0087
G2 X12.4891 Y42.6984 I14.2331 J-9.5568
G2 X12.4911 Y42.6992 I0.7725 J-1.8448
G2 X18.9989 Y44.0002 I6.4929 J-15.552
G1 X20.9997
G2 X30.4418 Y41.1201 I0.0087 J-16.8891
G2 X36.6984 Y33.5091 I-9.5568 J-14.2331
G2 X36.6992 Y33.5071 I-1.8448 J-0.7725
G2 X38.0002 Y26.9993 I-15.552 J-6.4929
G1 Y26.8307
G1 Y26.4858
G1 X41.9352 Y11.4454
G2 X42.0003 Y10.9392 I-1.9349 J-0.5062
G1 Y0.0
G2 X40.0003 Y-2.0 I-2.0 J0.0
G1 X40.0
G0 Z3.0
M5
M30
