( Made using CamBam - http://www.cambam.co.uk )
( ram mount 11/18/2013 7:54:11 PM )
( T4 : 4.0 )
G21 G90 G91.1 G64 G40
G0 Z3.0
( T4 : 4.0 )
T4 M6
( Profile1 )
G17
M3 S1000
G0 X15.7674 Y30.2502
G0 Z1.0
G1 F25.0 Z-1.0
G3 F150.0 X14.5908 Y28.599 I4.2669 J-4.2853
G3 X14.0 Y26.0038 I5.3559 J-2.5842
G2 Y25.9975 I-2.0 J-0.0037
G3 X14.5913 Y23.4004 I5.9642 J-0.0079
G3 X15.7669 Y21.75 I5.4279 J2.6227
G1 X24.2329
G3 X25.4093 Y23.4011 I-4.2676 J4.2856
G3 X26.0004 Y25.997 I-5.3652 J2.5867
G2 Y26.0021 I2.0 J0.0031
G3 X25.4088 Y28.6005 I-5.9765 J0.006
G3 X24.2337 Y30.2502 I-5.4202 J-2.6176
G1 X15.7674
G1 F25.0 Z-2.0
G3 F150.0 X14.5908 Y28.599 I4.2669 J-4.2853
G3 X14.0 Y26.0038 I5.3559 J-2.5842
G2 Y25.9975 I-2.0 J-0.0037
G3 X14.5913 Y23.4004 I5.9642 J-0.0079
G3 X15.7669 Y21.75 I5.4279 J2.6227
G1 X24.2329
G3 X25.4093 Y23.4011 I-4.2676 J4.2856
G3 X26.0004 Y25.997 I-5.3652 J2.5867
G2 Y26.0021 I2.0 J0.0031
G3 X25.4088 Y28.6005 I-5.9765 J0.006
G3 X24.2337 Y30.2502 I-5.4202 J-2.6176
G1 X15.7674
G1 F25.0 Z-3.0
G3 F150.0 X14.5908 Y28.599 I4.2669 J-4.2853
G3 X14.0 Y26.0038 I5.3559 J-2.5842
G2 Y25.9975 I-2.0 J-0.0037
G3 X14.5913 Y23.4004 I5.9642 J-0.0079
G3 X15.7669 Y21.75 I5.4279 J2.6227
G1 X24.2329
G3 X25.4093 Y23.4011 I-4.2676 J4.2856
G3 X26.0004 Y25.997 I-5.3652 J2.5867
G2 Y26.0021 I2.0 J0.0031
G3 X25.4088 Y28.6005 I-5.9765 J0.006
G3 X24.2337 Y30.2502 I-5.4202 J-2.6176
G1 X15.7674
G1 F25.0 Z-4.0
G3 F150.0 X14.5908 Y28.599 I4.2669 J-4.2853
G3 X14.0 Y26.0038 I5.3559 J-2.5842
G2 Y25.9975 I-2.0 J-0.0037
G3 X14.5913 Y23.4004 I5.9642 J-0.0079
G3 X15.7669 Y21.75 I5.4279 J2.6227
G1 X24.2329
G3 X25.4093 Y23.4011 I-4.2676 J4.2856
G3 X26.0004 Y25.997 I-5.3652 J2.5867
G2 Y26.0021 I2.0 J0.0031
G3 X25.4088 Y28.6005 I-5.9765 J0.006
G3 X24.2337 Y30.2502 I-5.4202 J-2.6176
G1 X15.7674
G1 F25.0 Z-5.0
G3 F150.0 X14.5908 Y28.599 I4.2669 J-4.2853
G3 X14.0 Y26.0038 I5.3559 J-2.5842
G2 Y25.9975 I-2.0 J-0.0037
G3 X14.5913 Y23.4004 I5.9642 J-0.0079
G3 X15.7669 Y21.75 I5.4279 J2.6227
G1 X24.2329
G3 X25.4093 Y23.4011 I-4.2676 J4.2856
G3 X26.0004 Y25.997 I-5.3652 J2.5867
G2 Y26.0021 I2.0 J0.0031
G3 X25.4088 Y28.6005 I-5.9765 J0.006
G3 X24.2337 Y30.2502 I-5.4202 J-2.6176
G1 X15.7674
G1 F25.0 Z-6.0
G3 F150.0 X14.5908 Y28.599 I4.2669 J-4.2853
G3 X14.0 Y26.0038 I5.3559 J-2.5842
G2 Y25.9975 I-2.0 J-0.0037
G3 X14.5913 Y23.4004 I5.9642 J-0.0079
G3 X15.7669 Y21.75 I5.4279 J2.6227
G1 X24.2329
G3 X25.4093 Y23.4011 I-4.2676 J4.2856
G3 X26.0004 Y25.997 I-5.3652 J2.5867
G2 Y26.0021 I2.0 J0.0031
G3 X25.4088 Y28.6005 I-5.9765 J0.006
G3 X24.2337 Y30.2502 I-5.4202 J-2.6176
G1 X15.7674
G1 F25.0 Z-7.0
G3 F150.0 X14.5908 Y28.599 I4.2669 J-4.2853
G3 X14.0 Y26.0038 I5.3559 J-2.5842
G2 Y25.9975 I-2.0 J-0.0037
G3 X14.5913 Y23.4004 I5.9642 J-0.0079
G3 X15.7669 Y21.75 I5.4279 J2.6227
G1 X24.2329
G3 X25.4093 Y23.4011 I-4.2676 J4.2856
G3 X26.0004 Y25.997 I-5.3652 J2.5867
G2 Y26.0021 I2.0 J0.0031
G3 X25.4088 Y28.6005 I-5.9765 J0.006
G3 X24.2337 Y30.2502 I-5.4202 J-2.6176
G1 X15.7674
( Profile2 )
S1000
G0 Z3.0
G0 X20.0 Y44.0002
G0 Z1.0
G1 F25.0 Z-1.0
G1 F150.0 X20.9997
G2 X30.4418 Y41.1201 I0.0087 J-16.8891
G2 X36.6984 Y33.5091 I-9.5568 J-14.2331
G2 X36.6992 Y33.5071 I-1.8448 J-0.7725
G2 X38.0002 Y26.9993 I-15.552 J-6.4929
G1 Y26.8307
G1 Y26.4858
G1 X41.9352 Y11.4454
G2 X42.0003 Y10.9392 I-1.9349 J-0.5062
G1 Y0.0
G2 X40.0003 Y-2.0 I-2.0 J0.0
G1 X0.0
G2 X-2.0 Y0.0 I0.0 J2.0
G1 Y10.9392
G2 X-1.9319 Y11.4566 I2.0 J0.0
G1 X1.998 Y26.1314
G1 Y26.9997
G2 X4.8781 Y36.4418 I16.8891 J0.0087
G2 X12.4891 Y42.6984 I14.2331 J-9.5568
G2 X12.4911 Y42.6992 I0.7725 J-1.8448
G2 X18.9989 Y44.0002 I6.4929 J-15.552
G1 X20.0
G1 F25.0 Z-2.0
G1 F150.0 X20.9997
G2 X30.4418 Y41.1201 I0.0087 J-16.8891
G2 X36.6984 Y33.5091 I-9.5568 J-14.2331
G2 X36.6992 Y33.5071 I-1.8448 J-0.7725
G2 X38.0002 Y26.9993 I-15.552 J-6.4929
G1 Y26.8307
G1 Y26.4858
G1 X41.9352 Y11.4454
G2 X42.0003 Y10.9392 I-1.9349 J-0.5062
G1 Y0.0
G2 X40.0003 Y-2.0 I-2.0 J0.0
G1 X0.0
G2 X-2.0 Y0.0 I0.0 J2.0
G1 Y10.9392
G2 X-1.9319 Y11.4566 I2.0 J0.0
G1 X1.998 Y26.1314
G1 Y26.9997
G2 X4.8781 Y36.4418 I16.8891 J0.0087
G2 X12.4891 Y42.6984 I14.2331 J-9.5568
G2 X12.4911 Y42.6992 I0.7725 J-1.8448
G2 X18.9989 Y44.0002 I6.4929 J-15.552
G1 X20.0
G1 F25.0 Z-3.0
G1 F150.0 X20.9997
G2 X30.4418 Y41.1201 I0.0087 J-16.8891
G2 X36.6984 Y33.5091 I-9.5568 J-14.2331
G2 X36.6992 Y33.5071 I-1.8448 J-0.7725
G2 X38.0002 Y26.9993 I-15.552 J-6.4929
G1 Y26.8307
G1 Y26.4858
G1 X41.9352 Y11.4454
G2 X42.0003 Y10.9392 I-1.9349 J-0.5062
G1 Y0.0
G2 X40.0003 Y-2.0 I-2.0 J0.0
G1 X0.0
G2 X-2.0 Y0.0 I0.0 J2.0
G1 Y10.9392
G2 X-1.9319 Y11.4566 I2.0 J0.0
G1 X1.998 Y26.1314
G1 Y26.9997
G2 X4.8781 Y36.4418 I16.8891 J0.0087
G2 X12.4891 Y42.6984 I14.2331 J-9.5568
G2 X12.4911 Y42.6992 I0.7725 J-1.8448
G2 X18.9989 Y44.0002 I6.4929 J-15.552
G1 X20.0
G1 F25.0 Z-4.0
G1 F150.0 X20.9997
G2 X30.4418 Y41.1201 I0.0087 J-16.8891
G2 X36.6984 Y33.5091 I-9.5568 J-14.2331
G2 X36.6992 Y33.5071 I-1.8448 J-0.7725
G2 X38.0002 Y26.9993 I-15.552 J-6.4929
G1 Y26.8307
G1 Y26.4858
G1 X41.9352 Y11.4454
G2 X42.0003 Y10.9392 I-1.9349 J-0.5062
G1 Y0.0
G2 X40.0003 Y-2.0 I-2.0 J0.0
G1 X0.0
G2 X-2.0 Y0.0 I0.0 J2.0
G1 Y10.9392
G2 X-1.9319 Y11.4566 I2.0 J0.0
G1 X1.998 Y26.1314
G1 Y26.9997
G2 X4.8781 Y36.4418 I16.8891 J0.0087
G2 X12.4891 Y42.6984 I14.2331 J-9.5568
G2 X12.4911 Y42.6992 I0.7725 J-1.8448
G2 X18.9989 Y44.0002 I6.4929 J-15.552
G1 X20.0
G1 F25.0 Z-5.0
G1 F150.0 X20.9997
G2 X30.4418 Y41.1201 I0.0087 J-16.8891
G2 X36.6984 Y33.5091 I-9.5568 J-14.2331
G2 X36.6992 Y33.5071 I-1.8448 J-0.7725
G2 X38.0002 Y26.9993 I-15.552 J-6.4929
G1 Y26.8307
G1 Y26.4858
G1 X41.9352 Y11.4454
G2 X42.0003 Y10.9392 I-1.9349 J-0.5062
G1 Y0.0
G2 X40.0003 Y-2.0 I-2.0 J0.0
G1 X0.0
G2 X-2.0 Y0.0 I0.0 J2.0
G1 Y10.9392
G2 X-1.9319 Y11.4566 I2.0 J0.0
G1 X1.998 Y26.1314
G1 Y26.9997
G2 X4.8781 Y36.4418 I16.8891 J0.0087
G2 X12.4891 Y42.6984 I14.2331 J-9.5568
G2 X12.4911 Y42.6992 I0.7725 J-1.8448
G2 X18.9989 Y44.0002 I6.4929 J-15.552
G1 X20.0
G1 F25.0 Z-6.0
G1 F150.0 X20.9997
G2 X30.4418 Y41.1201 I0.0087 J-16.8891
G2 X36.6984 Y33.5091 I-9.5568 J-14.2331
G2 X36.6992 Y33.5071 I-1.8448 J-0.7725
G2 X38.0002 Y26.9993 I-15.552 J-6.4929
G1 Y26.8307
G1 Y26.4858
G1 X41.9352 Y11.4454
G2 X42.0003 Y10.9392 I-1.9349 J-0.5062
G1 Y0.0
G2 X40.0003 Y-2.0 I-2.0 J0.0
G1 X0.0
G2 X-2.0 Y0.0 I0.0 J2.0
G1 Y10.9392
G2 X-1.9319 Y11.4566 I2.0 J0.0
G1 X1.998 Y26.1314
G1 Y26.9997
G2 X4.8781 Y36.4418 I16.8891 J0.0087
G2 X12.4891 Y42.6984 I14.2331 J-9.5568
G2 X12.4911 Y42.6992 I0.7725 J-1.8448
G2 X18.9989 Y44.0002 I6.4929 J-15.552
G1 X20.0
G1 F25.0 Z-7.0
G1 F150.0 X20.9997
G2 X30.4418 Y41.1201 I0.0087 J-16.8891
G2 X36.6984 Y33.5091 I-9.5568 J-14.2331
G2 X36.6992 Y33.5071 I-1.8448 J-0.7725
G2 X38.0002 Y26.9993 I-15.552 J-6.4929
G1 Y26.8307
G1 Y26.4858
G1 X41.9352 Y11.4454
G2 X42.0003 Y10.9392 I-1.9349 J-0.5062
G1 Y0.0
G2 X40.0003 Y-2.0 I-2.0 J0.0
G1 X0.0
G2 X-2.0 Y0.0 I0.0 J2.0
G1 Y10.9392
G2 X-1.9319 Y11.4566 I2.0 J0.0
G1 X1.998 Y26.1314
G1 Y26.9997
G2 X4.8781 Y36.4418 I16.8891 J0.0087
G2 X12.4891 Y42.6984 I14.2331 J-9.5568
G2 X12.4911 Y42.6992 I0.7725 J-1.8448
G2 X18.9989 Y44.0002 I6.4929 J-15.552
G1 X20.0
G0 Z3.0
M5
M30
