( Made using CamBam - http://www.cambam.co.uk )
( pickerhead camera mount 10/16/2013 4:07:20 PM )
( T4 : 4.0 )
G21 G90 G64 G40
G0 Z3.0
( T4 : 4.0 )
T4 M6
( Pocket1 )
G17
M3 S1000
G0 X20.6814 Y14.7144
G0 Z1.0
G1 F50.0 Z-1.6
G1 F250.0 X14.8185
G1 Y15.2857
G1 X20.6814
G1 Y14.7144
G1 F50.0 X22.2814
G1 F250.0 Y13.1144
G1 X13.2185
G1 Y16.8857
G1 X22.2814
G1 Y14.7144
G1 F50.0 X23.8814
G1 F250.0 Y11.5144
G1 X11.6185
G1 Y18.4857
G1 X23.8814
G1 Y14.7144
G1 F50.0 X25.4814
G1 F250.0 Y9.9144
G1 X10.0185
G1 Y20.0857
G1 X25.4814
G1 Y14.7144
G1 F50.0 X27.0814
G1 F250.0 Y8.3144
G1 X8.4185
G1 Y21.6857
G1 X27.0814
G1 Y14.7144
G1 F50.0 X28.6814
G1 F250.0 Y6.7144
G1 X6.8185
G1 Y23.2857
G1 X28.6814
G1 Y14.7144
G1 F50.0 X30.2814
G1 F250.0 Y5.1144
G1 X5.2185
G1 Y24.8857
G1 X30.2814
G1 Y14.7144
G1 F50.0 X31.8814
G1 F250.0 Y3.5144
G1 X3.6185
G1 Y26.4857
G1 X31.8814
G1 Y14.7144
G1 F50.0 X33.4814
G1 F250.0 Y1.9144
G1 X2.0185
G1 Y28.0857
G1 X33.4814
G1 Y14.7144
G1 F50.0 X35.0814
G1 F250.0 Y0.3144
G1 X0.4185
G1 Y29.6857
G1 X35.0814
G1 Y14.7144
G1 F50.0 X36.6814
G1 F250.0 Y-1.2856
G1 X-1.1815
G1 Y31.2857
G1 X36.6814
G1 Y14.7144
G0 Z3.0
G0 X20.6814
G0 Z-0.6
G1 F50.0 Z-3.1
G1 F250.0 X14.8185
G1 Y15.2857
G1 X20.6814
G1 Y14.7144
G1 F50.0 X22.2814
G1 F250.0 Y13.1144
G1 X13.2185
G1 Y16.8857
G1 X22.2814
G1 Y14.7144
G1 F50.0 X23.8814
G1 F250.0 Y11.5144
G1 X11.6185
G1 Y18.4857
G1 X23.8814
G1 Y14.7144
G1 F50.0 X25.4814
G1 F250.0 Y9.9144
G1 X10.0185
G1 Y20.0857
G1 X25.4814
G1 Y14.7144
G1 F50.0 X27.0814
G1 F250.0 Y8.3144
G1 X8.4185
G1 Y21.6857
G1 X27.0814
G1 Y14.7144
G1 F50.0 X28.6814
G1 F250.0 Y6.7144
G1 X6.8185
G1 Y23.2857
G1 X28.6814
G1 Y14.7144
G1 F50.0 X30.2814
G1 F250.0 Y5.1144
G1 X5.2185
G1 Y24.8857
G1 X30.2814
G1 Y14.7144
G1 F50.0 X31.8814
G1 F250.0 Y3.5144
G1 X3.6185
G1 Y26.4857
G1 X31.8814
G1 Y14.7144
G1 F50.0 X33.4814
G1 F250.0 Y1.9144
G1 X2.0185
G1 Y28.0857
G1 X33.4814
G1 Y14.7144
G1 F50.0 X35.0814
G1 F250.0 Y0.3144
G1 X0.4185
G1 Y29.6857
G1 X35.0814
G1 Y14.7144
G1 F50.0 X36.6814
G1 F250.0 Y-1.2856
G1 X-1.1815
G1 Y31.2857
G1 X36.6814
G1 Y14.7144
( Profile1 )
S1000
G0 Z3.0
G0 X25.5 Y8.0
G0 Z1.0
G1 F50.0 Z-2.0
G1 F200.0 Y22.0001
G1 X8.0
G1 Y8.0
G1 X25.5
G1 F50.0 Z-4.0
G1 F200.0 Y22.0001
G1 X8.0
G1 Y8.0
G1 X25.5
G1 F50.0 Z-6.0
G1 F200.0 Y22.0001
G1 X8.0
G1 Y8.0
G1 X25.5
G1 F50.0 Z-8.0
G1 F200.0 Y22.0001
G1 X8.0
G1 Y8.0
G1 X25.5
G1 F50.0 Z-10.0
G1 F200.0 Y22.0001
G1 X8.0
G1 Y8.0
G1 X25.5
G1 F50.0 Z-12.0
G1 F200.0 Y22.0001
G1 X8.0
G1 Y8.0
G1 X25.5
( Profile2 )
S1000
G0 Z3.0
G0 X0.0 Y32.0001
G0 Z1.0
G1 F50.0 Z-2.0
G1 F200.0 X35.5
G2 X37.5 Y30.0001 I0.0 J-2.0
G1 Y0.0
G2 X35.5 Y-2.0 I-2.0 J0.0
G1 X0.5001
G2 X-1.4999 Y0.0 I0.0 J2.0
G1 Y3.6771
G2 X-2.0 Y5.0 I1.4999 J1.3229
G1 Y11.5001
G2 X-0.1999 Y13.4901 I2.0 J0.0
G1 Y17.5101
G2 X-2.0 Y19.5001 I0.1999 J1.99
G1 Y30.0001
G2 X0.0 Y32.0001 I2.0 J0.0
G1 F50.0 Z-4.0
G1 F200.0 X35.5
G2 X37.5 Y30.0001 I0.0 J-2.0
G1 Y0.0
G2 X35.5 Y-2.0 I-2.0 J0.0
G1 X0.5001
G2 X-1.4999 Y0.0 I0.0 J2.0
G1 Y3.6771
G2 X-2.0 Y5.0 I1.4999 J1.3229
G1 Y11.5001
G2 X-0.1999 Y13.4901 I2.0 J0.0
G1 Y17.5101
G2 X-2.0 Y19.5001 I0.1999 J1.99
G1 Y30.0001
G2 X0.0 Y32.0001 I2.0 J0.0
G1 F50.0 Z-6.0
G1 F200.0 X35.5
G2 X37.5 Y30.0001 I0.0 J-2.0
G1 Y0.0
G2 X35.5 Y-2.0 I-2.0 J0.0
G1 X0.5001
G2 X-1.4999 Y0.0 I0.0 J2.0
G1 Y3.6771
G2 X-2.0 Y5.0 I1.4999 J1.3229
G1 Y11.5001
G2 X-0.1999 Y13.4901 I2.0 J0.0
G1 Y17.5101
G2 X-2.0 Y19.5001 I0.1999 J1.99
G1 Y30.0001
G2 X0.0 Y32.0001 I2.0 J0.0
G1 F50.0 Z-8.0
G1 F200.0 X35.5
G2 X37.5 Y30.0001 I0.0 J-2.0
G1 Y0.0
G2 X35.5 Y-2.0 I-2.0 J0.0
G1 X0.5001
G2 X-1.4999 Y0.0 I0.0 J2.0
G1 Y3.6771
G2 X-2.0 Y5.0 I1.4999 J1.3229
G1 Y11.5001
G2 X-0.1999 Y13.4901 I2.0 J0.0
G1 Y17.5101
G2 X-2.0 Y19.5001 I0.1999 J1.99
G1 Y30.0001
G2 X0.0 Y32.0001 I2.0 J0.0
G1 F50.0 Z-10.0
G1 F200.0 X35.5
G2 X37.5 Y30.0001 I0.0 J-2.0
G1 Y0.0
G2 X35.5 Y-2.0 I-2.0 J0.0
G1 X0.5001
G2 X-1.4999 Y0.0 I0.0 J2.0
G1 Y3.6771
G2 X-2.0 Y5.0 I1.4999 J1.3229
G1 Y11.5001
G2 X-0.1999 Y13.4901 I2.0 J0.0
G1 Y17.5101
G2 X-2.0 Y19.5001 I0.1999 J1.99
G1 Y30.0001
G2 X0.0 Y32.0001 I2.0 J0.0
G1 F50.0 Z-12.0
G1 F200.0 X35.5
G2 X37.5 Y30.0001 I0.0 J-2.0
G1 Y0.0
G2 X35.5 Y-2.0 I-2.0 J0.0
G1 X0.5001
G2 X-1.4999 Y0.0 I0.0 J2.0
G1 Y3.6771
G2 X-2.0 Y5.0 I1.4999 J1.3229
G1 Y11.5001
G2 X-0.1999 Y13.4901 I2.0 J0.0
G1 Y17.5101
G2 X-2.0 Y19.5001 I0.1999 J1.99
G1 Y30.0001
G2 X0.0 Y32.0001 I2.0 J0.0
G0 Z3.0
M5
M30
