( Made using CamBam - http://www.cambam.co.uk )
( paper feed formers 10/11/2013 12:57:26 PM )
( T4 : 4.0 )
G21 G90 G64 G40
G0 Z3.0
( T4 : 4.0 )
T4 M6
( Profile1 )
G17
M3 S1000
G0 X38.3483 Y49.3369
G0 Z1.0
G1 F50.0 Z-5.5
G3 F150.0 Y49.2956 I1.9999 J-0.0201
G2 X38.2771 Y46.6945 I-34.2548 J-0.3627
G3 X38.277 Y46.6939 I1.9957 J-0.1307
G2 X37.5998 Y41.8693 I-32.7142 J2.132
G2 X36.4058 Y37.779 I-30.1616 J6.5851
G2 X34.892 Y34.3782 I-27.118 J10.0337
G2 X33.2113 Y31.5993 I-23.7974 J12.4958
G3 X33.2109 Y31.5988 I1.6457 J-1.1366
G2 X31.4739 Y29.359 I-21.0024 J14.4943
G3 X31.4725 Y29.3574 I1.5099 J-1.3115
G2 X27.8748 Y25.9823 I-18.0919 J15.6801
G1 X27.8745 Y25.9821
G2 X21.3824 Y22.555 I-13.553 J17.8116
G2 X17.8014 Y21.6878 I-7.1136 J21.5477
G2 X14.1607 Y21.4028 I-3.6645 J23.4126
G3 X14.1627 Y17.4028 I0.002 J-2.0
G1 X44.1112
G3 X46.1112 Y19.4028 I0.0 J2.0
G1 Y79.4027
G3 X44.1112 Y81.4027 I-2.0 J0.0
G1 X0.0
G3 X-0.0097 Y77.4028 I0.0 J-2.0
G1 X0.4081 Y77.4007
G1 X0.8157 Y77.3949
G1 X1.0163 Y77.3906
G2 X2.6209 Y77.3246 I-1.1398 J-47.2038
G2 X5.7379 Y77.0445 I-2.9742 J-50.596
G1 X5.8319 Y77.0331
G2 X17.2764 Y74.349 I-6.5496 J-53.6663
G2 X21.3945 Y72.666 I-15.918 J-44.8296
G3 X21.3953 Y72.6657 I0.8424 J1.814
G2 X24.8325 Y70.8648 I-16.9174 J-36.4698
G3 X24.8659 Y70.8456 I1.0126 J1.7247
G2 X24.8906 Y70.8311 I-0.337 J-0.6002
G3 X24.9576 Y70.7915 I1.0508 J1.7017
G2 X24.9814 Y70.7773 I-0.3266 J-0.578
G3 X25.0161 Y70.7562 I1.0557 J1.6987
G2 X27.8149 Y68.9112 I-18.1908 J-30.6396
G2 X28.4094 Y68.4664 I-36.0827 J-48.8362
G2 X30.5688 Y66.6495 I-18.3696 J-24.0249
G2 X32.2981 Y64.9007 I-18.5923 J-20.1138
G3 X32.2991 Y64.8995 I1.4838 J1.341
G2 X33.6633 Y63.2543 I-18.2941 J-16.5576
G3 X33.6649 Y63.2523 I1.5934 J1.2087
G2 X35.6753 Y60.1201 I-18.6164 J-14.1606
G2 X37.6575 Y54.9336 I-19.6343 J-10.4758
G3 X37.658 Y54.9314 I1.9427 J0.4754
G2 X38.1601 Y52.1865 I-22.5242 J-5.5381
G3 X38.1613 Y52.1766 I1.9854 J0.2408
G2 X38.2354 Y51.4936 I-19.244 J-2.4325
G2 X38.2805 Y50.9535 I-41.0261 J-3.703
G3 X38.2823 Y50.9319 I1.9941 J0.1536
G2 X38.2919 Y50.7931 I-3.7336 J-0.3284
G3 X38.2928 Y50.7772 I1.9974 J0.1012
G1 X38.3144 Y50.4095
G2 X38.3473 Y49.382 I-23.7911 J-1.2776
G3 X38.3483 Y49.3369 I1.9999 J0.021
G1 F50.0 Z-11.0
G3 F150.0 Y49.2956 I1.9999 J-0.0201
G2 X38.2771 Y46.6945 I-34.2548 J-0.3627
G3 X38.277 Y46.6939 I1.9957 J-0.1307
G2 X37.5998 Y41.8693 I-32.7142 J2.132
G2 X36.4058 Y37.779 I-30.1616 J6.5851
G2 X34.892 Y34.3782 I-27.118 J10.0337
G2 X33.2113 Y31.5993 I-23.7974 J12.4958
G3 X33.2109 Y31.5988 I1.6457 J-1.1366
G2 X31.4739 Y29.359 I-21.0024 J14.4943
G3 X31.4725 Y29.3574 I1.5099 J-1.3115
G2 X27.8748 Y25.9823 I-18.0919 J15.6801
G1 X27.8745 Y25.9821
G2 X21.3824 Y22.555 I-13.553 J17.8116
G2 X17.8014 Y21.6878 I-7.1136 J21.5477
G2 X14.1607 Y21.4028 I-3.6645 J23.4126
G3 X14.1627 Y17.4028 I0.002 J-2.0
G1 X44.1112
G3 X46.1112 Y19.4028 I0.0 J2.0
G1 Y79.4027
G3 X44.1112 Y81.4027 I-2.0 J0.0
G1 X0.0
G3 X-0.0097 Y77.4028 I0.0 J-2.0
G1 X0.4081 Y77.4007
G1 X0.8157 Y77.3949
G1 X1.0163 Y77.3906
G2 X2.6209 Y77.3246 I-1.1398 J-47.2038
G2 X5.7379 Y77.0445 I-2.9742 J-50.596
G1 X5.8319 Y77.0331
G2 X17.2764 Y74.349 I-6.5496 J-53.6663
G2 X21.3945 Y72.666 I-15.918 J-44.8296
G3 X21.3953 Y72.6657 I0.8424 J1.814
G2 X24.8325 Y70.8648 I-16.9174 J-36.4698
G3 X24.8659 Y70.8456 I1.0126 J1.7247
G2 X24.8906 Y70.8311 I-0.337 J-0.6002
G3 X24.9576 Y70.7915 I1.0508 J1.7017
G2 X24.9814 Y70.7773 I-0.3266 J-0.578
G3 X25.0161 Y70.7562 I1.0557 J1.6987
G2 X27.8149 Y68.9112 I-18.1908 J-30.6396
G2 X28.4094 Y68.4664 I-36.0827 J-48.8362
G2 X30.5688 Y66.6495 I-18.3696 J-24.0249
G2 X32.2981 Y64.9007 I-18.5923 J-20.1138
G3 X32.2991 Y64.8995 I1.4838 J1.341
G2 X33.6633 Y63.2543 I-18.2941 J-16.5576
G3 X33.6649 Y63.2523 I1.5934 J1.2087
G2 X35.6753 Y60.1201 I-18.6164 J-14.1606
G2 X37.6575 Y54.9336 I-19.6343 J-10.4758
G3 X37.658 Y54.9314 I1.9427 J0.4754
G2 X38.1601 Y52.1865 I-22.5242 J-5.5381
G3 X38.1613 Y52.1766 I1.9854 J0.2408
G2 X38.2354 Y51.4936 I-19.244 J-2.4325
G2 X38.2805 Y50.9535 I-41.0261 J-3.703
G3 X38.2823 Y50.9319 I1.9941 J0.1536
G2 X38.2919 Y50.7931 I-3.7336 J-0.3284
G3 X38.2928 Y50.7772 I1.9974 J0.1012
G1 X38.3144 Y50.4095
G2 X38.3473 Y49.382 I-23.7911 J-1.2776
G3 X38.3483 Y49.3369 I1.9999 J0.021
( Profile2 )
S1000
G0 Z3.0
G0 X88.2105
G0 Z1.0
G1 F50.0 Z-5.5
G3 F150.0 Y49.2956 I1.9999 J-0.0202
G2 X88.1391 Y46.6945 I-34.2571 J-0.3623
G3 Y46.6939 I1.9957 J-0.1307
G2 X87.4618 Y41.8692 I-32.7272 J2.1344
G2 X86.2677 Y37.7788 I-30.1859 J6.5929
G2 X84.7537 Y34.378 I-27.146 J10.0471
G2 X83.0728 Y31.5991 I-23.8274 J12.5149
G3 X83.0726 Y31.5987 I1.6457 J-1.1365
G2 X81.3353 Y29.3588 I-21.0315 J14.5177
G3 X81.3341 Y29.3573 I1.51 J-1.3115
G2 X77.736 Y25.982 I-18.1045 J15.6944
G1 X77.7359
G2 X71.2435 Y22.555 I-13.5568 J17.8197
G2 X67.6623 Y21.6878 I-7.1144 J21.5522
G2 X64.0226 Y21.4028 I-3.664 J23.4074
G3 X64.0247 Y17.4028 I0.002 J-2.0
G1 X93.9735
G3 X95.9735 Y19.4028 I0.0 J2.0
G1 Y79.4027
G3 X93.9735 Y81.4027 I-2.0 J0.0
G1 X49.8609
G3 X49.8512 Y77.4028 I0.0 J-2.0
G1 X50.269 Y77.4007
G1 X50.6766 Y77.3949
G1 X50.8756 Y77.3907
G1 X51.0765 Y77.3855
G2 X54.2785 Y77.1867 I-1.511 J-50.2417
G2 X66.1162 Y74.6998 I-5.1773 J-54.0606
G2 X70.3939 Y73.0569 I-15.0398 J-45.5498
G3 X70.396 Y73.0559 I0.8054 J1.8307
G2 X72.2071 Y72.2082 I-16.4191 J-37.4382
G3 X72.2124 Y72.2056 I0.8919 J1.7901
G2 X75.4869 Y70.386 I-17.336 J-35.0528
G3 X75.4898 Y70.3842 I1.0541 J1.6997
G2 X76.8533 Y69.4942 I-17.2222 J-27.8737
G3 X76.8583 Y69.4908 I1.1345 J1.6471
G2 X77.4805 Y69.0534 I-17.1368 J-25.043
G3 X77.4829 Y69.0517 I1.1705 J1.6217
G2 X79.8002 Y67.2161 I-18.6757 J-25.9574
G3 X79.8251 Y67.1948 I1.313 J1.5087
G2 X79.8318 Y67.1889 I-0.1482 J-0.176
G3 X79.8613 Y67.1626 I1.3461 J1.4792
G2 X81.7038 Y65.3933 I-18.0694 J-20.661
G2 X83.1696 Y63.7112 I-19.3541 J-18.3459
G2 X84.3161 Y62.1496 I-18.6445 J-14.8894
G3 X84.3178 Y62.1472 I1.6589 J1.1171
G2 X85.993 Y59.2168 I-18.7189 J-12.6455
G2 X87.6351 Y54.44 I-20.1377 J-9.593
G3 X87.6353 Y54.439 I1.9528 J0.4318
G2 X88.0522 Y51.9312 I-23.2649 J-5.1565
G3 X88.0524 Y51.93 I1.9876 J0.2223
G2 X88.2095 Y49.3807 I-25.1843 J-2.8317
G3 X88.2105 Y49.3369 I1.9999 J0.0223
G1 F50.0 Z-11.0
G3 F150.0 Y49.2956 I1.9999 J-0.0202
G2 X88.1391 Y46.6945 I-34.2571 J-0.3623
G3 Y46.6939 I1.9957 J-0.1307
G2 X87.4618 Y41.8692 I-32.7272 J2.1344
G2 X86.2677 Y37.7788 I-30.1859 J6.5929
G2 X84.7537 Y34.378 I-27.146 J10.0471
G2 X83.0728 Y31.5991 I-23.8274 J12.5149
G3 X83.0726 Y31.5987 I1.6457 J-1.1365
G2 X81.3353 Y29.3588 I-21.0315 J14.5177
G3 X81.3341 Y29.3573 I1.51 J-1.3115
G2 X77.736 Y25.982 I-18.1045 J15.6944
G1 X77.7359
G2 X71.2435 Y22.555 I-13.5568 J17.8197
G2 X67.6623 Y21.6878 I-7.1144 J21.5522
G2 X64.0226 Y21.4028 I-3.664 J23.4074
G3 X64.0247 Y17.4028 I0.002 J-2.0
G1 X93.9735
G3 X95.9735 Y19.4028 I0.0 J2.0
G1 Y79.4027
G3 X93.9735 Y81.4027 I-2.0 J0.0
G1 X49.8609
G3 X49.8512 Y77.4028 I0.0 J-2.0
G1 X50.269 Y77.4007
G1 X50.6766 Y77.3949
G1 X50.8756 Y77.3907
G1 X51.0765 Y77.3855
G2 X54.2785 Y77.1867 I-1.511 J-50.2417
G2 X66.1162 Y74.6998 I-5.1773 J-54.0606
G2 X70.3939 Y73.0569 I-15.0398 J-45.5498
G3 X70.396 Y73.0559 I0.8054 J1.8307
G2 X72.2071 Y72.2082 I-16.4191 J-37.4382
G3 X72.2124 Y72.2056 I0.8919 J1.7901
G2 X75.4869 Y70.386 I-17.336 J-35.0528
G3 X75.4898 Y70.3842 I1.0541 J1.6997
G2 X76.8533 Y69.4942 I-17.2222 J-27.8737
G3 X76.8583 Y69.4908 I1.1345 J1.6471
G2 X77.4805 Y69.0534 I-17.1368 J-25.043
G3 X77.4829 Y69.0517 I1.1705 J1.6217
G2 X79.8002 Y67.2161 I-18.6757 J-25.9574
G3 X79.8251 Y67.1948 I1.313 J1.5087
G2 X79.8318 Y67.1889 I-0.1482 J-0.176
G3 X79.8613 Y67.1626 I1.3461 J1.4792
G2 X81.7038 Y65.3933 I-18.0694 J-20.661
G2 X83.1696 Y63.7112 I-19.3541 J-18.3459
G2 X84.3161 Y62.1496 I-18.6445 J-14.8894
G3 X84.3178 Y62.1472 I1.6589 J1.1171
G2 X85.993 Y59.2168 I-18.7189 J-12.6455
G2 X87.6351 Y54.44 I-20.1377 J-9.593
G3 X87.6353 Y54.439 I1.9528 J0.4318
G2 X88.0522 Y51.9312 I-23.2649 J-5.1565
G3 X88.0524 Y51.93 I1.9876 J0.2223
G2 X88.2095 Y49.3807 I-25.1843 J-2.8317
G3 X88.2105 Y49.3369 I1.9999 J0.0223
( Profile3 )
S1000
G0 Z3.0
G0 X137.3747
G0 Z1.0
G1 F50.0 Z-5.5
G3 F150.0 Y49.2955 I1.9999 J-0.0202
G2 X137.3034 Y46.6947 I-34.2199 J-0.3633
G3 Y46.6939 I1.9957 J-0.1308
G2 X136.6261 Y41.8694 I-32.6942 J2.1295
G2 X135.4321 Y37.7791 I-30.1427 J6.5797
G2 X133.9183 Y34.3783 I-27.1045 J10.0279
G2 X132.2376 Y31.5995 I-23.7895 J12.4912
G3 X132.2372 Y31.5989 I1.6456 J-1.1366
G2 X130.5002 Y29.3592 I-20.9995 J14.4923
G3 X130.4988 Y29.3576 I1.5099 J-1.3116
G2 X126.9011 Y25.9825 I-18.0931 J15.6816
G1 X126.9009 Y25.9823
G2 X120.4088 Y22.5553 I-13.555 J17.8157
G2 X116.8277 Y21.6881 I-7.1161 J21.5585
G2 X113.1856 Y21.4031 I-3.6652 J23.4227
G3 X113.1876 Y17.4031 I0.0019 J-2.0
G1 X143.1374
G3 X145.1374 Y19.4031 I0.0 J2.0
G1 Y79.4029
G3 X143.1374 Y81.4029 I-2.0 J0.0
G1 X99.0264
G3 X99.0167 Y77.4029 I0.0 J-2.0
G1 X99.4345 Y77.4009
G1 X99.8421 Y77.3951
G1 X100.0427 Y77.3908
G2 X101.6473 Y77.3247 I-1.1414 J-47.2436
G2 X104.7643 Y77.0447 I-2.9739 J-50.592
G1 X104.8583 Y77.0333
G2 X116.3028 Y74.3491 I-6.5497 J-53.6667
G2 X120.4209 Y72.6661 I-15.9205 J-44.8353
G3 X120.4217 Y72.6658 I0.8423 J1.814
G2 X123.8589 Y70.8649 I-16.9207 J-36.4759
G3 X123.8923 Y70.8457 I1.0126 J1.7247
G2 X123.917 Y70.8312 I-0.337 J-0.6003
G3 X123.984 Y70.7916 I1.0508 J1.7017
G2 X124.0078 Y70.7775 I-0.3266 J-0.5781
G3 X124.0425 Y70.7564 I1.0557 J1.6987
G2 X126.8413 Y68.9114 I-18.196 J-30.6473
G2 X127.4358 Y68.4665 I-36.2294 J-49.0318
G2 X129.5952 Y66.6496 I-18.3756 J-24.0319
G2 X131.3245 Y64.9007 I-18.5998 J-20.1211
G3 X131.3255 Y64.8996 I1.4838 J1.341
G2 X132.6897 Y63.2543 I-18.3034 J-16.5651
G3 X132.6913 Y63.2523 I1.5934 J1.2088
G2 X134.7017 Y60.1201 I-18.6219 J-14.164
G2 X136.6839 Y54.9336 I-19.6372 J-10.4768
G3 X136.6844 Y54.9315 I1.9427 J0.4754
G2 X137.1865 Y52.1865 I-22.5274 J-5.5387
G3 X137.1877 Y52.1766 I1.9854 J0.2409
G2 X137.2618 Y51.4936 I-19.2474 J-2.4328
G2 X137.3069 Y50.9535 I-41.0476 J-3.7048
G3 X137.3087 Y50.9319 I1.9941 J0.1536
G2 X137.3183 Y50.7931 I-3.7337 J-0.3284
G3 X137.3192 Y50.7772 I1.9974 J0.1012
G1 X137.3408 Y50.4095
G2 X137.3737 Y49.382 I-23.7905 J-1.2776
G3 X137.3747 Y49.3369 I1.9999 J0.021
G1 F50.0 Z-11.0
G3 F150.0 Y49.2955 I1.9999 J-0.0202
G2 X137.3034 Y46.6947 I-34.2199 J-0.3633
G3 Y46.6939 I1.9957 J-0.1308
G2 X136.6261 Y41.8694 I-32.6942 J2.1295
G2 X135.4321 Y37.7791 I-30.1427 J6.5797
G2 X133.9183 Y34.3783 I-27.1045 J10.0279
G2 X132.2376 Y31.5995 I-23.7895 J12.4912
G3 X132.2372 Y31.5989 I1.6456 J-1.1366
G2 X130.5002 Y29.3592 I-20.9995 J14.4923
G3 X130.4988 Y29.3576 I1.5099 J-1.3116
G2 X126.9011 Y25.9825 I-18.0931 J15.6816
G1 X126.9009 Y25.9823
G2 X120.4088 Y22.5553 I-13.555 J17.8157
G2 X116.8277 Y21.6881 I-7.1161 J21.5585
G2 X113.1856 Y21.4031 I-3.6652 J23.4227
G3 X113.1876 Y17.4031 I0.0019 J-2.0
G1 X143.1374
G3 X145.1374 Y19.4031 I0.0 J2.0
G1 Y79.4029
G3 X143.1374 Y81.4029 I-2.0 J0.0
G1 X99.0264
G3 X99.0167 Y77.4029 I0.0 J-2.0
G1 X99.4345 Y77.4009
G1 X99.8421 Y77.3951
G1 X100.0427 Y77.3908
G2 X101.6473 Y77.3247 I-1.1414 J-47.2436
G2 X104.7643 Y77.0447 I-2.9739 J-50.592
G1 X104.8583 Y77.0333
G2 X116.3028 Y74.3491 I-6.5497 J-53.6667
G2 X120.4209 Y72.6661 I-15.9205 J-44.8353
G3 X120.4217 Y72.6658 I0.8423 J1.814
G2 X123.8589 Y70.8649 I-16.9207 J-36.4759
G3 X123.8923 Y70.8457 I1.0126 J1.7247
G2 X123.917 Y70.8312 I-0.337 J-0.6003
G3 X123.984 Y70.7916 I1.0508 J1.7017
G2 X124.0078 Y70.7775 I-0.3266 J-0.5781
G3 X124.0425 Y70.7564 I1.0557 J1.6987
G2 X126.8413 Y68.9114 I-18.196 J-30.6473
G2 X127.4358 Y68.4665 I-36.2294 J-49.0318
G2 X129.5952 Y66.6496 I-18.3756 J-24.0319
G2 X131.3245 Y64.9007 I-18.5998 J-20.1211
G3 X131.3255 Y64.8996 I1.4838 J1.341
G2 X132.6897 Y63.2543 I-18.3034 J-16.5651
G3 X132.6913 Y63.2523 I1.5934 J1.2088
G2 X134.7017 Y60.1201 I-18.6219 J-14.164
G2 X136.6839 Y54.9336 I-19.6372 J-10.4768
G3 X136.6844 Y54.9315 I1.9427 J0.4754
G2 X137.1865 Y52.1865 I-22.5274 J-5.5387
G3 X137.1877 Y52.1766 I1.9854 J0.2409
G2 X137.2618 Y51.4936 I-19.2474 J-2.4328
G2 X137.3069 Y50.9535 I-41.0476 J-3.7048
G3 X137.3087 Y50.9319 I1.9941 J0.1536
G2 X137.3183 Y50.7931 I-3.7337 J-0.3284
G3 X137.3192 Y50.7772 I1.9974 J0.1012
G1 X137.3408 Y50.4095
G2 X137.3737 Y49.382 I-23.7905 J-1.2776
G3 X137.3747 Y49.3369 I1.9999 J0.021
( Profile5 )
S1000
G0 Z3.0
G0 X5.7628 Y30.066
G0 Z1.0
G1 F50.0 Z-5.5
G3 F150.0 Y30.1072 I-1.9999 J0.0201
G2 X5.8341 Y32.7085 I34.3131 J0.3612
G3 X5.8342 Y32.7089 I-1.9957 J0.1306
G2 X6.5114 Y37.5336 I32.747 J-2.1367
G2 X7.7054 Y41.6239 I30.1925 J-6.5943
G2 X9.2192 Y45.0247 I27.1418 J-10.0446
G2 X10.9 Y47.8035 I23.8154 J-12.5069
G3 X10.9003 Y47.804 I-1.6457 J1.1365
G2 X12.6374 Y50.0438 I21.0149 J-14.5041
G3 X12.6387 Y50.0454 I-1.51 J1.3115
G2 X16.2365 Y53.4205 I18.0948 J-15.6832
G1 X16.2367 Y53.4207
G2 X22.7288 Y56.8477 I13.5529 J-17.8114
G2 X26.3098 Y57.7149 I7.113 J-21.5452
G2 X29.9502 Y58.0 I3.6643 J-23.4104
G3 X29.9482 Y62.0 I-0.002 J2.0
G1 X0.0
G3 X-2.0 Y60.0 I0.0 J-2.0
G1 Y0.0
G3 X0.0 Y-2.0 I2.0 J0.0
G1 X44.1112
G3 X44.1209 Y2.0 I0.0 J2.0
G1 X43.7031 Y2.002
G1 X43.2955 Y2.0078
G1 X43.0949 Y2.0121
G2 X41.4902 Y2.0782 I1.1414 J47.2436
G2 X38.3733 Y2.3582 I2.9739 J50.592
G1 X38.2793 Y2.3696
G2 X26.8347 Y5.0538 I6.5497 J53.6667
G2 X22.7166 Y6.7368 I15.9205 J44.8353
G3 X22.7159 Y6.7371 I-0.8423 J-1.814
G2 X19.2787 Y8.538 I16.9207 J36.4759
G3 X19.2452 Y8.5572 I-1.0126 J-1.7247
G2 X19.2206 Y8.5717 I0.337 J0.6003
G3 X19.1536 Y8.6113 I-1.0508 J-1.7017
G2 X19.1297 Y8.6255 I0.3266 J0.5781
G3 X19.095 Y8.6465 I-1.0557 J-1.6987
G2 X16.2963 Y10.4915 I18.196 J30.6473
G2 X15.7018 Y10.9364 I36.2294 J49.0318
G2 X13.5424 Y12.7533 I18.3756 J24.0319
G1 X13.5423
G1 X13.5424
G2 X11.813 Y14.5022 I18.5998 J20.1211
G3 X11.8121 Y14.5033 I-1.4838 J-1.341
G2 X10.4478 Y16.1486 I18.3034 J16.5651
G3 X10.4463 Y16.1506 I-1.5934 J-1.2088
G2 X8.4358 Y19.2828 I18.6219 J14.164
G2 X6.4537 Y24.4693 I19.6372 J10.4768
G3 X6.4532 Y24.4715 I-1.9427 J-0.4754
G2 X5.9511 Y27.2164 I22.5274 J5.5387
G3 X5.9499 Y27.2263 I-1.9854 J-0.2409
G2 X5.8758 Y27.9093 I19.2474 J2.4328
G2 X5.8306 Y28.4494 I41.0476 J3.7048
G3 X5.8289 Y28.471 I-1.9941 J-0.1536
G2 X5.8192 Y28.6098 I3.7337 J0.3284
G3 X5.8184 Y28.6257 I-1.9974 J-0.1012
G1 X5.7968 Y28.9934
G2 X5.7638 Y30.0209 I23.7905 J1.2776
G3 X5.7628 Y30.066 I-1.9999 J-0.021
G1 F50.0 Z-11.0
G3 F150.0 Y30.1072 I-1.9999 J0.0201
G2 X5.8341 Y32.7085 I34.3131 J0.3612
G3 X5.8342 Y32.7089 I-1.9957 J0.1306
G2 X6.5114 Y37.5336 I32.747 J-2.1367
G2 X7.7054 Y41.6239 I30.1925 J-6.5943
G2 X9.2192 Y45.0247 I27.1418 J-10.0446
G2 X10.9 Y47.8035 I23.8154 J-12.5069
G3 X10.9003 Y47.804 I-1.6457 J1.1365
G2 X12.6374 Y50.0438 I21.0149 J-14.5041
G3 X12.6387 Y50.0454 I-1.51 J1.3115
G2 X16.2365 Y53.4205 I18.0948 J-15.6832
G1 X16.2367 Y53.4207
G2 X22.7288 Y56.8477 I13.5529 J-17.8114
G2 X26.3098 Y57.7149 I7.113 J-21.5452
G2 X29.9502 Y58.0 I3.6643 J-23.4104
G3 X29.9482 Y62.0 I-0.002 J2.0
G1 X0.0
G3 X-2.0 Y60.0 I0.0 J-2.0
G1 Y0.0
G3 X0.0 Y-2.0 I2.0 J0.0
G1 X44.1112
G3 X44.1209 Y2.0 I0.0 J2.0
G1 X43.7031 Y2.002
G1 X43.2955 Y2.0078
G1 X43.0949 Y2.0121
G2 X41.4902 Y2.0782 I1.1414 J47.2436
G2 X38.3733 Y2.3582 I2.9739 J50.592
G1 X38.2793 Y2.3696
G2 X26.8347 Y5.0538 I6.5497 J53.6667
G2 X22.7166 Y6.7368 I15.9205 J44.8353
G3 X22.7159 Y6.7371 I-0.8423 J-1.814
G2 X19.2787 Y8.538 I16.9207 J36.4759
G3 X19.2452 Y8.5572 I-1.0126 J-1.7247
G2 X19.2206 Y8.5717 I0.337 J0.6003
G3 X19.1536 Y8.6113 I-1.0508 J-1.7017
G2 X19.1297 Y8.6255 I0.3266 J0.5781
G3 X19.095 Y8.6465 I-1.0557 J-1.6987
G2 X16.2963 Y10.4915 I18.196 J30.6473
G2 X15.7018 Y10.9364 I36.2294 J49.0318
G2 X13.5424 Y12.7533 I18.3756 J24.0319
G1 X13.5423
G1 X13.5424
G2 X11.813 Y14.5022 I18.5998 J20.1211
G3 X11.8121 Y14.5033 I-1.4838 J-1.341
G2 X10.4478 Y16.1486 I18.3034 J16.5651
G3 X10.4463 Y16.1506 I-1.5934 J-1.2088
G2 X8.4358 Y19.2828 I18.6219 J14.164
G2 X6.4537 Y24.4693 I19.6372 J10.4768
G3 X6.4532 Y24.4715 I-1.9427 J-0.4754
G2 X5.9511 Y27.2164 I22.5274 J5.5387
G3 X5.9499 Y27.2263 I-1.9854 J-0.2409
G2 X5.8758 Y27.9093 I19.2474 J2.4328
G2 X5.8306 Y28.4494 I41.0476 J3.7048
G3 X5.8289 Y28.471 I-1.9941 J-0.1536
G2 X5.8192 Y28.6098 I3.7337 J0.3284
G3 X5.8184 Y28.6257 I-1.9974 J-0.1012
G1 X5.7968 Y28.9934
G2 X5.7638 Y30.0209 I23.7905 J1.2776
G3 X5.7628 Y30.066 I-1.9999 J-0.021
( Profile6 )
S1000
G0 Z3.0
G0 X54.6238
G0 Z1.0
G1 F50.0 Z-5.5
G3 F150.0 Y30.1072 I-1.9999 J0.0201
G2 X54.695 Y32.7085 I34.305 J0.3614
G3 X54.6951 Y32.7089 I-1.9957 J0.1306
G2 X55.3723 Y37.5337 I32.7451 J-2.1365
G2 X56.5664 Y41.624 I30.1958 J-6.5954
G2 X58.0803 Y45.0248 I27.1515 J-10.0492
G2 X59.7611 Y47.8037 I23.8321 J-12.5174
G3 X59.7613 Y47.804 I-1.6457 J1.1365
G2 X61.4986 Y50.044 I21.0358 J-14.5207
G3 X61.4998 Y50.0454 I-1.51 J1.3114
G2 X65.0979 Y53.4207 I18.1079 J-15.6977
G1 Y53.4208
G2 X68.2037 Y55.4032 I13.5763 J-17.8449
G3 X68.205 Y55.4039 I-0.9339 J1.7685
G2 X73.3609 Y57.3543 I10.3436 J-19.5531
G3 X73.3625 Y57.3547 I-0.469 J1.9442
G2 X76.0857 Y57.8401 I5.3232 J-21.9832
G3 X76.0894 Y57.8406 I-0.2299 J1.9867
G2 X76.4282 Y57.8775 I2.3897 J-20.3254
G1 X76.5836 Y57.8928
G1 X76.7254 Y57.9059
G1 X76.8593 Y57.9174
G2 X78.8637 Y58.0 I2.0299 J-24.9067
G3 X78.8617 Y62.0 I-0.002 J2.0
G1 X48.8609
G3 X46.8609 Y60.0 I0.0 J-2.0
G1 Y0.0
G3 X48.8609 Y-2.0 I2.0 J0.0
G1 X92.9735
G3 X92.9832 Y2.0 I0.0 J2.0
G1 X92.5654 Y2.002
G1 X92.1577 Y2.0078
G1 X91.9567 Y2.0121
G2 X90.3526 Y2.0782 I1.0984 J46.1927
G1 X90.3524
G2 X87.2356 Y2.3582 I2.9323 J50.1341
G3 X87.2336 Y2.3584 I-0.2409 J-1.9854
G2 X75.7625 Y5.0302 I6.4623 J53.7051
G2 X73.6779 Y5.8217 I16.0995 J45.5422
G3 X73.6774 Y5.8219 I-0.7529 J-1.8529
G2 X69.8841 Y7.5725 I16.8419 J41.4814
G1 X69.884
G1 X69.8841 Y7.5724
G1 Y7.5725
G2 X66.7381 Y9.4032 I17.5129 J33.7122
G3 X66.7376 Y9.4036 I-1.0876 J-1.6784
G2 X66.0778 Y9.8422 I17.8867 J27.6227
G3 X66.074 Y9.8447 I-1.1272 J-1.6521
G2 X65.4478 Y10.2817 I16.8433 J24.8074
G3 X65.4428 Y10.2853 I-1.1652 J-1.6255
G2 X63.1119 Y12.1188 I18.0388 J25.3312
G3 X63.1099 Y12.1204 I-1.31 J-1.5112
G2 X61.2382 Y13.8964 I18.2508 J21.1086
G3 X61.2354 Y13.8993 I-1.4422 J-1.3856
G2 X58.4275 Y17.3885 I17.9756 J17.3401
G2 X56.7907 Y20.2926 I18.6507 J12.4253
G1 X56.7905 Y20.2929
G2 X55.1874 Y25.0158 I20.245 J9.5055
G1 X55.1191 Y25.3371
G2 X54.9131 Y26.4863 I22.2158 J4.5767
G2 X54.6247 Y30.0224 I25.0354 J3.8212
G3 X54.6238 Y30.066 I-1.9999 J-0.0225
G1 F50.0 Z-11.0
G3 F150.0 Y30.1072 I-1.9999 J0.0201
G2 X54.695 Y32.7085 I34.305 J0.3614
G3 X54.6951 Y32.7089 I-1.9957 J0.1306
G2 X55.3723 Y37.5337 I32.7451 J-2.1365
G2 X56.5664 Y41.624 I30.1958 J-6.5954
G2 X58.0803 Y45.0248 I27.1515 J-10.0492
G2 X59.7611 Y47.8037 I23.8321 J-12.5174
G3 X59.7613 Y47.804 I-1.6457 J1.1365
G2 X61.4986 Y50.044 I21.0358 J-14.5207
G3 X61.4998 Y50.0454 I-1.51 J1.3114
G2 X65.0979 Y53.4207 I18.1079 J-15.6977
G1 Y53.4208
G2 X68.2037 Y55.4032 I13.5763 J-17.8449
G3 X68.205 Y55.4039 I-0.9339 J1.7685
G2 X73.3609 Y57.3543 I10.3436 J-19.5531
G3 X73.3625 Y57.3547 I-0.469 J1.9442
G2 X76.0857 Y57.8401 I5.3232 J-21.9832
G3 X76.0894 Y57.8406 I-0.2299 J1.9867
G2 X76.4282 Y57.8775 I2.3897 J-20.3254
G1 X76.5836 Y57.8928
G1 X76.7254 Y57.9059
G1 X76.8593 Y57.9174
G2 X78.8637 Y58.0 I2.0299 J-24.9067
G3 X78.8617 Y62.0 I-0.002 J2.0
G1 X48.8609
G3 X46.8609 Y60.0 I0.0 J-2.0
G1 Y0.0
G3 X48.8609 Y-2.0 I2.0 J0.0
G1 X92.9735
G3 X92.9832 Y2.0 I0.0 J2.0
G1 X92.5654 Y2.002
G1 X92.1577 Y2.0078
G1 X91.9567 Y2.0121
G2 X90.3526 Y2.0782 I1.0984 J46.1927
G1 X90.3524
G2 X87.2356 Y2.3582 I2.9323 J50.1341
G3 X87.2336 Y2.3584 I-0.2409 J-1.9854
G2 X75.7625 Y5.0302 I6.4623 J53.7051
G2 X73.6779 Y5.8217 I16.0995 J45.5422
G3 X73.6774 Y5.8219 I-0.7529 J-1.8529
G2 X69.8841 Y7.5725 I16.8419 J41.4814
G1 X69.884
G1 X69.8841 Y7.5724
G1 Y7.5725
G2 X66.7381 Y9.4032 I17.5129 J33.7122
G3 X66.7376 Y9.4036 I-1.0876 J-1.6784
G2 X66.0778 Y9.8422 I17.8867 J27.6227
G3 X66.074 Y9.8447 I-1.1272 J-1.6521
G2 X65.4478 Y10.2817 I16.8433 J24.8074
G3 X65.4428 Y10.2853 I-1.1652 J-1.6255
G2 X63.1119 Y12.1188 I18.0388 J25.3312
G3 X63.1099 Y12.1204 I-1.31 J-1.5112
G2 X61.2382 Y13.8964 I18.2508 J21.1086
G3 X61.2354 Y13.8993 I-1.4422 J-1.3856
G2 X58.4275 Y17.3885 I17.9756 J17.3401
G2 X56.7907 Y20.2926 I18.6507 J12.4253
G1 X56.7905 Y20.2929
G2 X55.1874 Y25.0158 I20.245 J9.5055
G1 X55.1191 Y25.3371
G2 X54.9131 Y26.4863 I22.2158 J4.5767
G2 X54.6247 Y30.0224 I25.0354 J3.8212
G3 X54.6238 Y30.066 I-1.9999 J-0.0225
( Profile7 )
S1000
G0 Z3.0
G0 X104.7894 Y30.0664
G0 Z1.0
G1 F50.0 Z-5.5
G3 F150.0 Y30.1077 I-1.9999 J0.0201
G2 X104.8607 Y32.7088 I34.2695 J0.3626
G3 Y32.7093 I-1.9957 J0.1306
G2 X105.5379 Y37.5339 I32.7336 J-2.1346
G2 X106.7319 Y41.6241 I30.1846 J-6.5919
G2 X108.2456 Y45.0249 I27.1377 J-10.0427
G2 X109.9264 Y47.8037 I23.8126 J-12.5051
G3 X109.9267 Y47.8042 I-1.6457 J1.1365
G2 X111.6637 Y50.0439 I21.0115 J-14.5014
G3 X111.6651 Y50.0456 I-1.51 J1.3115
G2 X115.2628 Y53.4206 I18.0918 J-15.68
G3 X115.2631 Y53.4209 I-1.2108 J1.5918
G2 X121.7551 Y56.8479 I13.5503 J-17.8065
G2 X125.3361 Y57.7151 I7.1094 J-21.5298
G2 X128.9739 Y58.0001 I3.6629 J-23.3923
G3 X128.9717 Y62.0001 I-0.0021 J2.0
G1 X99.0264
G3 X97.0264 Y60.0001 I0.0 J-2.0
G1 Y0.0
G3 X99.0264 Y-2.0 I2.0 J0.0
G1 X143.1374
G3 X143.1471 Y2.0 I0.0 J2.0
G1 X142.7293 Y2.002
G1 X142.3217 Y2.0078
G1 X142.1227 Y2.0121
G1 X141.9217 Y2.0173
G2 X138.7199 Y2.216 I1.5009 J50.0731
G2 X126.8825 Y4.7031 I5.1738 J54.0391
G2 X122.6049 Y6.3461 I15.0495 J45.5713
G3 X122.6029 Y6.347 I-0.8054 J-1.8307
G2 X120.7916 Y7.1948 I16.453 J37.5078
G3 X120.7866 Y7.1973 I-0.8919 J-1.7901
G2 X117.5119 Y9.0172 I17.3631 J35.0989
G3 X117.5093 Y9.0188 I-1.0541 J-1.6997
G2 X116.1457 Y9.909 I17.282 J27.9632
G3 X116.1386 Y9.9139 I-1.1344 J-1.6471
G2 X114.9051 Y10.8021 I16.9511 J24.84
G3 X114.869 Y10.8289 I-1.2094 J-1.5929
G2 X114.8622 Y10.834 I0.116 J0.1601
G3 X114.7978 Y10.883 I-1.2422 J-1.5674
G2 X114.7911 Y10.8881 I0.1149 J0.1577
G3 X114.7568 Y10.9149 I-1.2465 J-1.5641
G2 X112.5907 Y12.7334 I18.13 J23.7943
G3 X112.5886 Y12.7353 I-1.357 J-1.4692
G2 X110.8574 Y14.4827 I18.2059 J19.7683
G3 X110.8415 Y14.5001 I-1.4837 J-1.3411
G2 X110.7826 Y14.5656 I2.2898 J2.1192
G3 X110.7496 Y14.6023 I-1.5056 J-1.3165
G2 X110.6076 Y14.7627 I4.3281 J3.9768
G3 X110.5884 Y14.7849 I-1.5211 J-1.2986
G2 X108.1137 Y18.1421 I18.2006 J16.0068
G2 X105.6461 Y23.8343 I19.0864 J11.6552
G2 X105.02 Y26.8904 I22.7754 J6.2578
G2 X104.7903 Y30.0255 I25.7703 J3.464
G3 X104.7894 Y30.0664 I-1.9998 J-0.0253
G1 F50.0 Z-11.0
G3 F150.0 Y30.1077 I-1.9999 J0.0201
G2 X104.8607 Y32.7088 I34.2695 J0.3626
G3 Y32.7093 I-1.9957 J0.1306
G2 X105.5379 Y37.5339 I32.7336 J-2.1346
G2 X106.7319 Y41.6241 I30.1846 J-6.5919
G2 X108.2456 Y45.0249 I27.1377 J-10.0427
G2 X109.9264 Y47.8037 I23.8126 J-12.5051
G3 X109.9267 Y47.8042 I-1.6457 J1.1365
G2 X111.6637 Y50.0439 I21.0115 J-14.5014
G3 X111.6651 Y50.0456 I-1.51 J1.3115
G2 X115.2628 Y53.4206 I18.0918 J-15.68
G3 X115.2631 Y53.4209 I-1.2108 J1.5918
G2 X121.7551 Y56.8479 I13.5503 J-17.8065
G2 X125.3361 Y57.7151 I7.1094 J-21.5298
G2 X128.9739 Y58.0001 I3.6629 J-23.3923
G3 X128.9717 Y62.0001 I-0.0021 J2.0
G1 X99.0264
G3 X97.0264 Y60.0001 I0.0 J-2.0
G1 Y0.0
G3 X99.0264 Y-2.0 I2.0 J0.0
G1 X143.1374
G3 X143.1471 Y2.0 I0.0 J2.0
G1 X142.7293 Y2.002
G1 X142.3217 Y2.0078
G1 X142.1227 Y2.0121
G1 X141.9217 Y2.0173
G2 X138.7199 Y2.216 I1.5009 J50.0731
G2 X126.8825 Y4.7031 I5.1738 J54.0391
G2 X122.6049 Y6.3461 I15.0495 J45.5713
G3 X122.6029 Y6.347 I-0.8054 J-1.8307
G2 X120.7916 Y7.1948 I16.453 J37.5078
G3 X120.7866 Y7.1973 I-0.8919 J-1.7901
G2 X117.5119 Y9.0172 I17.3631 J35.0989
G3 X117.5093 Y9.0188 I-1.0541 J-1.6997
G2 X116.1457 Y9.909 I17.282 J27.9632
G3 X116.1386 Y9.9139 I-1.1344 J-1.6471
G2 X114.9051 Y10.8021 I16.9511 J24.84
G3 X114.869 Y10.8289 I-1.2094 J-1.5929
G2 X114.8622 Y10.834 I0.116 J0.1601
G3 X114.7978 Y10.883 I-1.2422 J-1.5674
G2 X114.7911 Y10.8881 I0.1149 J0.1577
G3 X114.7568 Y10.9149 I-1.2465 J-1.5641
G2 X112.5907 Y12.7334 I18.13 J23.7943
G3 X112.5886 Y12.7353 I-1.357 J-1.4692
G2 X110.8574 Y14.4827 I18.2059 J19.7683
G3 X110.8415 Y14.5001 I-1.4837 J-1.3411
G2 X110.7826 Y14.5656 I2.2898 J2.1192
G3 X110.7496 Y14.6023 I-1.5056 J-1.3165
G2 X110.6076 Y14.7627 I4.3281 J3.9768
G3 X110.5884 Y14.7849 I-1.5211 J-1.2986
G2 X108.1137 Y18.1421 I18.2006 J16.0068
G2 X105.6461 Y23.8343 I19.0864 J11.6552
G2 X105.02 Y26.8904 I22.7754 J6.2578
G2 X104.7903 Y30.0255 I25.7703 J3.464
G3 X104.7894 Y30.0664 I-1.9998 J-0.0253
G0 Z3.0
M5
M30
