( Made using CamBam - http://www.cambam.co.uk )
( Arduino Pick and Place Shield 3/30/2013 5:56:27 PM )
( T2 : 2.0 )
G21 G90 G64 G40
G0 Z3.0
( T2 : 2.0 )
T2 M6
( Profile1 )
G17
M3 S1000
G0 X0.0 Y54.3401
G1 F100.0 Z-0.8
G1 X-81.2376
G3 X-81.951 Y54.0408 I0.0 J-1.0
G1 X-84.3216 Y51.6275
G3 X-84.6082 Y50.9268 I0.7134 J-0.7008
G1 Y41.3552
G1 X-87.019 Y38.9822
G3 X-87.3176 Y38.2695 I0.7015 J-0.7127
G1 Y5.0801
G3 X-87.0247 Y4.3731 I1.0 J0.0
G1 X-84.6082 Y1.9564
G1 Y0.0
G3 X-83.6082 Y-1.0 I1.0 J0.0
G1 X0.0
G3 X1.0 Y0.0 I0.0 J1.0
G1 Y53.3401
G3 X0.0 Y54.3401 I-1.0 J0.0
G1 Z-1.6
G1 X-81.2376
G3 X-81.951 Y54.0408 I0.0 J-1.0
G1 X-84.3216 Y51.6275
G3 X-84.6082 Y50.9268 I0.7134 J-0.7008
G1 Y41.3552
G1 X-87.019 Y38.9822
G3 X-87.3176 Y38.2695 I0.7015 J-0.7127
G1 Y5.0801
G3 X-87.0247 Y4.3731 I1.0 J0.0
G1 X-84.6082 Y1.9564
G1 Y0.0
G3 X-83.6082 Y-1.0 I1.0 J0.0
G1 X0.0
G3 X1.0 Y0.0 I0.0 J1.0
G1 Y53.3401
G3 X0.0 Y54.3401 I-1.0 J0.0
G0 Z3.0
M5
M30
