( Made using CamBam - http://www.cambam.co.uk )
( Arduino Pick and Place Shield 3/30/2013 5:56:23 PM )
( T11 : 1.0 )
G21 G90 G64 G40
G0 Z3.0
( T11 : 1.0 )
T11 M6
( Drill1 )
G17
M3 S1000
G0 X-53.9749 Y26.3736
G98
G81 X-53.9749 Y26.3736 Z-2.0 R3.0 F100.0
G81 X-56.5148 Z-2.0
G81 X-56.6841 Y31.6019 Z-2.0
G81 X-54.1442 Z-2.0
G81 X-46.0374 Y32.237 Z-2.0
G81 Y38.4387 Z-2.0
G81 Y41.762 Z-2.0
G81 X-48.5774 Z-2.0
G81 X-51.1174 Z-2.0
G81 X-50.3342 Y46.3551 Z-2.0
G81 X-52.8742 Z-2.0
G81 X-55.4143 Z-2.0
G81 X-57.9542 Z-2.0
G81 X-58.4199 Y50.8 Z-2.0
G81 X-60.9598 Z-2.0
G81 X-63.4999 Z-2.0
G81 X-66.0398 Z-2.0
G81 X-68.5799 Z-2.0
G81 X-71.1199 Z-2.0
G81 X-72.3898 Y47.4769 Z-2.0
G81 Y44.937 Z-2.0
G81 Y42.3967 Z-2.0
G81 Y39.8568 Z-2.0
G81 X-78.7187 Y40.6399 Z-2.0
G81 Y38.1 Z-2.0
G81 Y35.5601 Z-2.0
G81 X-81.2587 Z-2.0
G81 Y38.1 Z-2.0
G81 Y40.6399 Z-2.0
G81 Y43.1801 Z-2.0
G81 Y45.7199 Z-2.0
G81 X-78.7187 Z-2.0
G81 Y43.1801 Z-2.0
G81 Y48.2601 Z-2.0
G81 Y50.8 Z-2.0
G81 X-81.2587 Z-2.0
G81 Y48.2601 Z-2.0
G81 Y33.0199 Z-2.0
G81 Y30.4801 Z-2.0
G81 X-78.7187 Z-2.0
G81 Y33.0199 Z-2.0
G81 Y27.9399 Z-2.0
G81 Y25.4 Z-2.0
G81 Y22.8601 Z-2.0
G81 Y20.3412 Z-2.0
G81 X-81.2587 Z-2.0
G81 Y22.8601 Z-2.0
G81 Y25.4 Z-2.0
G81 Y27.9399 Z-2.0
G81 Y17.8012 Z-2.0
G81 X-78.7187 Z-2.0
G81 Y15.2611 Z-2.0
G81 Y12.7212 Z-2.0
G81 X-81.2587 Z-2.0
G81 Y15.2611 Z-2.0
G81 Y10.1811 Z-2.0
G81 Y7.6412 Z-2.0
G81 X-78.7187 Z-2.0
G81 Y10.1811 Z-2.0
G81 X-76.1787 Y2.5823 Z-2.0
G81 X-73.6598 Z-2.0
G81 X-71.1199 Z-2.0
G81 X-68.5799 Z-2.0
G81 X-66.0398 Z-2.0
G81 X-63.4999 Z-2.0
G81 X-60.9598 Z-2.0
G81 X-58.4199 Z-2.0
G81 X-53.3398 Z-2.0
G81 X-50.7999 Z-2.0
G81 X-48.2598 Z-2.0
G81 X-45.7199 Z-2.0
G81 X-43.1799 Z-2.0
G81 X-40.6398 Z-2.0
G81 X-38.0998 Z-2.0
G81 X-35.5599 Z-2.0
G81 X-30.4798 Z-2.0
G81 X-27.9399 Z-2.0
G81 X-25.3998 Z-2.0
G81 X-22.8599 Z-2.0
G81 X-20.3199 Z-2.0
G81 X-17.7798 Z-2.0
G81 X-15.2399 Z-2.0
G81 X-12.6998 Z-2.0
G81 X-8.4243 Y5.8842 Z-2.0
G81 X-5.8842 Z-2.0
G81 X-3.3655 Y41.5926 Z-2.0
G81 X-8.4241 Z-2.0
G81 X-14.4778 Y41.6137 Z-2.0
G81 X-16.9967 Z-2.0
G81 X-19.5366 Z-2.0
G81 X-22.0767 Z-2.0
G81 X-25.3998 Z-2.0
G81 X-27.9399 Z-2.0
G81 X-30.4798 Z-2.0
G81 X-33.0199 Z-2.0
G81 X-36.8298 Z-2.0
G81 X-39.3699 Z-2.0
G81 X-41.9099 Z-2.0
G81 X-36.8298 Y38.4387 Z-2.0
G81 Y32.237 Z-2.0
G81 X-35.5599 Y50.8 Z-2.0
G81 X-38.0998 Z-2.0
G81 X-40.6398 Z-2.0
G81 X-43.1799 Z-2.0
G81 X-45.7199 Z-2.0
G81 X-48.2598 Z-2.0
G81 X-53.3398 Z-2.0
G81 X-55.8799 Z-2.0
G81 X-33.0199 Z-2.0
G81 X-30.4798 Z-2.0
G81 X-26.416 Z-2.0
G81 X-23.8759 Z-2.0
G81 X-21.3358 Z-2.0
G81 X-18.7959 Z-2.0
G81 X-16.2559 Z-2.0
G81 X-13.716 Z-2.0
G81 X-11.1971 Z-2.0
G81 X-8.657 Z-2.0
G81 X-6.1169 Z-2.0
G81 X-3.577 Z-2.0
G81 X-53.8056 Y19.2193 Z-2.0
G81 X-56.3455 Z-2.0
G80
M5
M30
