( Made using CamBam - http://www.cambam.co.uk )
( lead nut mount 10/23/2013 9:54:22 AM )
( T4 : 4.0 )
G21 G90 G64 G40
G0 Z3.0
( T4 : 4.0 )
T4 M6
( 4mm Mill Profile )
G17
M3 S1000
G0 X0.0 Y33.2133
G0 Z1.0
G1 F25.0 Z-1.0
G1 F150.0 X19.9998
G2 X21.9998 Y31.2133 I0.0 J-2.0
G1 Y22.6655
G2 X21.7622 Y21.2791 I-4.1443 J-0.0032
G2 X21.1863 Y20.1565 I-4.4118 J1.5542
G2 X20.7312 Y19.5832 I-4.4412 J3.0574
G2 X20.6388 Y19.4832 I-2.0797 J1.8323
G2 X19.9547 Y18.8549 I-4.7189 J4.4512
G2 X19.005 Y18.1958 I-5.1208 J6.3651
G2 X17.7606 Y17.5541 I-5.6404 J9.4093
G2 X17.5654 Y17.4699 I-2.0209 J4.4189
G2 X15.8542 Y16.8713 I-5.8384 J13.9445
G2 X13.5742 Y16.3728 I-5.1673 J18.1681
G2 X13.5664 Y16.3716 I-0.3057 J1.9765
G1 X13.3003 Y16.3315
G2 X13.285 Y16.3292 I-0.2979 J1.9777
G2 X10.2108 Y16.1007 I-3.2252 J22.5954
G2 X9.9824 Y16.0998 I-0.1367 J5.8781
G2 X6.9899 Y16.2916 I0.0152 J23.6857
G2 X6.9824 Y16.2926 I0.254 J1.9838
G2 X5.9832 Y16.4473 I2.9311 J22.229
G2 X4.6385 Y16.7381 I3.259 J18.3267
G2 X4.6192 Y16.7431 I0.4947 J1.9379
G1 X4.3026 Y16.8273
G2 X4.2715 Y16.8358 I0.5139 J1.9328
G1 X4.1088 Y16.8819
G2 X4.1064 Y16.8826 I0.545 J1.9243
G2 X2.1416 Y17.5978 I3.986 J14.0072
G2 X2.1134 Y17.6107 I0.8172 J1.8254
G1 X1.9022 Y17.7092
G2 X1.8792 Y17.7201 I0.8454 J1.8125
G2 X1.3465 Y17.9937 I5.1215 J10.625
G2 X1.3324 Y18.0015 I0.9587 J1.7552
G2 X0.7831 Y18.3272 I5.7199 J10.2739
G2 X-0.5103 Y19.3512 I4.0618 J6.4589
G2 X-0.5194 Y19.3602 I1.4037 J1.4246
G2 X-1.1593 Y20.1175 I4.1338 J4.1419
G2 X-1.7337 Y21.1997 I3.8313 J2.7274
G2 X-2.0 Y22.6621 I3.9116 J1.4676
G2 Y22.6646 I2.0 J0.0025
G1 Y31.2133
G2 X0.0 Y33.2133 I2.0 J0.0
G1 F25.0 Z-2.0
G1 F150.0 X19.9998
G2 X21.9998 Y31.2133 I0.0 J-2.0
G1 Y22.6655
G2 X21.7622 Y21.2791 I-4.1443 J-0.0032
G2 X21.1863 Y20.1565 I-4.4118 J1.5542
G2 X20.7312 Y19.5832 I-4.4412 J3.0574
G2 X20.6388 Y19.4832 I-2.0797 J1.8323
G2 X19.9547 Y18.8549 I-4.7189 J4.4512
G2 X19.005 Y18.1958 I-5.1208 J6.3651
G2 X17.7606 Y17.5541 I-5.6404 J9.4093
G2 X17.5654 Y17.4699 I-2.0209 J4.4189
G2 X15.8542 Y16.8713 I-5.8384 J13.9445
G2 X13.5742 Y16.3728 I-5.1673 J18.1681
G2 X13.5664 Y16.3716 I-0.3057 J1.9765
G1 X13.3003 Y16.3315
G2 X13.285 Y16.3292 I-0.2979 J1.9777
G2 X10.2108 Y16.1007 I-3.2252 J22.5954
G2 X9.9824 Y16.0998 I-0.1367 J5.8781
G2 X6.9899 Y16.2916 I0.0152 J23.6857
G2 X6.9824 Y16.2926 I0.254 J1.9838
G2 X5.9832 Y16.4473 I2.9311 J22.229
G2 X4.6385 Y16.7381 I3.259 J18.3267
G2 X4.6192 Y16.7431 I0.4947 J1.9379
G1 X4.3026 Y16.8273
G2 X4.2715 Y16.8358 I0.5139 J1.9328
G1 X4.1088 Y16.8819
G2 X4.1064 Y16.8826 I0.545 J1.9243
G2 X2.1416 Y17.5978 I3.986 J14.0072
G2 X2.1134 Y17.6107 I0.8172 J1.8254
G1 X1.9022 Y17.7092
G2 X1.8792 Y17.7201 I0.8454 J1.8125
G2 X1.3465 Y17.9937 I5.1215 J10.625
G2 X1.3324 Y18.0015 I0.9587 J1.7552
G2 X0.7831 Y18.3272 I5.7199 J10.2739
G2 X-0.5103 Y19.3512 I4.0618 J6.4589
G2 X-0.5194 Y19.3602 I1.4037 J1.4246
G2 X-1.1593 Y20.1175 I4.1338 J4.1419
G2 X-1.7337 Y21.1997 I3.8313 J2.7274
G2 X-2.0 Y22.6621 I3.9116 J1.4676
G2 Y22.6646 I2.0 J0.0025
G1 Y31.2133
G2 X0.0 Y33.2133 I2.0 J0.0
G1 F25.0 Z-3.0
G1 F150.0 X19.9998
G2 X21.9998 Y31.2133 I0.0 J-2.0
G1 Y22.6655
G2 X21.7622 Y21.2791 I-4.1443 J-0.0032
G2 X21.1863 Y20.1565 I-4.4118 J1.5542
G2 X20.7312 Y19.5832 I-4.4412 J3.0574
G2 X20.6388 Y19.4832 I-2.0797 J1.8323
G2 X19.9547 Y18.8549 I-4.7189 J4.4512
G2 X19.005 Y18.1958 I-5.1208 J6.3651
G2 X17.7606 Y17.5541 I-5.6404 J9.4093
G2 X17.5654 Y17.4699 I-2.0209 J4.4189
G2 X15.8542 Y16.8713 I-5.8384 J13.9445
G2 X13.5742 Y16.3728 I-5.1673 J18.1681
G2 X13.5664 Y16.3716 I-0.3057 J1.9765
G1 X13.3003 Y16.3315
G2 X13.285 Y16.3292 I-0.2979 J1.9777
G2 X10.2108 Y16.1007 I-3.2252 J22.5954
G2 X9.9824 Y16.0998 I-0.1367 J5.8781
G2 X6.9899 Y16.2916 I0.0152 J23.6857
G2 X6.9824 Y16.2926 I0.254 J1.9838
G2 X5.9832 Y16.4473 I2.9311 J22.229
G2 X4.6385 Y16.7381 I3.259 J18.3267
G2 X4.6192 Y16.7431 I0.4947 J1.9379
G1 X4.3026 Y16.8273
G2 X4.2715 Y16.8358 I0.5139 J1.9328
G1 X4.1088 Y16.8819
G2 X4.1064 Y16.8826 I0.545 J1.9243
G2 X2.1416 Y17.5978 I3.986 J14.0072
G2 X2.1134 Y17.6107 I0.8172 J1.8254
G1 X1.9022 Y17.7092
G2 X1.8792 Y17.7201 I0.8454 J1.8125
G2 X1.3465 Y17.9937 I5.1215 J10.625
G2 X1.3324 Y18.0015 I0.9587 J1.7552
G2 X0.7831 Y18.3272 I5.7199 J10.2739
G2 X-0.5103 Y19.3512 I4.0618 J6.4589
G2 X-0.5194 Y19.3602 I1.4037 J1.4246
G2 X-1.1593 Y20.1175 I4.1338 J4.1419
G2 X-1.7337 Y21.1997 I3.8313 J2.7274
G2 X-2.0 Y22.6621 I3.9116 J1.4676
G2 Y22.6646 I2.0 J0.0025
G1 Y31.2133
G2 X0.0 Y33.2133 I2.0 J0.0
G1 F25.0 Z-4.0
G1 F150.0 X19.9998
G2 X21.9998 Y31.2133 I0.0 J-2.0
G1 Y22.6655
G2 X21.7622 Y21.2791 I-4.1443 J-0.0032
G2 X21.1863 Y20.1565 I-4.4118 J1.5542
G2 X20.7312 Y19.5832 I-4.4412 J3.0574
G2 X20.6388 Y19.4832 I-2.0797 J1.8323
G2 X19.9547 Y18.8549 I-4.7189 J4.4512
G2 X19.005 Y18.1958 I-5.1208 J6.3651
G2 X17.7606 Y17.5541 I-5.6404 J9.4093
G2 X17.5654 Y17.4699 I-2.0209 J4.4189
G2 X15.8542 Y16.8713 I-5.8384 J13.9445
G2 X13.5742 Y16.3728 I-5.1673 J18.1681
G2 X13.5664 Y16.3716 I-0.3057 J1.9765
G1 X13.3003 Y16.3315
G2 X13.285 Y16.3292 I-0.2979 J1.9777
G2 X10.2108 Y16.1007 I-3.2252 J22.5954
G2 X9.9824 Y16.0998 I-0.1367 J5.8781
G2 X6.9899 Y16.2916 I0.0152 J23.6857
G2 X6.9824 Y16.2926 I0.254 J1.9838
G2 X5.9832 Y16.4473 I2.9311 J22.229
G2 X4.6385 Y16.7381 I3.259 J18.3267
G2 X4.6192 Y16.7431 I0.4947 J1.9379
G1 X4.3026 Y16.8273
G2 X4.2715 Y16.8358 I0.5139 J1.9328
G1 X4.1088 Y16.8819
G2 X4.1064 Y16.8826 I0.545 J1.9243
G2 X2.1416 Y17.5978 I3.986 J14.0072
G2 X2.1134 Y17.6107 I0.8172 J1.8254
G1 X1.9022 Y17.7092
G2 X1.8792 Y17.7201 I0.8454 J1.8125
G2 X1.3465 Y17.9937 I5.1215 J10.625
G2 X1.3324 Y18.0015 I0.9587 J1.7552
G2 X0.7831 Y18.3272 I5.7199 J10.2739
G2 X-0.5103 Y19.3512 I4.0618 J6.4589
G2 X-0.5194 Y19.3602 I1.4037 J1.4246
G2 X-1.1593 Y20.1175 I4.1338 J4.1419
G2 X-1.7337 Y21.1997 I3.8313 J2.7274
G2 X-2.0 Y22.6621 I3.9116 J1.4676
G2 Y22.6646 I2.0 J0.0025
G1 Y31.2133
G2 X0.0 Y33.2133 I2.0 J0.0
G1 F25.0 Z-5.0
G1 F150.0 X19.9998
G2 X21.9998 Y31.2133 I0.0 J-2.0
G1 Y22.6655
G2 X21.7622 Y21.2791 I-4.1443 J-0.0032
G2 X21.1863 Y20.1565 I-4.4118 J1.5542
G2 X20.7312 Y19.5832 I-4.4412 J3.0574
G2 X20.6388 Y19.4832 I-2.0797 J1.8323
G2 X19.9547 Y18.8549 I-4.7189 J4.4512
G2 X19.005 Y18.1958 I-5.1208 J6.3651
G2 X17.7606 Y17.5541 I-5.6404 J9.4093
G2 X17.5654 Y17.4699 I-2.0209 J4.4189
G2 X15.8542 Y16.8713 I-5.8384 J13.9445
G2 X13.5742 Y16.3728 I-5.1673 J18.1681
G2 X13.5664 Y16.3716 I-0.3057 J1.9765
G1 X13.3003 Y16.3315
G2 X13.285 Y16.3292 I-0.2979 J1.9777
G2 X10.2108 Y16.1007 I-3.2252 J22.5954
G2 X9.9824 Y16.0998 I-0.1367 J5.8781
G2 X6.9899 Y16.2916 I0.0152 J23.6857
G2 X6.9824 Y16.2926 I0.254 J1.9838
G2 X5.9832 Y16.4473 I2.9311 J22.229
G2 X4.6385 Y16.7381 I3.259 J18.3267
G2 X4.6192 Y16.7431 I0.4947 J1.9379
G1 X4.3026 Y16.8273
G2 X4.2715 Y16.8358 I0.5139 J1.9328
G1 X4.1088 Y16.8819
G2 X4.1064 Y16.8826 I0.545 J1.9243
G2 X2.1416 Y17.5978 I3.986 J14.0072
G2 X2.1134 Y17.6107 I0.8172 J1.8254
G1 X1.9022 Y17.7092
G2 X1.8792 Y17.7201 I0.8454 J1.8125
G2 X1.3465 Y17.9937 I5.1215 J10.625
G2 X1.3324 Y18.0015 I0.9587 J1.7552
G2 X0.7831 Y18.3272 I5.7199 J10.2739
G2 X-0.5103 Y19.3512 I4.0618 J6.4589
G2 X-0.5194 Y19.3602 I1.4037 J1.4246
G2 X-1.1593 Y20.1175 I4.1338 J4.1419
G2 X-1.7337 Y21.1997 I3.8313 J2.7274
G2 X-2.0 Y22.6621 I3.9116 J1.4676
G2 Y22.6646 I2.0 J0.0025
G1 Y31.2133
G2 X0.0 Y33.2133 I2.0 J0.0
G1 F25.0 Z-6.0
G1 F150.0 X19.9998
G2 X21.9998 Y31.2133 I0.0 J-2.0
G1 Y22.6655
G2 X21.7622 Y21.2791 I-4.1443 J-0.0032
G2 X21.1863 Y20.1565 I-4.4118 J1.5542
G2 X20.7312 Y19.5832 I-4.4412 J3.0574
G2 X20.6388 Y19.4832 I-2.0797 J1.8323
G2 X19.9547 Y18.8549 I-4.7189 J4.4512
G2 X19.005 Y18.1958 I-5.1208 J6.3651
G2 X17.7606 Y17.5541 I-5.6404 J9.4093
G2 X17.5654 Y17.4699 I-2.0209 J4.4189
G2 X15.8542 Y16.8713 I-5.8384 J13.9445
G2 X13.5742 Y16.3728 I-5.1673 J18.1681
G2 X13.5664 Y16.3716 I-0.3057 J1.9765
G1 X13.3003 Y16.3315
G2 X13.285 Y16.3292 I-0.2979 J1.9777
G2 X10.2108 Y16.1007 I-3.2252 J22.5954
G2 X9.9824 Y16.0998 I-0.1367 J5.8781
G2 X6.9899 Y16.2916 I0.0152 J23.6857
G2 X6.9824 Y16.2926 I0.254 J1.9838
G2 X5.9832 Y16.4473 I2.9311 J22.229
G2 X4.6385 Y16.7381 I3.259 J18.3267
G2 X4.6192 Y16.7431 I0.4947 J1.9379
G1 X4.3026 Y16.8273
G2 X4.2715 Y16.8358 I0.5139 J1.9328
G1 X4.1088 Y16.8819
G2 X4.1064 Y16.8826 I0.545 J1.9243
G2 X2.1416 Y17.5978 I3.986 J14.0072
G2 X2.1134 Y17.6107 I0.8172 J1.8254
G1 X1.9022 Y17.7092
G2 X1.8792 Y17.7201 I0.8454 J1.8125
G2 X1.3465 Y17.9937 I5.1215 J10.625
G2 X1.3324 Y18.0015 I0.9587 J1.7552
G2 X0.7831 Y18.3272 I5.7199 J10.2739
G2 X-0.5103 Y19.3512 I4.0618 J6.4589
G2 X-0.5194 Y19.3602 I1.4037 J1.4246
G2 X-1.1593 Y20.1175 I4.1338 J4.1419
G2 X-1.7337 Y21.1997 I3.8313 J2.7274
G2 X-2.0 Y22.6621 I3.9116 J1.4676
G2 Y22.6646 I2.0 J0.0025
G1 Y31.2133
G2 X0.0 Y33.2133 I2.0 J0.0
G1 F25.0 Z-7.0
G1 F150.0 X19.9998
G2 X21.9998 Y31.2133 I0.0 J-2.0
G1 Y22.6655
G2 X21.7622 Y21.2791 I-4.1443 J-0.0032
G2 X21.1863 Y20.1565 I-4.4118 J1.5542
G2 X20.7312 Y19.5832 I-4.4412 J3.0574
G2 X20.6388 Y19.4832 I-2.0797 J1.8323
G2 X19.9547 Y18.8549 I-4.7189 J4.4512
G2 X19.005 Y18.1958 I-5.1208 J6.3651
G2 X17.7606 Y17.5541 I-5.6404 J9.4093
G2 X17.5654 Y17.4699 I-2.0209 J4.4189
G2 X15.8542 Y16.8713 I-5.8384 J13.9445
G2 X13.5742 Y16.3728 I-5.1673 J18.1681
G2 X13.5664 Y16.3716 I-0.3057 J1.9765
G1 X13.3003 Y16.3315
G2 X13.285 Y16.3292 I-0.2979 J1.9777
G2 X10.2108 Y16.1007 I-3.2252 J22.5954
G2 X9.9824 Y16.0998 I-0.1367 J5.8781
G2 X6.9899 Y16.2916 I0.0152 J23.6857
G2 X6.9824 Y16.2926 I0.254 J1.9838
G2 X5.9832 Y16.4473 I2.9311 J22.229
G2 X4.6385 Y16.7381 I3.259 J18.3267
G2 X4.6192 Y16.7431 I0.4947 J1.9379
G1 X4.3026 Y16.8273
G2 X4.2715 Y16.8358 I0.5139 J1.9328
G1 X4.1088 Y16.8819
G2 X4.1064 Y16.8826 I0.545 J1.9243
G2 X2.1416 Y17.5978 I3.986 J14.0072
G2 X2.1134 Y17.6107 I0.8172 J1.8254
G1 X1.9022 Y17.7092
G2 X1.8792 Y17.7201 I0.8454 J1.8125
G2 X1.3465 Y17.9937 I5.1215 J10.625
G2 X1.3324 Y18.0015 I0.9587 J1.7552
G2 X0.7831 Y18.3272 I5.7199 J10.2739
G2 X-0.5103 Y19.3512 I4.0618 J6.4589
G2 X-0.5194 Y19.3602 I1.4037 J1.4246
G2 X-1.1593 Y20.1175 I4.1338 J4.1419
G2 X-1.7337 Y21.1997 I3.8313 J2.7274
G2 X-2.0 Y22.6621 I3.9116 J1.4676
G2 Y22.6646 I2.0 J0.0025
G1 Y31.2133
G2 X0.0 Y33.2133 I2.0 J0.0
G1 F25.0 Z-8.0
G1 F150.0 X19.9998
G2 X21.9998 Y31.2133 I0.0 J-2.0
G1 Y22.6655
G2 X21.7622 Y21.2791 I-4.1443 J-0.0032
G2 X21.1863 Y20.1565 I-4.4118 J1.5542
G2 X20.7312 Y19.5832 I-4.4412 J3.0574
G2 X20.6388 Y19.4832 I-2.0797 J1.8323
G2 X19.9547 Y18.8549 I-4.7189 J4.4512
G2 X19.005 Y18.1958 I-5.1208 J6.3651
G2 X17.7606 Y17.5541 I-5.6404 J9.4093
G2 X17.5654 Y17.4699 I-2.0209 J4.4189
G2 X15.8542 Y16.8713 I-5.8384 J13.9445
G2 X13.5742 Y16.3728 I-5.1673 J18.1681
G2 X13.5664 Y16.3716 I-0.3057 J1.9765
G1 X13.3003 Y16.3315
G2 X13.285 Y16.3292 I-0.2979 J1.9777
G2 X10.2108 Y16.1007 I-3.2252 J22.5954
G2 X9.9824 Y16.0998 I-0.1367 J5.8781
G2 X6.9899 Y16.2916 I0.0152 J23.6857
G2 X6.9824 Y16.2926 I0.254 J1.9838
G2 X5.9832 Y16.4473 I2.9311 J22.229
G2 X4.6385 Y16.7381 I3.259 J18.3267
G2 X4.6192 Y16.7431 I0.4947 J1.9379
G1 X4.3026 Y16.8273
G2 X4.2715 Y16.8358 I0.5139 J1.9328
G1 X4.1088 Y16.8819
G2 X4.1064 Y16.8826 I0.545 J1.9243
G2 X2.1416 Y17.5978 I3.986 J14.0072
G2 X2.1134 Y17.6107 I0.8172 J1.8254
G1 X1.9022 Y17.7092
G2 X1.8792 Y17.7201 I0.8454 J1.8125
G2 X1.3465 Y17.9937 I5.1215 J10.625
G2 X1.3324 Y18.0015 I0.9587 J1.7552
G2 X0.7831 Y18.3272 I5.7199 J10.2739
G2 X-0.5103 Y19.3512 I4.0618 J6.4589
G2 X-0.5194 Y19.3602 I1.4037 J1.4246
G2 X-1.1593 Y20.1175 I4.1338 J4.1419
G2 X-1.7337 Y21.1997 I3.8313 J2.7274
G2 X-2.0 Y22.6621 I3.9116 J1.4676
G2 Y22.6646 I2.0 J0.0025
G1 Y31.2133
G2 X0.0 Y33.2133 I2.0 J0.0
G1 F25.0 Z-9.0
G1 F150.0 X19.9998
G2 X21.9998 Y31.2133 I0.0 J-2.0
G1 Y22.6655
G2 X21.7622 Y21.2791 I-4.1443 J-0.0032
G2 X21.1863 Y20.1565 I-4.4118 J1.5542
G2 X20.7312 Y19.5832 I-4.4412 J3.0574
G2 X20.6388 Y19.4832 I-2.0797 J1.8323
G2 X19.9547 Y18.8549 I-4.7189 J4.4512
G2 X19.005 Y18.1958 I-5.1208 J6.3651
G2 X17.7606 Y17.5541 I-5.6404 J9.4093
G2 X17.5654 Y17.4699 I-2.0209 J4.4189
G2 X15.8542 Y16.8713 I-5.8384 J13.9445
G2 X13.5742 Y16.3728 I-5.1673 J18.1681
G2 X13.5664 Y16.3716 I-0.3057 J1.9765
G1 X13.3003 Y16.3315
G2 X13.285 Y16.3292 I-0.2979 J1.9777
G2 X10.2108 Y16.1007 I-3.2252 J22.5954
G2 X9.9824 Y16.0998 I-0.1367 J5.8781
G2 X6.9899 Y16.2916 I0.0152 J23.6857
G2 X6.9824 Y16.2926 I0.254 J1.9838
G2 X5.9832 Y16.4473 I2.9311 J22.229
G2 X4.6385 Y16.7381 I3.259 J18.3267
G2 X4.6192 Y16.7431 I0.4947 J1.9379
G1 X4.3026 Y16.8273
G2 X4.2715 Y16.8358 I0.5139 J1.9328
G1 X4.1088 Y16.8819
G2 X4.1064 Y16.8826 I0.545 J1.9243
G2 X2.1416 Y17.5978 I3.986 J14.0072
G2 X2.1134 Y17.6107 I0.8172 J1.8254
G1 X1.9022 Y17.7092
G2 X1.8792 Y17.7201 I0.8454 J1.8125
G2 X1.3465 Y17.9937 I5.1215 J10.625
G2 X1.3324 Y18.0015 I0.9587 J1.7552
G2 X0.7831 Y18.3272 I5.7199 J10.2739
G2 X-0.5103 Y19.3512 I4.0618 J6.4589
G2 X-0.5194 Y19.3602 I1.4037 J1.4246
G2 X-1.1593 Y20.1175 I4.1338 J4.1419
G2 X-1.7337 Y21.1997 I3.8313 J2.7274
G2 X-2.0 Y22.6621 I3.9116 J1.4676
G2 Y22.6646 I2.0 J0.0025
G1 Y31.2133
G2 X0.0 Y33.2133 I2.0 J0.0
G1 F25.0 Z-10.0
G1 F150.0 X19.9998
G2 X21.9998 Y31.2133 I0.0 J-2.0
G1 Y22.6655
G2 X21.7622 Y21.2791 I-4.1443 J-0.0032
G2 X21.1863 Y20.1565 I-4.4118 J1.5542
G2 X20.7312 Y19.5832 I-4.4412 J3.0574
G2 X20.6388 Y19.4832 I-2.0797 J1.8323
G2 X19.9547 Y18.8549 I-4.7189 J4.4512
G2 X19.005 Y18.1958 I-5.1208 J6.3651
G2 X17.7606 Y17.5541 I-5.6404 J9.4093
G2 X17.5654 Y17.4699 I-2.0209 J4.4189
G2 X15.8542 Y16.8713 I-5.8384 J13.9445
G2 X13.5742 Y16.3728 I-5.1673 J18.1681
G2 X13.5664 Y16.3716 I-0.3057 J1.9765
G1 X13.3003 Y16.3315
G2 X13.285 Y16.3292 I-0.2979 J1.9777
G2 X10.2108 Y16.1007 I-3.2252 J22.5954
G2 X9.9824 Y16.0998 I-0.1367 J5.8781
G2 X6.9899 Y16.2916 I0.0152 J23.6857
G2 X6.9824 Y16.2926 I0.254 J1.9838
G2 X5.9832 Y16.4473 I2.9311 J22.229
G2 X4.6385 Y16.7381 I3.259 J18.3267
G2 X4.6192 Y16.7431 I0.4947 J1.9379
G1 X4.3026 Y16.8273
G2 X4.2715 Y16.8358 I0.5139 J1.9328
G1 X4.1088 Y16.8819
G2 X4.1064 Y16.8826 I0.545 J1.9243
G2 X2.1416 Y17.5978 I3.986 J14.0072
G2 X2.1134 Y17.6107 I0.8172 J1.8254
G1 X1.9022 Y17.7092
G2 X1.8792 Y17.7201 I0.8454 J1.8125
G2 X1.3465 Y17.9937 I5.1215 J10.625
G2 X1.3324 Y18.0015 I0.9587 J1.7552
G2 X0.7831 Y18.3272 I5.7199 J10.2739
G2 X-0.5103 Y19.3512 I4.0618 J6.4589
G2 X-0.5194 Y19.3602 I1.4037 J1.4246
G2 X-1.1593 Y20.1175 I4.1338 J4.1419
G2 X-1.7337 Y21.1997 I3.8313 J2.7274
G2 X-2.0 Y22.6621 I3.9116 J1.4676
G2 Y22.6646 I2.0 J0.0025
G1 Y31.2133
G2 X0.0 Y33.2133 I2.0 J0.0
G1 F25.0 Z-11.0
G1 F150.0 X19.9998
G2 X21.9998 Y31.2133 I0.0 J-2.0
G1 Y22.6655
G2 X21.7622 Y21.2791 I-4.1443 J-0.0032
G2 X21.1863 Y20.1565 I-4.4118 J1.5542
G2 X20.7312 Y19.5832 I-4.4412 J3.0574
G2 X20.6388 Y19.4832 I-2.0797 J1.8323
G2 X19.9547 Y18.8549 I-4.7189 J4.4512
G2 X19.005 Y18.1958 I-5.1208 J6.3651
G2 X17.7606 Y17.5541 I-5.6404 J9.4093
G2 X17.5654 Y17.4699 I-2.0209 J4.4189
G2 X15.8542 Y16.8713 I-5.8384 J13.9445
G2 X13.5742 Y16.3728 I-5.1673 J18.1681
G2 X13.5664 Y16.3716 I-0.3057 J1.9765
G1 X13.3003 Y16.3315
G2 X13.285 Y16.3292 I-0.2979 J1.9777
G2 X10.2108 Y16.1007 I-3.2252 J22.5954
G2 X9.9824 Y16.0998 I-0.1367 J5.8781
G2 X6.9899 Y16.2916 I0.0152 J23.6857
G2 X6.9824 Y16.2926 I0.254 J1.9838
G2 X5.9832 Y16.4473 I2.9311 J22.229
G2 X4.6385 Y16.7381 I3.259 J18.3267
G2 X4.6192 Y16.7431 I0.4947 J1.9379
G1 X4.3026 Y16.8273
G2 X4.2715 Y16.8358 I0.5139 J1.9328
G1 X4.1088 Y16.8819
G2 X4.1064 Y16.8826 I0.545 J1.9243
G2 X2.1416 Y17.5978 I3.986 J14.0072
G2 X2.1134 Y17.6107 I0.8172 J1.8254
G1 X1.9022 Y17.7092
G2 X1.8792 Y17.7201 I0.8454 J1.8125
G2 X1.3465 Y17.9937 I5.1215 J10.625
G2 X1.3324 Y18.0015 I0.9587 J1.7552
G2 X0.7831 Y18.3272 I5.7199 J10.2739
G2 X-0.5103 Y19.3512 I4.0618 J6.4589
G2 X-0.5194 Y19.3602 I1.4037 J1.4246
G2 X-1.1593 Y20.1175 I4.1338 J4.1419
G2 X-1.7337 Y21.1997 I3.8313 J2.7274
G2 X-2.0 Y22.6621 I3.9116 J1.4676
G2 Y22.6646 I2.0 J0.0025
G1 Y31.2133
G2 X0.0 Y33.2133 I2.0 J0.0
( 4mm Mill Profile1 )
S1000
G0 Z3.0
G0 Y15.1134
G0 Z1.0
G1 F25.0 Z-1.0
G1 F150.0 X20.0
G2 X22.0 Y13.1134 I0.0 J-2.0
G1 Y4.5648
G2 Y4.5554 I-2.0 J0.0
G2 X21.7651 Y3.1872 I-4.2177 J0.0197
G2 X21.7633 Y3.182 I-1.8886 J0.6581
G2 X21.1864 Y2.0566 I-4.4112 J1.5507
G2 X20.7312 Y1.4831 I-4.4378 J3.0549
G2 X20.6388 Y1.3833 I-2.0794 J1.8322
G2 X19.9547 Y0.755 I-4.7197 J4.4524
G2 X19.0051 Y0.096 I-5.1244 J6.3707
G2 X17.7607 Y-0.5458 I-5.6409 J9.4102
G2 X17.5654 Y-0.6299 I-2.0212 J4.4196
G2 X15.8542 Y-1.2286 I-5.8417 J13.9544
G2 X13.5746 Y-1.727 I-5.1744 J18.201
G2 X13.5665 Y-1.7283 I-0.306 J1.9765
G1 X13.3004 Y-1.7684
G2 X13.2849 Y-1.7706 I-0.2979 J1.9777
G2 X10.2109 Y-1.9991 I-3.2273 J22.6249
G2 X9.9825 Y-2.0 I-0.1368 J5.883
G2 X6.9899 Y-1.8082 I0.0152 J23.6857
G2 X6.9824 Y-1.8073 I0.254 J1.9838
G2 X5.9832 Y-1.6525 I2.9311 J22.229
G2 X4.6385 Y-1.3617 I3.259 J18.3267
G2 X4.6192 Y-1.3567 I0.4947 J1.9379
G1 X4.3026 Y-1.2726
G2 X4.2715 Y-1.264 I0.5139 J1.9328
G1 X4.1088 Y-1.2179
G2 X4.1064 Y-1.2172 I0.545 J1.9243
G2 X2.1416 Y-0.5021 I3.986 J14.0072
G2 X2.1134 Y-0.4892 I0.8172 J1.8254
G1 X1.9022 Y-0.3907
G2 X1.8792 Y-0.3798 I0.8454 J1.8125
G2 X1.3465 Y-0.1061 I5.1215 J10.625
G2 X1.3324 Y-0.0983 I0.9587 J1.7552
G2 X0.7831 Y0.2273 I5.7199 J10.2739
G2 X-0.5103 Y1.2514 I4.0618 J6.4589
G2 X-0.5194 Y1.2604 I1.4037 J1.4246
G2 X-1.1593 Y2.0177 I4.1338 J4.1419
G2 X-1.7337 Y3.0999 I3.8313 J2.7274
G2 X-2.0 Y4.5622 I3.9116 J1.4676
G2 Y4.5648 I2.0 J0.0025
G1 Y13.1134
G2 X0.0 Y15.1134 I2.0 J0.0
G1 F25.0 Z-2.0
G1 F150.0 X20.0
G2 X22.0 Y13.1134 I0.0 J-2.0
G1 Y4.5648
G2 Y4.5554 I-2.0 J0.0
G2 X21.7651 Y3.1872 I-4.2177 J0.0197
G2 X21.7633 Y3.182 I-1.8886 J0.6581
G2 X21.1864 Y2.0566 I-4.4112 J1.5507
G2 X20.7312 Y1.4831 I-4.4378 J3.0549
G2 X20.6388 Y1.3833 I-2.0794 J1.8322
G2 X19.9547 Y0.755 I-4.7197 J4.4524
G2 X19.0051 Y0.096 I-5.1244 J6.3707
G2 X17.7607 Y-0.5458 I-5.6409 J9.4102
G2 X17.5654 Y-0.6299 I-2.0212 J4.4196
G2 X15.8542 Y-1.2286 I-5.8417 J13.9544
G2 X13.5746 Y-1.727 I-5.1744 J18.201
G2 X13.5665 Y-1.7283 I-0.306 J1.9765
G1 X13.3004 Y-1.7684
G2 X13.2849 Y-1.7706 I-0.2979 J1.9777
G2 X10.2109 Y-1.9991 I-3.2273 J22.6249
G2 X9.9825 Y-2.0 I-0.1368 J5.883
G2 X6.9899 Y-1.8082 I0.0152 J23.6857
G2 X6.9824 Y-1.8073 I0.254 J1.9838
G2 X5.9832 Y-1.6525 I2.9311 J22.229
G2 X4.6385 Y-1.3617 I3.259 J18.3267
G2 X4.6192 Y-1.3567 I0.4947 J1.9379
G1 X4.3026 Y-1.2726
G2 X4.2715 Y-1.264 I0.5139 J1.9328
G1 X4.1088 Y-1.2179
G2 X4.1064 Y-1.2172 I0.545 J1.9243
G2 X2.1416 Y-0.5021 I3.986 J14.0072
G2 X2.1134 Y-0.4892 I0.8172 J1.8254
G1 X1.9022 Y-0.3907
G2 X1.8792 Y-0.3798 I0.8454 J1.8125
G2 X1.3465 Y-0.1061 I5.1215 J10.625
G2 X1.3324 Y-0.0983 I0.9587 J1.7552
G2 X0.7831 Y0.2273 I5.7199 J10.2739
G2 X-0.5103 Y1.2514 I4.0618 J6.4589
G2 X-0.5194 Y1.2604 I1.4037 J1.4246
G2 X-1.1593 Y2.0177 I4.1338 J4.1419
G2 X-1.7337 Y3.0999 I3.8313 J2.7274
G2 X-2.0 Y4.5622 I3.9116 J1.4676
G2 Y4.5648 I2.0 J0.0025
G1 Y13.1134
G2 X0.0 Y15.1134 I2.0 J0.0
G1 F25.0 Z-3.0
G1 F150.0 X20.0
G2 X22.0 Y13.1134 I0.0 J-2.0
G1 Y4.5648
G2 Y4.5554 I-2.0 J0.0
G2 X21.7651 Y3.1872 I-4.2177 J0.0197
G2 X21.7633 Y3.182 I-1.8886 J0.6581
G2 X21.1864 Y2.0566 I-4.4112 J1.5507
G2 X20.7312 Y1.4831 I-4.4378 J3.0549
G2 X20.6388 Y1.3833 I-2.0794 J1.8322
G2 X19.9547 Y0.755 I-4.7197 J4.4524
G2 X19.0051 Y0.096 I-5.1244 J6.3707
G2 X17.7607 Y-0.5458 I-5.6409 J9.4102
G2 X17.5654 Y-0.6299 I-2.0212 J4.4196
G2 X15.8542 Y-1.2286 I-5.8417 J13.9544
G2 X13.5746 Y-1.727 I-5.1744 J18.201
G2 X13.5665 Y-1.7283 I-0.306 J1.9765
G1 X13.3004 Y-1.7684
G2 X13.2849 Y-1.7706 I-0.2979 J1.9777
G2 X10.2109 Y-1.9991 I-3.2273 J22.6249
G2 X9.9825 Y-2.0 I-0.1368 J5.883
G2 X6.9899 Y-1.8082 I0.0152 J23.6857
G2 X6.9824 Y-1.8073 I0.254 J1.9838
G2 X5.9832 Y-1.6525 I2.9311 J22.229
G2 X4.6385 Y-1.3617 I3.259 J18.3267
G2 X4.6192 Y-1.3567 I0.4947 J1.9379
G1 X4.3026 Y-1.2726
G2 X4.2715 Y-1.264 I0.5139 J1.9328
G1 X4.1088 Y-1.2179
G2 X4.1064 Y-1.2172 I0.545 J1.9243
G2 X2.1416 Y-0.5021 I3.986 J14.0072
G2 X2.1134 Y-0.4892 I0.8172 J1.8254
G1 X1.9022 Y-0.3907
G2 X1.8792 Y-0.3798 I0.8454 J1.8125
G2 X1.3465 Y-0.1061 I5.1215 J10.625
G2 X1.3324 Y-0.0983 I0.9587 J1.7552
G2 X0.7831 Y0.2273 I5.7199 J10.2739
G2 X-0.5103 Y1.2514 I4.0618 J6.4589
G2 X-0.5194 Y1.2604 I1.4037 J1.4246
G2 X-1.1593 Y2.0177 I4.1338 J4.1419
G2 X-1.7337 Y3.0999 I3.8313 J2.7274
G2 X-2.0 Y4.5622 I3.9116 J1.4676
G2 Y4.5648 I2.0 J0.0025
G1 Y13.1134
G2 X0.0 Y15.1134 I2.0 J0.0
G1 F25.0 Z-4.0
G1 F150.0 X20.0
G2 X22.0 Y13.1134 I0.0 J-2.0
G1 Y4.5648
G2 Y4.5554 I-2.0 J0.0
G2 X21.7651 Y3.1872 I-4.2177 J0.0197
G2 X21.7633 Y3.182 I-1.8886 J0.6581
G2 X21.1864 Y2.0566 I-4.4112 J1.5507
G2 X20.7312 Y1.4831 I-4.4378 J3.0549
G2 X20.6388 Y1.3833 I-2.0794 J1.8322
G2 X19.9547 Y0.755 I-4.7197 J4.4524
G2 X19.0051 Y0.096 I-5.1244 J6.3707
G2 X17.7607 Y-0.5458 I-5.6409 J9.4102
G2 X17.5654 Y-0.6299 I-2.0212 J4.4196
G2 X15.8542 Y-1.2286 I-5.8417 J13.9544
G2 X13.5746 Y-1.727 I-5.1744 J18.201
G2 X13.5665 Y-1.7283 I-0.306 J1.9765
G1 X13.3004 Y-1.7684
G2 X13.2849 Y-1.7706 I-0.2979 J1.9777
G2 X10.2109 Y-1.9991 I-3.2273 J22.6249
G2 X9.9825 Y-2.0 I-0.1368 J5.883
G2 X6.9899 Y-1.8082 I0.0152 J23.6857
G2 X6.9824 Y-1.8073 I0.254 J1.9838
G2 X5.9832 Y-1.6525 I2.9311 J22.229
G2 X4.6385 Y-1.3617 I3.259 J18.3267
G2 X4.6192 Y-1.3567 I0.4947 J1.9379
G1 X4.3026 Y-1.2726
G2 X4.2715 Y-1.264 I0.5139 J1.9328
G1 X4.1088 Y-1.2179
G2 X4.1064 Y-1.2172 I0.545 J1.9243
G2 X2.1416 Y-0.5021 I3.986 J14.0072
G2 X2.1134 Y-0.4892 I0.8172 J1.8254
G1 X1.9022 Y-0.3907
G2 X1.8792 Y-0.3798 I0.8454 J1.8125
G2 X1.3465 Y-0.1061 I5.1215 J10.625
G2 X1.3324 Y-0.0983 I0.9587 J1.7552
G2 X0.7831 Y0.2273 I5.7199 J10.2739
G2 X-0.5103 Y1.2514 I4.0618 J6.4589
G2 X-0.5194 Y1.2604 I1.4037 J1.4246
G2 X-1.1593 Y2.0177 I4.1338 J4.1419
G2 X-1.7337 Y3.0999 I3.8313 J2.7274
G2 X-2.0 Y4.5622 I3.9116 J1.4676
G2 Y4.5648 I2.0 J0.0025
G1 Y13.1134
G2 X0.0 Y15.1134 I2.0 J0.0
G1 F25.0 Z-5.0
G1 F150.0 X20.0
G2 X22.0 Y13.1134 I0.0 J-2.0
G1 Y4.5648
G2 Y4.5554 I-2.0 J0.0
G2 X21.7651 Y3.1872 I-4.2177 J0.0197
G2 X21.7633 Y3.182 I-1.8886 J0.6581
G2 X21.1864 Y2.0566 I-4.4112 J1.5507
G2 X20.7312 Y1.4831 I-4.4378 J3.0549
G2 X20.6388 Y1.3833 I-2.0794 J1.8322
G2 X19.9547 Y0.755 I-4.7197 J4.4524
G2 X19.0051 Y0.096 I-5.1244 J6.3707
G2 X17.7607 Y-0.5458 I-5.6409 J9.4102
G2 X17.5654 Y-0.6299 I-2.0212 J4.4196
G2 X15.8542 Y-1.2286 I-5.8417 J13.9544
G2 X13.5746 Y-1.727 I-5.1744 J18.201
G2 X13.5665 Y-1.7283 I-0.306 J1.9765
G1 X13.3004 Y-1.7684
G2 X13.2849 Y-1.7706 I-0.2979 J1.9777
G2 X10.2109 Y-1.9991 I-3.2273 J22.6249
G2 X9.9825 Y-2.0 I-0.1368 J5.883
G2 X6.9899 Y-1.8082 I0.0152 J23.6857
G2 X6.9824 Y-1.8073 I0.254 J1.9838
G2 X5.9832 Y-1.6525 I2.9311 J22.229
G2 X4.6385 Y-1.3617 I3.259 J18.3267
G2 X4.6192 Y-1.3567 I0.4947 J1.9379
G1 X4.3026 Y-1.2726
G2 X4.2715 Y-1.264 I0.5139 J1.9328
G1 X4.1088 Y-1.2179
G2 X4.1064 Y-1.2172 I0.545 J1.9243
G2 X2.1416 Y-0.5021 I3.986 J14.0072
G2 X2.1134 Y-0.4892 I0.8172 J1.8254
G1 X1.9022 Y-0.3907
G2 X1.8792 Y-0.3798 I0.8454 J1.8125
G2 X1.3465 Y-0.1061 I5.1215 J10.625
G2 X1.3324 Y-0.0983 I0.9587 J1.7552
G2 X0.7831 Y0.2273 I5.7199 J10.2739
G2 X-0.5103 Y1.2514 I4.0618 J6.4589
G2 X-0.5194 Y1.2604 I1.4037 J1.4246
G2 X-1.1593 Y2.0177 I4.1338 J4.1419
G2 X-1.7337 Y3.0999 I3.8313 J2.7274
G2 X-2.0 Y4.5622 I3.9116 J1.4676
G2 Y4.5648 I2.0 J0.0025
G1 Y13.1134
G2 X0.0 Y15.1134 I2.0 J0.0
G1 F25.0 Z-6.0
G1 F150.0 X20.0
G2 X22.0 Y13.1134 I0.0 J-2.0
G1 Y4.5648
G2 Y4.5554 I-2.0 J0.0
G2 X21.7651 Y3.1872 I-4.2177 J0.0197
G2 X21.7633 Y3.182 I-1.8886 J0.6581
G2 X21.1864 Y2.0566 I-4.4112 J1.5507
G2 X20.7312 Y1.4831 I-4.4378 J3.0549
G2 X20.6388 Y1.3833 I-2.0794 J1.8322
G2 X19.9547 Y0.755 I-4.7197 J4.4524
G2 X19.0051 Y0.096 I-5.1244 J6.3707
G2 X17.7607 Y-0.5458 I-5.6409 J9.4102
G2 X17.5654 Y-0.6299 I-2.0212 J4.4196
G2 X15.8542 Y-1.2286 I-5.8417 J13.9544
G2 X13.5746 Y-1.727 I-5.1744 J18.201
G2 X13.5665 Y-1.7283 I-0.306 J1.9765
G1 X13.3004 Y-1.7684
G2 X13.2849 Y-1.7706 I-0.2979 J1.9777
G2 X10.2109 Y-1.9991 I-3.2273 J22.6249
G2 X9.9825 Y-2.0 I-0.1368 J5.883
G2 X6.9899 Y-1.8082 I0.0152 J23.6857
G2 X6.9824 Y-1.8073 I0.254 J1.9838
G2 X5.9832 Y-1.6525 I2.9311 J22.229
G2 X4.6385 Y-1.3617 I3.259 J18.3267
G2 X4.6192 Y-1.3567 I0.4947 J1.9379
G1 X4.3026 Y-1.2726
G2 X4.2715 Y-1.264 I0.5139 J1.9328
G1 X4.1088 Y-1.2179
G2 X4.1064 Y-1.2172 I0.545 J1.9243
G2 X2.1416 Y-0.5021 I3.986 J14.0072
G2 X2.1134 Y-0.4892 I0.8172 J1.8254
G1 X1.9022 Y-0.3907
G2 X1.8792 Y-0.3798 I0.8454 J1.8125
G2 X1.3465 Y-0.1061 I5.1215 J10.625
G2 X1.3324 Y-0.0983 I0.9587 J1.7552
G2 X0.7831 Y0.2273 I5.7199 J10.2739
G2 X-0.5103 Y1.2514 I4.0618 J6.4589
G2 X-0.5194 Y1.2604 I1.4037 J1.4246
G2 X-1.1593 Y2.0177 I4.1338 J4.1419
G2 X-1.7337 Y3.0999 I3.8313 J2.7274
G2 X-2.0 Y4.5622 I3.9116 J1.4676
G2 Y4.5648 I2.0 J0.0025
G1 Y13.1134
G2 X0.0 Y15.1134 I2.0 J0.0
G1 F25.0 Z-7.0
G1 F150.0 X20.0
G2 X22.0 Y13.1134 I0.0 J-2.0
G1 Y4.5648
G2 Y4.5554 I-2.0 J0.0
G2 X21.7651 Y3.1872 I-4.2177 J0.0197
G2 X21.7633 Y3.182 I-1.8886 J0.6581
G2 X21.1864 Y2.0566 I-4.4112 J1.5507
G2 X20.7312 Y1.4831 I-4.4378 J3.0549
G2 X20.6388 Y1.3833 I-2.0794 J1.8322
G2 X19.9547 Y0.755 I-4.7197 J4.4524
G2 X19.0051 Y0.096 I-5.1244 J6.3707
G2 X17.7607 Y-0.5458 I-5.6409 J9.4102
G2 X17.5654 Y-0.6299 I-2.0212 J4.4196
G2 X15.8542 Y-1.2286 I-5.8417 J13.9544
G2 X13.5746 Y-1.727 I-5.1744 J18.201
G2 X13.5665 Y-1.7283 I-0.306 J1.9765
G1 X13.3004 Y-1.7684
G2 X13.2849 Y-1.7706 I-0.2979 J1.9777
G2 X10.2109 Y-1.9991 I-3.2273 J22.6249
G2 X9.9825 Y-2.0 I-0.1368 J5.883
G2 X6.9899 Y-1.8082 I0.0152 J23.6857
G2 X6.9824 Y-1.8073 I0.254 J1.9838
G2 X5.9832 Y-1.6525 I2.9311 J22.229
G2 X4.6385 Y-1.3617 I3.259 J18.3267
G2 X4.6192 Y-1.3567 I0.4947 J1.9379
G1 X4.3026 Y-1.2726
G2 X4.2715 Y-1.264 I0.5139 J1.9328
G1 X4.1088 Y-1.2179
G2 X4.1064 Y-1.2172 I0.545 J1.9243
G2 X2.1416 Y-0.5021 I3.986 J14.0072
G2 X2.1134 Y-0.4892 I0.8172 J1.8254
G1 X1.9022 Y-0.3907
G2 X1.8792 Y-0.3798 I0.8454 J1.8125
G2 X1.3465 Y-0.1061 I5.1215 J10.625
G2 X1.3324 Y-0.0983 I0.9587 J1.7552
G2 X0.7831 Y0.2273 I5.7199 J10.2739
G2 X-0.5103 Y1.2514 I4.0618 J6.4589
G2 X-0.5194 Y1.2604 I1.4037 J1.4246
G2 X-1.1593 Y2.0177 I4.1338 J4.1419
G2 X-1.7337 Y3.0999 I3.8313 J2.7274
G2 X-2.0 Y4.5622 I3.9116 J1.4676
G2 Y4.5648 I2.0 J0.0025
G1 Y13.1134
G2 X0.0 Y15.1134 I2.0 J0.0
G1 F25.0 Z-8.0
G1 F150.0 X20.0
G2 X22.0 Y13.1134 I0.0 J-2.0
G1 Y4.5648
G2 Y4.5554 I-2.0 J0.0
G2 X21.7651 Y3.1872 I-4.2177 J0.0197
G2 X21.7633 Y3.182 I-1.8886 J0.6581
G2 X21.1864 Y2.0566 I-4.4112 J1.5507
G2 X20.7312 Y1.4831 I-4.4378 J3.0549
G2 X20.6388 Y1.3833 I-2.0794 J1.8322
G2 X19.9547 Y0.755 I-4.7197 J4.4524
G2 X19.0051 Y0.096 I-5.1244 J6.3707
G2 X17.7607 Y-0.5458 I-5.6409 J9.4102
G2 X17.5654 Y-0.6299 I-2.0212 J4.4196
G2 X15.8542 Y-1.2286 I-5.8417 J13.9544
G2 X13.5746 Y-1.727 I-5.1744 J18.201
G2 X13.5665 Y-1.7283 I-0.306 J1.9765
G1 X13.3004 Y-1.7684
G2 X13.2849 Y-1.7706 I-0.2979 J1.9777
G2 X10.2109 Y-1.9991 I-3.2273 J22.6249
G2 X9.9825 Y-2.0 I-0.1368 J5.883
G2 X6.9899 Y-1.8082 I0.0152 J23.6857
G2 X6.9824 Y-1.8073 I0.254 J1.9838
G2 X5.9832 Y-1.6525 I2.9311 J22.229
G2 X4.6385 Y-1.3617 I3.259 J18.3267
G2 X4.6192 Y-1.3567 I0.4947 J1.9379
G1 X4.3026 Y-1.2726
G2 X4.2715 Y-1.264 I0.5139 J1.9328
G1 X4.1088 Y-1.2179
G2 X4.1064 Y-1.2172 I0.545 J1.9243
G2 X2.1416 Y-0.5021 I3.986 J14.0072
G2 X2.1134 Y-0.4892 I0.8172 J1.8254
G1 X1.9022 Y-0.3907
G2 X1.8792 Y-0.3798 I0.8454 J1.8125
G2 X1.3465 Y-0.1061 I5.1215 J10.625
G2 X1.3324 Y-0.0983 I0.9587 J1.7552
G2 X0.7831 Y0.2273 I5.7199 J10.2739
G2 X-0.5103 Y1.2514 I4.0618 J6.4589
G2 X-0.5194 Y1.2604 I1.4037 J1.4246
G2 X-1.1593 Y2.0177 I4.1338 J4.1419
G2 X-1.7337 Y3.0999 I3.8313 J2.7274
G2 X-2.0 Y4.5622 I3.9116 J1.4676
G2 Y4.5648 I2.0 J0.0025
G1 Y13.1134
G2 X0.0 Y15.1134 I2.0 J0.0
G1 F25.0 Z-9.0
G1 F150.0 X20.0
G2 X22.0 Y13.1134 I0.0 J-2.0
G1 Y4.5648
G2 Y4.5554 I-2.0 J0.0
G2 X21.7651 Y3.1872 I-4.2177 J0.0197
G2 X21.7633 Y3.182 I-1.8886 J0.6581
G2 X21.1864 Y2.0566 I-4.4112 J1.5507
G2 X20.7312 Y1.4831 I-4.4378 J3.0549
G2 X20.6388 Y1.3833 I-2.0794 J1.8322
G2 X19.9547 Y0.755 I-4.7197 J4.4524
G2 X19.0051 Y0.096 I-5.1244 J6.3707
G2 X17.7607 Y-0.5458 I-5.6409 J9.4102
G2 X17.5654 Y-0.6299 I-2.0212 J4.4196
G2 X15.8542 Y-1.2286 I-5.8417 J13.9544
G2 X13.5746 Y-1.727 I-5.1744 J18.201
G2 X13.5665 Y-1.7283 I-0.306 J1.9765
G1 X13.3004 Y-1.7684
G2 X13.2849 Y-1.7706 I-0.2979 J1.9777
G2 X10.2109 Y-1.9991 I-3.2273 J22.6249
G2 X9.9825 Y-2.0 I-0.1368 J5.883
G2 X6.9899 Y-1.8082 I0.0152 J23.6857
G2 X6.9824 Y-1.8073 I0.254 J1.9838
G2 X5.9832 Y-1.6525 I2.9311 J22.229
G2 X4.6385 Y-1.3617 I3.259 J18.3267
G2 X4.6192 Y-1.3567 I0.4947 J1.9379
G1 X4.3026 Y-1.2726
G2 X4.2715 Y-1.264 I0.5139 J1.9328
G1 X4.1088 Y-1.2179
G2 X4.1064 Y-1.2172 I0.545 J1.9243
G2 X2.1416 Y-0.5021 I3.986 J14.0072
G2 X2.1134 Y-0.4892 I0.8172 J1.8254
G1 X1.9022 Y-0.3907
G2 X1.8792 Y-0.3798 I0.8454 J1.8125
G2 X1.3465 Y-0.1061 I5.1215 J10.625
G2 X1.3324 Y-0.0983 I0.9587 J1.7552
G2 X0.7831 Y0.2273 I5.7199 J10.2739
G2 X-0.5103 Y1.2514 I4.0618 J6.4589
G2 X-0.5194 Y1.2604 I1.4037 J1.4246
G2 X-1.1593 Y2.0177 I4.1338 J4.1419
G2 X-1.7337 Y3.0999 I3.8313 J2.7274
G2 X-2.0 Y4.5622 I3.9116 J1.4676
G2 Y4.5648 I2.0 J0.0025
G1 Y13.1134
G2 X0.0 Y15.1134 I2.0 J0.0
G1 F25.0 Z-10.0
G1 F150.0 X20.0
G2 X22.0 Y13.1134 I0.0 J-2.0
G1 Y4.5648
G2 Y4.5554 I-2.0 J0.0
G2 X21.7651 Y3.1872 I-4.2177 J0.0197
G2 X21.7633 Y3.182 I-1.8886 J0.6581
G2 X21.1864 Y2.0566 I-4.4112 J1.5507
G2 X20.7312 Y1.4831 I-4.4378 J3.0549
G2 X20.6388 Y1.3833 I-2.0794 J1.8322
G2 X19.9547 Y0.755 I-4.7197 J4.4524
G2 X19.0051 Y0.096 I-5.1244 J6.3707
G2 X17.7607 Y-0.5458 I-5.6409 J9.4102
G2 X17.5654 Y-0.6299 I-2.0212 J4.4196
G2 X15.8542 Y-1.2286 I-5.8417 J13.9544
G2 X13.5746 Y-1.727 I-5.1744 J18.201
G2 X13.5665 Y-1.7283 I-0.306 J1.9765
G1 X13.3004 Y-1.7684
G2 X13.2849 Y-1.7706 I-0.2979 J1.9777
G2 X10.2109 Y-1.9991 I-3.2273 J22.6249
G2 X9.9825 Y-2.0 I-0.1368 J5.883
G2 X6.9899 Y-1.8082 I0.0152 J23.6857
G2 X6.9824 Y-1.8073 I0.254 J1.9838
G2 X5.9832 Y-1.6525 I2.9311 J22.229
G2 X4.6385 Y-1.3617 I3.259 J18.3267
G2 X4.6192 Y-1.3567 I0.4947 J1.9379
G1 X4.3026 Y-1.2726
G2 X4.2715 Y-1.264 I0.5139 J1.9328
G1 X4.1088 Y-1.2179
G2 X4.1064 Y-1.2172 I0.545 J1.9243
G2 X2.1416 Y-0.5021 I3.986 J14.0072
G2 X2.1134 Y-0.4892 I0.8172 J1.8254
G1 X1.9022 Y-0.3907
G2 X1.8792 Y-0.3798 I0.8454 J1.8125
G2 X1.3465 Y-0.1061 I5.1215 J10.625
G2 X1.3324 Y-0.0983 I0.9587 J1.7552
G2 X0.7831 Y0.2273 I5.7199 J10.2739
G2 X-0.5103 Y1.2514 I4.0618 J6.4589
G2 X-0.5194 Y1.2604 I1.4037 J1.4246
G2 X-1.1593 Y2.0177 I4.1338 J4.1419
G2 X-1.7337 Y3.0999 I3.8313 J2.7274
G2 X-2.0 Y4.5622 I3.9116 J1.4676
G2 Y4.5648 I2.0 J0.0025
G1 Y13.1134
G2 X0.0 Y15.1134 I2.0 J0.0
G1 F25.0 Z-11.0
G1 F150.0 X20.0
G2 X22.0 Y13.1134 I0.0 J-2.0
G1 Y4.5648
G2 Y4.5554 I-2.0 J0.0
G2 X21.7651 Y3.1872 I-4.2177 J0.0197
G2 X21.7633 Y3.182 I-1.8886 J0.6581
G2 X21.1864 Y2.0566 I-4.4112 J1.5507
G2 X20.7312 Y1.4831 I-4.4378 J3.0549
G2 X20.6388 Y1.3833 I-2.0794 J1.8322
G2 X19.9547 Y0.755 I-4.7197 J4.4524
G2 X19.0051 Y0.096 I-5.1244 J6.3707
G2 X17.7607 Y-0.5458 I-5.6409 J9.4102
G2 X17.5654 Y-0.6299 I-2.0212 J4.4196
G2 X15.8542 Y-1.2286 I-5.8417 J13.9544
G2 X13.5746 Y-1.727 I-5.1744 J18.201
G2 X13.5665 Y-1.7283 I-0.306 J1.9765
G1 X13.3004 Y-1.7684
G2 X13.2849 Y-1.7706 I-0.2979 J1.9777
G2 X10.2109 Y-1.9991 I-3.2273 J22.6249
G2 X9.9825 Y-2.0 I-0.1368 J5.883
G2 X6.9899 Y-1.8082 I0.0152 J23.6857
G2 X6.9824 Y-1.8073 I0.254 J1.9838
G2 X5.9832 Y-1.6525 I2.9311 J22.229
G2 X4.6385 Y-1.3617 I3.259 J18.3267
G2 X4.6192 Y-1.3567 I0.4947 J1.9379
G1 X4.3026 Y-1.2726
G2 X4.2715 Y-1.264 I0.5139 J1.9328
G1 X4.1088 Y-1.2179
G2 X4.1064 Y-1.2172 I0.545 J1.9243
G2 X2.1416 Y-0.5021 I3.986 J14.0072
G2 X2.1134 Y-0.4892 I0.8172 J1.8254
G1 X1.9022 Y-0.3907
G2 X1.8792 Y-0.3798 I0.8454 J1.8125
G2 X1.3465 Y-0.1061 I5.1215 J10.625
G2 X1.3324 Y-0.0983 I0.9587 J1.7552
G2 X0.7831 Y0.2273 I5.7199 J10.2739
G2 X-0.5103 Y1.2514 I4.0618 J6.4589
G2 X-0.5194 Y1.2604 I1.4037 J1.4246
G2 X-1.1593 Y2.0177 I4.1338 J4.1419
G2 X-1.7337 Y3.0999 I3.8313 J2.7274
G2 X-2.0 Y4.5622 I3.9116 J1.4676
G2 Y4.5648 I2.0 J0.0025
G1 Y13.1134
G2 X0.0 Y15.1134 I2.0 J0.0
G0 Z3.0
M5
M30
