( Made using CamBam - http://www.cambam.co.uk )
( lead nut mount 10/23/2013 9:54:13 AM )
( T4 : 4.0 )
G21 G90 G64 G40
G0 Z3.0
( T4 : 4.0 )
T4 M6
( 4mm Mill Pockets )
G17
M3 S1000
G0 X10.7002 Y25.1188
G0 Z1.0
G1 F25.0 Z-1.0
G3 F150.0 X10.4993 Y25.6037 I-0.6836 J0.0009
G2 X10.4911 Y25.6119 I3.1069 J3.1157
G3 X10.0059 Y25.8128 I-0.4842 J-0.483
G2 X9.994 I-0.0062 J4.4
G3 X9.5089 Y25.6119 I-0.0009 J-0.6839
G2 X9.5012 Y25.6042 I-3.1152 J3.1073
G3 X9.3 Y25.1183 I0.4839 J-0.4851
G2 Y25.1067 I-4.4 J-0.0053
G3 X9.5006 Y24.6222 I0.6828 J-0.001
G2 X9.5093 Y24.6135 I-3.107 J-3.1155
G3 X9.9944 Y24.4126 I0.4842 J0.4829
G2 X10.0055 I0.0054 J-4.4
G3 X10.4907 Y24.6135 I0.0009 J0.684
G2 X10.499 Y24.6219 I3.1155 J-3.107
G3 X10.7002 Y25.1075 I-0.4835 J0.4847
G2 Y25.1188 I4.4 J0.0056
G1 F25.0 X11.5002 Y25.1177
G3 F150.0 X11.0642 Y26.1702 I-1.4836 J0.0019
G2 X11.0575 Y26.1769 I2.542 J2.5492
G3 X10.0048 Y26.6128 I-1.0506 J-1.048
G2 X9.995 I-0.0051 J3.6
G3 X8.9425 Y26.1768 I-0.0019 J-1.4839
G2 X8.9362 Y26.1706 I-2.5488 J2.5423
G3 X8.5 Y25.1174 I1.0489 J-1.0514
G2 Y25.1078 I-3.6 J-0.0043
G3 X8.9357 Y24.0558 I1.4828 J-0.0021
G2 X8.9428 Y24.0487 I-2.5421 J-2.5491
G3 X9.9953 Y23.6126 I1.0507 J1.0478
G2 X10.0045 I0.0044 J-3.6
G3 X11.0572 Y24.0486 I0.002 J1.484
G2 X11.064 Y24.0554 I2.5491 J-2.5421
G3 X11.5002 Y25.1085 I-1.0484 J1.0512
G2 Y25.1177 I3.6 J0.0045
G1 F25.0 X13.1002 Y25.1156
G3 F150.0 X12.194 Y27.3031 I-3.0836 J0.004
G2 X12.1902 Y27.3069 I1.4122 J1.4162
G3 X10.0026 Y28.2128 I-2.1833 J-2.178
G2 X9.9971 I-0.0028 J2.0
G3 X7.8097 Y27.3068 I-0.004 J-3.0839
G2 X7.8062 Y27.3033 I-1.416 J1.4124
G3 X6.9 Y25.1154 I2.179 J-2.1841
G2 Y25.1101 I-2.0 J-0.0024
G3 X7.8059 Y22.9228 I3.0828 J-0.0044
G2 X7.8098 Y22.9189 I-1.4123 J-1.4162
G3 X9.9973 Y22.0126 I2.1837 J2.1775
G2 X10.0024 I0.0024 J-2.0
G3 X12.1901 Y22.9188 I0.0041 J3.084
G2 X12.1939 Y22.9226 I1.4161 J-1.4123
G3 X13.1002 Y25.1105 I-2.1783 J2.184
G2 Y25.1156 I2.0 J0.0025
G1 F25.0 X10.7002 Y25.1188
G1 Z-2.0
G3 F150.0 X10.4993 Y25.6037 I-0.6836 J0.0009
G2 X10.4911 Y25.6119 I3.1069 J3.1157
G3 X10.0059 Y25.8128 I-0.4842 J-0.483
G2 X9.994 I-0.0062 J4.4
G3 X9.5089 Y25.6119 I-0.0009 J-0.6839
G2 X9.5012 Y25.6042 I-3.1152 J3.1073
G3 X9.3 Y25.1183 I0.4839 J-0.4851
G2 Y25.1067 I-4.4 J-0.0053
G3 X9.5006 Y24.6222 I0.6828 J-0.001
G2 X9.5093 Y24.6135 I-3.107 J-3.1155
G3 X9.9944 Y24.4126 I0.4842 J0.4829
G2 X10.0055 I0.0054 J-4.4
G3 X10.4907 Y24.6135 I0.0009 J0.684
G2 X10.499 Y24.6219 I3.1155 J-3.107
G3 X10.7002 Y25.1075 I-0.4835 J0.4847
G2 Y25.1188 I4.4 J0.0056
G1 F25.0 X11.5002 Y25.1177
G3 F150.0 X11.0642 Y26.1702 I-1.4836 J0.0019
G2 X11.0575 Y26.1769 I2.542 J2.5492
G3 X10.0048 Y26.6128 I-1.0506 J-1.048
G2 X9.995 I-0.0051 J3.6
G3 X8.9425 Y26.1768 I-0.0019 J-1.4839
G2 X8.9362 Y26.1706 I-2.5488 J2.5423
G3 X8.5 Y25.1174 I1.0489 J-1.0514
G2 Y25.1078 I-3.6 J-0.0043
G3 X8.9357 Y24.0558 I1.4828 J-0.0021
G2 X8.9428 Y24.0487 I-2.5421 J-2.5491
G3 X9.9953 Y23.6126 I1.0507 J1.0478
G2 X10.0045 I0.0044 J-3.6
G3 X11.0572 Y24.0486 I0.002 J1.484
G2 X11.064 Y24.0554 I2.5491 J-2.5421
G3 X11.5002 Y25.1085 I-1.0484 J1.0512
G2 Y25.1177 I3.6 J0.0045
G1 F25.0 X13.1002 Y25.1156
G3 F150.0 X12.194 Y27.3031 I-3.0836 J0.004
G2 X12.1902 Y27.3069 I1.4122 J1.4162
G3 X10.0026 Y28.2128 I-2.1833 J-2.178
G2 X9.9971 I-0.0028 J2.0
G3 X7.8097 Y27.3068 I-0.004 J-3.0839
G2 X7.8062 Y27.3033 I-1.416 J1.4124
G3 X6.9 Y25.1154 I2.179 J-2.1841
G2 Y25.1101 I-2.0 J-0.0024
G3 X7.8059 Y22.9228 I3.0828 J-0.0044
G2 X7.8098 Y22.9189 I-1.4123 J-1.4162
G3 X9.9973 Y22.0126 I2.1837 J2.1775
G2 X10.0024 I0.0024 J-2.0
G3 X12.1901 Y22.9188 I0.0041 J3.084
G2 X12.1939 Y22.9226 I1.4161 J-1.4123
G3 X13.1002 Y25.1105 I-2.1783 J2.184
G2 Y25.1156 I2.0 J0.0025
G1 F25.0 X10.7002 Y25.1188
G1 Z-3.0
G3 F150.0 X10.4993 Y25.6037 I-0.6836 J0.0009
G2 X10.4911 Y25.6119 I3.1069 J3.1157
G3 X10.0059 Y25.8128 I-0.4842 J-0.483
G2 X9.994 I-0.0062 J4.4
G3 X9.5089 Y25.6119 I-0.0009 J-0.6839
G2 X9.5012 Y25.6042 I-3.1152 J3.1073
G3 X9.3 Y25.1183 I0.4839 J-0.4851
G2 Y25.1067 I-4.4 J-0.0053
G3 X9.5006 Y24.6222 I0.6828 J-0.001
G2 X9.5093 Y24.6135 I-3.107 J-3.1155
G3 X9.9944 Y24.4126 I0.4842 J0.4829
G2 X10.0055 I0.0054 J-4.4
G3 X10.4907 Y24.6135 I0.0009 J0.684
G2 X10.499 Y24.6219 I3.1155 J-3.107
G3 X10.7002 Y25.1075 I-0.4835 J0.4847
G2 Y25.1188 I4.4 J0.0056
G1 F25.0 X11.5002 Y25.1177
G3 F150.0 X11.0642 Y26.1702 I-1.4836 J0.0019
G2 X11.0575 Y26.1769 I2.542 J2.5492
G3 X10.0048 Y26.6128 I-1.0506 J-1.048
G2 X9.995 I-0.0051 J3.6
G3 X8.9425 Y26.1768 I-0.0019 J-1.4839
G2 X8.9362 Y26.1706 I-2.5488 J2.5423
G3 X8.5 Y25.1174 I1.0489 J-1.0514
G2 Y25.1078 I-3.6 J-0.0043
G3 X8.9357 Y24.0558 I1.4828 J-0.0021
G2 X8.9428 Y24.0487 I-2.5421 J-2.5491
G3 X9.9953 Y23.6126 I1.0507 J1.0478
G2 X10.0045 I0.0044 J-3.6
G3 X11.0572 Y24.0486 I0.002 J1.484
G2 X11.064 Y24.0554 I2.5491 J-2.5421
G3 X11.5002 Y25.1085 I-1.0484 J1.0512
G2 Y25.1177 I3.6 J0.0045
G1 F25.0 X13.1002 Y25.1156
G3 F150.0 X12.194 Y27.3031 I-3.0836 J0.004
G2 X12.1902 Y27.3069 I1.4122 J1.4162
G3 X10.0026 Y28.2128 I-2.1833 J-2.178
G2 X9.9971 I-0.0028 J2.0
G3 X7.8097 Y27.3068 I-0.004 J-3.0839
G2 X7.8062 Y27.3033 I-1.416 J1.4124
G3 X6.9 Y25.1154 I2.179 J-2.1841
G2 Y25.1101 I-2.0 J-0.0024
G3 X7.8059 Y22.9228 I3.0828 J-0.0044
G2 X7.8098 Y22.9189 I-1.4123 J-1.4162
G3 X9.9973 Y22.0126 I2.1837 J2.1775
G2 X10.0024 I0.0024 J-2.0
G3 X12.1901 Y22.9188 I0.0041 J3.084
G2 X12.1939 Y22.9226 I1.4161 J-1.4123
G3 X13.1002 Y25.1105 I-2.1783 J2.184
G2 Y25.1156 I2.0 J0.0025
G1 F25.0 X10.7002 Y25.1188
G1 Z-4.0
G3 F150.0 X10.4993 Y25.6037 I-0.6836 J0.0009
G2 X10.4911 Y25.6119 I3.1069 J3.1157
G3 X10.0059 Y25.8128 I-0.4842 J-0.483
G2 X9.994 I-0.0062 J4.4
G3 X9.5089 Y25.6119 I-0.0009 J-0.6839
G2 X9.5012 Y25.6042 I-3.1152 J3.1073
G3 X9.3 Y25.1183 I0.4839 J-0.4851
G2 Y25.1067 I-4.4 J-0.0053
G3 X9.5006 Y24.6222 I0.6828 J-0.001
G2 X9.5093 Y24.6135 I-3.107 J-3.1155
G3 X9.9944 Y24.4126 I0.4842 J0.4829
G2 X10.0055 I0.0054 J-4.4
G3 X10.4907 Y24.6135 I0.0009 J0.684
G2 X10.499 Y24.6219 I3.1155 J-3.107
G3 X10.7002 Y25.1075 I-0.4835 J0.4847
G2 Y25.1188 I4.4 J0.0056
G1 F25.0 X11.5002 Y25.1177
G3 F150.0 X11.0642 Y26.1702 I-1.4836 J0.0019
G2 X11.0575 Y26.1769 I2.542 J2.5492
G3 X10.0048 Y26.6128 I-1.0506 J-1.048
G2 X9.995 I-0.0051 J3.6
G3 X8.9425 Y26.1768 I-0.0019 J-1.4839
G2 X8.9362 Y26.1706 I-2.5488 J2.5423
G3 X8.5 Y25.1174 I1.0489 J-1.0514
G2 Y25.1078 I-3.6 J-0.0043
G3 X8.9357 Y24.0558 I1.4828 J-0.0021
G2 X8.9428 Y24.0487 I-2.5421 J-2.5491
G3 X9.9953 Y23.6126 I1.0507 J1.0478
G2 X10.0045 I0.0044 J-3.6
G3 X11.0572 Y24.0486 I0.002 J1.484
G2 X11.064 Y24.0554 I2.5491 J-2.5421
G3 X11.5002 Y25.1085 I-1.0484 J1.0512
G2 Y25.1177 I3.6 J0.0045
G1 F25.0 X13.1002 Y25.1156
G3 F150.0 X12.194 Y27.3031 I-3.0836 J0.004
G2 X12.1902 Y27.3069 I1.4122 J1.4162
G3 X10.0026 Y28.2128 I-2.1833 J-2.178
G2 X9.9971 I-0.0028 J2.0
G3 X7.8097 Y27.3068 I-0.004 J-3.0839
G2 X7.8062 Y27.3033 I-1.416 J1.4124
G3 X6.9 Y25.1154 I2.179 J-2.1841
G2 Y25.1101 I-2.0 J-0.0024
G3 X7.8059 Y22.9228 I3.0828 J-0.0044
G2 X7.8098 Y22.9189 I-1.4123 J-1.4162
G3 X9.9973 Y22.0126 I2.1837 J2.1775
G2 X10.0024 I0.0024 J-2.0
G3 X12.1901 Y22.9188 I0.0041 J3.084
G2 X12.1939 Y22.9226 I1.4161 J-1.4123
G3 X13.1002 Y25.1105 I-2.1783 J2.184
G2 Y25.1156 I2.0 J0.0025
G1 F25.0 X10.7002 Y25.1188
G1 Z-5.0
G3 F150.0 X10.4993 Y25.6037 I-0.6836 J0.0009
G2 X10.4911 Y25.6119 I3.1069 J3.1157
G3 X10.0059 Y25.8128 I-0.4842 J-0.483
G2 X9.994 I-0.0062 J4.4
G3 X9.5089 Y25.6119 I-0.0009 J-0.6839
G2 X9.5012 Y25.6042 I-3.1152 J3.1073
G3 X9.3 Y25.1183 I0.4839 J-0.4851
G2 Y25.1067 I-4.4 J-0.0053
G3 X9.5006 Y24.6222 I0.6828 J-0.001
G2 X9.5093 Y24.6135 I-3.107 J-3.1155
G3 X9.9944 Y24.4126 I0.4842 J0.4829
G2 X10.0055 I0.0054 J-4.4
G3 X10.4907 Y24.6135 I0.0009 J0.684
G2 X10.499 Y24.6219 I3.1155 J-3.107
G3 X10.7002 Y25.1075 I-0.4835 J0.4847
G2 Y25.1188 I4.4 J0.0056
G1 F25.0 X11.5002 Y25.1177
G3 F150.0 X11.0642 Y26.1702 I-1.4836 J0.0019
G2 X11.0575 Y26.1769 I2.542 J2.5492
G3 X10.0048 Y26.6128 I-1.0506 J-1.048
G2 X9.995 I-0.0051 J3.6
G3 X8.9425 Y26.1768 I-0.0019 J-1.4839
G2 X8.9362 Y26.1706 I-2.5488 J2.5423
G3 X8.5 Y25.1174 I1.0489 J-1.0514
G2 Y25.1078 I-3.6 J-0.0043
G3 X8.9357 Y24.0558 I1.4828 J-0.0021
G2 X8.9428 Y24.0487 I-2.5421 J-2.5491
G3 X9.9953 Y23.6126 I1.0507 J1.0478
G2 X10.0045 I0.0044 J-3.6
G3 X11.0572 Y24.0486 I0.002 J1.484
G2 X11.064 Y24.0554 I2.5491 J-2.5421
G3 X11.5002 Y25.1085 I-1.0484 J1.0512
G2 Y25.1177 I3.6 J0.0045
G1 F25.0 X13.1002 Y25.1156
G3 F150.0 X12.194 Y27.3031 I-3.0836 J0.004
G2 X12.1902 Y27.3069 I1.4122 J1.4162
G3 X10.0026 Y28.2128 I-2.1833 J-2.178
G2 X9.9971 I-0.0028 J2.0
G3 X7.8097 Y27.3068 I-0.004 J-3.0839
G2 X7.8062 Y27.3033 I-1.416 J1.4124
G3 X6.9 Y25.1154 I2.179 J-2.1841
G2 Y25.1101 I-2.0 J-0.0024
G3 X7.8059 Y22.9228 I3.0828 J-0.0044
G2 X7.8098 Y22.9189 I-1.4123 J-1.4162
G3 X9.9973 Y22.0126 I2.1837 J2.1775
G2 X10.0024 I0.0024 J-2.0
G3 X12.1901 Y22.9188 I0.0041 J3.084
G2 X12.1939 Y22.9226 I1.4161 J-1.4123
G3 X13.1002 Y25.1105 I-2.1783 J2.184
G2 Y25.1156 I2.0 J0.0025
G1 F25.0 X10.7002 Y25.1188
G1 Z-6.0
G3 F150.0 X10.4993 Y25.6037 I-0.6836 J0.0009
G2 X10.4911 Y25.6119 I3.1069 J3.1157
G3 X10.0059 Y25.8128 I-0.4842 J-0.483
G2 X9.994 I-0.0062 J4.4
G3 X9.5089 Y25.6119 I-0.0009 J-0.6839
G2 X9.5012 Y25.6042 I-3.1152 J3.1073
G3 X9.3 Y25.1183 I0.4839 J-0.4851
G2 Y25.1067 I-4.4 J-0.0053
G3 X9.5006 Y24.6222 I0.6828 J-0.001
G2 X9.5093 Y24.6135 I-3.107 J-3.1155
G3 X9.9944 Y24.4126 I0.4842 J0.4829
G2 X10.0055 I0.0054 J-4.4
G3 X10.4907 Y24.6135 I0.0009 J0.684
G2 X10.499 Y24.6219 I3.1155 J-3.107
G3 X10.7002 Y25.1075 I-0.4835 J0.4847
G2 Y25.1188 I4.4 J0.0056
G1 F25.0 X11.5002 Y25.1177
G3 F150.0 X11.0642 Y26.1702 I-1.4836 J0.0019
G2 X11.0575 Y26.1769 I2.542 J2.5492
G3 X10.0048 Y26.6128 I-1.0506 J-1.048
G2 X9.995 I-0.0051 J3.6
G3 X8.9425 Y26.1768 I-0.0019 J-1.4839
G2 X8.9362 Y26.1706 I-2.5488 J2.5423
G3 X8.5 Y25.1174 I1.0489 J-1.0514
G2 Y25.1078 I-3.6 J-0.0043
G3 X8.9357 Y24.0558 I1.4828 J-0.0021
G2 X8.9428 Y24.0487 I-2.5421 J-2.5491
G3 X9.9953 Y23.6126 I1.0507 J1.0478
G2 X10.0045 I0.0044 J-3.6
G3 X11.0572 Y24.0486 I0.002 J1.484
G2 X11.064 Y24.0554 I2.5491 J-2.5421
G3 X11.5002 Y25.1085 I-1.0484 J1.0512
G2 Y25.1177 I3.6 J0.0045
G1 F25.0 X13.1002 Y25.1156
G3 F150.0 X12.194 Y27.3031 I-3.0836 J0.004
G2 X12.1902 Y27.3069 I1.4122 J1.4162
G3 X10.0026 Y28.2128 I-2.1833 J-2.178
G2 X9.9971 I-0.0028 J2.0
G3 X7.8097 Y27.3068 I-0.004 J-3.0839
G2 X7.8062 Y27.3033 I-1.416 J1.4124
G3 X6.9 Y25.1154 I2.179 J-2.1841
G2 Y25.1101 I-2.0 J-0.0024
G3 X7.8059 Y22.9228 I3.0828 J-0.0044
G2 X7.8098 Y22.9189 I-1.4123 J-1.4162
G3 X9.9973 Y22.0126 I2.1837 J2.1775
G2 X10.0024 I0.0024 J-2.0
G3 X12.1901 Y22.9188 I0.0041 J3.084
G2 X12.1939 Y22.9226 I1.4161 J-1.4123
G3 X13.1002 Y25.1105 I-2.1783 J2.184
G2 Y25.1156 I2.0 J0.0025
G1 F25.0 X10.7002 Y25.1188
G1 Z-7.0
G3 F150.0 X10.4993 Y25.6037 I-0.6836 J0.0009
G2 X10.4911 Y25.6119 I3.1069 J3.1157
G3 X10.0059 Y25.8128 I-0.4842 J-0.483
G2 X9.994 I-0.0062 J4.4
G3 X9.5089 Y25.6119 I-0.0009 J-0.6839
G2 X9.5012 Y25.6042 I-3.1152 J3.1073
G3 X9.3 Y25.1183 I0.4839 J-0.4851
G2 Y25.1067 I-4.4 J-0.0053
G3 X9.5006 Y24.6222 I0.6828 J-0.001
G2 X9.5093 Y24.6135 I-3.107 J-3.1155
G3 X9.9944 Y24.4126 I0.4842 J0.4829
G2 X10.0055 I0.0054 J-4.4
G3 X10.4907 Y24.6135 I0.0009 J0.684
G2 X10.499 Y24.6219 I3.1155 J-3.107
G3 X10.7002 Y25.1075 I-0.4835 J0.4847
G2 Y25.1188 I4.4 J0.0056
G1 F25.0 X11.5002 Y25.1177
G3 F150.0 X11.0642 Y26.1702 I-1.4836 J0.0019
G2 X11.0575 Y26.1769 I2.542 J2.5492
G3 X10.0048 Y26.6128 I-1.0506 J-1.048
G2 X9.995 I-0.0051 J3.6
G3 X8.9425 Y26.1768 I-0.0019 J-1.4839
G2 X8.9362 Y26.1706 I-2.5488 J2.5423
G3 X8.5 Y25.1174 I1.0489 J-1.0514
G2 Y25.1078 I-3.6 J-0.0043
G3 X8.9357 Y24.0558 I1.4828 J-0.0021
G2 X8.9428 Y24.0487 I-2.5421 J-2.5491
G3 X9.9953 Y23.6126 I1.0507 J1.0478
G2 X10.0045 I0.0044 J-3.6
G3 X11.0572 Y24.0486 I0.002 J1.484
G2 X11.064 Y24.0554 I2.5491 J-2.5421
G3 X11.5002 Y25.1085 I-1.0484 J1.0512
G2 Y25.1177 I3.6 J0.0045
G1 F25.0 X13.1002 Y25.1156
G3 F150.0 X12.194 Y27.3031 I-3.0836 J0.004
G2 X12.1902 Y27.3069 I1.4122 J1.4162
G3 X10.0026 Y28.2128 I-2.1833 J-2.178
G2 X9.9971 I-0.0028 J2.0
G3 X7.8097 Y27.3068 I-0.004 J-3.0839
G2 X7.8062 Y27.3033 I-1.416 J1.4124
G3 X6.9 Y25.1154 I2.179 J-2.1841
G2 Y25.1101 I-2.0 J-0.0024
G3 X7.8059 Y22.9228 I3.0828 J-0.0044
G2 X7.8098 Y22.9189 I-1.4123 J-1.4162
G3 X9.9973 Y22.0126 I2.1837 J2.1775
G2 X10.0024 I0.0024 J-2.0
G3 X12.1901 Y22.9188 I0.0041 J3.084
G2 X12.1939 Y22.9226 I1.4161 J-1.4123
G3 X13.1002 Y25.1105 I-2.1783 J2.184
G2 Y25.1156 I2.0 J0.0025
G1 F25.0 X10.7002 Y25.1188
G1 Z-8.0
G3 F150.0 X10.4993 Y25.6037 I-0.6836 J0.0009
G2 X10.4911 Y25.6119 I3.1069 J3.1157
G3 X10.0059 Y25.8128 I-0.4842 J-0.483
G2 X9.994 I-0.0062 J4.4
G3 X9.5089 Y25.6119 I-0.0009 J-0.6839
G2 X9.5012 Y25.6042 I-3.1152 J3.1073
G3 X9.3 Y25.1183 I0.4839 J-0.4851
G2 Y25.1067 I-4.4 J-0.0053
G3 X9.5006 Y24.6222 I0.6828 J-0.001
G2 X9.5093 Y24.6135 I-3.107 J-3.1155
G3 X9.9944 Y24.4126 I0.4842 J0.4829
G2 X10.0055 I0.0054 J-4.4
G3 X10.4907 Y24.6135 I0.0009 J0.684
G2 X10.499 Y24.6219 I3.1155 J-3.107
G3 X10.7002 Y25.1075 I-0.4835 J0.4847
G2 Y25.1188 I4.4 J0.0056
G1 F25.0 X11.5002 Y25.1177
G3 F150.0 X11.0642 Y26.1702 I-1.4836 J0.0019
G2 X11.0575 Y26.1769 I2.542 J2.5492
G3 X10.0048 Y26.6128 I-1.0506 J-1.048
G2 X9.995 I-0.0051 J3.6
G3 X8.9425 Y26.1768 I-0.0019 J-1.4839
G2 X8.9362 Y26.1706 I-2.5488 J2.5423
G3 X8.5 Y25.1174 I1.0489 J-1.0514
G2 Y25.1078 I-3.6 J-0.0043
G3 X8.9357 Y24.0558 I1.4828 J-0.0021
G2 X8.9428 Y24.0487 I-2.5421 J-2.5491
G3 X9.9953 Y23.6126 I1.0507 J1.0478
G2 X10.0045 I0.0044 J-3.6
G3 X11.0572 Y24.0486 I0.002 J1.484
G2 X11.064 Y24.0554 I2.5491 J-2.5421
G3 X11.5002 Y25.1085 I-1.0484 J1.0512
G2 Y25.1177 I3.6 J0.0045
G1 F25.0 X13.1002 Y25.1156
G3 F150.0 X12.194 Y27.3031 I-3.0836 J0.004
G2 X12.1902 Y27.3069 I1.4122 J1.4162
G3 X10.0026 Y28.2128 I-2.1833 J-2.178
G2 X9.9971 I-0.0028 J2.0
G3 X7.8097 Y27.3068 I-0.004 J-3.0839
G2 X7.8062 Y27.3033 I-1.416 J1.4124
G3 X6.9 Y25.1154 I2.179 J-2.1841
G2 Y25.1101 I-2.0 J-0.0024
G3 X7.8059 Y22.9228 I3.0828 J-0.0044
G2 X7.8098 Y22.9189 I-1.4123 J-1.4162
G3 X9.9973 Y22.0126 I2.1837 J2.1775
G2 X10.0024 I0.0024 J-2.0
G3 X12.1901 Y22.9188 I0.0041 J3.084
G2 X12.1939 Y22.9226 I1.4161 J-1.4123
G3 X13.1002 Y25.1105 I-2.1783 J2.184
G2 Y25.1156 I2.0 J0.0025
G1 F25.0 X10.7002 Y25.1188
G1 Z-9.0
G3 F150.0 X10.4993 Y25.6037 I-0.6836 J0.0009
G2 X10.4911 Y25.6119 I3.1069 J3.1157
G3 X10.0059 Y25.8128 I-0.4842 J-0.483
G2 X9.994 I-0.0062 J4.4
G3 X9.5089 Y25.6119 I-0.0009 J-0.6839
G2 X9.5012 Y25.6042 I-3.1152 J3.1073
G3 X9.3 Y25.1183 I0.4839 J-0.4851
G2 Y25.1067 I-4.4 J-0.0053
G3 X9.5006 Y24.6222 I0.6828 J-0.001
G2 X9.5093 Y24.6135 I-3.107 J-3.1155
G3 X9.9944 Y24.4126 I0.4842 J0.4829
G2 X10.0055 I0.0054 J-4.4
G3 X10.4907 Y24.6135 I0.0009 J0.684
G2 X10.499 Y24.6219 I3.1155 J-3.107
G3 X10.7002 Y25.1075 I-0.4835 J0.4847
G2 Y25.1188 I4.4 J0.0056
G1 F25.0 X11.5002 Y25.1177
G3 F150.0 X11.0642 Y26.1702 I-1.4836 J0.0019
G2 X11.0575 Y26.1769 I2.542 J2.5492
G3 X10.0048 Y26.6128 I-1.0506 J-1.048
G2 X9.995 I-0.0051 J3.6
G3 X8.9425 Y26.1768 I-0.0019 J-1.4839
G2 X8.9362 Y26.1706 I-2.5488 J2.5423
G3 X8.5 Y25.1174 I1.0489 J-1.0514
G2 Y25.1078 I-3.6 J-0.0043
G3 X8.9357 Y24.0558 I1.4828 J-0.0021
G2 X8.9428 Y24.0487 I-2.5421 J-2.5491
G3 X9.9953 Y23.6126 I1.0507 J1.0478
G2 X10.0045 I0.0044 J-3.6
G3 X11.0572 Y24.0486 I0.002 J1.484
G2 X11.064 Y24.0554 I2.5491 J-2.5421
G3 X11.5002 Y25.1085 I-1.0484 J1.0512
G2 Y25.1177 I3.6 J0.0045
G1 F25.0 X13.1002 Y25.1156
G3 F150.0 X12.194 Y27.3031 I-3.0836 J0.004
G2 X12.1902 Y27.3069 I1.4122 J1.4162
G3 X10.0026 Y28.2128 I-2.1833 J-2.178
G2 X9.9971 I-0.0028 J2.0
G3 X7.8097 Y27.3068 I-0.004 J-3.0839
G2 X7.8062 Y27.3033 I-1.416 J1.4124
G3 X6.9 Y25.1154 I2.179 J-2.1841
G2 Y25.1101 I-2.0 J-0.0024
G3 X7.8059 Y22.9228 I3.0828 J-0.0044
G2 X7.8098 Y22.9189 I-1.4123 J-1.4162
G3 X9.9973 Y22.0126 I2.1837 J2.1775
G2 X10.0024 I0.0024 J-2.0
G3 X12.1901 Y22.9188 I0.0041 J3.084
G2 X12.1939 Y22.9226 I1.4161 J-1.4123
G3 X13.1002 Y25.1105 I-2.1783 J2.184
G2 Y25.1156 I2.0 J0.0025
G1 F25.0 X10.7002 Y25.1188
G1 Z-10.0
G3 F150.0 X10.4993 Y25.6037 I-0.6836 J0.0009
G2 X10.4911 Y25.6119 I3.1069 J3.1157
G3 X10.0059 Y25.8128 I-0.4842 J-0.483
G2 X9.994 I-0.0062 J4.4
G3 X9.5089 Y25.6119 I-0.0009 J-0.6839
G2 X9.5012 Y25.6042 I-3.1152 J3.1073
G3 X9.3 Y25.1183 I0.4839 J-0.4851
G2 Y25.1067 I-4.4 J-0.0053
G3 X9.5006 Y24.6222 I0.6828 J-0.001
G2 X9.5093 Y24.6135 I-3.107 J-3.1155
G3 X9.9944 Y24.4126 I0.4842 J0.4829
G2 X10.0055 I0.0054 J-4.4
G3 X10.4907 Y24.6135 I0.0009 J0.684
G2 X10.499 Y24.6219 I3.1155 J-3.107
G3 X10.7002 Y25.1075 I-0.4835 J0.4847
G2 Y25.1188 I4.4 J0.0056
G1 F25.0 X11.5002 Y25.1177
G3 F150.0 X11.0642 Y26.1702 I-1.4836 J0.0019
G2 X11.0575 Y26.1769 I2.542 J2.5492
G3 X10.0048 Y26.6128 I-1.0506 J-1.048
G2 X9.995 I-0.0051 J3.6
G3 X8.9425 Y26.1768 I-0.0019 J-1.4839
G2 X8.9362 Y26.1706 I-2.5488 J2.5423
G3 X8.5 Y25.1174 I1.0489 J-1.0514
G2 Y25.1078 I-3.6 J-0.0043
G3 X8.9357 Y24.0558 I1.4828 J-0.0021
G2 X8.9428 Y24.0487 I-2.5421 J-2.5491
G3 X9.9953 Y23.6126 I1.0507 J1.0478
G2 X10.0045 I0.0044 J-3.6
G3 X11.0572 Y24.0486 I0.002 J1.484
G2 X11.064 Y24.0554 I2.5491 J-2.5421
G3 X11.5002 Y25.1085 I-1.0484 J1.0512
G2 Y25.1177 I3.6 J0.0045
G1 F25.0 X13.1002 Y25.1156
G3 F150.0 X12.194 Y27.3031 I-3.0836 J0.004
G2 X12.1902 Y27.3069 I1.4122 J1.4162
G3 X10.0026 Y28.2128 I-2.1833 J-2.178
G2 X9.9971 I-0.0028 J2.0
G3 X7.8097 Y27.3068 I-0.004 J-3.0839
G2 X7.8062 Y27.3033 I-1.416 J1.4124
G3 X6.9 Y25.1154 I2.179 J-2.1841
G2 Y25.1101 I-2.0 J-0.0024
G3 X7.8059 Y22.9228 I3.0828 J-0.0044
G2 X7.8098 Y22.9189 I-1.4123 J-1.4162
G3 X9.9973 Y22.0126 I2.1837 J2.1775
G2 X10.0024 I0.0024 J-2.0
G3 X12.1901 Y22.9188 I0.0041 J3.084
G2 X12.1939 Y22.9226 I1.4161 J-1.4123
G3 X13.1002 Y25.1105 I-2.1783 J2.184
G2 Y25.1156 I2.0 J0.0025
G1 F25.0 X10.7002 Y25.1188
G1 Z-11.0
G3 F150.0 X10.4993 Y25.6037 I-0.6836 J0.0009
G2 X10.4911 Y25.6119 I3.1069 J3.1157
G3 X10.0059 Y25.8128 I-0.4842 J-0.483
G2 X9.994 I-0.0062 J4.4
G3 X9.5089 Y25.6119 I-0.0009 J-0.6839
G2 X9.5012 Y25.6042 I-3.1152 J3.1073
G3 X9.3 Y25.1183 I0.4839 J-0.4851
G2 Y25.1067 I-4.4 J-0.0053
G3 X9.5006 Y24.6222 I0.6828 J-0.001
G2 X9.5093 Y24.6135 I-3.107 J-3.1155
G3 X9.9944 Y24.4126 I0.4842 J0.4829
G2 X10.0055 I0.0054 J-4.4
G3 X10.4907 Y24.6135 I0.0009 J0.684
G2 X10.499 Y24.6219 I3.1155 J-3.107
G3 X10.7002 Y25.1075 I-0.4835 J0.4847
G2 Y25.1188 I4.4 J0.0056
G1 F25.0 X11.5002 Y25.1177
G3 F150.0 X11.0642 Y26.1702 I-1.4836 J0.0019
G2 X11.0575 Y26.1769 I2.542 J2.5492
G3 X10.0048 Y26.6128 I-1.0506 J-1.048
G2 X9.995 I-0.0051 J3.6
G3 X8.9425 Y26.1768 I-0.0019 J-1.4839
G2 X8.9362 Y26.1706 I-2.5488 J2.5423
G3 X8.5 Y25.1174 I1.0489 J-1.0514
G2 Y25.1078 I-3.6 J-0.0043
G3 X8.9357 Y24.0558 I1.4828 J-0.0021
G2 X8.9428 Y24.0487 I-2.5421 J-2.5491
G3 X9.9953 Y23.6126 I1.0507 J1.0478
G2 X10.0045 I0.0044 J-3.6
G3 X11.0572 Y24.0486 I0.002 J1.484
G2 X11.064 Y24.0554 I2.5491 J-2.5421
G3 X11.5002 Y25.1085 I-1.0484 J1.0512
G2 Y25.1177 I3.6 J0.0045
G1 F25.0 X13.1002 Y25.1156
G3 F150.0 X12.194 Y27.3031 I-3.0836 J0.004
G2 X12.1902 Y27.3069 I1.4122 J1.4162
G3 X10.0026 Y28.2128 I-2.1833 J-2.178
G2 X9.9971 I-0.0028 J2.0
G3 X7.8097 Y27.3068 I-0.004 J-3.0839
G2 X7.8062 Y27.3033 I-1.416 J1.4124
G3 X6.9 Y25.1154 I2.179 J-2.1841
G2 Y25.1101 I-2.0 J-0.0024
G3 X7.8059 Y22.9228 I3.0828 J-0.0044
G2 X7.8098 Y22.9189 I-1.4123 J-1.4162
G3 X9.9973 Y22.0126 I2.1837 J2.1775
G2 X10.0024 I0.0024 J-2.0
G3 X12.1901 Y22.9188 I0.0041 J3.084
G2 X12.1939 Y22.9226 I1.4161 J-1.4123
G3 X13.1002 Y25.1105 I-2.1783 J2.184
G2 Y25.1156 I2.0 J0.0025
G0 Z3.0
G0 X10.1227 Y7.7032
G0 Z1.0
G1 F25.0 Z-1.0
G3 F150.0 X10.0066 Y7.713 I-0.115 J-0.6728
G2 X9.994 I-0.0068 J4.4
G3 X9.5089 Y7.512 I-0.0009 J-0.6839
G2 X9.5012 Y7.5044 I-3.1152 J3.1073
G3 X9.3 Y7.0185 I0.4839 J-0.4851
G2 Y7.0068 I-4.4 J-0.0053
G3 X9.5006 Y6.5224 I0.6828 J-0.001
G2 X9.5093 Y6.5137 I-3.107 J-3.1155
G3 X9.9944 Y6.3127 I0.4842 J0.4829
G2 X10.0063 I0.0054 J-4.4
G3 X10.4904 Y6.5132 I0.001 J0.6822
G2 X10.4991 Y6.522 I3.1159 J-3.1066
G3 X10.7004 Y7.0077 I-0.4836 J0.4849
G2 Y7.019 I4.4 J0.0054
G3 X10.4996 Y7.5037 I-0.6832 J0.0009
G2 X10.4909 Y7.5124 I3.1068 J3.1158
G3 X10.1227 Y7.7032 I-0.4833 J-0.482
G1 F25.0 X10.2575 Y8.4918
G3 F150.0 X10.0053 Y8.513 I-0.2499 J-1.4613
G2 X9.995 I-0.0056 J3.6
G3 X8.9425 Y8.077 I-0.0019 J-1.4839
G2 X8.9362 Y8.0707 I-2.5488 J2.5423
G3 X8.5 Y7.0175 I1.0489 J-1.0514
G2 Y7.008 I-3.6 J-0.0043
G3 X8.9357 Y5.9559 I1.4828 J-0.0021
G2 X8.9428 Y5.9488 I-2.5421 J-2.5491
G3 X9.9953 Y5.5127 I1.0507 J1.0478
G2 X10.0051 I0.0044 J-3.6
G3 X11.0569 Y5.9484 I0.0022 J1.4822
G2 X11.0641 Y5.9556 I2.5494 J-2.5418
G3 X11.5004 Y7.0087 I-1.0486 J1.0513
G2 Y7.018 I3.6 J0.0045
G3 X11.0644 Y8.0702 I-1.4832 J0.002
G2 X11.0574 Y8.0773 I2.5419 J2.5493
G3 X10.2575 Y8.4918 I-1.0497 J-1.0469
G1 F25.0 X10.5272 Y10.0689
G3 F150.0 X10.0028 Y10.113 I-0.5196 J-3.0384
G2 X9.9971 I-0.0031 J2.0
G3 X7.8097 Y9.2069 I-0.004 J-3.0839
G2 X7.8062 Y9.2034 I-1.416 J1.4124
G3 X6.9 Y7.0156 I2.179 J-2.1841
G2 Y7.0103 I-2.0 J-0.0024
G3 X7.8059 Y4.823 I3.0828 J-0.0044
G2 X7.8098 Y4.8191 I-1.4123 J-1.4162
G3 X9.9973 Y3.9127 I2.1837 J2.1775
G2 X10.0027 I0.0024 J-2.0
G3 X12.19 Y4.8187 I0.0046 J3.0822
G2 X12.194 Y4.8227 I1.4163 J-1.4121
G3 X13.1004 Y7.0107 I-2.1785 J2.1842
G2 Y7.0158 I2.0 J0.0025
G3 X12.1942 Y9.2032 I-3.0832 J0.0041
G2 X12.1902 Y9.2072 I1.4122 J1.4163
G3 X10.5272 Y10.0689 I-2.1826 J-2.1768
G1 F25.0 X10.1227 Y7.7032
G1 Z-2.0
G3 F150.0 X10.0066 Y7.713 I-0.115 J-0.6728
G2 X9.994 I-0.0068 J4.4
G3 X9.5089 Y7.512 I-0.0009 J-0.6839
G2 X9.5012 Y7.5044 I-3.1152 J3.1073
G3 X9.3 Y7.0185 I0.4839 J-0.4851
G2 Y7.0068 I-4.4 J-0.0053
G3 X9.5006 Y6.5224 I0.6828 J-0.001
G2 X9.5093 Y6.5137 I-3.107 J-3.1155
G3 X9.9944 Y6.3127 I0.4842 J0.4829
G2 X10.0063 I0.0054 J-4.4
G3 X10.4904 Y6.5132 I0.001 J0.6822
G2 X10.4991 Y6.522 I3.1159 J-3.1066
G3 X10.7004 Y7.0077 I-0.4836 J0.4849
G2 Y7.019 I4.4 J0.0054
G3 X10.4996 Y7.5037 I-0.6832 J0.0009
G2 X10.4909 Y7.5124 I3.1068 J3.1158
G3 X10.1227 Y7.7032 I-0.4833 J-0.482
G1 F25.0 X10.2575 Y8.4918
G3 F150.0 X10.0053 Y8.513 I-0.2499 J-1.4613
G2 X9.995 I-0.0056 J3.6
G3 X8.9425 Y8.077 I-0.0019 J-1.4839
G2 X8.9362 Y8.0707 I-2.5488 J2.5423
G3 X8.5 Y7.0175 I1.0489 J-1.0514
G2 Y7.008 I-3.6 J-0.0043
G3 X8.9357 Y5.9559 I1.4828 J-0.0021
G2 X8.9428 Y5.9488 I-2.5421 J-2.5491
G3 X9.9953 Y5.5127 I1.0507 J1.0478
G2 X10.0051 I0.0044 J-3.6
G3 X11.0569 Y5.9484 I0.0022 J1.4822
G2 X11.0641 Y5.9556 I2.5494 J-2.5418
G3 X11.5004 Y7.0087 I-1.0486 J1.0513
G2 Y7.018 I3.6 J0.0045
G3 X11.0644 Y8.0702 I-1.4832 J0.002
G2 X11.0574 Y8.0773 I2.5419 J2.5493
G3 X10.2575 Y8.4918 I-1.0497 J-1.0469
G1 F25.0 X10.5272 Y10.0689
G3 F150.0 X10.0028 Y10.113 I-0.5196 J-3.0384
G2 X9.9971 I-0.0031 J2.0
G3 X7.8097 Y9.2069 I-0.004 J-3.0839
G2 X7.8062 Y9.2034 I-1.416 J1.4124
G3 X6.9 Y7.0156 I2.179 J-2.1841
G2 Y7.0103 I-2.0 J-0.0024
G3 X7.8059 Y4.823 I3.0828 J-0.0044
G2 X7.8098 Y4.8191 I-1.4123 J-1.4162
G3 X9.9973 Y3.9127 I2.1837 J2.1775
G2 X10.0027 I0.0024 J-2.0
G3 X12.19 Y4.8187 I0.0046 J3.0822
G2 X12.194 Y4.8227 I1.4163 J-1.4121
G3 X13.1004 Y7.0107 I-2.1785 J2.1842
G2 Y7.0158 I2.0 J0.0025
G3 X12.1942 Y9.2032 I-3.0832 J0.0041
G2 X12.1902 Y9.2072 I1.4122 J1.4163
G3 X10.5272 Y10.0689 I-2.1826 J-2.1768
G1 F25.0 X10.1227 Y7.7032
G1 Z-3.0
G3 F150.0 X10.0066 Y7.713 I-0.115 J-0.6728
G2 X9.994 I-0.0068 J4.4
G3 X9.5089 Y7.512 I-0.0009 J-0.6839
G2 X9.5012 Y7.5044 I-3.1152 J3.1073
G3 X9.3 Y7.0185 I0.4839 J-0.4851
G2 Y7.0068 I-4.4 J-0.0053
G3 X9.5006 Y6.5224 I0.6828 J-0.001
G2 X9.5093 Y6.5137 I-3.107 J-3.1155
G3 X9.9944 Y6.3127 I0.4842 J0.4829
G2 X10.0063 I0.0054 J-4.4
G3 X10.4904 Y6.5132 I0.001 J0.6822
G2 X10.4991 Y6.522 I3.1159 J-3.1066
G3 X10.7004 Y7.0077 I-0.4836 J0.4849
G2 Y7.019 I4.4 J0.0054
G3 X10.4996 Y7.5037 I-0.6832 J0.0009
G2 X10.4909 Y7.5124 I3.1068 J3.1158
G3 X10.1227 Y7.7032 I-0.4833 J-0.482
G1 F25.0 X10.2575 Y8.4918
G3 F150.0 X10.0053 Y8.513 I-0.2499 J-1.4613
G2 X9.995 I-0.0056 J3.6
G3 X8.9425 Y8.077 I-0.0019 J-1.4839
G2 X8.9362 Y8.0707 I-2.5488 J2.5423
G3 X8.5 Y7.0175 I1.0489 J-1.0514
G2 Y7.008 I-3.6 J-0.0043
G3 X8.9357 Y5.9559 I1.4828 J-0.0021
G2 X8.9428 Y5.9488 I-2.5421 J-2.5491
G3 X9.9953 Y5.5127 I1.0507 J1.0478
G2 X10.0051 I0.0044 J-3.6
G3 X11.0569 Y5.9484 I0.0022 J1.4822
G2 X11.0641 Y5.9556 I2.5494 J-2.5418
G3 X11.5004 Y7.0087 I-1.0486 J1.0513
G2 Y7.018 I3.6 J0.0045
G3 X11.0644 Y8.0702 I-1.4832 J0.002
G2 X11.0574 Y8.0773 I2.5419 J2.5493
G3 X10.2575 Y8.4918 I-1.0497 J-1.0469
G1 F25.0 X10.5272 Y10.0689
G3 F150.0 X10.0028 Y10.113 I-0.5196 J-3.0384
G2 X9.9971 I-0.0031 J2.0
G3 X7.8097 Y9.2069 I-0.004 J-3.0839
G2 X7.8062 Y9.2034 I-1.416 J1.4124
G3 X6.9 Y7.0156 I2.179 J-2.1841
G2 Y7.0103 I-2.0 J-0.0024
G3 X7.8059 Y4.823 I3.0828 J-0.0044
G2 X7.8098 Y4.8191 I-1.4123 J-1.4162
G3 X9.9973 Y3.9127 I2.1837 J2.1775
G2 X10.0027 I0.0024 J-2.0
G3 X12.19 Y4.8187 I0.0046 J3.0822
G2 X12.194 Y4.8227 I1.4163 J-1.4121
G3 X13.1004 Y7.0107 I-2.1785 J2.1842
G2 Y7.0158 I2.0 J0.0025
G3 X12.1942 Y9.2032 I-3.0832 J0.0041
G2 X12.1902 Y9.2072 I1.4122 J1.4163
G3 X10.5272 Y10.0689 I-2.1826 J-2.1768
G1 F25.0 X10.1227 Y7.7032
G1 Z-4.0
G3 F150.0 X10.0066 Y7.713 I-0.115 J-0.6728
G2 X9.994 I-0.0068 J4.4
G3 X9.5089 Y7.512 I-0.0009 J-0.6839
G2 X9.5012 Y7.5044 I-3.1152 J3.1073
G3 X9.3 Y7.0185 I0.4839 J-0.4851
G2 Y7.0068 I-4.4 J-0.0053
G3 X9.5006 Y6.5224 I0.6828 J-0.001
G2 X9.5093 Y6.5137 I-3.107 J-3.1155
G3 X9.9944 Y6.3127 I0.4842 J0.4829
G2 X10.0063 I0.0054 J-4.4
G3 X10.4904 Y6.5132 I0.001 J0.6822
G2 X10.4991 Y6.522 I3.1159 J-3.1066
G3 X10.7004 Y7.0077 I-0.4836 J0.4849
G2 Y7.019 I4.4 J0.0054
G3 X10.4996 Y7.5037 I-0.6832 J0.0009
G2 X10.4909 Y7.5124 I3.1068 J3.1158
G3 X10.1227 Y7.7032 I-0.4833 J-0.482
G1 F25.0 X10.2575 Y8.4918
G3 F150.0 X10.0053 Y8.513 I-0.2499 J-1.4613
G2 X9.995 I-0.0056 J3.6
G3 X8.9425 Y8.077 I-0.0019 J-1.4839
G2 X8.9362 Y8.0707 I-2.5488 J2.5423
G3 X8.5 Y7.0175 I1.0489 J-1.0514
G2 Y7.008 I-3.6 J-0.0043
G3 X8.9357 Y5.9559 I1.4828 J-0.0021
G2 X8.9428 Y5.9488 I-2.5421 J-2.5491
G3 X9.9953 Y5.5127 I1.0507 J1.0478
G2 X10.0051 I0.0044 J-3.6
G3 X11.0569 Y5.9484 I0.0022 J1.4822
G2 X11.0641 Y5.9556 I2.5494 J-2.5418
G3 X11.5004 Y7.0087 I-1.0486 J1.0513
G2 Y7.018 I3.6 J0.0045
G3 X11.0644 Y8.0702 I-1.4832 J0.002
G2 X11.0574 Y8.0773 I2.5419 J2.5493
G3 X10.2575 Y8.4918 I-1.0497 J-1.0469
G1 F25.0 X10.5272 Y10.0689
G3 F150.0 X10.0028 Y10.113 I-0.5196 J-3.0384
G2 X9.9971 I-0.0031 J2.0
G3 X7.8097 Y9.2069 I-0.004 J-3.0839
G2 X7.8062 Y9.2034 I-1.416 J1.4124
G3 X6.9 Y7.0156 I2.179 J-2.1841
G2 Y7.0103 I-2.0 J-0.0024
G3 X7.8059 Y4.823 I3.0828 J-0.0044
G2 X7.8098 Y4.8191 I-1.4123 J-1.4162
G3 X9.9973 Y3.9127 I2.1837 J2.1775
G2 X10.0027 I0.0024 J-2.0
G3 X12.19 Y4.8187 I0.0046 J3.0822
G2 X12.194 Y4.8227 I1.4163 J-1.4121
G3 X13.1004 Y7.0107 I-2.1785 J2.1842
G2 Y7.0158 I2.0 J0.0025
G3 X12.1942 Y9.2032 I-3.0832 J0.0041
G2 X12.1902 Y9.2072 I1.4122 J1.4163
G3 X10.5272 Y10.0689 I-2.1826 J-2.1768
G1 F25.0 X10.1227 Y7.7032
G1 Z-5.0
G3 F150.0 X10.0066 Y7.713 I-0.115 J-0.6728
G2 X9.994 I-0.0068 J4.4
G3 X9.5089 Y7.512 I-0.0009 J-0.6839
G2 X9.5012 Y7.5044 I-3.1152 J3.1073
G3 X9.3 Y7.0185 I0.4839 J-0.4851
G2 Y7.0068 I-4.4 J-0.0053
G3 X9.5006 Y6.5224 I0.6828 J-0.001
G2 X9.5093 Y6.5137 I-3.107 J-3.1155
G3 X9.9944 Y6.3127 I0.4842 J0.4829
G2 X10.0063 I0.0054 J-4.4
G3 X10.4904 Y6.5132 I0.001 J0.6822
G2 X10.4991 Y6.522 I3.1159 J-3.1066
G3 X10.7004 Y7.0077 I-0.4836 J0.4849
G2 Y7.019 I4.4 J0.0054
G3 X10.4996 Y7.5037 I-0.6832 J0.0009
G2 X10.4909 Y7.5124 I3.1068 J3.1158
G3 X10.1227 Y7.7032 I-0.4833 J-0.482
G1 F25.0 X10.2575 Y8.4918
G3 F150.0 X10.0053 Y8.513 I-0.2499 J-1.4613
G2 X9.995 I-0.0056 J3.6
G3 X8.9425 Y8.077 I-0.0019 J-1.4839
G2 X8.9362 Y8.0707 I-2.5488 J2.5423
G3 X8.5 Y7.0175 I1.0489 J-1.0514
G2 Y7.008 I-3.6 J-0.0043
G3 X8.9357 Y5.9559 I1.4828 J-0.0021
G2 X8.9428 Y5.9488 I-2.5421 J-2.5491
G3 X9.9953 Y5.5127 I1.0507 J1.0478
G2 X10.0051 I0.0044 J-3.6
G3 X11.0569 Y5.9484 I0.0022 J1.4822
G2 X11.0641 Y5.9556 I2.5494 J-2.5418
G3 X11.5004 Y7.0087 I-1.0486 J1.0513
G2 Y7.018 I3.6 J0.0045
G3 X11.0644 Y8.0702 I-1.4832 J0.002
G2 X11.0574 Y8.0773 I2.5419 J2.5493
G3 X10.2575 Y8.4918 I-1.0497 J-1.0469
G1 F25.0 X10.5272 Y10.0689
G3 F150.0 X10.0028 Y10.113 I-0.5196 J-3.0384
G2 X9.9971 I-0.0031 J2.0
G3 X7.8097 Y9.2069 I-0.004 J-3.0839
G2 X7.8062 Y9.2034 I-1.416 J1.4124
G3 X6.9 Y7.0156 I2.179 J-2.1841
G2 Y7.0103 I-2.0 J-0.0024
G3 X7.8059 Y4.823 I3.0828 J-0.0044
G2 X7.8098 Y4.8191 I-1.4123 J-1.4162
G3 X9.9973 Y3.9127 I2.1837 J2.1775
G2 X10.0027 I0.0024 J-2.0
G3 X12.19 Y4.8187 I0.0046 J3.0822
G2 X12.194 Y4.8227 I1.4163 J-1.4121
G3 X13.1004 Y7.0107 I-2.1785 J2.1842
G2 Y7.0158 I2.0 J0.0025
G3 X12.1942 Y9.2032 I-3.0832 J0.0041
G2 X12.1902 Y9.2072 I1.4122 J1.4163
G3 X10.5272 Y10.0689 I-2.1826 J-2.1768
G1 F25.0 X10.1227 Y7.7032
G1 Z-6.0
G3 F150.0 X10.0066 Y7.713 I-0.115 J-0.6728
G2 X9.994 I-0.0068 J4.4
G3 X9.5089 Y7.512 I-0.0009 J-0.6839
G2 X9.5012 Y7.5044 I-3.1152 J3.1073
G3 X9.3 Y7.0185 I0.4839 J-0.4851
G2 Y7.0068 I-4.4 J-0.0053
G3 X9.5006 Y6.5224 I0.6828 J-0.001
G2 X9.5093 Y6.5137 I-3.107 J-3.1155
G3 X9.9944 Y6.3127 I0.4842 J0.4829
G2 X10.0063 I0.0054 J-4.4
G3 X10.4904 Y6.5132 I0.001 J0.6822
G2 X10.4991 Y6.522 I3.1159 J-3.1066
G3 X10.7004 Y7.0077 I-0.4836 J0.4849
G2 Y7.019 I4.4 J0.0054
G3 X10.4996 Y7.5037 I-0.6832 J0.0009
G2 X10.4909 Y7.5124 I3.1068 J3.1158
G3 X10.1227 Y7.7032 I-0.4833 J-0.482
G1 F25.0 X10.2575 Y8.4918
G3 F150.0 X10.0053 Y8.513 I-0.2499 J-1.4613
G2 X9.995 I-0.0056 J3.6
G3 X8.9425 Y8.077 I-0.0019 J-1.4839
G2 X8.9362 Y8.0707 I-2.5488 J2.5423
G3 X8.5 Y7.0175 I1.0489 J-1.0514
G2 Y7.008 I-3.6 J-0.0043
G3 X8.9357 Y5.9559 I1.4828 J-0.0021
G2 X8.9428 Y5.9488 I-2.5421 J-2.5491
G3 X9.9953 Y5.5127 I1.0507 J1.0478
G2 X10.0051 I0.0044 J-3.6
G3 X11.0569 Y5.9484 I0.0022 J1.4822
G2 X11.0641 Y5.9556 I2.5494 J-2.5418
G3 X11.5004 Y7.0087 I-1.0486 J1.0513
G2 Y7.018 I3.6 J0.0045
G3 X11.0644 Y8.0702 I-1.4832 J0.002
G2 X11.0574 Y8.0773 I2.5419 J2.5493
G3 X10.2575 Y8.4918 I-1.0497 J-1.0469
G1 F25.0 X10.5272 Y10.0689
G3 F150.0 X10.0028 Y10.113 I-0.5196 J-3.0384
G2 X9.9971 I-0.0031 J2.0
G3 X7.8097 Y9.2069 I-0.004 J-3.0839
G2 X7.8062 Y9.2034 I-1.416 J1.4124
G3 X6.9 Y7.0156 I2.179 J-2.1841
G2 Y7.0103 I-2.0 J-0.0024
G3 X7.8059 Y4.823 I3.0828 J-0.0044
G2 X7.8098 Y4.8191 I-1.4123 J-1.4162
G3 X9.9973 Y3.9127 I2.1837 J2.1775
G2 X10.0027 I0.0024 J-2.0
G3 X12.19 Y4.8187 I0.0046 J3.0822
G2 X12.194 Y4.8227 I1.4163 J-1.4121
G3 X13.1004 Y7.0107 I-2.1785 J2.1842
G2 Y7.0158 I2.0 J0.0025
G3 X12.1942 Y9.2032 I-3.0832 J0.0041
G2 X12.1902 Y9.2072 I1.4122 J1.4163
G3 X10.5272 Y10.0689 I-2.1826 J-2.1768
G1 F25.0 X10.1227 Y7.7032
G1 Z-7.0
G3 F150.0 X10.0066 Y7.713 I-0.115 J-0.6728
G2 X9.994 I-0.0068 J4.4
G3 X9.5089 Y7.512 I-0.0009 J-0.6839
G2 X9.5012 Y7.5044 I-3.1152 J3.1073
G3 X9.3 Y7.0185 I0.4839 J-0.4851
G2 Y7.0068 I-4.4 J-0.0053
G3 X9.5006 Y6.5224 I0.6828 J-0.001
G2 X9.5093 Y6.5137 I-3.107 J-3.1155
G3 X9.9944 Y6.3127 I0.4842 J0.4829
G2 X10.0063 I0.0054 J-4.4
G3 X10.4904 Y6.5132 I0.001 J0.6822
G2 X10.4991 Y6.522 I3.1159 J-3.1066
G3 X10.7004 Y7.0077 I-0.4836 J0.4849
G2 Y7.019 I4.4 J0.0054
G3 X10.4996 Y7.5037 I-0.6832 J0.0009
G2 X10.4909 Y7.5124 I3.1068 J3.1158
G3 X10.1227 Y7.7032 I-0.4833 J-0.482
G1 F25.0 X10.2575 Y8.4918
G3 F150.0 X10.0053 Y8.513 I-0.2499 J-1.4613
G2 X9.995 I-0.0056 J3.6
G3 X8.9425 Y8.077 I-0.0019 J-1.4839
G2 X8.9362 Y8.0707 I-2.5488 J2.5423
G3 X8.5 Y7.0175 I1.0489 J-1.0514
G2 Y7.008 I-3.6 J-0.0043
G3 X8.9357 Y5.9559 I1.4828 J-0.0021
G2 X8.9428 Y5.9488 I-2.5421 J-2.5491
G3 X9.9953 Y5.5127 I1.0507 J1.0478
G2 X10.0051 I0.0044 J-3.6
G3 X11.0569 Y5.9484 I0.0022 J1.4822
G2 X11.0641 Y5.9556 I2.5494 J-2.5418
G3 X11.5004 Y7.0087 I-1.0486 J1.0513
G2 Y7.018 I3.6 J0.0045
G3 X11.0644 Y8.0702 I-1.4832 J0.002
G2 X11.0574 Y8.0773 I2.5419 J2.5493
G3 X10.2575 Y8.4918 I-1.0497 J-1.0469
G1 F25.0 X10.5272 Y10.0689
G3 F150.0 X10.0028 Y10.113 I-0.5196 J-3.0384
G2 X9.9971 I-0.0031 J2.0
G3 X7.8097 Y9.2069 I-0.004 J-3.0839
G2 X7.8062 Y9.2034 I-1.416 J1.4124
G3 X6.9 Y7.0156 I2.179 J-2.1841
G2 Y7.0103 I-2.0 J-0.0024
G3 X7.8059 Y4.823 I3.0828 J-0.0044
G2 X7.8098 Y4.8191 I-1.4123 J-1.4162
G3 X9.9973 Y3.9127 I2.1837 J2.1775
G2 X10.0027 I0.0024 J-2.0
G3 X12.19 Y4.8187 I0.0046 J3.0822
G2 X12.194 Y4.8227 I1.4163 J-1.4121
G3 X13.1004 Y7.0107 I-2.1785 J2.1842
G2 Y7.0158 I2.0 J0.0025
G3 X12.1942 Y9.2032 I-3.0832 J0.0041
G2 X12.1902 Y9.2072 I1.4122 J1.4163
G3 X10.5272 Y10.0689 I-2.1826 J-2.1768
G1 F25.0 X10.1227 Y7.7032
G1 Z-8.0
G3 F150.0 X10.0066 Y7.713 I-0.115 J-0.6728
G2 X9.994 I-0.0068 J4.4
G3 X9.5089 Y7.512 I-0.0009 J-0.6839
G2 X9.5012 Y7.5044 I-3.1152 J3.1073
G3 X9.3 Y7.0185 I0.4839 J-0.4851
G2 Y7.0068 I-4.4 J-0.0053
G3 X9.5006 Y6.5224 I0.6828 J-0.001
G2 X9.5093 Y6.5137 I-3.107 J-3.1155
G3 X9.9944 Y6.3127 I0.4842 J0.4829
G2 X10.0063 I0.0054 J-4.4
G3 X10.4904 Y6.5132 I0.001 J0.6822
G2 X10.4991 Y6.522 I3.1159 J-3.1066
G3 X10.7004 Y7.0077 I-0.4836 J0.4849
G2 Y7.019 I4.4 J0.0054
G3 X10.4996 Y7.5037 I-0.6832 J0.0009
G2 X10.4909 Y7.5124 I3.1068 J3.1158
G3 X10.1227 Y7.7032 I-0.4833 J-0.482
G1 F25.0 X10.2575 Y8.4918
G3 F150.0 X10.0053 Y8.513 I-0.2499 J-1.4613
G2 X9.995 I-0.0056 J3.6
G3 X8.9425 Y8.077 I-0.0019 J-1.4839
G2 X8.9362 Y8.0707 I-2.5488 J2.5423
G3 X8.5 Y7.0175 I1.0489 J-1.0514
G2 Y7.008 I-3.6 J-0.0043
G3 X8.9357 Y5.9559 I1.4828 J-0.0021
G2 X8.9428 Y5.9488 I-2.5421 J-2.5491
G3 X9.9953 Y5.5127 I1.0507 J1.0478
G2 X10.0051 I0.0044 J-3.6
G3 X11.0569 Y5.9484 I0.0022 J1.4822
G2 X11.0641 Y5.9556 I2.5494 J-2.5418
G3 X11.5004 Y7.0087 I-1.0486 J1.0513
G2 Y7.018 I3.6 J0.0045
G3 X11.0644 Y8.0702 I-1.4832 J0.002
G2 X11.0574 Y8.0773 I2.5419 J2.5493
G3 X10.2575 Y8.4918 I-1.0497 J-1.0469
G1 F25.0 X10.5272 Y10.0689
G3 F150.0 X10.0028 Y10.113 I-0.5196 J-3.0384
G2 X9.9971 I-0.0031 J2.0
G3 X7.8097 Y9.2069 I-0.004 J-3.0839
G2 X7.8062 Y9.2034 I-1.416 J1.4124
G3 X6.9 Y7.0156 I2.179 J-2.1841
G2 Y7.0103 I-2.0 J-0.0024
G3 X7.8059 Y4.823 I3.0828 J-0.0044
G2 X7.8098 Y4.8191 I-1.4123 J-1.4162
G3 X9.9973 Y3.9127 I2.1837 J2.1775
G2 X10.0027 I0.0024 J-2.0
G3 X12.19 Y4.8187 I0.0046 J3.0822
G2 X12.194 Y4.8227 I1.4163 J-1.4121
G3 X13.1004 Y7.0107 I-2.1785 J2.1842
G2 Y7.0158 I2.0 J0.0025
G3 X12.1942 Y9.2032 I-3.0832 J0.0041
G2 X12.1902 Y9.2072 I1.4122 J1.4163
G3 X10.5272 Y10.0689 I-2.1826 J-2.1768
G1 F25.0 X10.1227 Y7.7032
G1 Z-9.0
G3 F150.0 X10.0066 Y7.713 I-0.115 J-0.6728
G2 X9.994 I-0.0068 J4.4
G3 X9.5089 Y7.512 I-0.0009 J-0.6839
G2 X9.5012 Y7.5044 I-3.1152 J3.1073
G3 X9.3 Y7.0185 I0.4839 J-0.4851
G2 Y7.0068 I-4.4 J-0.0053
G3 X9.5006 Y6.5224 I0.6828 J-0.001
G2 X9.5093 Y6.5137 I-3.107 J-3.1155
G3 X9.9944 Y6.3127 I0.4842 J0.4829
G2 X10.0063 I0.0054 J-4.4
G3 X10.4904 Y6.5132 I0.001 J0.6822
G2 X10.4991 Y6.522 I3.1159 J-3.1066
G3 X10.7004 Y7.0077 I-0.4836 J0.4849
G2 Y7.019 I4.4 J0.0054
G3 X10.4996 Y7.5037 I-0.6832 J0.0009
G2 X10.4909 Y7.5124 I3.1068 J3.1158
G3 X10.1227 Y7.7032 I-0.4833 J-0.482
G1 F25.0 X10.2575 Y8.4918
G3 F150.0 X10.0053 Y8.513 I-0.2499 J-1.4613
G2 X9.995 I-0.0056 J3.6
G3 X8.9425 Y8.077 I-0.0019 J-1.4839
G2 X8.9362 Y8.0707 I-2.5488 J2.5423
G3 X8.5 Y7.0175 I1.0489 J-1.0514
G2 Y7.008 I-3.6 J-0.0043
G3 X8.9357 Y5.9559 I1.4828 J-0.0021
G2 X8.9428 Y5.9488 I-2.5421 J-2.5491
G3 X9.9953 Y5.5127 I1.0507 J1.0478
G2 X10.0051 I0.0044 J-3.6
G3 X11.0569 Y5.9484 I0.0022 J1.4822
G2 X11.0641 Y5.9556 I2.5494 J-2.5418
G3 X11.5004 Y7.0087 I-1.0486 J1.0513
G2 Y7.018 I3.6 J0.0045
G3 X11.0644 Y8.0702 I-1.4832 J0.002
G2 X11.0574 Y8.0773 I2.5419 J2.5493
G3 X10.2575 Y8.4918 I-1.0497 J-1.0469
G1 F25.0 X10.5272 Y10.0689
G3 F150.0 X10.0028 Y10.113 I-0.5196 J-3.0384
G2 X9.9971 I-0.0031 J2.0
G3 X7.8097 Y9.2069 I-0.004 J-3.0839
G2 X7.8062 Y9.2034 I-1.416 J1.4124
G3 X6.9 Y7.0156 I2.179 J-2.1841
G2 Y7.0103 I-2.0 J-0.0024
G3 X7.8059 Y4.823 I3.0828 J-0.0044
G2 X7.8098 Y4.8191 I-1.4123 J-1.4162
G3 X9.9973 Y3.9127 I2.1837 J2.1775
G2 X10.0027 I0.0024 J-2.0
G3 X12.19 Y4.8187 I0.0046 J3.0822
G2 X12.194 Y4.8227 I1.4163 J-1.4121
G3 X13.1004 Y7.0107 I-2.1785 J2.1842
G2 Y7.0158 I2.0 J0.0025
G3 X12.1942 Y9.2032 I-3.0832 J0.0041
G2 X12.1902 Y9.2072 I1.4122 J1.4163
G3 X10.5272 Y10.0689 I-2.1826 J-2.1768
G1 F25.0 X10.1227 Y7.7032
G1 Z-10.0
G3 F150.0 X10.0066 Y7.713 I-0.115 J-0.6728
G2 X9.994 I-0.0068 J4.4
G3 X9.5089 Y7.512 I-0.0009 J-0.6839
G2 X9.5012 Y7.5044 I-3.1152 J3.1073
G3 X9.3 Y7.0185 I0.4839 J-0.4851
G2 Y7.0068 I-4.4 J-0.0053
G3 X9.5006 Y6.5224 I0.6828 J-0.001
G2 X9.5093 Y6.5137 I-3.107 J-3.1155
G3 X9.9944 Y6.3127 I0.4842 J0.4829
G2 X10.0063 I0.0054 J-4.4
G3 X10.4904 Y6.5132 I0.001 J0.6822
G2 X10.4991 Y6.522 I3.1159 J-3.1066
G3 X10.7004 Y7.0077 I-0.4836 J0.4849
G2 Y7.019 I4.4 J0.0054
G3 X10.4996 Y7.5037 I-0.6832 J0.0009
G2 X10.4909 Y7.5124 I3.1068 J3.1158
G3 X10.1227 Y7.7032 I-0.4833 J-0.482
G1 F25.0 X10.2575 Y8.4918
G3 F150.0 X10.0053 Y8.513 I-0.2499 J-1.4613
G2 X9.995 I-0.0056 J3.6
G3 X8.9425 Y8.077 I-0.0019 J-1.4839
G2 X8.9362 Y8.0707 I-2.5488 J2.5423
G3 X8.5 Y7.0175 I1.0489 J-1.0514
G2 Y7.008 I-3.6 J-0.0043
G3 X8.9357 Y5.9559 I1.4828 J-0.0021
G2 X8.9428 Y5.9488 I-2.5421 J-2.5491
G3 X9.9953 Y5.5127 I1.0507 J1.0478
G2 X10.0051 I0.0044 J-3.6
G3 X11.0569 Y5.9484 I0.0022 J1.4822
G2 X11.0641 Y5.9556 I2.5494 J-2.5418
G3 X11.5004 Y7.0087 I-1.0486 J1.0513
G2 Y7.018 I3.6 J0.0045
G3 X11.0644 Y8.0702 I-1.4832 J0.002
G2 X11.0574 Y8.0773 I2.5419 J2.5493
G3 X10.2575 Y8.4918 I-1.0497 J-1.0469
G1 F25.0 X10.5272 Y10.0689
G3 F150.0 X10.0028 Y10.113 I-0.5196 J-3.0384
G2 X9.9971 I-0.0031 J2.0
G3 X7.8097 Y9.2069 I-0.004 J-3.0839
G2 X7.8062 Y9.2034 I-1.416 J1.4124
G3 X6.9 Y7.0156 I2.179 J-2.1841
G2 Y7.0103 I-2.0 J-0.0024
G3 X7.8059 Y4.823 I3.0828 J-0.0044
G2 X7.8098 Y4.8191 I-1.4123 J-1.4162
G3 X9.9973 Y3.9127 I2.1837 J2.1775
G2 X10.0027 I0.0024 J-2.0
G3 X12.19 Y4.8187 I0.0046 J3.0822
G2 X12.194 Y4.8227 I1.4163 J-1.4121
G3 X13.1004 Y7.0107 I-2.1785 J2.1842
G2 Y7.0158 I2.0 J0.0025
G3 X12.1942 Y9.2032 I-3.0832 J0.0041
G2 X12.1902 Y9.2072 I1.4122 J1.4163
G3 X10.5272 Y10.0689 I-2.1826 J-2.1768
G1 F25.0 X10.1227 Y7.7032
G1 Z-11.0
G3 F150.0 X10.0066 Y7.713 I-0.115 J-0.6728
G2 X9.994 I-0.0068 J4.4
G3 X9.5089 Y7.512 I-0.0009 J-0.6839
G2 X9.5012 Y7.5044 I-3.1152 J3.1073
G3 X9.3 Y7.0185 I0.4839 J-0.4851
G2 Y7.0068 I-4.4 J-0.0053
G3 X9.5006 Y6.5224 I0.6828 J-0.001
G2 X9.5093 Y6.5137 I-3.107 J-3.1155
G3 X9.9944 Y6.3127 I0.4842 J0.4829
G2 X10.0063 I0.0054 J-4.4
G3 X10.4904 Y6.5132 I0.001 J0.6822
G2 X10.4991 Y6.522 I3.1159 J-3.1066
G3 X10.7004 Y7.0077 I-0.4836 J0.4849
G2 Y7.019 I4.4 J0.0054
G3 X10.4996 Y7.5037 I-0.6832 J0.0009
G2 X10.4909 Y7.5124 I3.1068 J3.1158
G3 X10.1227 Y7.7032 I-0.4833 J-0.482
G1 F25.0 X10.2575 Y8.4918
G3 F150.0 X10.0053 Y8.513 I-0.2499 J-1.4613
G2 X9.995 I-0.0056 J3.6
G3 X8.9425 Y8.077 I-0.0019 J-1.4839
G2 X8.9362 Y8.0707 I-2.5488 J2.5423
G3 X8.5 Y7.0175 I1.0489 J-1.0514
G2 Y7.008 I-3.6 J-0.0043
G3 X8.9357 Y5.9559 I1.4828 J-0.0021
G2 X8.9428 Y5.9488 I-2.5421 J-2.5491
G3 X9.9953 Y5.5127 I1.0507 J1.0478
G2 X10.0051 I0.0044 J-3.6
G3 X11.0569 Y5.9484 I0.0022 J1.4822
G2 X11.0641 Y5.9556 I2.5494 J-2.5418
G3 X11.5004 Y7.0087 I-1.0486 J1.0513
G2 Y7.018 I3.6 J0.0045
G3 X11.0644 Y8.0702 I-1.4832 J0.002
G2 X11.0574 Y8.0773 I2.5419 J2.5493
G3 X10.2575 Y8.4918 I-1.0497 J-1.0469
G1 F25.0 X10.5272 Y10.0689
G3 F150.0 X10.0028 Y10.113 I-0.5196 J-3.0384
G2 X9.9971 I-0.0031 J2.0
G3 X7.8097 Y9.2069 I-0.004 J-3.0839
G2 X7.8062 Y9.2034 I-1.416 J1.4124
G3 X6.9 Y7.0156 I2.179 J-2.1841
G2 Y7.0103 I-2.0 J-0.0024
G3 X7.8059 Y4.823 I3.0828 J-0.0044
G2 X7.8098 Y4.8191 I-1.4123 J-1.4162
G3 X9.9973 Y3.9127 I2.1837 J2.1775
G2 X10.0027 I0.0024 J-2.0
G3 X12.19 Y4.8187 I0.0046 J3.0822
G2 X12.194 Y4.8227 I1.4163 J-1.4121
G3 X13.1004 Y7.0107 I-2.1785 J2.1842
G2 Y7.0158 I2.0 J0.0025
G3 X12.1942 Y9.2032 I-3.0832 J0.0041
G2 X12.1902 Y9.2072 I1.4122 J1.4163
G3 X10.5272 Y10.0689 I-2.1826 J-2.1768
G0 Z3.0
M5
M30
