( Made using CamBam - http://www.cambam.co.uk )
( picker front plate v2 9/26/2013 1:58:04 PM )
( T9 : 3.0 )
G21 G90 G64 G40
G0 Z3.0
( T9 : 3.0 )
T9 M6
( 3mm drill )
G17
M3 S1000
G0 X6.0 Y44.501
G98
G83 X6.0 Y44.501 Z-6.0 Q2.0 R2.0 F50.0
G83 X13.0018 Z-6.0
G83 Y35.5007 Z-6.0
G83 X6.0 Z-6.0
G83 X19.5003 Y29.9999 Z-6.0
G83 Y20.0002 Z-6.0
G83 X13.0018 Y14.5011 Z-6.0
G83 X6.0 Z-6.0
G83 Y5.5008 Z-6.0
G83 X13.0018 Z-6.0
G83 X34.5002 Y20.0002 Z-6.0
G83 X41.9368 Y14.5011 Z-6.0
G83 Y5.5008 Z-6.0
G83 X34.5002 Y29.9999 Z-6.0
G83 X41.9368 Y35.5007 Z-6.0
G83 Y44.501 Z-6.0
G83 X72.0001 Z-6.0
G83 Y35.5007 Z-6.0
G83 X84.4999 Y29.9999 Z-6.0
G83 Y20.0002 Z-6.0
G83 X72.0001 Y14.5011 Z-6.0
G83 Y5.5008 Z-6.0
G83 X99.4999 Y20.0002 Z-6.0
G83 X106.0008 Y14.5011 Z-6.0
G83 Y5.5008 Z-6.0
G83 X99.4999 Y29.9999 Z-6.0
G83 X106.0008 Y35.5007 Z-6.0
G83 Y44.501 Z-6.0
G80
G0 Z3.0
M5
M30
