( Made using CamBam - http://www.cambam.co.uk )
( picker front plate v2 9/26/2013 2:11:20 PM )
( T4 : 4.0 )
G21 G90 G64 G40
G0 Z3.0
( T4 : 4.0 )
T4 M6
( Pockets )
G17
M3 S1000
G0 X13.0019 Y44.301
G0 Z1.0
G1 F50.0 Z-1.0
G3 F120.0 X13.002 I0.0 J0.1999
G3 X13.2018 Y44.5007 I-0.0001 J0.1999
G3 X13.0018 Y44.701 I-0.2006 J-0.0003
G3 X12.8018 Y44.5009 I0.0006 J-0.2006
G3 X13.002 Y44.301 I0.2004 J0.0005
G3 X13.0021 I0.0001 J0.2004
G1 X13.0019
G1 F50.0 X13.0008 Y43.501
G3 F120.0 X13.002 I0.0013 J1.0004
G1 X13.0019
G1 X13.002
G3 X14.0018 Y44.5008 I0.0 J0.9999
G3 X13.0018 Y45.501 I-1.0006 J-0.0003
G3 X12.0018 Y44.5009 I0.0006 J-1.0006
G3 X13.0008 Y43.501 I1.0004 J0.0004
G1 F50.0 X13.0019 Y44.301
G1 Z-2.0
G3 F120.0 X13.002 I0.0 J0.1999
G3 X13.2018 Y44.5007 I-0.0001 J0.1999
G3 X13.0018 Y44.701 I-0.2006 J-0.0003
G3 X12.8018 Y44.5009 I0.0006 J-0.2006
G3 X13.002 Y44.301 I0.2004 J0.0005
G3 X13.0021 I0.0001 J0.2004
G1 X13.0019
G1 F50.0 X13.0008 Y43.501
G3 F120.0 X13.002 I0.0013 J1.0004
G1 X13.0019
G1 X13.002
G3 X14.0018 Y44.5008 I0.0 J0.9999
G3 X13.0018 Y45.501 I-1.0006 J-0.0003
G3 X12.0018 Y44.5009 I0.0006 J-1.0006
G3 X13.0008 Y43.501 I1.0004 J0.0004
G0 Z3.0
G0 X13.0018 Y35.7007
G0 Z1.0
G1 F50.0 Z-1.0
G3 F120.0 X12.8018 Y35.5006 I0.0006 J-0.2006
G3 X13.002 Y35.3007 I0.2004 J0.0005
G3 X13.0021 I0.0001 J0.2004
G1 X13.0019
G3 X13.002 I0.0 J0.1999
G3 X13.2018 Y35.5004 I-0.0001 J0.1999
G3 X13.0018 Y35.7007 I-0.2006 J-0.0003
G1 F50.0 X12.9995 Y36.5007
G3 F120.0 X12.0018 Y35.5006 I0.0029 J-1.0006
G3 X13.002 Y34.5007 I1.0004 J0.0004
G1 X13.0019
G1 X13.002
G3 X14.0018 Y35.5004 I0.0 J0.9999
G3 X13.0018 Y36.5007 I-1.0006 J-0.0003
G3 X12.9995 I0.0006 J-1.0006
G1 F50.0 X13.0018 Y35.7007
G1 Z-2.0
G3 F120.0 X12.8018 Y35.5006 I0.0006 J-0.2006
G3 X13.002 Y35.3007 I0.2004 J0.0005
G3 X13.0021 I0.0001 J0.2004
G1 X13.0019
G3 X13.002 I0.0 J0.1999
G3 X13.2018 Y35.5004 I-0.0001 J0.1999
G3 X13.0018 Y35.7007 I-0.2006 J-0.0003
G1 F50.0 X12.9995 Y36.5007
G3 F120.0 X12.0018 Y35.5006 I0.0029 J-1.0006
G3 X13.002 Y34.5007 I1.0004 J0.0004
G1 X13.0019
G1 X13.002
G3 X14.0018 Y35.5004 I0.0 J0.9999
G3 X13.0018 Y36.5007 I-1.0006 J-0.0003
G3 X12.9995 I0.0006 J-1.0006
G0 Z3.0
G0 X19.359 Y30.1411
G0 Z1.0
G1 F50.0 Z-1.0
G3 F120.0 X19.3003 Y29.9998 I0.1418 J-0.1418
G3 X19.5005 Y29.7999 I0.2004 J0.0005
G3 X19.5006 I0.0001 J0.2004
G1 X19.5004
G3 X19.5005 I0.0 J0.1999
G3 X19.7003 Y29.9996 I-0.0001 J0.1999
G3 X19.5003 Y30.1999 I-0.2006 J-0.0003
G3 X19.359 Y30.1411 I0.0006 J-0.2006
G1 F50.0 X18.7933 Y30.7068
G3 F120.0 X18.5003 Y29.9998 I0.7075 J-0.7075
G3 X19.5004 Y28.9999 I1.0004 J0.0004
G1 X19.5005
G1 X19.5004
G3 X20.5003 Y29.9997 I0.0 J0.9999
G3 X19.5003 Y30.9999 I-1.0006 J-0.0003
G3 X18.7933 Y30.7068 I0.0006 J-1.0006
G1 F50.0 X19.359 Y30.1411
G1 Z-2.0
G3 F120.0 X19.3003 Y29.9998 I0.1418 J-0.1418
G3 X19.5005 Y29.7999 I0.2004 J0.0005
G3 X19.5006 I0.0001 J0.2004
G1 X19.5004
G3 X19.5005 I0.0 J0.1999
G3 X19.7003 Y29.9996 I-0.0001 J0.1999
G3 X19.5003 Y30.1999 I-0.2006 J-0.0003
G3 X19.359 Y30.1411 I0.0006 J-0.2006
G1 F50.0 X18.7933 Y30.7068
G3 F120.0 X18.5003 Y29.9998 I0.7075 J-0.7075
G3 X19.5004 Y28.9999 I1.0004 J0.0004
G1 X19.5005
G1 X19.5004
G3 X20.5003 Y29.9997 I0.0 J0.9999
G3 X19.5003 Y30.9999 I-1.0006 J-0.0003
G3 X18.7933 Y30.7068 I0.0006 J-1.0006
G0 Z3.0
G0 X19.4876 Y20.1997
G0 Z1.0
G1 F50.0 Z-1.0
G3 F120.0 X19.3003 Y20.0001 I0.0132 J-0.2001
G3 X19.5005 Y19.8002 I0.2004 J0.0005
G3 X19.5006 I0.0001 J0.2004
G1 X19.5004
G3 X19.5005 I0.0 J0.1999
G3 X19.7003 Y19.9998 I-0.0001 J0.1999
G3 X19.5003 Y20.2001 I-0.2006 J-0.0003
G3 X19.4876 Y20.1997 I0.0006 J-0.2006
G1 F50.0 X19.4349 Y20.998
G3 F120.0 X18.5003 Y20.0001 I0.066 J-0.9984
G3 X19.5004 Y19.0002 I1.0004 J0.0004
G1 X19.5005
G1 X19.5004
G3 X20.5003 Y19.9999 I0.0 J0.9999
G3 X19.5003 Y21.0001 I-1.0006 J-0.0003
G3 X19.4349 Y20.998 I0.0006 J-1.0006
G1 F50.0 X19.4876 Y20.1997
G1 Z-2.0
G3 F120.0 X19.3003 Y20.0001 I0.0132 J-0.2001
G3 X19.5005 Y19.8002 I0.2004 J0.0005
G3 X19.5006 I0.0001 J0.2004
G1 X19.5004
G3 X19.5005 I0.0 J0.1999
G3 X19.7003 Y19.9998 I-0.0001 J0.1999
G3 X19.5003 Y20.2001 I-0.2006 J-0.0003
G3 X19.4876 Y20.1997 I0.0006 J-0.2006
G1 F50.0 X19.4349 Y20.998
G3 F120.0 X18.5003 Y20.0001 I0.066 J-0.9984
G3 X19.5004 Y19.0002 I1.0004 J0.0004
G1 X19.5005
G1 X19.5004
G3 X20.5003 Y19.9999 I0.0 J0.9999
G3 X19.5003 Y21.0001 I-1.0006 J-0.0003
G3 X19.4349 Y20.998 I0.0006 J-1.0006
G0 Z3.0
G0 X13.1423 Y14.643
G0 Z1.0
G1 F50.0 Z-1.0
G3 F120.0 X13.0018 Y14.7011 I-0.1411 J-0.1425
G3 X12.8018 Y14.501 I0.0006 J-0.2006
G3 X13.002 Y14.3011 I0.2004 J0.0005
G3 X13.0021 I0.0001 J0.2004
G1 X13.0019
G3 X13.002 I0.0 J0.1999
G3 X13.2018 Y14.5008 I-0.0001 J0.1999
G3 X13.1423 Y14.643 I-0.2006 J-0.0003
G1 F50.0 X13.7052 Y15.2115
G3 F120.0 X13.0018 Y15.5011 I-0.704 J-0.711
G3 X12.0018 Y14.501 I0.0006 J-1.0006
G3 X13.002 Y13.5011 I1.0004 J0.0004
G1 X13.0019
G1 X13.002
G3 X14.0018 Y14.5009 I0.0 J0.9999
G3 X13.7052 Y15.2115 I-1.0006 J-0.0003
G1 F50.0 X13.1423 Y14.643
G1 Z-2.0
G3 F120.0 X13.0018 Y14.7011 I-0.1411 J-0.1425
G3 X12.8018 Y14.501 I0.0006 J-0.2006
G3 X13.002 Y14.3011 I0.2004 J0.0005
G3 X13.0021 I0.0001 J0.2004
G1 X13.0019
G3 X13.002 I0.0 J0.1999
G3 X13.2018 Y14.5008 I-0.0001 J0.1999
G3 X13.1423 Y14.643 I-0.2006 J-0.0003
G1 F50.0 X13.7052 Y15.2115
G3 F120.0 X13.0018 Y15.5011 I-0.704 J-0.711
G3 X12.0018 Y14.501 I0.0006 J-1.0006
G3 X13.002 Y13.5011 I1.0004 J0.0004
G1 X13.0019
G1 X13.002
G3 X14.0018 Y14.5009 I0.0 J0.9999
G3 X13.7052 Y15.2115 I-1.0006 J-0.0003
G0 Z3.0
G0 X13.0157 Y5.7002
G0 Z1.0
G1 F50.0 Z-1.0
G3 F120.0 X13.0018 Y5.7008 I-0.0145 J-0.2
G3 X12.8018 Y5.5007 I0.0006 J-0.2006
G3 X13.002 Y5.3008 I0.2004 J0.0005
G3 X13.0021 I0.0001 J0.2004
G1 X13.0019
G3 X13.002 I0.0 J0.1999
G3 X13.2018 Y5.5005 I-0.0001 J0.1999
G3 X13.0157 Y5.7002 I-0.2006 J-0.0003
G1 F50.0 X13.0736 Y6.4982
G3 F120.0 X13.0018 Y6.5008 I-0.0723 J-0.9979
G3 X12.0018 Y5.5007 I0.0006 J-1.0006
G3 X13.002 Y4.5008 I1.0004 J0.0004
G1 X13.0019
G1 X13.002
G3 X14.0018 Y5.5006 I0.0 J0.9999
G3 X13.0736 Y6.4982 I-1.0006 J-0.0003
G1 F50.0 X13.0157 Y5.7002
G1 Z-2.0
G3 F120.0 X13.0018 Y5.7008 I-0.0145 J-0.2
G3 X12.8018 Y5.5007 I0.0006 J-0.2006
G3 X13.002 Y5.3008 I0.2004 J0.0005
G3 X13.0021 I0.0001 J0.2004
G1 X13.0019
G3 X13.002 I0.0 J0.1999
G3 X13.2018 Y5.5005 I-0.0001 J0.1999
G3 X13.0157 Y5.7002 I-0.2006 J-0.0003
G1 F50.0 X13.0736 Y6.4982
G3 F120.0 X13.0018 Y6.5008 I-0.0723 J-0.9979
G3 X12.0018 Y5.5007 I0.0006 J-1.0006
G3 X13.002 Y4.5008 I1.0004 J0.0004
G1 X13.0019
G1 X13.002
G3 X14.0018 Y5.5006 I0.0 J0.9999
G3 X13.0736 Y6.4982 I-1.0006 J-0.0003
G0 Z3.0
G0 X34.3311 Y19.8937
G0 Z1.0
G1 F50.0 Z-1.0
G3 F120.0 X34.5004 Y19.8002 I0.1695 J0.1068
G3 X34.5006 I0.0001 J0.2004
G1 X34.5003
G3 X34.5004 I0.0 J0.1999
G3 X34.7002 Y19.9998 I-0.0001 J0.1999
G3 X34.5002 Y20.2001 I-0.2006 J-0.0003
G3 X34.3002 Y20.0001 I0.0006 J-0.2006
G3 X34.3311 Y19.8937 I0.2004 J0.0005
G1 F50.0 X33.6543 Y19.4672
G3 F120.0 X34.5004 Y19.0002 I0.8463 J0.5333
G1 X34.5005
G1 X34.5003
G1 X34.5004
G3 X35.5002 Y19.9999 I0.0 J0.9999
G3 X34.5002 Y21.0001 I-1.0006 J-0.0003
G3 X33.5002 Y20.0001 I0.0006 J-1.0006
G3 X33.6543 Y19.4672 I1.0004 J0.0004
G1 F50.0 X34.3311 Y19.8937
G1 Z-2.0
G3 F120.0 X34.5004 Y19.8002 I0.1695 J0.1068
G3 X34.5006 I0.0001 J0.2004
G1 X34.5003
G3 X34.5004 I0.0 J0.1999
G3 X34.7002 Y19.9998 I-0.0001 J0.1999
G3 X34.5002 Y20.2001 I-0.2006 J-0.0003
G3 X34.3002 Y20.0001 I0.0006 J-0.2006
G3 X34.3311 Y19.8937 I0.2004 J0.0005
G1 F50.0 X33.6543 Y19.4672
G3 F120.0 X34.5004 Y19.0002 I0.8463 J0.5333
G1 X34.5005
G1 X34.5003
G1 X34.5004
G3 X35.5002 Y19.9999 I0.0 J0.9999
G3 X34.5002 Y21.0001 I-1.0006 J-0.0003
G3 X33.5002 Y20.0001 I0.0006 J-1.0006
G3 X33.6543 Y19.4672 I1.0004 J0.0004
G0 Z3.0
G0 X41.7654 Y14.6037
G0 Z1.0
G1 F50.0 Z-1.0
G3 F120.0 X41.7368 Y14.501 I0.172 J-0.1031
G3 X41.937 Y14.3011 I0.2004 J0.0005
G3 X41.9372 I0.0001 J0.2004
G1 X41.9369
G3 X41.937 I0.0 J0.1999
G3 X42.1368 Y14.5008 I-0.0001 J0.1999
G3 X41.9368 Y14.7011 I-0.2006 J-0.0003
G3 X41.7654 Y14.6037 I0.0006 J-0.2006
G1 F50.0 X41.0793 Y15.0151
G3 F120.0 X40.9368 Y14.501 I0.8581 J-0.5145
G3 X41.937 Y13.5011 I1.0004 J0.0004
G1 X41.9371
G1 X41.9369
G1 X41.937
G3 X42.9368 Y14.5009 I0.0 J0.9999
G3 X41.9368 Y15.5011 I-1.0006 J-0.0003
G3 X41.0793 Y15.0151 I0.0006 J-1.0006
G1 F50.0 X41.7654 Y14.6037
G1 Z-2.0
G3 F120.0 X41.7368 Y14.501 I0.172 J-0.1031
G3 X41.937 Y14.3011 I0.2004 J0.0005
G3 X41.9372 I0.0001 J0.2004
G1 X41.9369
G3 X41.937 I0.0 J0.1999
G3 X42.1368 Y14.5008 I-0.0001 J0.1999
G3 X41.9368 Y14.7011 I-0.2006 J-0.0003
G3 X41.7654 Y14.6037 I0.0006 J-0.2006
G1 F50.0 X41.0793 Y15.0151
G3 F120.0 X40.9368 Y14.501 I0.8581 J-0.5145
G3 X41.937 Y13.5011 I1.0004 J0.0004
G1 X41.9371
G1 X41.9369
G1 X41.937
G3 X42.9368 Y14.5009 I0.0 J0.9999
G3 X41.9368 Y15.5011 I-1.0006 J-0.0003
G3 X41.0793 Y15.0151 I0.0006 J-1.0006
G0 Z3.0
G0 X41.9194 Y5.7
G0 Z1.0
G1 F50.0 Z-1.0
G3 F120.0 X41.7368 Y5.5007 I0.018 J-0.1998
G3 X41.937 Y5.3008 I0.2004 J0.0005
G3 X41.9372 I0.0001 J0.2004
G1 X41.9369
G3 X41.937 I0.0 J0.1999
G3 X42.1368 Y5.5005 I-0.0001 J0.1999
G3 X41.9368 Y5.7008 I-0.2006 J-0.0003
G3 X41.9194 Y5.7 I0.0006 J-0.2006
G1 F50.0 X41.8475 Y6.4967
G3 F120.0 X40.9368 Y5.5007 I0.0899 J-0.9965
G3 X41.937 Y4.5008 I1.0004 J0.0004
G1 X41.9371
G1 X41.9369
G1 X41.937
G3 X42.9368 Y5.5006 I0.0 J0.9999
G3 X41.9368 Y6.5008 I-1.0006 J-0.0003
G3 X41.8475 Y6.4967 I0.0006 J-1.0006
G1 F50.0 X41.9194 Y5.7
G1 Z-2.0
G3 F120.0 X41.7368 Y5.5007 I0.018 J-0.1998
G3 X41.937 Y5.3008 I0.2004 J0.0005
G3 X41.9372 I0.0001 J0.2004
G1 X41.9369
G3 X41.937 I0.0 J0.1999
G3 X42.1368 Y5.5005 I-0.0001 J0.1999
G3 X41.9368 Y5.7008 I-0.2006 J-0.0003
G3 X41.9194 Y5.7 I0.0006 J-0.2006
G1 F50.0 X41.8475 Y6.4967
G3 F120.0 X40.9368 Y5.5007 I0.0899 J-0.9965
G3 X41.937 Y4.5008 I1.0004 J0.0004
G1 X41.9371
G1 X41.9369
G1 X41.937
G3 X42.9368 Y5.5006 I0.0 J0.9999
G3 X41.9368 Y6.5008 I-1.0006 J-0.0003
G3 X41.8475 Y6.4967 I0.0006 J-1.0006
G0 Z3.0
G0 X34.56 Y29.809
G0 Z1.0
G1 F50.0 Z-1.0
G3 F120.0 X34.7002 Y29.9996 I-0.0596 J0.1908
G3 X34.5002 Y30.1999 I-0.2006 J-0.0003
G3 X34.3002 Y29.9998 I0.0006 J-0.2006
G3 X34.5004 Y29.7999 I0.2004 J0.0005
G3 X34.5006 I0.0001 J0.2004
G1 X34.5003
G3 X34.5004 I0.0 J0.1999
G3 X34.56 Y29.809 I-0.0001 J0.1999
G1 F50.0 X34.7987 Y29.0454
G3 F120.0 X35.5002 Y29.9997 I-0.2983 J0.9543
G3 X34.5002 Y30.9999 I-1.0006 J-0.0003
G3 X33.5002 Y29.9998 I0.0006 J-1.0006
G3 X34.5004 Y28.9999 I1.0004 J0.0004
G1 X34.5005
G1 X34.5003
G1 X34.5004
G3 X34.7987 Y29.0454 I0.0 J0.9999
G1 F50.0 X34.56 Y29.809
G1 Z-2.0
G3 F120.0 X34.7002 Y29.9996 I-0.0596 J0.1908
G3 X34.5002 Y30.1999 I-0.2006 J-0.0003
G3 X34.3002 Y29.9998 I0.0006 J-0.2006
G3 X34.5004 Y29.7999 I0.2004 J0.0005
G3 X34.5006 I0.0001 J0.2004
G1 X34.5003
G3 X34.5004 I0.0 J0.1999
G3 X34.56 Y29.809 I-0.0001 J0.1999
G1 F50.0 X34.7987 Y29.0454
G3 F120.0 X35.5002 Y29.9997 I-0.2983 J0.9543
G3 X34.5002 Y30.9999 I-1.0006 J-0.0003
G3 X33.5002 Y29.9998 I0.0006 J-1.0006
G3 X34.5004 Y28.9999 I1.0004 J0.0004
G1 X34.5005
G1 X34.5003
G1 X34.5004
G3 X34.7987 Y29.0454 I0.0 J0.9999
G0 Z3.0
G0 X41.7886 Y35.3667
G0 Z1.0
G1 F50.0 Z-1.0
G3 F120.0 X41.937 Y35.3007 I0.1486 J0.1344
G3 X41.9372 I0.0001 J0.2004
G1 X41.9369
G3 X41.937 I0.0 J0.1999
G3 X42.1368 Y35.5004 I-0.0001 J0.1999
G3 X41.9368 Y35.7007 I-0.2006 J-0.0003
G3 X41.7368 Y35.5006 I0.0006 J-0.2006
G3 X41.7886 Y35.3667 I0.2004 J0.0005
G1 F50.0 X41.1952 Y34.8301
G3 F120.0 X41.937 Y34.5007 I0.742 J0.671
G1 X41.9371
G1 X41.9369
G1 X41.937
G3 X42.9368 Y35.5004 I0.0 J0.9999
G3 X41.9368 Y36.5007 I-1.0006 J-0.0003
G3 X40.9368 Y35.5006 I0.0006 J-1.0006
G3 X41.1952 Y34.8301 I1.0004 J0.0004
G1 F50.0 X41.7886 Y35.3667
G1 Z-2.0
G3 F120.0 X41.937 Y35.3007 I0.1486 J0.1344
G3 X41.9372 I0.0001 J0.2004
G1 X41.9369
G3 X41.937 I0.0 J0.1999
G3 X42.1368 Y35.5004 I-0.0001 J0.1999
G3 X41.9368 Y35.7007 I-0.2006 J-0.0003
G3 X41.7368 Y35.5006 I0.0006 J-0.2006
G3 X41.7886 Y35.3667 I0.2004 J0.0005
G1 F50.0 X41.1952 Y34.8301
G3 F120.0 X41.937 Y34.5007 I0.742 J0.671
G1 X41.9371
G1 X41.9369
G1 X41.937
G3 X42.9368 Y35.5004 I0.0 J0.9999
G3 X41.9368 Y36.5007 I-1.0006 J-0.0003
G3 X40.9368 Y35.5006 I0.0006 J-1.0006
G3 X41.1952 Y34.8301 I1.0004 J0.0004
G0 Z3.0
G0 X41.9219 Y44.3016
G0 Z1.0
G1 F50.0 Z-1.0
G3 F120.0 X41.937 Y44.301 I0.0153 J0.1998
G3 X41.9372 I0.0001 J0.2004
G1 X41.9369
G3 X41.937 I0.0 J0.1999
G3 X42.1368 Y44.5007 I-0.0001 J0.1999
G3 X41.9368 Y44.701 I-0.2006 J-0.0003
G3 X41.7368 Y44.5009 I0.0006 J-0.2006
G3 X41.9219 Y44.3016 I0.2004 J0.0005
G1 F50.0 X41.8607 Y43.5039
G3 F120.0 X41.937 Y43.501 I0.0765 J0.9974
G1 X41.9371
G1 X41.9369
G1 X41.937
G3 X42.9368 Y44.5008 I0.0 J0.9999
G3 X41.9368 Y45.501 I-1.0006 J-0.0003
G3 X40.9368 Y44.5009 I0.0006 J-1.0006
G3 X41.8607 Y43.5039 I1.0004 J0.0004
G1 F50.0 X41.9219 Y44.3016
G1 Z-2.0
G3 F120.0 X41.937 Y44.301 I0.0153 J0.1998
G3 X41.9372 I0.0001 J0.2004
G1 X41.9369
G3 X41.937 I0.0 J0.1999
G3 X42.1368 Y44.5007 I-0.0001 J0.1999
G3 X41.9368 Y44.701 I-0.2006 J-0.0003
G3 X41.7368 Y44.5009 I0.0006 J-0.2006
G3 X41.9219 Y44.3016 I0.2004 J0.0005
G1 F50.0 X41.8607 Y43.5039
G3 F120.0 X41.937 Y43.501 I0.0765 J0.9974
G1 X41.9371
G1 X41.9369
G1 X41.937
G3 X42.9368 Y44.5008 I0.0 J0.9999
G3 X41.9368 Y45.501 I-1.0006 J-0.0003
G3 X40.9368 Y44.5009 I0.0006 J-1.0006
G3 X41.8607 Y43.5039 I1.0004 J0.0004
G0 Z3.0
G0 X84.3093 Y30.0599
G0 Z1.0
G1 F50.0 Z-1.0
G3 F120.0 X84.2999 Y29.9998 I0.1912 J-0.0606
G3 X84.5002 Y29.7999 I0.2004 J0.0005
G3 X84.5003 I0.0001 J0.2004
G1 X84.5
G3 X84.5002 I0.0 J0.1999
G3 X84.6999 Y29.9996 I-0.0001 J0.1999
G3 X84.4999 Y30.1999 I-0.2006 J-0.0003
G3 X84.3093 Y30.0599 I0.0006 J-0.2006
G1 F50.0 X83.5466 Y30.3014
G3 F120.0 X83.4999 Y29.9998 I0.9539 J-0.3021
G3 X84.5001 Y28.9999 I1.0004 J0.0004
G1 X84.5002
G1 X84.5
G1 X84.5001
G3 X85.4999 Y29.9997 I0.0 J0.9999
G3 X84.4999 Y30.9999 I-1.0006 J-0.0003
G3 X83.5466 Y30.3014 I0.0006 J-1.0006
G1 F50.0 X84.3093 Y30.0599
G1 Z-2.0
G3 F120.0 X84.2999 Y29.9998 I0.1912 J-0.0606
G3 X84.5002 Y29.7999 I0.2004 J0.0005
G3 X84.5003 I0.0001 J0.2004
G1 X84.5
G3 X84.5002 I0.0 J0.1999
G3 X84.6999 Y29.9996 I-0.0001 J0.1999
G3 X84.4999 Y30.1999 I-0.2006 J-0.0003
G3 X84.3093 Y30.0599 I0.0006 J-0.2006
G1 F50.0 X83.5466 Y30.3014
G3 F120.0 X83.4999 Y29.9998 I0.9539 J-0.3021
G3 X84.5001 Y28.9999 I1.0004 J0.0004
G1 X84.5002
G1 X84.5
G1 X84.5001
G3 X85.4999 Y29.9997 I0.0 J0.9999
G3 X84.4999 Y30.9999 I-1.0006 J-0.0003
G3 X83.5466 Y30.3014 I0.0006 J-1.0006
G0 Z3.0
G0 X84.482 Y20.1993
G0 Z1.0
G1 F50.0 Z-1.0
G3 F120.0 X84.2999 Y20.0001 I0.0185 J-0.1997
G3 X84.5002 Y19.8002 I0.2004 J0.0005
G3 X84.5003 I0.0001 J0.2004
G1 X84.5
G3 X84.5002 I0.0 J0.1999
G3 X84.6999 Y19.9998 I-0.0001 J0.1999
G3 X84.4999 Y20.2001 I-0.2006 J-0.0003
G3 X84.482 Y20.1993 I0.0006 J-0.2006
G1 F50.0 X84.4082 Y20.9959
G3 F120.0 X83.4999 Y20.0001 I0.0922 J-0.9963
G3 X84.5001 Y19.0002 I1.0004 J0.0004
G1 X84.5002
G1 X84.5
G1 X84.5001
G3 X85.4999 Y19.9999 I0.0 J0.9999
G3 X84.4999 Y21.0001 I-1.0006 J-0.0003
G3 X84.4082 Y20.9959 I0.0006 J-1.0006
G1 F50.0 X84.482 Y20.1993
G1 Z-2.0
G3 F120.0 X84.2999 Y20.0001 I0.0185 J-0.1997
G3 X84.5002 Y19.8002 I0.2004 J0.0005
G3 X84.5003 I0.0001 J0.2004
G1 X84.5
G3 X84.5002 I0.0 J0.1999
G3 X84.6999 Y19.9998 I-0.0001 J0.1999
G3 X84.4999 Y20.2001 I-0.2006 J-0.0003
G3 X84.482 Y20.1993 I0.0006 J-0.2006
G1 F50.0 X84.4082 Y20.9959
G3 F120.0 X83.4999 Y20.0001 I0.0922 J-0.9963
G3 X84.5001 Y19.0002 I1.0004 J0.0004
G1 X84.5002
G1 X84.5
G1 X84.5001
G3 X85.4999 Y19.9999 I0.0 J0.9999
G3 X84.4999 Y21.0001 I-1.0006 J-0.0003
G3 X84.4082 Y20.9959 I0.0006 J-1.0006
G0 Z3.0
G0 X99.3003 Y20.0128
G0 Z1.0
G1 F50.0 Z-1.0
G3 F120.0 X99.2999 Y20.0001 I0.2001 J-0.0132
G3 X99.5001 Y19.8002 I0.2004 J0.0005
G3 X99.5002 I0.0001 J0.2004
G1 X99.5
G3 X99.5001 I0.0 J0.1999
G3 X99.6999 Y19.9998 I-0.0001 J0.1999
G3 X99.4999 Y20.2001 I-0.2006 J-0.0003
G3 X99.3003 Y20.0128 I0.0006 J-0.2006
G1 F50.0 X98.5021 Y20.0655
G3 F120.0 X98.4999 Y20.0001 I0.9984 J-0.0659
G3 X99.5 Y19.0002 I1.0004 J0.0004
G1 X99.5001
G1 X99.4999
G1 X99.5
G3 X100.4999 Y19.9999 I0.0 J0.9999
G3 X99.4999 Y21.0001 I-1.0006 J-0.0003
G3 X98.5021 Y20.0655 I0.0006 J-1.0006
G1 F50.0 X99.3003 Y20.0128
G1 Z-2.0
G3 F120.0 X99.2999 Y20.0001 I0.2001 J-0.0132
G3 X99.5001 Y19.8002 I0.2004 J0.0005
G3 X99.5002 I0.0001 J0.2004
G1 X99.5
G3 X99.5001 I0.0 J0.1999
G3 X99.6999 Y19.9998 I-0.0001 J0.1999
G3 X99.4999 Y20.2001 I-0.2006 J-0.0003
G3 X99.3003 Y20.0128 I0.0006 J-0.2006
G1 F50.0 X98.5021 Y20.0655
G3 F120.0 X98.4999 Y20.0001 I0.9984 J-0.0659
G3 X99.5 Y19.0002 I1.0004 J0.0004
G1 X99.5001
G1 X99.4999
G1 X99.5
G3 X100.4999 Y19.9999 I0.0 J0.9999
G3 X99.4999 Y21.0001 I-1.0006 J-0.0003
G3 X98.5021 Y20.0655 I0.0006 J-1.0006
G0 Z3.0
G0 X105.8403 Y14.62
G0 Z1.0
G1 F50.0 Z-1.0
G3 F120.0 X105.8008 Y14.501 I0.1611 J-0.1195
G3 X106.001 Y14.3011 I0.2004 J0.0005
G3 X106.0011 I0.0001 J0.2004
G1 X106.0009
G3 X106.001 I0.0 J0.1999
G3 X106.2008 Y14.5008 I-0.0001 J0.1999
G3 X106.0008 Y14.7011 I-0.2006 J-0.0003
G3 X105.8403 Y14.62 I0.0006 J-0.2006
G1 F50.0 X105.1978 Y15.0968
G3 F120.0 X105.0008 Y14.501 I0.8035 J-0.5962
G3 X106.0009 Y13.5011 I1.0004 J0.0004
G1 X106.001
G1 X106.0008
G1 X106.0009
G3 X107.0008 Y14.5009 I0.0 J0.9999
G3 X106.0008 Y15.5011 I-1.0006 J-0.0003
G3 X105.1978 Y15.0968 I0.0006 J-1.0006
G1 F50.0 X105.8403 Y14.62
G1 Z-2.0
G3 F120.0 X105.8008 Y14.501 I0.1611 J-0.1195
G3 X106.001 Y14.3011 I0.2004 J0.0005
G3 X106.0011 I0.0001 J0.2004
G1 X106.0009
G3 X106.001 I0.0 J0.1999
G3 X106.2008 Y14.5008 I-0.0001 J0.1999
G3 X106.0008 Y14.7011 I-0.2006 J-0.0003
G3 X105.8403 Y14.62 I0.0006 J-0.2006
G1 F50.0 X105.1978 Y15.0968
G3 F120.0 X105.0008 Y14.501 I0.8035 J-0.5962
G3 X106.0009 Y13.5011 I1.0004 J0.0004
G1 X106.001
G1 X106.0008
G1 X106.0009
G3 X107.0008 Y14.5009 I0.0 J0.9999
G3 X106.0008 Y15.5011 I-1.0006 J-0.0003
G3 X105.1978 Y15.0968 I0.0006 J-1.0006
G0 Z3.0
G0 X105.9846 Y5.7001
G0 Z1.0
G1 F50.0 Z-1.0
G3 F120.0 X105.8008 Y5.5007 I0.0167 J-0.1999
G3 X106.0009 Y5.3008 I0.2004 J0.0005
G3 X106.2004 Y5.5006 I-0.0003 J0.1998
G1 Y5.501
G3 X106.001 Y5.7008 I-0.1998 J0.0
G3 X105.9846 Y5.7001 I0.0004 J-0.2006
G1 F50.0 X105.9179 Y6.4973
G3 F120.0 X105.0008 Y5.5007 I0.0835 J-0.9971
G3 X106.0008 Y4.5008 I1.0004 J0.0004
G3 X107.0004 Y5.5007 I-0.0002 J0.9998
G1 Y5.5009
G3 X106.0009 Y6.5008 I-0.9998 J0.0001
G3 X105.9179 Y6.4973 I0.0004 J-1.0006
G1 F50.0 X105.9846 Y5.7001
G1 Z-2.0
G3 F120.0 X105.8008 Y5.5007 I0.0167 J-0.1999
G3 X106.0009 Y5.3008 I0.2004 J0.0005
G3 X106.2004 Y5.5006 I-0.0003 J0.1998
G1 Y5.501
G3 X106.001 Y5.7008 I-0.1998 J0.0
G3 X105.9846 Y5.7001 I0.0004 J-0.2006
G1 F50.0 X105.9179 Y6.4973
G3 F120.0 X105.0008 Y5.5007 I0.0835 J-0.9971
G3 X106.0008 Y4.5008 I1.0004 J0.0004
G3 X107.0004 Y5.5007 I-0.0002 J0.9998
G1 Y5.5009
G3 X106.0009 Y6.5008 I-0.9998 J0.0001
G3 X105.9179 Y6.4973 I0.0004 J-1.0006
G0 Z3.0
G0 X99.5526 Y29.807
G0 Z1.0
G1 F50.0 Z-1.0
G3 F120.0 X99.6999 Y29.9996 I-0.0527 J0.1928
G3 X99.4999 Y30.1999 I-0.2006 J-0.0003
G3 X99.2999 Y29.9998 I0.0006 J-0.2006
G3 X99.5001 Y29.7999 I0.2004 J0.0005
G3 X99.5002 I0.0001 J0.2004
G1 X99.5
G3 X99.5001 I0.0 J0.1999
G3 X99.5526 Y29.807 I-0.0001 J0.1999
G1 F50.0 X99.7634 Y29.0352
G3 F120.0 X100.4999 Y29.9997 I-0.2634 J0.9646
G3 X99.4999 Y30.9999 I-1.0006 J-0.0003
G3 X98.4999 Y29.9998 I0.0006 J-1.0006
G3 X99.5 Y28.9999 I1.0004 J0.0004
G1 X99.5001
G1 X99.4999
G1 X99.5
G3 X99.7634 Y29.0352 I0.0 J0.9999
G1 F50.0 X99.5526 Y29.807
G1 Z-2.0
G3 F120.0 X99.6999 Y29.9996 I-0.0527 J0.1928
G3 X99.4999 Y30.1999 I-0.2006 J-0.0003
G3 X99.2999 Y29.9998 I0.0006 J-0.2006
G3 X99.5001 Y29.7999 I0.2004 J0.0005
G3 X99.5002 I0.0001 J0.2004
G1 X99.5
G3 X99.5001 I0.0 J0.1999
G3 X99.5526 Y29.807 I-0.0001 J0.1999
G1 F50.0 X99.7634 Y29.0352
G3 F120.0 X100.4999 Y29.9997 I-0.2634 J0.9646
G3 X99.4999 Y30.9999 I-1.0006 J-0.0003
G3 X98.4999 Y29.9998 I0.0006 J-1.0006
G3 X99.5 Y28.9999 I1.0004 J0.0004
G1 X99.5001
G1 X99.4999
G1 X99.5
G3 X99.7634 Y29.0352 I0.0 J0.9999
G0 Z3.0
G0 X105.862 Y35.3569
G0 Z1.0
G1 F50.0 Z-1.0
G3 F120.0 X106.001 Y35.3007 I0.1391 J0.1442
G3 X106.0011 I0.0001 J0.2004
G1 X106.0009
G3 X106.001 I0.0 J0.1999
G3 X106.2008 Y35.5004 I-0.0001 J0.1999
G3 X106.0008 Y35.7007 I-0.2006 J-0.0003
G3 X105.8008 Y35.5006 I0.0006 J-0.2006
G3 X105.862 Y35.3569 I0.2004 J0.0005
G1 F50.0 X105.3066 Y34.7811
G3 F120.0 X106.0009 Y34.5007 I0.6946 J0.7199
G1 X106.001
G1 X106.0008
G1 X106.0009
G3 X107.0008 Y35.5004 I0.0 J0.9999
G3 X106.0008 Y36.5007 I-1.0006 J-0.0003
G3 X105.0008 Y35.5006 I0.0006 J-1.0006
G3 X105.3066 Y34.7811 I1.0004 J0.0004
G1 F50.0 X105.862 Y35.3569
G1 Z-2.0
G3 F120.0 X106.001 Y35.3007 I0.1391 J0.1442
G3 X106.0011 I0.0001 J0.2004
G1 X106.0009
G3 X106.001 I0.0 J0.1999
G3 X106.2008 Y35.5004 I-0.0001 J0.1999
G3 X106.0008 Y35.7007 I-0.2006 J-0.0003
G3 X105.8008 Y35.5006 I0.0006 J-0.2006
G3 X105.862 Y35.3569 I0.2004 J0.0005
G1 F50.0 X105.3066 Y34.7811
G3 F120.0 X106.0009 Y34.5007 I0.6946 J0.7199
G1 X106.001
G1 X106.0008
G1 X106.0009
G3 X107.0008 Y35.5004 I0.0 J0.9999
G3 X106.0008 Y36.5007 I-1.0006 J-0.0003
G3 X105.0008 Y35.5006 I0.0006 J-1.0006
G3 X105.3066 Y34.7811 I1.0004 J0.0004
G0 Z3.0
G0 X105.9869 Y44.3015
G0 Z1.0
G1 F50.0 Z-1.0
G3 F120.0 X106.001 Y44.301 I0.0143 J0.1999
G3 X106.0011 I0.0001 J0.2004
G1 X106.0009
G3 X106.001 I0.0 J0.1999
G3 X106.2008 Y44.5007 I-0.0001 J0.1999
G3 X106.0008 Y44.701 I-0.2006 J-0.0003
G3 X105.8008 Y44.5009 I0.0006 J-0.2006
G3 X105.9869 Y44.3015 I0.2004 J0.0005
G1 F50.0 X105.9298 Y43.5035
G3 F120.0 X106.0009 Y43.501 I0.0713 J0.9978
G1 X106.001
G1 X106.0008
G1 X106.0009
G3 X107.0008 Y44.5008 I0.0 J0.9999
G3 X106.0008 Y45.501 I-1.0006 J-0.0003
G3 X105.0008 Y44.5009 I0.0006 J-1.0006
G3 X105.9298 Y43.5035 I1.0004 J0.0004
G1 F50.0 X105.9869 Y44.3015
G1 Z-2.0
G3 F120.0 X106.001 Y44.301 I0.0143 J0.1999
G3 X106.0011 I0.0001 J0.2004
G1 X106.0009
G3 X106.001 I0.0 J0.1999
G3 X106.2008 Y44.5007 I-0.0001 J0.1999
G3 X106.0008 Y44.701 I-0.2006 J-0.0003
G3 X105.8008 Y44.5009 I0.0006 J-0.2006
G3 X105.9869 Y44.3015 I0.2004 J0.0005
G1 F50.0 X105.9298 Y43.5035
G3 F120.0 X106.0009 Y43.501 I0.0713 J0.9978
G1 X106.001
G1 X106.0008
G1 X106.0009
G3 X107.0008 Y44.5008 I0.0 J0.9999
G3 X106.0008 Y45.501 I-1.0006 J-0.0003
G3 X105.0008 Y44.5009 I0.0006 J-1.0006
G3 X105.9298 Y43.5035 I1.0004 J0.0004
G0 Z3.0
M5
M30
