( Made using CamBam - http://www.cambam.co.uk )
( picker front plate v2 9/26/2013 1:58:28 PM )
( T4 : 4.0 )
G21 G90 G64 G40
G0 Z3.0
( T4 : 4.0 )
T4 M6
( Profile1 )
G17
M3 S1000
G0 X18.0515 Y9.6647
G0 Z1.0
G1 F50.0 Z-1.0
G2 F120.0 X19.2023 Y8.0162 I-5.1216 J-4.8012
G2 X19.2025 Y8.0157 I-1.787 J-0.8982
G2 X19.6517 Y6.8845 I-6.22 J-3.1243
G1 X35.6523
G2 X37.1669 Y9.6143 I6.7119 J-1.9389
G1 Y9.8302
G2 X35.5402 Y12.9999 I5.1947 J4.6682
G1 X19.7914
G2 X18.0515 Y9.6647 I-6.8367 J1.4451
G1 F50.0 Z-2.0
G2 F120.0 X19.2023 Y8.0162 I-5.1216 J-4.8012
G2 X19.2025 Y8.0157 I-1.787 J-0.8982
G2 X19.6517 Y6.8845 I-6.22 J-3.1243
G1 X35.6523
G2 X37.1669 Y9.6143 I6.7119 J-1.9389
G1 Y9.8302
G2 X35.5402 Y12.9999 I5.1947 J4.6682
G1 X19.7914
G2 X18.0515 Y9.6647 I-6.8367 J1.4451
G1 F50.0 Z-3.0
G2 F120.0 X19.2023 Y8.0162 I-5.1216 J-4.8012
G2 X19.2025 Y8.0157 I-1.787 J-0.8982
G2 X19.6517 Y6.8845 I-6.22 J-3.1243
G1 X35.6523
G2 X37.1669 Y9.6143 I6.7119 J-1.9389
G1 Y9.8302
G2 X35.5402 Y12.9999 I5.1947 J4.6682
G1 X19.7914
G2 X18.0515 Y9.6647 I-6.8367 J1.4451
G1 F50.0 Z-4.0
G2 F120.0 X19.2023 Y8.0162 I-5.1216 J-4.8012
G2 X19.2025 Y8.0157 I-1.787 J-0.8982
G2 X19.6517 Y6.8845 I-6.22 J-3.1243
G1 X35.6523
G2 X37.1669 Y9.6143 I6.7119 J-1.9389
G1 Y9.8302
G2 X35.5402 Y12.9999 I5.1947 J4.6682
G1 X19.7914
G2 X18.0515 Y9.6647 I-6.8367 J1.4451
G1 F50.0 Z-4.5
G2 F120.0 X19.2023 Y8.0162 I-5.1216 J-4.8012
G2 X19.2025 Y8.0157 I-1.787 J-0.8982
G2 X19.6517 Y6.8845 I-6.22 J-3.1243
G1 X35.6523
G2 X37.1669 Y9.6143 I6.7119 J-1.9389
G1 Y9.8302
G2 X35.5402 Y12.9999 I5.1947 J4.6682
G1 X19.7914
G2 X18.0515 Y9.6647 I-6.8367 J1.4451
( Profile2 )
S1000
G0 Z3.0
G0 X18.2977 Y39.9453
G0 Z1.0
G1 F50.0 Z-1.0
G2 F120.0 X19.2007 Y38.5782 I-5.3712 J-4.5293
G2 X19.2017 Y38.5762 I-1.786 J-0.9001
G2 X19.7682 Y37.0001 I-6.2172 J-3.1247
G1 X35.5403
G2 X37.0221 Y40.0036 I6.8197 J-1.4973
G2 X36.119 Y41.3711 I5.3712 J4.5292
G2 X36.1177 Y41.3735 I1.786 J0.9
G2 X35.6691 Y42.5034 I6.2193 J3.1232
G1 X19.6679
G2 X19.2016 Y41.3149 I-6.6797 J1.9346
G2 X19.2011 Y41.3139 I-1.787 J0.8982
G2 X18.2977 Y39.9453 I-6.2665 J3.1542
G1 F50.0 Z-2.0
G2 F120.0 X19.2007 Y38.5782 I-5.3712 J-4.5293
G2 X19.2017 Y38.5762 I-1.786 J-0.9001
G2 X19.7682 Y37.0001 I-6.2172 J-3.1247
G1 X35.5403
G2 X37.0221 Y40.0036 I6.8197 J-1.4973
G2 X36.119 Y41.3711 I5.3712 J4.5292
G2 X36.1177 Y41.3735 I1.786 J0.9
G2 X35.6691 Y42.5034 I6.2193 J3.1232
G1 X19.6679
G2 X19.2016 Y41.3149 I-6.6797 J1.9346
G2 X19.2011 Y41.3139 I-1.787 J0.8982
G2 X18.2977 Y39.9453 I-6.2665 J3.1542
G1 F50.0 Z-3.0
G2 F120.0 X19.2007 Y38.5782 I-5.3712 J-4.5293
G2 X19.2017 Y38.5762 I-1.786 J-0.9001
G2 X19.7682 Y37.0001 I-6.2172 J-3.1247
G1 X35.5403
G2 X37.0221 Y40.0036 I6.8197 J-1.4973
G2 X36.119 Y41.3711 I5.3712 J4.5292
G2 X36.1177 Y41.3735 I1.786 J0.9
G2 X35.6691 Y42.5034 I6.2193 J3.1232
G1 X19.6679
G2 X19.2016 Y41.3149 I-6.6797 J1.9346
G2 X19.2011 Y41.3139 I-1.787 J0.8982
G2 X18.2977 Y39.9453 I-6.2665 J3.1542
G1 F50.0 Z-4.0
G2 F120.0 X19.2007 Y38.5782 I-5.3712 J-4.5293
G2 X19.2017 Y38.5762 I-1.786 J-0.9001
G2 X19.7682 Y37.0001 I-6.2172 J-3.1247
G1 X35.5403
G2 X37.0221 Y40.0036 I6.8197 J-1.4973
G2 X36.119 Y41.3711 I5.3712 J4.5292
G2 X36.1177 Y41.3735 I1.786 J0.9
G2 X35.6691 Y42.5034 I6.2193 J3.1232
G1 X19.6679
G2 X19.2016 Y41.3149 I-6.6797 J1.9346
G2 X19.2011 Y41.3139 I-1.787 J0.8982
G2 X18.2977 Y39.9453 I-6.2665 J3.1542
G1 F50.0 Z-4.5
G2 F120.0 X19.2007 Y38.5782 I-5.3712 J-4.5293
G2 X19.2017 Y38.5762 I-1.786 J-0.9001
G2 X19.7682 Y37.0001 I-6.2172 J-3.1247
G1 X35.5403
G2 X37.0221 Y40.0036 I6.8197 J-1.4973
G2 X36.119 Y41.3711 I5.3712 J4.5292
G2 X36.1177 Y41.3735 I1.786 J0.9
G2 X35.6691 Y42.5034 I6.2193 J3.1232
G1 X19.6679
G2 X19.2016 Y41.3149 I-6.6797 J1.9346
G2 X19.2011 Y41.3139 I-1.787 J0.8982
G2 X18.2977 Y39.9453 I-6.2665 J3.1542
( Profile3 )
S1000
G0 Z3.0
G0 X47.7309 Y29.9484
G0 Z1.0
G1 F50.0 Z-1.0
G1 F120.0 Y20.0512
G1 X52.6796 Y24.9997
G1 X47.7309 Y29.9484
G1 F50.0 Z-2.0
G1 F120.0 Y20.0512
G1 X52.6796 Y24.9997
G1 X47.7309 Y29.9484
G1 F50.0 Z-3.0
G1 F120.0 Y20.0512
G1 X52.6796 Y24.9997
G1 X47.7309 Y29.9484
G1 F50.0 Z-4.0
G1 F120.0 Y20.0512
G1 X52.6796 Y24.9997
G1 X47.7309 Y29.9484
G1 F50.0 Z-4.5
G1 F120.0 Y20.0512
G1 X52.6796 Y24.9997
G1 X47.7309 Y29.9484
( Profile4 )
S1000
G0 Z3.0
G0 X67.3315 Y21.6615
G0 Z1.0
G1 F50.0 Z-1.0
G1 F120.0 Y28.3379
G1 X63.9933 Y24.9997
G1 X67.3315 Y21.6615
G1 F50.0 Z-2.0
G1 F120.0 Y28.3379
G1 X63.9933 Y24.9997
G1 X67.3315 Y21.6615
G1 F50.0 Z-3.0
G1 F120.0 Y28.3379
G1 X63.9933 Y24.9997
G1 X67.3315 Y21.6615
G1 F50.0 Z-4.0
G1 F120.0 Y28.3379
G1 X63.9933 Y24.9997
G1 X67.3315 Y21.6615
G1 F50.0 Z-4.5
G1 F120.0 Y28.3379
G1 X63.9933 Y24.9997
G1 X67.3315 Y21.6615
( Profile5 )
S1000
G0 Z3.0
G0 X66.0835 Y38.4035
G0 Z1.0
G1 F50.0 Z-1.0
G2 F120.0 X67.3308 Y39.9428 I5.2403 J-2.9712
G2 X65.6375 Y42.4459 I3.9599 J4.5032
G1 X49.4192
G2 X48.4784 Y40.5146 I-6.6692 J2.054
G1 X58.3365 Y30.6565
G1 X66.0835 Y38.4035
G1 F50.0 Z-2.0
G2 F120.0 X67.3308 Y39.9428 I5.2403 J-2.9712
G2 X65.6375 Y42.4459 I3.9599 J4.5032
G1 X49.4192
G2 X48.4784 Y40.5146 I-6.6692 J2.054
G1 X58.3365 Y30.6565
G1 X66.0835 Y38.4035
G1 F50.0 Z-3.0
G2 F120.0 X67.3308 Y39.9428 I5.2403 J-2.9712
G2 X65.6375 Y42.4459 I3.9599 J4.5032
G1 X49.4192
G2 X48.4784 Y40.5146 I-6.6692 J2.054
G1 X58.3365 Y30.6565
G1 X66.0835 Y38.4035
G1 F50.0 Z-4.0
G2 F120.0 X67.3308 Y39.9428 I5.2403 J-2.9712
G2 X65.6375 Y42.4459 I3.9599 J4.5032
G1 X49.4192
G2 X48.4784 Y40.5146 I-6.6692 J2.054
G1 X58.3365 Y30.6565
G1 X66.0835 Y38.4035
G1 F50.0 Z-4.5
G2 F120.0 X67.3308 Y39.9428 I5.2403 J-2.9712
G2 X65.6375 Y42.4459 I3.9599 J4.5032
G1 X49.4192
G2 X48.4784 Y40.5146 I-6.6692 J2.054
G1 X58.3365 Y30.6565
G1 X66.0835 Y38.4035
( Profile6 )
S1000
G0 Z3.0
G0 X49.4393 Y6.942
G0 Z1.0
G1 F50.0 Z-1.0
G1 F120.0 X65.4831
G2 X66.1163 Y8.4756 I5.7857 J-1.4911
G2 X66.1168 Y8.4765 I1.7248 J-1.0125
G2 X67.3298 Y9.946 I5.1965 J-3.054
G2 X65.9436 Y11.7361 I3.9808 J4.5145
G1 X58.3365 Y19.3429
G1 X48.2435 Y9.2501
G2 X48.9893 Y8.0752 I-5.5394 J-4.3405
G2 X48.9904 Y8.073 I-1.7862 J-0.8997
G2 X49.4393 Y6.942 I-6.2221 J-3.1244
G1 F50.0 Z-2.0
G1 F120.0 X65.4831
G2 X66.1163 Y8.4756 I5.7857 J-1.4911
G2 X66.1168 Y8.4765 I1.7248 J-1.0125
G2 X67.3298 Y9.946 I5.1965 J-3.054
G2 X65.9436 Y11.7361 I3.9808 J4.5145
G1 X58.3365 Y19.3429
G1 X48.2435 Y9.2501
G2 X48.9893 Y8.0752 I-5.5394 J-4.3405
G2 X48.9904 Y8.073 I-1.7862 J-0.8997
G2 X49.4393 Y6.942 I-6.2221 J-3.1244
G1 F50.0 Z-3.0
G1 F120.0 X65.4831
G2 X66.1163 Y8.4756 I5.7857 J-1.4911
G2 X66.1168 Y8.4765 I1.7248 J-1.0125
G2 X67.3298 Y9.946 I5.1965 J-3.054
G2 X65.9436 Y11.7361 I3.9808 J4.5145
G1 X58.3365 Y19.3429
G1 X48.2435 Y9.2501
G2 X48.9893 Y8.0752 I-5.5394 J-4.3405
G2 X48.9904 Y8.073 I-1.7862 J-0.8997
G2 X49.4393 Y6.942 I-6.2221 J-3.1244
G1 F50.0 Z-4.0
G1 F120.0 X65.4831
G2 X66.1163 Y8.4756 I5.7857 J-1.4911
G2 X66.1168 Y8.4765 I1.7248 J-1.0125
G2 X67.3298 Y9.946 I5.1965 J-3.054
G2 X65.9436 Y11.7361 I3.9808 J4.5145
G1 X58.3365 Y19.3429
G1 X48.2435 Y9.2501
G2 X48.9893 Y8.0752 I-5.5394 J-4.3405
G2 X48.9904 Y8.073 I-1.7862 J-0.8997
G2 X49.4393 Y6.942 I-6.2221 J-3.1244
G1 F50.0 Z-4.5
G1 F120.0 X65.4831
G2 X66.1163 Y8.4756 I5.7857 J-1.4911
G2 X66.1168 Y8.4765 I1.7248 J-1.0125
G2 X67.3298 Y9.946 I5.1965 J-3.054
G2 X65.9436 Y11.7361 I3.9808 J4.5145
G1 X58.3365 Y19.3429
G1 X48.2435 Y9.2501
G2 X48.9893 Y8.0752 I-5.5394 J-4.3405
G2 X48.9904 Y8.073 I-1.7862 J-0.8997
G2 X49.4393 Y6.942 I-6.2221 J-3.1244
( Profile7 )
S1000
G0 Z3.0
G0 X99.9982 Y39.9451
G0 Z1.0
G1 F50.0 Z-1.0
G2 F120.0 X99.0944 Y41.3134 I5.3706 J4.5301
G2 X99.0937 Y41.3147 I1.786 J0.9
G2 X98.6441 Y42.4459 I6.2061 J3.1216
G1 X78.0103
G2 X76.6232 Y40.2315 I-5.6517 J1.9987
G1 Y39.6598
G2 X78.0104 Y37.4456 I-4.2631 J-4.2125
G1 X98.6444
G2 X99.0943 Y38.5768 I6.6535 J-1.9909
G2 X99.0952 Y38.5788 I1.7865 J-0.8991
G2 X99.9982 Y39.9451 I6.2832 J-3.1709
G1 F50.0 Z-2.0
G2 F120.0 X99.0944 Y41.3134 I5.3706 J4.5301
G2 X99.0937 Y41.3147 I1.786 J0.9
G2 X98.6441 Y42.4459 I6.2061 J3.1216
G1 X78.0103
G2 X76.6232 Y40.2315 I-5.6517 J1.9987
G1 Y39.6598
G2 X78.0104 Y37.4456 I-4.2631 J-4.2125
G1 X98.6444
G2 X99.0943 Y38.5768 I6.6535 J-1.9909
G2 X99.0952 Y38.5788 I1.7865 J-0.8991
G2 X99.9982 Y39.9451 I6.2832 J-3.1709
G1 F50.0 Z-3.0
G2 F120.0 X99.0944 Y41.3134 I5.3706 J4.5301
G2 X99.0937 Y41.3147 I1.786 J0.9
G2 X98.6441 Y42.4459 I6.2061 J3.1216
G1 X78.0103
G2 X76.6232 Y40.2315 I-5.6517 J1.9987
G1 Y39.6598
G2 X78.0104 Y37.4456 I-4.2631 J-4.2125
G1 X98.6444
G2 X99.0943 Y38.5768 I6.6535 J-1.9909
G2 X99.0952 Y38.5788 I1.7865 J-0.8991
G2 X99.9982 Y39.9451 I6.2832 J-3.1709
G1 F50.0 Z-4.0
G2 F120.0 X99.0944 Y41.3134 I5.3706 J4.5301
G2 X99.0937 Y41.3147 I1.786 J0.9
G2 X98.6441 Y42.4459 I6.2061 J3.1216
G1 X78.0103
G2 X76.6232 Y40.2315 I-5.6517 J1.9987
G1 Y39.6598
G2 X78.0104 Y37.4456 I-4.2631 J-4.2125
G1 X98.6444
G2 X99.0943 Y38.5768 I6.6535 J-1.9909
G2 X99.0952 Y38.5788 I1.7865 J-0.8991
G2 X99.9982 Y39.9451 I6.2832 J-3.1709
G1 F50.0 Z-4.5
G2 F120.0 X99.0944 Y41.3134 I5.3706 J4.5301
G2 X99.0937 Y41.3147 I1.786 J0.9
G2 X98.6441 Y42.4459 I6.2061 J3.1216
G1 X78.0103
G2 X76.6232 Y40.2315 I-5.6517 J1.9987
G1 Y39.6598
G2 X78.0104 Y37.4456 I-4.2631 J-4.2125
G1 X98.6444
G2 X99.0943 Y38.5768 I6.6535 J-1.9909
G2 X99.0952 Y38.5788 I1.7865 J-0.8991
G2 X99.9982 Y39.9451 I6.2832 J-3.1709
( Profile8 )
S1000
G0 Z3.0
G0 X100.2454 Y9.665
G0 Z1.0
G1 F50.0 Z-1.0
G2 F120.0 X99.0945 Y11.3119 I5.1367 J4.8152
G2 X99.0932 Y11.3145 I1.7861 J0.9
G2 X98.6442 Y12.446 I6.2228 J3.1244
G1 X78.0103
G2 X76.6232 Y10.2316 I-5.6517 J1.9987
G1 Y9.6599
G2 X78.1785 Y6.8845 I-4.2631 J-4.2125
G1 X98.6446
G2 X99.0935 Y8.0154 I6.6748 J-1.9949
G2 X99.0944 Y8.0173 I1.7874 J-0.8974
G2 X100.2454 Y9.665 I6.2813 J-3.1619
G1 F50.0 Z-2.0
G2 F120.0 X99.0945 Y11.3119 I5.1367 J4.8152
G2 X99.0932 Y11.3145 I1.7861 J0.9
G2 X98.6442 Y12.446 I6.2228 J3.1244
G1 X78.0103
G2 X76.6232 Y10.2316 I-5.6517 J1.9987
G1 Y9.6599
G2 X78.1785 Y6.8845 I-4.2631 J-4.2125
G1 X98.6446
G2 X99.0935 Y8.0154 I6.6748 J-1.9949
G2 X99.0944 Y8.0173 I1.7874 J-0.8974
G2 X100.2454 Y9.665 I6.2813 J-3.1619
G1 F50.0 Z-3.0
G2 F120.0 X99.0945 Y11.3119 I5.1367 J4.8152
G2 X99.0932 Y11.3145 I1.7861 J0.9
G2 X98.6442 Y12.446 I6.2228 J3.1244
G1 X78.0103
G2 X76.6232 Y10.2316 I-5.6517 J1.9987
G1 Y9.6599
G2 X78.1785 Y6.8845 I-4.2631 J-4.2125
G1 X98.6446
G2 X99.0935 Y8.0154 I6.6748 J-1.9949
G2 X99.0944 Y8.0173 I1.7874 J-0.8974
G2 X100.2454 Y9.665 I6.2813 J-3.1619
G1 F50.0 Z-4.0
G2 F120.0 X99.0945 Y11.3119 I5.1367 J4.8152
G2 X99.0932 Y11.3145 I1.7861 J0.9
G2 X98.6442 Y12.446 I6.2228 J3.1244
G1 X78.0103
G2 X76.6232 Y10.2316 I-5.6517 J1.9987
G1 Y9.6599
G2 X78.1785 Y6.8845 I-4.2631 J-4.2125
G1 X98.6446
G2 X99.0935 Y8.0154 I6.6748 J-1.9949
G2 X99.0944 Y8.0173 I1.7874 J-0.8974
G2 X100.2454 Y9.665 I6.2813 J-3.1619
G1 F50.0 Z-4.5
G2 F120.0 X99.0945 Y11.3119 I5.1367 J4.8152
G2 X99.0932 Y11.3145 I1.7861 J0.9
G2 X98.6442 Y12.446 I6.2228 J3.1244
G1 X78.0103
G2 X76.6232 Y10.2316 I-5.6517 J1.9987
G1 Y9.6599
G2 X78.1785 Y6.8845 I-4.2631 J-4.2125
G1 X98.6446
G2 X99.0935 Y8.0154 I6.6748 J-1.9949
G2 X99.0944 Y8.0173 I1.7874 J-0.8974
G2 X100.2454 Y9.665 I6.2813 J-3.1619
G0 Z3.0
M5
M30
