( Made using CamBam - http://www.cambam.co.uk )
( picker front plate v2 9/26/2013 1:58:20 PM )
( T4 : 4.0 )
G21 G90 G64 G40
G0 Z3.0
( T4 : 4.0 )
T4 M6
( Cutout )
G17
M3 S1000
G0 X109.0001 Y-2.0
G0 Z1.0
G1 F50.0 Z-1.0
G1 F120.0 X0.0
G2 X-2.0 Y0.0 I0.0 J2.0
G1 Y50.0
G2 X0.0 Y52.0 I2.0 J0.0
G1 X109.0001
G2 X111.0001 Y50.0 I0.0 J-2.0
G1 Y0.0
G2 X109.0001 Y-2.0 I-2.0 J0.0
G1 F50.0 Z-2.0
G1 F120.0 X0.0
G2 X-2.0 Y0.0 I0.0 J2.0
G1 Y50.0
G2 X0.0 Y52.0 I2.0 J0.0
G1 X109.0001
G2 X111.0001 Y50.0 I0.0 J-2.0
G1 Y0.0
G2 X109.0001 Y-2.0 I-2.0 J0.0
G1 F50.0 Z-3.0
G1 F120.0 X0.0
G2 X-2.0 Y0.0 I0.0 J2.0
G1 Y50.0
G2 X0.0 Y52.0 I2.0 J0.0
G1 X109.0001
G2 X111.0001 Y50.0 I0.0 J-2.0
G1 Y0.0
G2 X109.0001 Y-2.0 I-2.0 J0.0
G1 F50.0 Z-4.0
G1 F120.0 X0.0
G2 X-2.0 Y0.0 I0.0 J2.0
G1 Y50.0
G2 X0.0 Y52.0 I2.0 J0.0
G1 X109.0001
G2 X111.0001 Y50.0 I0.0 J-2.0
G1 Y0.0
G2 X109.0001 Y-2.0 I-2.0 J0.0
G1 F50.0 Z-4.5
G1 F120.0 X0.0
G2 X-2.0 Y0.0 I0.0 J2.0
G1 Y50.0
G2 X0.0 Y52.0 I2.0 J0.0
G1 X109.0001
G2 X111.0001 Y50.0 I0.0 J-2.0
G1 Y0.0
G2 X109.0001 Y-2.0 I-2.0 J0.0
G0 Z3.0
M5
M30
