( Made using CamBam - http://www.cambam.co.uk )
( picker head - front plate 9/1/2013 2:40:21 PM )
( T16 : 1.0 )
G21 G90 G64 G40
G0 Z3.0
( T16 : 1.0 )
T16 M6
( Spot Drill )
G17
M3 S1000
G0 X6.0 Y44.446
G98
G83 X6.0 Y44.446 Z-1.0 Q1.0 R2.0 F50.0
G83 X14.0009 Z-1.0
G83 Y35.4457 Z-1.0
G83 X19.5003 Y30.0001 Z-1.0
G83 Y20.0002 Z-1.0
G83 X14.0005 Y14.446 Z-1.0
G83 X6.0 Z-1.0
G83 Y5.4457 Z-1.0
G83 X14.0009 Y4.8845 Z-1.0
G83 X34.5002 Y20.0002 Z-1.0
G83 Y30.0001 Z-1.0
G83 X43.4358 Y35.5031 Z-1.0
G83 Y44.5034 Z-1.0
G83 X72.0003 Y44.4459 Z-1.0
G83 Y35.4456 Z-1.0
G83 X84.5001 Y29.9999 Z-1.0
G83 Y20.0002 Z-1.0
G83 X72.0003 Y14.446 Z-1.0
G83 Y5.4457 Z-1.0
G83 X43.4358 Y4.942 Z-1.0
G83 X43.4354 Y14.5035 Z-1.0
G83 X6.0 Y35.4457 Z-1.0
G83 X99.5 Y29.9999 Z-1.0
G83 X105.0001 Y35.4456 Z-1.0
G83 Y44.4459 Z-1.0
G83 X99.5 Y20.0002 Z-1.0
G83 X105.0001 Y14.446 Z-1.0
G83 Y4.8845 Z-1.0
G80
G0 Z3.0
M5
M30
