( Made using CamBam - http://www.cambam.co.uk )
( picker head - front plate 9/1/2013 2:40:46 PM )
( T4 : 4.0 )
G21 G90 G64 G40
G0 Z3.0
( T4 : 4.0 )
T4 M6
( 4mm mill pocket 1 )
G17
M3 S1000
G0 X14.0017 Y4.6845
G0 Z1.0
G1 F50.0 Z-1.0
G3 F100.0 X14.2015 Y4.8841 I0.0 J0.1999
G3 X14.0017 Y5.0844 I-0.2006 J-0.0003
G3 X13.8012 Y4.8841 I0.0007 J-0.2011
G3 X14.0016 Y4.6845 I0.2004 J0.0007
G1 X14.0017
G1 F50.0 X14.0016 Y3.8845
G3 F100.0 X15.0015 Y4.8842 I0.0 J0.9999
G3 X14.0016 Y5.8844 I-1.0006 J-0.0003
G3 X13.0012 Y4.8842 I0.0007 J-1.0011
G3 X14.0016 Y3.8845 I1.0004 J0.0006
G1 F50.0 X14.0017 Y4.6845
G1 Z-2.0
G3 F100.0 X14.2015 Y4.8841 I0.0 J0.1999
G3 X14.0017 Y5.0844 I-0.2006 J-0.0003
G3 X13.8012 Y4.8841 I0.0007 J-0.2011
G3 X14.0016 Y4.6845 I0.2004 J0.0007
G1 X14.0017
G1 F50.0 X14.0016 Y3.8845
G3 F100.0 X15.0015 Y4.8842 I0.0 J0.9999
G3 X14.0016 Y5.8844 I-1.0006 J-0.0003
G3 X13.0012 Y4.8842 I0.0007 J-1.0011
G3 X14.0016 Y3.8845 I1.0004 J0.0006
G0 Z3.0
G0 X14.001 Y14.246
G0 Z1.0
G1 F50.0 Z-1.0
G3 F100.0 X14.0011 I0.0 J0.1999
G3 X14.2009 Y14.4457 I-0.0001 J0.1999
G3 X14.0009 Y14.646 I-0.2006 J-0.0003
G3 X13.8009 Y14.4459 I0.0006 J-0.2006
G3 X14.0011 Y14.246 I0.2004 J0.0005
G3 X14.0012 I0.0001 J0.2004
G1 X14.001
G1 F50.0 X13.9999 Y13.446
G3 F100.0 X14.001 I0.0013 J1.0004
G1 X14.0011
G1 X14.0009
G1 X14.001
G3 X15.0009 Y14.4457 I0.0 J0.9999
G3 X14.0009 Y15.446 I-1.0006 J-0.0003
G3 X13.0009 Y14.4459 I0.0006 J-1.0006
G3 X13.9999 Y13.446 I1.0004 J0.0004
G1 F50.0 X14.001 Y14.246
G1 Z-2.0
G3 F100.0 X14.0011 I0.0 J0.1999
G3 X14.2009 Y14.4457 I-0.0001 J0.1999
G3 X14.0009 Y14.646 I-0.2006 J-0.0003
G3 X13.8009 Y14.4459 I0.0006 J-0.2006
G3 X14.0011 Y14.246 I0.2004 J0.0005
G3 X14.0012 I0.0001 J0.2004
G1 X14.001
G1 F50.0 X13.9999 Y13.446
G3 F100.0 X14.001 I0.0013 J1.0004
G1 X14.0011
G1 X14.0009
G1 X14.001
G3 X15.0009 Y14.4457 I0.0 J0.9999
G3 X14.0009 Y15.446 I-1.0006 J-0.0003
G3 X13.0009 Y14.4459 I0.0006 J-1.0006
G3 X13.9999 Y13.446 I1.0004 J0.0004
G0 Z3.0
G0 X19.3718 Y19.8471
G0 Z1.0
G1 F50.0 Z-1.0
G3 F100.0 X19.5005 Y19.8002 I0.1288 J0.1535
G3 X19.5006 I0.0001 J0.2004
G1 X19.5004
G3 X19.5005 I0.0 J0.1999
G3 X19.7003 Y19.9998 I-0.0001 J0.1999
G3 X19.5003 Y20.2001 I-0.2006 J-0.0003
G3 X19.3003 Y20.0001 I0.0006 J-0.2006
G3 X19.3718 Y19.8471 I0.2004 J0.0005
G1 F50.0 X18.8576 Y19.2343
G3 F100.0 X19.5004 Y19.0002 I0.6431 J0.7663
G1 X19.5005
G1 X19.5004
G3 X20.5003 Y19.9999 I0.0 J0.9999
G3 X19.5003 Y21.0001 I-1.0006 J-0.0003
G3 X18.5003 Y20.0001 I0.0006 J-1.0006
G3 X18.8576 Y19.2343 I1.0004 J0.0004
G1 F50.0 X19.3718 Y19.8471
G1 Z-2.0
G3 F100.0 X19.5005 Y19.8002 I0.1288 J0.1535
G3 X19.5006 I0.0001 J0.2004
G1 X19.5004
G3 X19.5005 I0.0 J0.1999
G3 X19.7003 Y19.9998 I-0.0001 J0.1999
G3 X19.5003 Y20.2001 I-0.2006 J-0.0003
G3 X19.3003 Y20.0001 I0.0006 J-0.2006
G3 X19.3718 Y19.8471 I0.2004 J0.0005
G1 F50.0 X18.8576 Y19.2343
G3 F100.0 X19.5004 Y19.0002 I0.6431 J0.7663
G1 X19.5005
G1 X19.5004
G3 X20.5003 Y19.9999 I0.0 J0.9999
G3 X19.5003 Y21.0001 I-1.0006 J-0.0003
G3 X18.5003 Y20.0001 I0.0006 J-1.0006
G3 X18.8576 Y19.2343 I1.0004 J0.0004
G0 Z3.0
G0 X19.4887 Y29.8004
G0 Z1.0
G1 F50.0 Z-1.0
G3 F100.0 X19.5005 Y29.8001 I0.0119 J0.2
G3 X19.5006 I0.0001 J0.2004
G1 X19.5004
G3 X19.5005 I0.0 J0.1999
G3 X19.7003 Y29.9997 I-0.0001 J0.1999
G3 X19.5003 Y30.2001 I-0.2006 J-0.0003
G3 X19.3003 Y30.0 I0.0006 J-0.2006
G3 X19.4887 Y29.8004 I0.2004 J0.0005
G1 F50.0 X19.441 Y29.0019
G3 F100.0 X19.5004 Y29.0001 I0.0596 J0.9986
G1 X19.5005
G1 X19.5004
G3 X20.5003 Y29.9998 I0.0 J0.9999
G3 X19.5003 Y31.0001 I-1.0006 J-0.0003
G3 X18.5003 Y30.0 I0.0006 J-1.0006
G3 X19.441 Y29.0019 I1.0004 J0.0004
G1 F50.0 X19.4887 Y29.8004
G1 Z-2.0
G3 F100.0 X19.5005 Y29.8001 I0.0119 J0.2
G3 X19.5006 I0.0001 J0.2004
G1 X19.5004
G3 X19.5005 I0.0 J0.1999
G3 X19.7003 Y29.9997 I-0.0001 J0.1999
G3 X19.5003 Y30.2001 I-0.2006 J-0.0003
G3 X19.3003 Y30.0 I0.0006 J-0.2006
G3 X19.4887 Y29.8004 I0.2004 J0.0005
G1 F50.0 X19.441 Y29.0019
G3 F100.0 X19.5004 Y29.0001 I0.0596 J0.9986
G1 X19.5005
G1 X19.5004
G3 X20.5003 Y29.9998 I0.0 J0.9999
G3 X19.5003 Y31.0001 I-1.0006 J-0.0003
G3 X18.5003 Y30.0 I0.0006 J-1.0006
G3 X19.441 Y29.0019 I1.0004 J0.0004
G0 Z3.0
G0 X14.1303 Y35.2929
G0 Z1.0
G1 F50.0 Z-1.0
G3 F100.0 X14.2012 Y35.4454 I-0.1289 J0.1527
G3 X14.0012 Y35.6457 I-0.2006 J-0.0003
G3 X13.8012 Y35.4456 I0.0006 J-0.2006
G3 X14.0014 Y35.2457 I0.2004 J0.0005
G3 X14.0016 I0.0001 J0.2004
G1 X14.0013
G3 X14.0014 I0.0 J0.1999
G3 X14.1303 Y35.2929 I-0.0001 J0.1999
G1 F50.0 X14.6463 Y34.6816
G3 F100.0 X15.0012 Y35.4455 I-0.645 J0.764
G3 X14.0012 Y36.4457 I-1.0006 J-0.0003
G3 X13.0012 Y35.4457 I0.0006 J-1.0006
G3 X14.0014 Y34.4457 I1.0004 J0.0004
G1 X14.0015
G1 X14.0013
G1 X14.0014
G3 X14.6463 Y34.6816 I0.0 J0.9999
G1 F50.0 X14.1303 Y35.2929
G1 Z-2.0
G3 F100.0 X14.2012 Y35.4454 I-0.1289 J0.1527
G3 X14.0012 Y35.6457 I-0.2006 J-0.0003
G3 X13.8012 Y35.4456 I0.0006 J-0.2006
G3 X14.0014 Y35.2457 I0.2004 J0.0005
G3 X14.0016 I0.0001 J0.2004
G1 X14.0013
G3 X14.0014 I0.0 J0.1999
G3 X14.1303 Y35.2929 I-0.0001 J0.1999
G1 F50.0 X14.6463 Y34.6816
G3 F100.0 X15.0012 Y35.4455 I-0.645 J0.764
G3 X14.0012 Y36.4457 I-1.0006 J-0.0003
G3 X13.0012 Y35.4457 I0.0006 J-1.0006
G3 X14.0014 Y34.4457 I1.0004 J0.0004
G1 X14.0015
G1 X14.0013
G1 X14.0014
G3 X14.6463 Y34.6816 I0.0 J0.9999
G0 Z3.0
G0 X14.0142 Y44.2465
G0 Z1.0
G1 F50.0 Z-1.0
G3 F100.0 X14.2009 Y44.4457 I-0.0132 J0.1994
G3 X14.0009 Y44.646 I-0.2006 J-0.0003
G3 X13.8009 Y44.4459 I0.0006 J-0.2006
G3 X14.0011 Y44.246 I0.2004 J0.0005
G3 X14.0012 I0.0001 J0.2004
G1 X14.001
G3 X14.0011 I0.0 J0.1999
G3 X14.0142 Y44.2465 I-0.0001 J0.1999
G1 F50.0 X14.0669 Y43.4482
G3 F100.0 X15.0009 Y44.4458 I-0.0659 J0.9977
G3 X14.0009 Y45.446 I-1.0006 J-0.0003
G3 X13.0009 Y44.446 I0.0006 J-1.0006
G3 X14.001 Y43.446 I1.0004 J0.0004
G1 X14.0011
G1 X14.0009
G1 X14.001
G3 X14.0669 Y43.4482 I0.0 J0.9999
G1 F50.0 X14.0142 Y44.2465
G1 Z-2.0
G3 F100.0 X14.2009 Y44.4457 I-0.0132 J0.1994
G3 X14.0009 Y44.646 I-0.2006 J-0.0003
G3 X13.8009 Y44.4459 I0.0006 J-0.2006
G3 X14.0011 Y44.246 I0.2004 J0.0005
G3 X14.0012 I0.0001 J0.2004
G1 X14.001
G3 X14.0011 I0.0 J0.1999
G3 X14.0142 Y44.2465 I-0.0001 J0.1999
G1 F50.0 X14.0669 Y43.4482
G3 F100.0 X15.0009 Y44.4458 I-0.0659 J0.9977
G3 X14.0009 Y45.446 I-1.0006 J-0.0003
G3 X13.0009 Y44.446 I0.0006 J-1.0006
G3 X14.001 Y43.446 I1.0004 J0.0004
G1 X14.0011
G1 X14.0009
G1 X14.001
G3 X14.0669 Y43.4482 I0.0 J0.9999
G0 Z3.0
G0 X34.3333 Y30.1098
G0 Z1.0
G1 F50.0 Z-1.0
G3 F100.0 X34.3002 Y30.0 I0.1675 J-0.1103
G3 X34.5004 Y29.8001 I0.2004 J0.0005
G3 X34.5006 I0.0002 J0.2004
G1 X34.5003
G3 X34.5004 I0.0 J0.1999
G3 X34.7002 Y29.9997 I-0.0001 J0.1999
G3 X34.5002 Y30.2001 I-0.2007 J-0.0003
G3 X34.3333 Y30.1098 I0.0006 J-0.2006
G1 F50.0 X33.665 Y30.5496
G3 F100.0 X33.5002 Y30.0 I0.8358 J-0.5501
G3 X34.5004 Y29.0001 I1.0004 J0.0004
G1 X34.5005
G1 X34.5003
G1 X34.5004
G3 X35.5002 Y29.9997 I-0.0001 J0.9999
G3 X34.5002 Y31.0001 I-1.0007 J-0.0004
G3 X33.665 Y30.5496 I0.0006 J-1.0006
G1 F50.0 X34.3333 Y30.1098
G1 Z-2.0
G3 F100.0 X34.3002 Y30.0 I0.1675 J-0.1103
G3 X34.5004 Y29.8001 I0.2004 J0.0005
G3 X34.5006 I0.0002 J0.2004
G1 X34.5003
G3 X34.5004 I0.0 J0.1999
G3 X34.7002 Y29.9997 I-0.0001 J0.1999
G3 X34.5002 Y30.2001 I-0.2007 J-0.0003
G3 X34.3333 Y30.1098 I0.0006 J-0.2006
G1 F50.0 X33.665 Y30.5496
G3 F100.0 X33.5002 Y30.0 I0.8358 J-0.5501
G3 X34.5004 Y29.0001 I1.0004 J0.0004
G1 X34.5005
G1 X34.5003
G1 X34.5004
G3 X35.5002 Y29.9997 I-0.0001 J0.9999
G3 X34.5002 Y31.0001 I-1.0007 J-0.0004
G3 X33.665 Y30.5496 I0.0006 J-1.0006
G0 Z3.0
G0 X34.485 Y20.1995
G0 Z1.0
G1 F50.0 Z-1.0
G3 F100.0 X34.3002 Y20.0001 I0.0158 J-0.1999
G3 X34.5004 Y19.8002 I0.2004 J0.0005
G3 X34.5006 I0.0001 J0.2004
G1 X34.5003
G3 X34.5004 I0.0 J0.1999
G3 X34.7002 Y19.9998 I-0.0001 J0.1999
G3 X34.5002 Y20.2001 I-0.2006 J-0.0003
G3 X34.485 Y20.1995 I0.0006 J-0.2006
G1 F50.0 X34.4218 Y20.997
G3 F100.0 X33.5002 Y20.0001 I0.079 J-0.9974
G3 X34.5004 Y19.0002 I1.0004 J0.0004
G1 X34.5005
G1 X34.5003
G1 X34.5004
G3 X35.5002 Y19.9999 I0.0 J0.9999
G3 X34.5002 Y21.0001 I-1.0006 J-0.0003
G3 X34.4218 Y20.997 I0.0006 J-1.0006
G1 F50.0 X34.485 Y20.1995
G1 Z-2.0
G3 F100.0 X34.3002 Y20.0001 I0.0158 J-0.1999
G3 X34.5004 Y19.8002 I0.2004 J0.0005
G3 X34.5006 I0.0001 J0.2004
G1 X34.5003
G3 X34.5004 I0.0 J0.1999
G3 X34.7002 Y19.9998 I-0.0001 J0.1999
G3 X34.5002 Y20.2001 I-0.2006 J-0.0003
G3 X34.485 Y20.1995 I0.0006 J-0.2006
G1 F50.0 X34.4218 Y20.997
G3 F100.0 X33.5002 Y20.0001 I0.079 J-0.9974
G3 X34.5004 Y19.0002 I1.0004 J0.0004
G1 X34.5005
G1 X34.5003
G1 X34.5004
G3 X35.5002 Y19.9999 I0.0 J0.9999
G3 X34.5002 Y21.0001 I-1.0006 J-0.0003
G3 X34.4218 Y20.997 I0.0006 J-1.0006
G0 Z3.0
G0 X43.2736 Y14.6202
G0 Z1.0
G1 F50.0 Z-1.0
G3 F100.0 X43.2358 Y14.5034 I0.1627 J-0.1172
G3 X43.436 Y14.3035 I0.2004 J0.0005
G3 X43.4361 I0.0001 J0.2004
G1 X43.4359
G3 X43.436 I0.0 J0.1999
G3 X43.6358 Y14.5032 I-0.0001 J0.1999
G3 X43.4358 Y14.7035 I-0.2006 J-0.0003
G3 X43.2736 Y14.6202 I0.0006 J-0.2006
G1 F50.0 X42.6245 Y15.0878
G3 F100.0 X42.4358 Y14.5034 I0.8118 J-0.5848
G3 X43.4359 Y13.5035 I1.0004 J0.0004
G1 X43.436
G1 X43.4358
G1 X43.4359
G3 X44.4358 Y14.5033 I0.0 J0.9999
G3 X43.4358 Y15.5035 I-1.0006 J-0.0003
G3 X42.6245 Y15.0878 I0.0006 J-1.0006
G1 F50.0 X43.2736 Y14.6202
G1 Z-2.0
G3 F100.0 X43.2358 Y14.5034 I0.1627 J-0.1172
G3 X43.436 Y14.3035 I0.2004 J0.0005
G3 X43.4361 I0.0001 J0.2004
G1 X43.4359
G3 X43.436 I0.0 J0.1999
G3 X43.6358 Y14.5032 I-0.0001 J0.1999
G3 X43.4358 Y14.7035 I-0.2006 J-0.0003
G3 X43.2736 Y14.6202 I0.0006 J-0.2006
G1 F50.0 X42.6245 Y15.0878
G3 F100.0 X42.4358 Y14.5034 I0.8118 J-0.5848
G3 X43.4359 Y13.5035 I1.0004 J0.0004
G1 X43.436
G1 X43.4358
G1 X43.4359
G3 X44.4358 Y14.5033 I0.0 J0.9999
G3 X43.4358 Y15.5035 I-1.0006 J-0.0003
G3 X42.6245 Y15.0878 I0.0006 J-1.0006
G0 Z3.0
G0 X43.4207 Y5.1413
G0 Z1.0
G1 F50.0 Z-1.0
G3 F100.0 X43.2361 Y4.9419 I0.016 J-0.2
G3 X43.4365 Y4.742 I0.2004 J0.0005
G1 X43.4366
G3 X43.6364 Y4.9417 I0.0 J0.1999
G3 X43.4363 Y5.142 I-0.2006 J-0.0003
G3 X43.4207 Y5.1413 I0.0004 J-0.2006
G1 F50.0 X43.3569 Y5.9388
G3 F100.0 X42.4361 Y4.9419 I0.0798 J-0.9975
G3 X43.4365 Y3.942 I1.0004 J0.0005
G3 X44.4364 Y4.9418 I0.0 J0.9999
G3 X43.4364 Y5.942 I-1.0006 J-0.0003
G3 X43.3569 Y5.9388 I0.0004 J-1.0006
G1 F50.0 X43.4207 Y5.1413
G1 Z-2.0
G3 F100.0 X43.2361 Y4.9419 I0.016 J-0.2
G3 X43.4365 Y4.742 I0.2004 J0.0005
G1 X43.4366
G3 X43.6364 Y4.9417 I0.0 J0.1999
G3 X43.4363 Y5.142 I-0.2006 J-0.0003
G3 X43.4207 Y5.1413 I0.0004 J-0.2006
G1 F50.0 X43.3569 Y5.9388
G3 F100.0 X42.4361 Y4.9419 I0.0798 J-0.9975
G3 X43.4365 Y3.942 I1.0004 J0.0005
G3 X44.4364 Y4.9418 I0.0 J0.9999
G3 X43.4364 Y5.942 I-1.0006 J-0.0003
G3 X43.3569 Y5.9388 I0.0004 J-1.0006
G0 Z3.0
G0 X43.4359 Y35.3031
G0 Z1.0
G1 F50.0 Z-1.0
G3 F100.0 X43.4363 I0.0005 J0.2004
G3 X43.4365 I0.0001 J0.2004
G1 X43.4362
G3 X43.4363 I0.0 J0.1999
G3 X43.6361 Y35.5028 I-0.0001 J0.1999
G3 X43.4361 Y35.7031 I-0.2006 J-0.0003
G3 X43.2361 Y35.503 I0.0006 J-0.2006
G3 X43.4359 Y35.3031 I0.2004 J0.0005
G1 F50.0 X43.4338 Y34.5031
G3 F100.0 X43.4363 I0.0027 J1.0004
G1 X43.4364
G1 X43.4362
G1 X43.4363
G3 X44.4361 Y35.5029 I0.0 J0.9999
G3 X43.4361 Y36.5031 I-1.0006 J-0.0003
G3 X42.4361 Y35.503 I0.0006 J-1.0006
G3 X43.4338 Y34.5031 I1.0004 J0.0004
G1 F50.0 X43.4359 Y35.3031
G1 Z-2.0
G3 F100.0 X43.4363 I0.0005 J0.2004
G3 X43.4365 I0.0001 J0.2004
G1 X43.4362
G3 X43.4363 I0.0 J0.1999
G3 X43.6361 Y35.5028 I-0.0001 J0.1999
G3 X43.4361 Y35.7031 I-0.2006 J-0.0003
G3 X43.2361 Y35.503 I0.0006 J-0.2006
G3 X43.4359 Y35.3031 I0.2004 J0.0005
G1 F50.0 X43.4338 Y34.5031
G3 F100.0 X43.4363 I0.0027 J1.0004
G1 X43.4364
G1 X43.4362
G1 X43.4363
G3 X44.4361 Y35.5029 I0.0 J0.9999
G3 X43.4361 Y36.5031 I-1.0006 J-0.0003
G3 X42.4361 Y35.503 I0.0006 J-1.0006
G3 X43.4338 Y34.5031 I1.0004 J0.0004
G0 Z3.0
G0 X43.4359 Y44.3034
G0 Z1.0
G1 F50.0 Z-1.0
G3 F100.0 X43.436 I0.0 J0.1999
G3 X43.6358 Y44.5031 I-0.0001 J0.1999
G3 X43.4358 Y44.7034 I-0.2006 J-0.0003
G3 X43.2358 Y44.5033 I0.0006 J-0.2006
G3 X43.436 Y44.3034 I0.2004 J0.0005
G3 X43.4361 I0.0001 J0.2004
G1 X43.4359
G1 F50.0 X43.4348 Y43.5034
G3 F100.0 X43.4359 I0.0013 J1.0004
G1 X43.436
G1 X43.4358
G1 X43.4359
G3 X44.4358 Y44.5032 I0.0 J0.9999
G3 X43.4358 Y45.5034 I-1.0006 J-0.0003
G3 X42.4358 Y44.5033 I0.0006 J-1.0006
G3 X43.4348 Y43.5034 I1.0004 J0.0004
G1 F50.0 X43.4359 Y44.3034
G1 Z-2.0
G3 F100.0 X43.436 I0.0 J0.1999
G3 X43.6358 Y44.5031 I-0.0001 J0.1999
G3 X43.4358 Y44.7034 I-0.2006 J-0.0003
G3 X43.2358 Y44.5033 I0.0006 J-0.2006
G3 X43.436 Y44.3034 I0.2004 J0.0005
G3 X43.4361 I0.0001 J0.2004
G1 X43.4359
G1 F50.0 X43.4348 Y43.5034
G3 F100.0 X43.4359 I0.0013 J1.0004
G1 X43.436
G1 X43.4358
G1 X43.4359
G3 X44.4358 Y44.5032 I0.0 J0.9999
G3 X43.4358 Y45.5034 I-1.0006 J-0.0003
G3 X42.4358 Y44.5033 I0.0006 J-1.0006
G3 X43.4348 Y43.5034 I1.0004 J0.0004
G0 Z3.0
G0 X84.3101 Y30.062
G0 Z1.0
G1 F50.0 Z-1.0
G3 F100.0 X84.3001 Y29.9998 I0.1905 J-0.0627
G3 X84.5003 Y29.7999 I0.2004 J0.0005
G3 X84.5004 I0.0001 J0.2004
G1 X84.5002
G3 X84.5003 I0.0 J0.1999
G3 X84.7001 Y29.9996 I-0.0001 J0.1999
G3 X84.5001 Y30.1999 I-0.2006 J-0.0003
G3 X84.3101 Y30.062 I0.0006 J-0.2006
G1 F50.0 X83.5502 Y30.3119
G3 F100.0 X83.5001 Y29.9998 I0.9505 J-0.3126
G3 X84.5003 Y28.9999 I1.0004 J0.0004
G1 X84.5002
G1 X84.5003
G3 X85.5001 Y29.9997 I0.0 J0.9999
G3 X84.5001 Y30.9999 I-1.0006 J-0.0003
G3 X83.5502 Y30.3119 I0.0006 J-1.0006
G1 F50.0 X84.3101 Y30.062
G1 Z-2.0
G3 F100.0 X84.3001 Y29.9998 I0.1905 J-0.0627
G3 X84.5003 Y29.7999 I0.2004 J0.0005
G3 X84.5004 I0.0001 J0.2004
G1 X84.5002
G3 X84.5003 I0.0 J0.1999
G3 X84.7001 Y29.9996 I-0.0001 J0.1999
G3 X84.5001 Y30.1999 I-0.2006 J-0.0003
G3 X84.3101 Y30.062 I0.0006 J-0.2006
G1 F50.0 X83.5502 Y30.3119
G3 F100.0 X83.5001 Y29.9998 I0.9505 J-0.3126
G3 X84.5003 Y28.9999 I1.0004 J0.0004
G1 X84.5002
G1 X84.5003
G3 X85.5001 Y29.9997 I0.0 J0.9999
G3 X84.5001 Y30.9999 I-1.0006 J-0.0003
G3 X83.5502 Y30.3119 I0.0006 J-1.0006
G0 Z3.0
G0 X84.4823 Y20.1993
G0 Z1.0
G1 F50.0 Z-1.0
G3 F100.0 X84.3001 Y20.0001 I0.0184 J-0.1997
G3 X84.5003 Y19.8002 I0.2004 J0.0005
G3 X84.5004 I0.0001 J0.2004
G1 X84.5002
G3 X84.5003 I0.0 J0.1999
G3 X84.7001 Y19.9998 I-0.0001 J0.1999
G3 X84.5001 Y20.2001 I-0.2006 J-0.0003
G3 X84.4823 Y20.1993 I0.0006 J-0.2006
G1 F50.0 X84.4088 Y20.9959
G3 F100.0 X83.5001 Y20.0001 I0.0918 J-0.9963
G3 X84.5003 Y19.0002 I1.0004 J0.0004
G1 X84.5002
G1 X84.5003
G3 X85.5001 Y19.9999 I0.0 J0.9999
G3 X84.5001 Y21.0001 I-1.0006 J-0.0003
G3 X84.4088 Y20.9959 I0.0006 J-1.0006
G1 F50.0 X84.4823 Y20.1993
G1 Z-2.0
G3 F100.0 X84.3001 Y20.0001 I0.0184 J-0.1997
G3 X84.5003 Y19.8002 I0.2004 J0.0005
G3 X84.5004 I0.0001 J0.2004
G1 X84.5002
G3 X84.5003 I0.0 J0.1999
G3 X84.7001 Y19.9998 I-0.0001 J0.1999
G3 X84.5001 Y20.2001 I-0.2006 J-0.0003
G3 X84.4823 Y20.1993 I0.0006 J-0.2006
G1 F50.0 X84.4088 Y20.9959
G3 F100.0 X83.5001 Y20.0001 I0.0918 J-0.9963
G3 X84.5003 Y19.0002 I1.0004 J0.0004
G1 X84.5002
G1 X84.5003
G3 X85.5001 Y19.9999 I0.0 J0.9999
G3 X84.5001 Y21.0001 I-1.0006 J-0.0003
G3 X84.4088 Y20.9959 I0.0006 J-1.0006
G0 Z3.0
G0 X99.3005 Y20.0128
G0 Z1.0
G1 F50.0 Z-1.0
G3 F100.0 X99.3001 Y20.0001 I0.2001 J-0.0132
G3 X99.5003 Y19.8002 I0.2004 J0.0005
G3 X99.5004 I0.0001 J0.2004
G1 X99.5001
G3 X99.5003 I0.0 J0.1999
G3 X99.7 Y19.9998 I-0.0001 J0.1999
G3 X99.5 Y20.2001 I-0.2006 J-0.0003
G3 X99.3005 Y20.0128 I0.0006 J-0.2006
G1 F50.0 X98.5022 Y20.0655
G3 F100.0 X98.5001 Y20.0001 I0.9984 J-0.0659
G3 X99.5002 Y19.0002 I1.0004 J0.0004
G1 X99.5003
G1 X99.5001
G1 X99.5002
G3 X100.5 Y19.9999 I0.0 J0.9999
G3 X99.5 Y21.0001 I-1.0006 J-0.0003
G3 X98.5022 Y20.0655 I0.0006 J-1.0006
G1 F50.0 X99.3005 Y20.0128
G1 Z-2.0
G3 F100.0 X99.3001 Y20.0001 I0.2001 J-0.0132
G3 X99.5003 Y19.8002 I0.2004 J0.0005
G3 X99.5004 I0.0001 J0.2004
G1 X99.5001
G3 X99.5003 I0.0 J0.1999
G3 X99.7 Y19.9998 I-0.0001 J0.1999
G3 X99.5 Y20.2001 I-0.2006 J-0.0003
G3 X99.3005 Y20.0128 I0.0006 J-0.2006
G1 F50.0 X98.5022 Y20.0655
G3 F100.0 X98.5001 Y20.0001 I0.9984 J-0.0659
G3 X99.5002 Y19.0002 I1.0004 J0.0004
G1 X99.5003
G1 X99.5001
G1 X99.5002
G3 X100.5 Y19.9999 I0.0 J0.9999
G3 X99.5 Y21.0001 I-1.0006 J-0.0003
G3 X98.5022 Y20.0655 I0.0006 J-1.0006
G0 Z3.0
G0 X104.8494 Y14.5766
G0 Z1.0
G1 F50.0 Z-1.0
G3 F100.0 X104.8005 Y14.4459 I0.1517 J-0.1312
G3 X105.0007 Y14.246 I0.2004 J0.0005
G3 X105.0008 I0.0001 J0.2004
G1 X105.0006
G3 X105.0007 I0.0 J0.1999
G3 X105.2005 Y14.4457 I-0.0001 J0.1999
G3 X105.0005 Y14.646 I-0.2006 J-0.0003
G3 X104.8494 Y14.5766 I0.0006 J-0.2006
G1 F50.0 X104.2442 Y15.0999
G3 F100.0 X104.0005 Y14.4459 I0.7568 J-0.6545
G3 X105.0006 Y13.446 I1.0004 J0.0004
G1 X105.0007
G1 X105.0006
G3 X106.0005 Y14.4457 I0.0 J0.9999
G3 X105.0005 Y15.446 I-1.0006 J-0.0003
G3 X104.2442 Y15.0999 I0.0006 J-1.0006
G1 F50.0 X104.8494 Y14.5766
G1 Z-2.0
G3 F100.0 X104.8005 Y14.4459 I0.1517 J-0.1312
G3 X105.0007 Y14.246 I0.2004 J0.0005
G3 X105.0008 I0.0001 J0.2004
G1 X105.0006
G3 X105.0007 I0.0 J0.1999
G3 X105.2005 Y14.4457 I-0.0001 J0.1999
G3 X105.0005 Y14.646 I-0.2006 J-0.0003
G3 X104.8494 Y14.5766 I0.0006 J-0.2006
G1 F50.0 X104.2442 Y15.0999
G3 F100.0 X104.0005 Y14.4459 I0.7568 J-0.6545
G3 X105.0006 Y13.446 I1.0004 J0.0004
G1 X105.0007
G1 X105.0006
G3 X106.0005 Y14.4457 I0.0 J0.9999
G3 X105.0005 Y15.446 I-1.0006 J-0.0003
G3 X104.2442 Y15.0999 I0.0006 J-1.0006
G0 Z3.0
G0 X104.9862 Y5.0839
G0 Z1.0
G1 F50.0 Z-1.0
G3 F100.0 X104.8005 Y4.8844 I0.0148 J-0.2
G3 X105.0007 Y4.6845 I0.2004 J0.0005
G3 X105.0008 I0.0001 J0.2004
G1 X105.0006
G3 X105.0007 I0.0 J0.1999
G3 X105.2005 Y4.8841 I-0.0001 J0.1999
G3 X105.0005 Y5.0844 I-0.2006 J-0.0003
G3 X104.9862 Y5.0839 I0.0006 J-0.2006
G1 F50.0 X104.9271 Y5.8817
G3 F100.0 X104.0005 Y4.8844 I0.0739 J-0.9978
G3 X105.0006 Y3.8845 I1.0004 J0.0004
G1 X105.0007
G1 X105.0006
G3 X106.0005 Y4.8842 I0.0 J0.9999
G3 X105.0005 Y5.8844 I-1.0006 J-0.0003
G3 X104.9271 Y5.8817 I0.0006 J-1.0006
G1 F50.0 X104.9862 Y5.0839
G1 Z-2.0
G3 F100.0 X104.8005 Y4.8844 I0.0148 J-0.2
G3 X105.0007 Y4.6845 I0.2004 J0.0005
G3 X105.0008 I0.0001 J0.2004
G1 X105.0006
G3 X105.0007 I0.0 J0.1999
G3 X105.2005 Y4.8841 I-0.0001 J0.1999
G3 X105.0005 Y5.0844 I-0.2006 J-0.0003
G3 X104.9862 Y5.0839 I0.0006 J-0.2006
G1 F50.0 X104.9271 Y5.8817
G3 F100.0 X104.0005 Y4.8844 I0.0739 J-0.9978
G3 X105.0006 Y3.8845 I1.0004 J0.0004
G1 X105.0007
G1 X105.0006
G3 X106.0005 Y4.8842 I0.0 J0.9999
G3 X105.0005 Y5.8844 I-1.0006 J-0.0003
G3 X104.9271 Y5.8817 I0.0006 J-1.0006
G0 Z3.0
G0 X99.544 Y29.8048
G0 Z1.0
G1 F50.0 Z-1.0
G3 F100.0 X99.7 Y29.9996 I-0.0439 J0.195
G3 X99.5 Y30.1999 I-0.2006 J-0.0003
G3 X99.3001 Y29.9998 I0.0006 J-0.2006
G3 X99.5003 Y29.7999 I0.2004 J0.0005
G3 X99.5004 I0.0001 J0.2004
G1 X99.5001
G3 X99.5003 I0.0 J0.1999
G3 X99.544 Y29.8048 I-0.0001 J0.1999
G1 F50.0 X99.7197 Y29.0243
G3 F100.0 X100.5 Y29.9997 I-0.2195 J0.9755
G3 X99.5 Y30.9999 I-1.0006 J-0.0003
G3 X98.5001 Y29.9998 I0.0006 J-1.0006
G3 X99.5002 Y28.9999 I1.0004 J0.0004
G1 X99.5003
G1 X99.5001
G1 X99.5002
G3 X99.7197 Y29.0243 I0.0 J0.9999
G1 F50.0 X99.544 Y29.8048
G1 Z-2.0
G3 F100.0 X99.7 Y29.9996 I-0.0439 J0.195
G3 X99.5 Y30.1999 I-0.2006 J-0.0003
G3 X99.3001 Y29.9998 I0.0006 J-0.2006
G3 X99.5003 Y29.7999 I0.2004 J0.0005
G3 X99.5004 I0.0001 J0.2004
G1 X99.5001
G3 X99.5003 I0.0 J0.1999
G3 X99.544 Y29.8048 I-0.0001 J0.1999
G1 F50.0 X99.7197 Y29.0243
G3 F100.0 X100.5 Y29.9997 I-0.2195 J0.9755
G3 X99.5 Y30.9999 I-1.0006 J-0.0003
G3 X98.5001 Y29.9998 I0.0006 J-1.0006
G3 X99.5002 Y28.9999 I1.0004 J0.0004
G1 X99.5003
G1 X99.5001
G1 X99.5002
G3 X99.7197 Y29.0243 I0.0 J0.9999
G0 Z3.0
G0 X104.8736 Y35.2912
G0 Z1.0
G1 F50.0 Z-1.0
G3 F100.0 X105.0007 Y35.2456 I0.1273 J0.1548
G3 X105.0008 I0.0001 J0.2004
G1 X105.0006
G3 X105.0007 I0.0 J0.1999
G3 X105.2005 Y35.4452 I-0.0001 J0.1999
G3 X105.0005 Y35.6455 I-0.2006 J-0.0003
G3 X104.8005 Y35.4455 I0.0006 J-0.2006
G3 X104.8736 Y35.2912 I0.2004 J0.0005
G1 F50.0 X104.3654 Y34.6733
G3 F100.0 X105.0006 Y34.4456 I0.6354 J0.7726
G1 X105.0007
G1 X105.0006
G3 X106.0005 Y35.4453 I0.0 J0.9999
G3 X105.0005 Y36.4455 I-1.0006 J-0.0003
G3 X104.0005 Y35.4455 I0.0006 J-1.0006
G3 X104.3654 Y34.6733 I1.0004 J0.0004
G1 F50.0 X104.8736 Y35.2912
G1 Z-2.0
G3 F100.0 X105.0007 Y35.2456 I0.1273 J0.1548
G3 X105.0008 I0.0001 J0.2004
G1 X105.0006
G3 X105.0007 I0.0 J0.1999
G3 X105.2005 Y35.4452 I-0.0001 J0.1999
G3 X105.0005 Y35.6455 I-0.2006 J-0.0003
G3 X104.8005 Y35.4455 I0.0006 J-0.2006
G3 X104.8736 Y35.2912 I0.2004 J0.0005
G1 F50.0 X104.3654 Y34.6733
G3 F100.0 X105.0006 Y34.4456 I0.6354 J0.7726
G1 X105.0007
G1 X105.0006
G3 X106.0005 Y35.4453 I0.0 J0.9999
G3 X105.0005 Y36.4455 I-1.0006 J-0.0003
G3 X104.0005 Y35.4455 I0.0006 J-1.0006
G3 X104.3654 Y34.6733 I1.0004 J0.0004
G0 Z3.0
G0 X104.9875 Y44.2463
G0 Z1.0
G1 F50.0 Z-1.0
G3 F100.0 X105.0004 Y44.2459 I0.013 J0.1999
G3 X105.0005 I0.0001 J0.2004
G1 X105.0002
G3 X105.0004 I0.0 J0.1999
G3 X105.2001 Y44.4455 I-0.0001 J0.1999
G3 X105.0001 Y44.6459 I-0.2006 J-0.0003
G3 X104.8001 Y44.4458 I0.0006 J-0.2006
G3 X104.9875 Y44.2463 I0.2004 J0.0005
G1 F50.0 X104.9356 Y43.448
G3 F100.0 X105.0003 Y43.4459 I0.0649 J0.9983
G1 X105.0004
G1 X105.0002
G1 X105.0003
G3 X106.0001 Y44.4456 I0.0 J0.9999
G3 X105.0001 Y45.4459 I-1.0006 J-0.0003
G3 X104.0001 Y44.4458 I0.0006 J-1.0006
G3 X104.9356 Y43.448 I1.0004 J0.0004
G1 F50.0 X104.9875 Y44.2463
G1 Z-2.0
G3 F100.0 X105.0004 Y44.2459 I0.013 J0.1999
G3 X105.0005 I0.0001 J0.2004
G1 X105.0002
G3 X105.0004 I0.0 J0.1999
G3 X105.2001 Y44.4455 I-0.0001 J0.1999
G3 X105.0001 Y44.6459 I-0.2006 J-0.0003
G3 X104.8001 Y44.4458 I0.0006 J-0.2006
G3 X104.9875 Y44.2463 I0.2004 J0.0005
G1 F50.0 X104.9356 Y43.448
G3 F100.0 X105.0003 Y43.4459 I0.0649 J0.9983
G1 X105.0004
G1 X105.0002
G1 X105.0003
G3 X106.0001 Y44.4456 I0.0 J0.9999
G3 X105.0001 Y45.4459 I-1.0006 J-0.0003
G3 X104.0001 Y44.4458 I0.0006 J-1.0006
G3 X104.9356 Y43.448 I1.0004 J0.0004
G0 Z3.0
M5
M30
