( Made using CamBam - http://www.cambam.co.uk )
( picker head - front plate 9/1/2013 2:40:59 PM )
( T4 : 4.0 )
G21 G90 G64 G40
G0 Z3.0
( T4 : 4.0 )
T4 M6
( 4mm mill pocket 2 )
G17
M3 S1000
G0 X22.0928 Y9.6651
G0 Z1.0
G1 F50.0 Z-1.0
G2 F100.0 X22.3065 Y9.2845 I-8.1045 J-4.8016
G1 X35.0993
G2 X35.3424 Y9.722 I8.3233 J-4.3389
G2 X34.884 Y10.5999 I8.0775 J4.7764
G1 X22.5772
G2 X22.0928 Y9.6651 I-8.5642 J3.8451
G1 F50.0 X21.4045 Y9.2574
G2 F100.0 X21.6902 Y8.7348 I-7.4163 J-4.3939
G2 X21.6906 Y8.7339 I-3.2165 J-1.6167
G2 X21.8109 Y8.4845 I-7.6497 J-3.8424
G1 X35.5994
G2 X36.2875 Y9.7221 I7.8231 J-3.5389
G2 X35.4146 Y11.3999 I7.1325 J4.7764
G1 X22.0427
G2 X21.1474 Y9.6649 I-8.0298 J3.0451
G2 X21.4045 Y9.2574 I-7.1592 J-4.8014
G1 F50.0 X20.0279 Y8.4418
G2 F100.0 X20.2606 Y8.0162 I-6.0397 J-3.5783
G2 X20.2609 Y8.0157 I-1.787 J-0.8982
G2 X20.71 Y6.8845 I-6.22 J-3.1243
G1 X36.7107
G2 X38.2253 Y9.6143 I6.7119 J-1.9389
G1 Y9.8302
G2 X36.5986 Y12.9999 I5.1947 J4.6682
G1 X20.8497
G2 X19.1098 Y9.6647 I-6.8367 J1.4451
G2 X20.0279 Y8.4418 I-5.1216 J-4.8012
G1 F50.0 X22.0928 Y9.6651
G1 Z-2.0
G2 F100.0 X22.3065 Y9.2845 I-8.1045 J-4.8016
G1 X35.0993
G2 X35.3424 Y9.722 I8.3233 J-4.3389
G2 X34.884 Y10.5999 I8.0775 J4.7764
G1 X22.5772
G2 X22.0928 Y9.6651 I-8.5642 J3.8451
G1 F50.0 X21.4045 Y9.2574
G2 F100.0 X21.6902 Y8.7348 I-7.4163 J-4.3939
G2 X21.6906 Y8.7339 I-3.2165 J-1.6167
G2 X21.8109 Y8.4845 I-7.6497 J-3.8424
G1 X35.5994
G2 X36.2875 Y9.7221 I7.8231 J-3.5389
G2 X35.4146 Y11.3999 I7.1325 J4.7764
G1 X22.0427
G2 X21.1474 Y9.6649 I-8.0298 J3.0451
G2 X21.4045 Y9.2574 I-7.1592 J-4.8014
G1 F50.0 X20.0279 Y8.4418
G2 F100.0 X20.2606 Y8.0162 I-6.0397 J-3.5783
G2 X20.2609 Y8.0157 I-1.787 J-0.8982
G2 X20.71 Y6.8845 I-6.22 J-3.1243
G1 X36.7107
G2 X38.2253 Y9.6143 I6.7119 J-1.9389
G1 Y9.8302
G2 X36.5986 Y12.9999 I5.1947 J4.6682
G1 X20.8497
G2 X19.1098 Y9.6647 I-6.8367 J1.4451
G2 X20.0279 Y8.4418 I-5.1216 J-4.8012
G1 F50.0 X22.0928 Y9.6651
G1 Z-3.0
G2 F100.0 X22.3065 Y9.2845 I-8.1045 J-4.8016
G1 X35.0993
G2 X35.3424 Y9.722 I8.3233 J-4.3389
G2 X34.884 Y10.5999 I8.0775 J4.7764
G1 X22.5772
G2 X22.0928 Y9.6651 I-8.5642 J3.8451
G1 F50.0 X21.4045 Y9.2574
G2 F100.0 X21.6902 Y8.7348 I-7.4163 J-4.3939
G2 X21.6906 Y8.7339 I-3.2165 J-1.6167
G2 X21.8109 Y8.4845 I-7.6497 J-3.8424
G1 X35.5994
G2 X36.2875 Y9.7221 I7.8231 J-3.5389
G2 X35.4146 Y11.3999 I7.1325 J4.7764
G1 X22.0427
G2 X21.1474 Y9.6649 I-8.0298 J3.0451
G2 X21.4045 Y9.2574 I-7.1592 J-4.8014
G1 F50.0 X20.0279 Y8.4418
G2 F100.0 X20.2606 Y8.0162 I-6.0397 J-3.5783
G2 X20.2609 Y8.0157 I-1.787 J-0.8982
G2 X20.71 Y6.8845 I-6.22 J-3.1243
G1 X36.7107
G2 X38.2253 Y9.6143 I6.7119 J-1.9389
G1 Y9.8302
G2 X36.5986 Y12.9999 I5.1947 J4.6682
G1 X20.8497
G2 X19.1098 Y9.6647 I-6.8367 J1.4451
G2 X20.0279 Y8.4418 I-5.1216 J-4.8012
G1 F50.0 X22.0928 Y9.6651
G1 Z-4.0
G2 F100.0 X22.3065 Y9.2845 I-8.1045 J-4.8016
G1 X35.0993
G2 X35.3424 Y9.722 I8.3233 J-4.3389
G2 X34.884 Y10.5999 I8.0775 J4.7764
G1 X22.5772
G2 X22.0928 Y9.6651 I-8.5642 J3.8451
G1 F50.0 X21.4045 Y9.2574
G2 F100.0 X21.6902 Y8.7348 I-7.4163 J-4.3939
G2 X21.6906 Y8.7339 I-3.2165 J-1.6167
G2 X21.8109 Y8.4845 I-7.6497 J-3.8424
G1 X35.5994
G2 X36.2875 Y9.7221 I7.8231 J-3.5389
G2 X35.4146 Y11.3999 I7.1325 J4.7764
G1 X22.0427
G2 X21.1474 Y9.6649 I-8.0298 J3.0451
G2 X21.4045 Y9.2574 I-7.1592 J-4.8014
G1 F50.0 X20.0279 Y8.4418
G2 F100.0 X20.2606 Y8.0162 I-6.0397 J-3.5783
G2 X20.2609 Y8.0157 I-1.787 J-0.8982
G2 X20.71 Y6.8845 I-6.22 J-3.1243
G1 X36.7107
G2 X38.2253 Y9.6143 I6.7119 J-1.9389
G1 Y9.8302
G2 X36.5986 Y12.9999 I5.1947 J4.6682
G1 X20.8497
G2 X19.1098 Y9.6647 I-6.8367 J1.4451
G2 X20.0279 Y8.4418 I-5.1216 J-4.8012
G1 F50.0 X22.0928 Y9.6651
G1 Z-4.5
G2 F100.0 X22.3065 Y9.2845 I-8.1045 J-4.8016
G1 X35.0993
G2 X35.3424 Y9.722 I8.3233 J-4.3389
G2 X34.884 Y10.5999 I8.0775 J4.7764
G1 X22.5772
G2 X22.0928 Y9.6651 I-8.5642 J3.8451
G1 F50.0 X21.4045 Y9.2574
G2 F100.0 X21.6902 Y8.7348 I-7.4163 J-4.3939
G2 X21.6906 Y8.7339 I-3.2165 J-1.6167
G2 X21.8109 Y8.4845 I-7.6497 J-3.8424
G1 X35.5994
G2 X36.2875 Y9.7221 I7.8231 J-3.5389
G2 X35.4146 Y11.3999 I7.1325 J4.7764
G1 X22.0427
G2 X21.1474 Y9.6649 I-8.0298 J3.0451
G2 X21.4045 Y9.2574 I-7.1592 J-4.8014
G1 F50.0 X20.0279 Y8.4418
G2 F100.0 X20.2606 Y8.0162 I-6.0397 J-3.5783
G2 X20.2609 Y8.0157 I-1.787 J-0.8982
G2 X20.71 Y6.8845 I-6.22 J-3.1243
G1 X36.7107
G2 X38.2253 Y9.6143 I6.7119 J-1.9389
G1 Y9.8302
G2 X36.5986 Y12.9999 I5.1947 J4.6682
G1 X20.8497
G2 X19.1098 Y9.6647 I-6.8367 J1.4451
G2 X20.0279 Y8.4418 I-5.1216 J-4.8012
G0 Z3.0
G0 X22.5273 Y39.4002
G0 Z1.0
G1 F50.0 Z-1.0
G1 F100.0 X34.884 Y39.4001
G2 X35.1857 Y40.0026 I8.5344 J-3.8973
G2 X35.1312 Y40.1034 I8.2659 J4.5302
G1 X22.3357 Y40.1035
G2 X22.2512 Y39.9457 I-8.3428 J4.3647
G2 X22.4022 Y39.6586 I-8.2663 J-4.5295
G2 X22.4044 Y39.6542 I-3.9292 J-1.9803
G2 X22.5273 Y39.4002 I-8.3616 J-4.2025
G1 F50.0 Y38.6002
G1 F100.0 X35.4146 Y38.6001
G2 X36.1108 Y40.003 I8.0037 J-3.0973
G2 X35.7485 Y40.651 I7.3409 J4.5297
G2 X35.7462 Y40.6555 I3.2149 J1.62
G2 X35.6267 Y40.9034 I7.6491 J3.8413
G1 X21.8363 Y40.9035
G2 X21.6895 Y40.5965 I-7.7898 J3.5347
G2 X21.6886 Y40.5947 I-3.2165 J1.6168
G2 X21.326 Y39.9456 I-7.6957 J3.8736
G2 X21.6878 Y39.2985 I-7.3411 J-4.5294
G2 X21.6896 Y39.2949 I-3.2148 J-1.6203
G2 X22.0009 Y38.6002 I-7.6468 J-3.8432
G1 X22.5273
G1 F50.0 Y37.0002
G1 F100.0 X36.5987 Y37.0001
G2 X38.0804 Y40.0036 I6.8197 J-1.4973
G2 X37.1773 Y41.3711 I5.3712 J4.5292
G2 X37.1761 Y41.3735 I1.786 J0.9
G2 X36.7275 Y42.5034 I6.2193 J3.1232
G1 X20.7262 Y42.5036
G2 X20.26 Y41.315 I-6.6797 J1.9347
G2 X20.2595 Y41.314 I-1.787 J0.8982
G2 X19.3561 Y39.9455 I-6.2665 J3.1542
G2 X20.259 Y38.5784 I-5.3712 J-4.5293
G2 X20.26 Y38.5764 I-1.786 J-0.9001
G2 X20.8266 Y37.0003 I-6.2172 J-3.1247
G1 X22.5273 Y37.0002
G1 F50.0 Y39.4002
G1 Z-2.0
G1 F100.0 X34.884 Y39.4001
G2 X35.1857 Y40.0026 I8.5344 J-3.8973
G2 X35.1312 Y40.1034 I8.2659 J4.5302
G1 X22.3357 Y40.1035
G2 X22.2512 Y39.9457 I-8.3428 J4.3647
G2 X22.4022 Y39.6586 I-8.2663 J-4.5295
G2 X22.4044 Y39.6542 I-3.9292 J-1.9803
G2 X22.5273 Y39.4002 I-8.3616 J-4.2025
G1 F50.0 Y38.6002
G1 F100.0 X35.4146 Y38.6001
G2 X36.1108 Y40.003 I8.0037 J-3.0973
G2 X35.7485 Y40.651 I7.3409 J4.5297
G2 X35.7462 Y40.6555 I3.2149 J1.62
G2 X35.6267 Y40.9034 I7.6491 J3.8413
G1 X21.8363 Y40.9035
G2 X21.6895 Y40.5965 I-7.7898 J3.5347
G2 X21.6886 Y40.5947 I-3.2165 J1.6168
G2 X21.326 Y39.9456 I-7.6957 J3.8736
G2 X21.6878 Y39.2985 I-7.3411 J-4.5294
G2 X21.6896 Y39.2949 I-3.2148 J-1.6203
G2 X22.0009 Y38.6002 I-7.6468 J-3.8432
G1 X22.5273
G1 F50.0 Y37.0002
G1 F100.0 X36.5987 Y37.0001
G2 X38.0804 Y40.0036 I6.8197 J-1.4973
G2 X37.1773 Y41.3711 I5.3712 J4.5292
G2 X37.1761 Y41.3735 I1.786 J0.9
G2 X36.7275 Y42.5034 I6.2193 J3.1232
G1 X20.7262 Y42.5036
G2 X20.26 Y41.315 I-6.6797 J1.9347
G2 X20.2595 Y41.314 I-1.787 J0.8982
G2 X19.3561 Y39.9455 I-6.2665 J3.1542
G2 X20.259 Y38.5784 I-5.3712 J-4.5293
G2 X20.26 Y38.5764 I-1.786 J-0.9001
G2 X20.8266 Y37.0003 I-6.2172 J-3.1247
G1 X22.5273 Y37.0002
G1 F50.0 Y39.4002
G1 Z-3.0
G1 F100.0 X34.884 Y39.4001
G2 X35.1857 Y40.0026 I8.5344 J-3.8973
G2 X35.1312 Y40.1034 I8.2659 J4.5302
G1 X22.3357 Y40.1035
G2 X22.2512 Y39.9457 I-8.3428 J4.3647
G2 X22.4022 Y39.6586 I-8.2663 J-4.5295
G2 X22.4044 Y39.6542 I-3.9292 J-1.9803
G2 X22.5273 Y39.4002 I-8.3616 J-4.2025
G1 F50.0 Y38.6002
G1 F100.0 X35.4146 Y38.6001
G2 X36.1108 Y40.003 I8.0037 J-3.0973
G2 X35.7485 Y40.651 I7.3409 J4.5297
G2 X35.7462 Y40.6555 I3.2149 J1.62
G2 X35.6267 Y40.9034 I7.6491 J3.8413
G1 X21.8363 Y40.9035
G2 X21.6895 Y40.5965 I-7.7898 J3.5347
G2 X21.6886 Y40.5947 I-3.2165 J1.6168
G2 X21.326 Y39.9456 I-7.6957 J3.8736
G2 X21.6878 Y39.2985 I-7.3411 J-4.5294
G2 X21.6896 Y39.2949 I-3.2148 J-1.6203
G2 X22.0009 Y38.6002 I-7.6468 J-3.8432
G1 X22.5273
G1 F50.0 Y37.0002
G1 F100.0 X36.5987 Y37.0001
G2 X38.0804 Y40.0036 I6.8197 J-1.4973
G2 X37.1773 Y41.3711 I5.3712 J4.5292
G2 X37.1761 Y41.3735 I1.786 J0.9
G2 X36.7275 Y42.5034 I6.2193 J3.1232
G1 X20.7262 Y42.5036
G2 X20.26 Y41.315 I-6.6797 J1.9347
G2 X20.2595 Y41.314 I-1.787 J0.8982
G2 X19.3561 Y39.9455 I-6.2665 J3.1542
G2 X20.259 Y38.5784 I-5.3712 J-4.5293
G2 X20.26 Y38.5764 I-1.786 J-0.9001
G2 X20.8266 Y37.0003 I-6.2172 J-3.1247
G1 X22.5273 Y37.0002
G1 F50.0 Y39.4002
G1 Z-4.0
G1 F100.0 X34.884 Y39.4001
G2 X35.1857 Y40.0026 I8.5344 J-3.8973
G2 X35.1312 Y40.1034 I8.2659 J4.5302
G1 X22.3357 Y40.1035
G2 X22.2512 Y39.9457 I-8.3428 J4.3647
G2 X22.4022 Y39.6586 I-8.2663 J-4.5295
G2 X22.4044 Y39.6542 I-3.9292 J-1.9803
G2 X22.5273 Y39.4002 I-8.3616 J-4.2025
G1 F50.0 Y38.6002
G1 F100.0 X35.4146 Y38.6001
G2 X36.1108 Y40.003 I8.0037 J-3.0973
G2 X35.7485 Y40.651 I7.3409 J4.5297
G2 X35.7462 Y40.6555 I3.2149 J1.62
G2 X35.6267 Y40.9034 I7.6491 J3.8413
G1 X21.8363 Y40.9035
G2 X21.6895 Y40.5965 I-7.7898 J3.5347
G2 X21.6886 Y40.5947 I-3.2165 J1.6168
G2 X21.326 Y39.9456 I-7.6957 J3.8736
G2 X21.6878 Y39.2985 I-7.3411 J-4.5294
G2 X21.6896 Y39.2949 I-3.2148 J-1.6203
G2 X22.0009 Y38.6002 I-7.6468 J-3.8432
G1 X22.5273
G1 F50.0 Y37.0002
G1 F100.0 X36.5987 Y37.0001
G2 X38.0804 Y40.0036 I6.8197 J-1.4973
G2 X37.1773 Y41.3711 I5.3712 J4.5292
G2 X37.1761 Y41.3735 I1.786 J0.9
G2 X36.7275 Y42.5034 I6.2193 J3.1232
G1 X20.7262 Y42.5036
G2 X20.26 Y41.315 I-6.6797 J1.9347
G2 X20.2595 Y41.314 I-1.787 J0.8982
G2 X19.3561 Y39.9455 I-6.2665 J3.1542
G2 X20.259 Y38.5784 I-5.3712 J-4.5293
G2 X20.26 Y38.5764 I-1.786 J-0.9001
G2 X20.8266 Y37.0003 I-6.2172 J-3.1247
G1 X22.5273 Y37.0002
G1 F50.0 Y39.4002
G1 Z-4.5
G1 F100.0 X34.884 Y39.4001
G2 X35.1857 Y40.0026 I8.5344 J-3.8973
G2 X35.1312 Y40.1034 I8.2659 J4.5302
G1 X22.3357 Y40.1035
G2 X22.2512 Y39.9457 I-8.3428 J4.3647
G2 X22.4022 Y39.6586 I-8.2663 J-4.5295
G2 X22.4044 Y39.6542 I-3.9292 J-1.9803
G2 X22.5273 Y39.4002 I-8.3616 J-4.2025
G1 F50.0 Y38.6002
G1 F100.0 X35.4146 Y38.6001
G2 X36.1108 Y40.003 I8.0037 J-3.0973
G2 X35.7485 Y40.651 I7.3409 J4.5297
G2 X35.7462 Y40.6555 I3.2149 J1.62
G2 X35.6267 Y40.9034 I7.6491 J3.8413
G1 X21.8363 Y40.9035
G2 X21.6895 Y40.5965 I-7.7898 J3.5347
G2 X21.6886 Y40.5947 I-3.2165 J1.6168
G2 X21.326 Y39.9456 I-7.6957 J3.8736
G2 X21.6878 Y39.2985 I-7.3411 J-4.5294
G2 X21.6896 Y39.2949 I-3.2148 J-1.6203
G2 X22.0009 Y38.6002 I-7.6468 J-3.8432
G1 X22.5273
G1 F50.0 Y37.0002
G1 F100.0 X36.5987 Y37.0001
G2 X38.0804 Y40.0036 I6.8197 J-1.4973
G2 X37.1773 Y41.3711 I5.3712 J4.5292
G2 X37.1761 Y41.3735 I1.786 J0.9
G2 X36.7275 Y42.5034 I6.2193 J3.1232
G1 X20.7262 Y42.5036
G2 X20.26 Y41.315 I-6.6797 J1.9347
G2 X20.2595 Y41.314 I-1.787 J0.8982
G2 X19.3561 Y39.9455 I-6.2665 J3.1542
G2 X20.259 Y38.5784 I-5.3712 J-4.5293
G2 X20.26 Y38.5764 I-1.786 J-0.9001
G2 X20.8266 Y37.0003 I-6.2172 J-3.1247
G1 X22.5273 Y37.0002
G0 Z3.0
G0 X50.0364 Y26.0858
G0 Z1.0
G1 F50.0 Z-1.0
G1 F100.0 Y23.9137
G1 X51.1225 Y24.9997
G1 X50.0364 Y26.0858
G1 F50.0 X51.1678 Y27.2172
G1 F100.0 X48.4364 Y29.9485
G1 Y20.0512
G1 X53.3853 Y24.9997
G1 X51.1678 Y27.2172
G1 F50.0 X50.0364 Y26.0858
G1 Z-2.0
G1 F100.0 Y23.9137
G1 X51.1225 Y24.9997
G1 X50.0364 Y26.0858
G1 F50.0 X51.1678 Y27.2172
G1 F100.0 X48.4364 Y29.9485
G1 Y20.0512
G1 X53.3853 Y24.9997
G1 X51.1678 Y27.2172
G1 F50.0 X50.0364 Y26.0858
G1 Z-3.0
G1 F100.0 Y23.9137
G1 X51.1225 Y24.9997
G1 X50.0364 Y26.0858
G1 F50.0 X51.1678 Y27.2172
G1 F100.0 X48.4364 Y29.9485
G1 Y20.0512
G1 X53.3853 Y24.9997
G1 X51.1678 Y27.2172
G1 F50.0 X50.0364 Y26.0858
G1 Z-4.0
G1 F100.0 Y23.9137
G1 X51.1225 Y24.9997
G1 X50.0364 Y26.0858
G1 F50.0 X51.1678 Y27.2172
G1 F100.0 X48.4364 Y29.9485
G1 Y20.0512
G1 X53.3853 Y24.9997
G1 X51.1678 Y27.2172
G1 F50.0 X50.0364 Y26.0858
G1 Z-4.5
G1 F100.0 Y23.9137
G1 X51.1225 Y24.9997
G1 X50.0364 Y26.0858
G1 F50.0 X51.1678 Y27.2172
G1 F100.0 X48.4364 Y29.9485
G1 Y20.0512
G1 X53.3853 Y24.9997
G1 X51.1678 Y27.2172
G0 Z3.0
G0 X59.0421 Y37.4448
G0 Z1.0
G1 F50.0 Z-1.0
G1 F100.0 X59.2431 Y37.6459
G1 X58.841
G1 X59.0421 Y37.4448
G1 F50.0 X60.1735 Y36.3135
G1 F100.0 X63.1058 Y39.2459
G1 X54.9783
G1 X59.0421 Y35.1821
G1 X60.1735 Y36.3135
G1 F50.0 X61.3049 Y35.1821
G1 F100.0 X65.5128 Y39.3902
G2 X65.8803 Y39.9402 I6.5109 J-3.9531
G2 X65.3071 Y40.8459 I6.1161 J4.5058
G1 X51.2167
G2 X51.1841 Y40.7773 I-7.7612 J3.654
G1 X59.0422 Y32.9193
G1 X61.3049 Y35.1821
G1 F50.0 X62.4363 Y34.0508
G1 F100.0 X66.7886 Y38.4032
G2 X68.0362 Y39.9431 I5.2351 J-2.9662
G2 X66.3432 Y42.4459 I3.9602 J4.5029
G1 X50.1247
G2 X49.184 Y40.5146 I-6.6692 J2.054
G1 X59.0422 Y30.6565
G1 X62.4363 Y34.0508
G0 Z3.0
G0 X59.0421 Y37.4448
G0 Z0.0
G1 F50.0 Z-2.0
G1 F100.0 X59.2431 Y37.6459
G1 X58.841
G1 X59.0421 Y37.4448
G1 F50.0 X60.1735 Y36.3135
G1 F100.0 X63.1058 Y39.2459
G1 X54.9783
G1 X59.0421 Y35.1821
G1 X60.1735 Y36.3135
G1 F50.0 X61.3049 Y35.1821
G1 F100.0 X65.5128 Y39.3902
G2 X65.8803 Y39.9402 I6.5109 J-3.9531
G2 X65.3071 Y40.8459 I6.1161 J4.5058
G1 X51.2167
G2 X51.1841 Y40.7773 I-7.7612 J3.654
G1 X59.0422 Y32.9193
G1 X61.3049 Y35.1821
G1 F50.0 X62.4363 Y34.0508
G1 F100.0 X66.7886 Y38.4032
G2 X68.0362 Y39.9431 I5.2351 J-2.9662
G2 X66.3432 Y42.4459 I3.9602 J4.5029
G1 X50.1247
G2 X49.184 Y40.5146 I-6.6692 J2.054
G1 X59.0422 Y30.6565
G1 X62.4363 Y34.0508
G0 Z3.0
G0 X59.0421 Y37.4448
G0 Z-1.0
G1 F50.0 Z-3.0
G1 F100.0 X59.2431 Y37.6459
G1 X58.841
G1 X59.0421 Y37.4448
G1 F50.0 X60.1735 Y36.3135
G1 F100.0 X63.1058 Y39.2459
G1 X54.9783
G1 X59.0421 Y35.1821
G1 X60.1735 Y36.3135
G1 F50.0 X61.3049 Y35.1821
G1 F100.0 X65.5128 Y39.3902
G2 X65.8803 Y39.9402 I6.5109 J-3.9531
G2 X65.3071 Y40.8459 I6.1161 J4.5058
G1 X51.2167
G2 X51.1841 Y40.7773 I-7.7612 J3.654
G1 X59.0422 Y32.9193
G1 X61.3049 Y35.1821
G1 F50.0 X62.4363 Y34.0508
G1 F100.0 X66.7886 Y38.4032
G2 X68.0362 Y39.9431 I5.2351 J-2.9662
G2 X66.3432 Y42.4459 I3.9602 J4.5029
G1 X50.1247
G2 X49.184 Y40.5146 I-6.6692 J2.054
G1 X59.0422 Y30.6565
G1 X62.4363 Y34.0508
G0 Z3.0
G0 X59.0421 Y37.4448
G0 Z-2.0
G1 F50.0 Z-4.0
G1 F100.0 X59.2431 Y37.6459
G1 X58.841
G1 X59.0421 Y37.4448
G1 F50.0 X60.1735 Y36.3135
G1 F100.0 X63.1058 Y39.2459
G1 X54.9783
G1 X59.0421 Y35.1821
G1 X60.1735 Y36.3135
G1 F50.0 X61.3049 Y35.1821
G1 F100.0 X65.5128 Y39.3902
G2 X65.8803 Y39.9402 I6.5109 J-3.9531
G2 X65.3071 Y40.8459 I6.1161 J4.5058
G1 X51.2167
G2 X51.1841 Y40.7773 I-7.7612 J3.654
G1 X59.0422 Y32.9193
G1 X61.3049 Y35.1821
G1 F50.0 X62.4363 Y34.0508
G1 F100.0 X66.7886 Y38.4032
G2 X68.0362 Y39.9431 I5.2351 J-2.9662
G2 X66.3432 Y42.4459 I3.9602 J4.5029
G1 X50.1247
G2 X49.184 Y40.5146 I-6.6692 J2.054
G1 X59.0422 Y30.6565
G1 X62.4363 Y34.0508
G0 Z3.0
G0 X59.0421 Y37.4448
G0 Z-3.0
G1 F50.0 Z-4.5
G1 F100.0 X59.2431 Y37.6459
G1 X58.841
G1 X59.0421 Y37.4448
G1 F50.0 X60.1735 Y36.3135
G1 F100.0 X63.1058 Y39.2459
G1 X54.9783
G1 X59.0421 Y35.1821
G1 X60.1735 Y36.3135
G1 F50.0 X61.3049 Y35.1821
G1 F100.0 X65.5128 Y39.3902
G2 X65.8803 Y39.9402 I6.5109 J-3.9531
G2 X65.3071 Y40.8459 I6.1161 J4.5058
G1 X51.2167
G2 X51.1841 Y40.7773 I-7.7612 J3.654
G1 X59.0422 Y32.9193
G1 X61.3049 Y35.1821
G1 F50.0 X62.4363 Y34.0508
G1 F100.0 X66.7886 Y38.4032
G2 X68.0362 Y39.9431 I5.2351 J-2.9662
G2 X66.3432 Y42.4459 I3.9602 J4.5029
G1 X50.1247
G2 X49.184 Y40.5146 I-6.6692 J2.054
G1 X59.0422 Y30.6565
G1 X62.4363 Y34.0508
G0 Z3.0
G0 X67.2372 Y26.4065
G0 Z1.0
G1 F50.0 Z-1.0
G1 F100.0 X65.8304 Y24.9997
G1 X67.2372 Y23.5929
G1 Y26.4065
G1 F50.0 X68.0372
G1 F100.0 Y28.3379
G1 X64.6991 Y24.9997
G1 X68.0372 Y21.6615
G1 Y26.4065
G1 F50.0 X67.2372
G1 Z-2.0
G1 F100.0 X65.8304 Y24.9997
G1 X67.2372 Y23.5929
G1 Y26.4065
G1 F50.0 X68.0372
G1 F100.0 Y28.3379
G1 X64.6991 Y24.9997
G1 X68.0372 Y21.6615
G1 Y26.4065
G1 F50.0 X67.2372
G1 Z-3.0
G1 F100.0 X65.8304 Y24.9997
G1 X67.2372 Y23.5929
G1 Y26.4065
G1 F50.0 X68.0372
G1 F100.0 Y28.3379
G1 X64.6991 Y24.9997
G1 X68.0372 Y21.6615
G1 Y26.4065
G1 F50.0 X67.2372
G1 Z-4.0
G1 F100.0 X65.8304 Y24.9997
G1 X67.2372 Y23.5929
G1 Y26.4065
G1 F50.0 X68.0372
G1 F100.0 Y28.3379
G1 X64.6991 Y24.9997
G1 X68.0372 Y21.6615
G1 Y26.4065
G1 F50.0 X67.2372
G1 Z-4.5
G1 F100.0 X65.8304 Y24.9997
G1 X67.2372 Y23.5929
G1 Y26.4065
G1 F50.0 X68.0372
G1 F100.0 Y28.3379
G1 X64.6991 Y24.9997
G1 X68.0372 Y21.6615
G1 Y26.4065
G0 Z3.0
G0 X59.0422 Y12.5548
G0 Z1.0
G1 F50.0 Z-1.0
G1 F100.0 X58.2294 Y11.742
G1 X59.855
G1 X59.0422 Y12.5548
G1 F50.0 X60.1736 Y13.6862
G1 F100.0 X59.0422 Y14.8175
G1 X54.3665 Y10.142
G1 X63.7179
G1 X60.1736 Y13.6862
G1 F50.0 X61.3049 Y14.8176
G1 F100.0 X59.0422 Y17.0802
G1 X50.9976 Y9.0359
G2 X51.1238 Y8.7949 I-7.588 J-4.1263
G2 X51.1258 Y8.791 I-3.2152 J-1.6194
G2 X51.2459 Y8.542 I-7.652 J-3.8424
G1 X65.0599
G2 X65.8779 Y9.9474 I6.9377 J-3.0974
G2 X65.3487 Y10.774 I6.1384 J4.5131
G1 X61.3049 Y14.8176
G1 F50.0 X62.4363 Y15.949
G1 F100.0 X59.0422 Y19.3429
G1 X48.949 Y9.2501
G2 X49.6948 Y8.0752 I-5.5394 J-4.3405
G2 X49.6959 Y8.073 I-1.7862 J-0.8997
G2 X50.1449 Y6.942 I-6.2221 J-3.1244
G1 X66.1898
G2 X68.0348 Y9.9467 I5.8078 J-1.4974
G2 X66.6493 Y11.7361 I3.9815 J4.5138
G1 X62.4363 Y15.949
G0 Z3.0
G0 X59.0422 Y12.5548
G0 Z0.0
G1 F50.0 Z-2.0
G1 F100.0 X58.2294 Y11.742
G1 X59.855
G1 X59.0422 Y12.5548
G1 F50.0 X60.1736 Y13.6862
G1 F100.0 X59.0422 Y14.8175
G1 X54.3665 Y10.142
G1 X63.7179
G1 X60.1736 Y13.6862
G1 F50.0 X61.3049 Y14.8176
G1 F100.0 X59.0422 Y17.0802
G1 X50.9976 Y9.0359
G2 X51.1238 Y8.7949 I-7.588 J-4.1263
G2 X51.1258 Y8.791 I-3.2152 J-1.6194
G2 X51.2459 Y8.542 I-7.652 J-3.8424
G1 X65.0599
G2 X65.8779 Y9.9474 I6.9377 J-3.0974
G2 X65.3487 Y10.774 I6.1384 J4.5131
G1 X61.3049 Y14.8176
G1 F50.0 X62.4363 Y15.949
G1 F100.0 X59.0422 Y19.3429
G1 X48.949 Y9.2501
G2 X49.6948 Y8.0752 I-5.5394 J-4.3405
G2 X49.6959 Y8.073 I-1.7862 J-0.8997
G2 X50.1449 Y6.942 I-6.2221 J-3.1244
G1 X66.1898
G2 X68.0348 Y9.9467 I5.8078 J-1.4974
G2 X66.6493 Y11.7361 I3.9815 J4.5138
G1 X62.4363 Y15.949
G0 Z3.0
G0 X59.0422 Y12.5548
G0 Z-1.0
G1 F50.0 Z-3.0
G1 F100.0 X58.2294 Y11.742
G1 X59.855
G1 X59.0422 Y12.5548
G1 F50.0 X60.1736 Y13.6862
G1 F100.0 X59.0422 Y14.8175
G1 X54.3665 Y10.142
G1 X63.7179
G1 X60.1736 Y13.6862
G1 F50.0 X61.3049 Y14.8176
G1 F100.0 X59.0422 Y17.0802
G1 X50.9976 Y9.0359
G2 X51.1238 Y8.7949 I-7.588 J-4.1263
G2 X51.1258 Y8.791 I-3.2152 J-1.6194
G2 X51.2459 Y8.542 I-7.652 J-3.8424
G1 X65.0599
G2 X65.8779 Y9.9474 I6.9377 J-3.0974
G2 X65.3487 Y10.774 I6.1384 J4.5131
G1 X61.3049 Y14.8176
G1 F50.0 X62.4363 Y15.949
G1 F100.0 X59.0422 Y19.3429
G1 X48.949 Y9.2501
G2 X49.6948 Y8.0752 I-5.5394 J-4.3405
G2 X49.6959 Y8.073 I-1.7862 J-0.8997
G2 X50.1449 Y6.942 I-6.2221 J-3.1244
G1 X66.1898
G2 X68.0348 Y9.9467 I5.8078 J-1.4974
G2 X66.6493 Y11.7361 I3.9815 J4.5138
G1 X62.4363 Y15.949
G0 Z3.0
G0 X59.0422 Y12.5548
G0 Z-2.0
G1 F50.0 Z-4.0
G1 F100.0 X58.2294 Y11.742
G1 X59.855
G1 X59.0422 Y12.5548
G1 F50.0 X60.1736 Y13.6862
G1 F100.0 X59.0422 Y14.8175
G1 X54.3665 Y10.142
G1 X63.7179
G1 X60.1736 Y13.6862
G1 F50.0 X61.3049 Y14.8176
G1 F100.0 X59.0422 Y17.0802
G1 X50.9976 Y9.0359
G2 X51.1238 Y8.7949 I-7.588 J-4.1263
G2 X51.1258 Y8.791 I-3.2152 J-1.6194
G2 X51.2459 Y8.542 I-7.652 J-3.8424
G1 X65.0599
G2 X65.8779 Y9.9474 I6.9377 J-3.0974
G2 X65.3487 Y10.774 I6.1384 J4.5131
G1 X61.3049 Y14.8176
G1 F50.0 X62.4363 Y15.949
G1 F100.0 X59.0422 Y19.3429
G1 X48.949 Y9.2501
G2 X49.6948 Y8.0752 I-5.5394 J-4.3405
G2 X49.6959 Y8.073 I-1.7862 J-0.8997
G2 X50.1449 Y6.942 I-6.2221 J-3.1244
G1 X66.1898
G2 X68.0348 Y9.9467 I5.8078 J-1.4974
G2 X66.6493 Y11.7361 I3.9815 J4.5138
G1 X62.4363 Y15.949
G0 Z3.0
G0 X59.0422 Y12.5548
G0 Z-3.0
G1 F50.0 Z-4.5
G1 F100.0 X58.2294 Y11.742
G1 X59.855
G1 X59.0422 Y12.5548
G1 F50.0 X60.1736 Y13.6862
G1 F100.0 X59.0422 Y14.8175
G1 X54.3665 Y10.142
G1 X63.7179
G1 X60.1736 Y13.6862
G1 F50.0 X61.3049 Y14.8176
G1 F100.0 X59.0422 Y17.0802
G1 X50.9976 Y9.0359
G2 X51.1238 Y8.7949 I-7.588 J-4.1263
G2 X51.1258 Y8.791 I-3.2152 J-1.6194
G2 X51.2459 Y8.542 I-7.652 J-3.8424
G1 X65.0599
G2 X65.8779 Y9.9474 I6.9377 J-3.0974
G2 X65.3487 Y10.774 I6.1384 J4.5131
G1 X61.3049 Y14.8176
G1 F50.0 X62.4363 Y15.949
G1 F100.0 X59.0422 Y19.3429
G1 X48.949 Y9.2501
G2 X49.6948 Y8.0752 I-5.5394 J-4.3405
G2 X49.6959 Y8.073 I-1.7862 J-0.8997
G2 X50.1449 Y6.942 I-6.2221 J-3.1244
G1 X66.1898
G2 X68.0348 Y9.9467 I5.8078 J-1.4974
G2 X66.6493 Y11.7361 I3.9815 J4.5138
G1 X62.4363 Y15.949
G0 Z3.0
G0 X79.0934 Y9.9458
G0 Z1.0
G1 F50.0 Z-1.0
G2 F100.0 X79.4723 Y9.2845 I-7.086 J-4.4984
G1 X96.6952
G2 X96.9088 Y9.6654 I8.2933 J-4.4
G2 X96.6949 Y10.046 I8.1206 J4.8148
G1 X79.156
G2 X79.0934 Y9.9458 I-7.15 J4.3987
G1 F50.0 X78.418 Y9.5171
G2 F100.0 X78.9669 Y8.4845 I-6.4106 J-4.0696
G1 X97.1912
G2 X97.8543 Y9.6657 I7.7973 J-3.6
G2 X97.313 Y10.592 I7.1752 J4.8144
G2 X97.3107 Y10.5966 I3.2149 J1.62
G2 X97.1905 Y10.846 I7.6527 J3.8424
G1 X78.694
G2 X78.1248 Y9.9458 I-6.688 J3.5987
G2 X78.418 Y9.5171 I-6.1174 J-4.4984
G1 F50.0 X77.0672 Y8.6595
G2 F100.0 X77.8259 Y6.8845 I-5.0598 J-3.2121
G1 X98.2926
G2 X99.892 Y9.6658 I6.6959 J-2.0
G2 X98.7419 Y11.3119 I5.1374 J4.8144
G2 X98.7406 Y11.3145 I1.7861 J0.9
G2 X98.2916 Y12.446 I6.2228 J3.1244
G1 X77.6577
G2 X76.2706 Y10.2316 I-5.6517 J1.9987
G1 Y9.6599
G2 X77.0672 Y8.6595 I-4.2631 J-4.2125
G1 F50.0 X79.0934 Y9.9458
G1 Z-2.0
G2 F100.0 X79.4723 Y9.2845 I-7.086 J-4.4984
G1 X96.6952
G2 X96.9088 Y9.6654 I8.2933 J-4.4
G2 X96.6949 Y10.046 I8.1206 J4.8148
G1 X79.156
G2 X79.0934 Y9.9458 I-7.15 J4.3987
G1 F50.0 X78.418 Y9.5171
G2 F100.0 X78.9669 Y8.4845 I-6.4106 J-4.0696
G1 X97.1912
G2 X97.8543 Y9.6657 I7.7973 J-3.6
G2 X97.313 Y10.592 I7.1752 J4.8144
G2 X97.3107 Y10.5966 I3.2149 J1.62
G2 X97.1905 Y10.846 I7.6527 J3.8424
G1 X78.694
G2 X78.1248 Y9.9458 I-6.688 J3.5987
G2 X78.418 Y9.5171 I-6.1174 J-4.4984
G1 F50.0 X77.0672 Y8.6595
G2 F100.0 X77.8259 Y6.8845 I-5.0598 J-3.2121
G1 X98.2926
G2 X99.892 Y9.6658 I6.6959 J-2.0
G2 X98.7419 Y11.3119 I5.1374 J4.8144
G2 X98.7406 Y11.3145 I1.7861 J0.9
G2 X98.2916 Y12.446 I6.2228 J3.1244
G1 X77.6577
G2 X76.2706 Y10.2316 I-5.6517 J1.9987
G1 Y9.6599
G2 X77.0672 Y8.6595 I-4.2631 J-4.2125
G1 F50.0 X79.0934 Y9.9458
G1 Z-3.0
G2 F100.0 X79.4723 Y9.2845 I-7.086 J-4.4984
G1 X96.6952
G2 X96.9088 Y9.6654 I8.2933 J-4.4
G2 X96.6949 Y10.046 I8.1206 J4.8148
G1 X79.156
G2 X79.0934 Y9.9458 I-7.15 J4.3987
G1 F50.0 X78.418 Y9.5171
G2 F100.0 X78.9669 Y8.4845 I-6.4106 J-4.0696
G1 X97.1912
G2 X97.8543 Y9.6657 I7.7973 J-3.6
G2 X97.313 Y10.592 I7.1752 J4.8144
G2 X97.3107 Y10.5966 I3.2149 J1.62
G2 X97.1905 Y10.846 I7.6527 J3.8424
G1 X78.694
G2 X78.1248 Y9.9458 I-6.688 J3.5987
G2 X78.418 Y9.5171 I-6.1174 J-4.4984
G1 F50.0 X77.0672 Y8.6595
G2 F100.0 X77.8259 Y6.8845 I-5.0598 J-3.2121
G1 X98.2926
G2 X99.892 Y9.6658 I6.6959 J-2.0
G2 X98.7419 Y11.3119 I5.1374 J4.8144
G2 X98.7406 Y11.3145 I1.7861 J0.9
G2 X98.2916 Y12.446 I6.2228 J3.1244
G1 X77.6577
G2 X76.2706 Y10.2316 I-5.6517 J1.9987
G1 Y9.6599
G2 X77.0672 Y8.6595 I-4.2631 J-4.2125
G1 F50.0 X79.0934 Y9.9458
G1 Z-4.0
G2 F100.0 X79.4723 Y9.2845 I-7.086 J-4.4984
G1 X96.6952
G2 X96.9088 Y9.6654 I8.2933 J-4.4
G2 X96.6949 Y10.046 I8.1206 J4.8148
G1 X79.156
G2 X79.0934 Y9.9458 I-7.15 J4.3987
G1 F50.0 X78.418 Y9.5171
G2 F100.0 X78.9669 Y8.4845 I-6.4106 J-4.0696
G1 X97.1912
G2 X97.8543 Y9.6657 I7.7973 J-3.6
G2 X97.313 Y10.592 I7.1752 J4.8144
G2 X97.3107 Y10.5966 I3.2149 J1.62
G2 X97.1905 Y10.846 I7.6527 J3.8424
G1 X78.694
G2 X78.1248 Y9.9458 I-6.688 J3.5987
G2 X78.418 Y9.5171 I-6.1174 J-4.4984
G1 F50.0 X77.0672 Y8.6595
G2 F100.0 X77.8259 Y6.8845 I-5.0598 J-3.2121
G1 X98.2926
G2 X99.892 Y9.6658 I6.6959 J-2.0
G2 X98.7419 Y11.3119 I5.1374 J4.8144
G2 X98.7406 Y11.3145 I1.7861 J0.9
G2 X98.2916 Y12.446 I6.2228 J3.1244
G1 X77.6577
G2 X76.2706 Y10.2316 I-5.6517 J1.9987
G1 Y9.6599
G2 X77.0672 Y8.6595 I-4.2631 J-4.2125
G1 F50.0 X79.0934 Y9.9458
G1 Z-4.5
G2 F100.0 X79.4723 Y9.2845 I-7.086 J-4.4984
G1 X96.6952
G2 X96.9088 Y9.6654 I8.2933 J-4.4
G2 X96.6949 Y10.046 I8.1206 J4.8148
G1 X79.156
G2 X79.0934 Y9.9458 I-7.15 J4.3987
G1 F50.0 X78.418 Y9.5171
G2 F100.0 X78.9669 Y8.4845 I-6.4106 J-4.0696
G1 X97.1912
G2 X97.8543 Y9.6657 I7.7973 J-3.6
G2 X97.313 Y10.592 I7.1752 J4.8144
G2 X97.3107 Y10.5966 I3.2149 J1.62
G2 X97.1905 Y10.846 I7.6527 J3.8424
G1 X78.694
G2 X78.1248 Y9.9458 I-6.688 J3.5987
G2 X78.418 Y9.5171 I-6.1174 J-4.4984
G1 F50.0 X77.0672 Y8.6595
G2 F100.0 X77.8259 Y6.8845 I-5.0598 J-3.2121
G1 X98.2926
G2 X99.892 Y9.6658 I6.6959 J-2.0
G2 X98.7419 Y11.3119 I5.1374 J4.8144
G2 X98.7406 Y11.3145 I1.7861 J0.9
G2 X98.2916 Y12.446 I6.2228 J3.1244
G1 X77.6577
G2 X76.2706 Y10.2316 I-5.6517 J1.9987
G1 Y9.6599
G2 X77.0672 Y8.6595 I-4.2631 J-4.2125
G0 Z3.0
G0 X79.156 Y39.8456
G0 Z1.0
G1 F50.0 Z-1.0
G1 F100.0 X96.6961
G2 X96.7498 Y39.9451 I8.3188 J-4.428
G2 X96.6954 Y40.0459 I8.2648 J4.5287
G1 X79.156
G2 X79.0934 Y39.9457 I-7.15 J4.3987
G2 X79.156 Y39.8456 I-7.086 J-4.4984
G1 F50.0 Y39.0456
G1 F100.0 X97.1914
G2 X97.3124 Y39.296 I7.7527 J-3.5906
G2 X97.3129 Y39.297 I3.2157 J-1.6185
G2 X97.6751 Y39.9451 I7.702 J-3.8795
G2 X97.3125 Y40.5937 I7.3395 J4.5287
G2 X97.3119 Y40.5949 I3.2151 J1.6197
G2 X97.1907 Y40.8459 I7.631 J3.8407
G1 X78.694
G2 X78.1248 Y39.9457 I-6.688 J3.5987
G2 X78.694 Y39.0456 I-6.1174 J-4.4984
G1 X79.156
G1 F50.0 Y37.4456
G1 F100.0 X98.2917
G2 X98.7416 Y38.5767 I6.6524 J-1.9906
G2 X98.7418 Y38.5773 I1.7865 J-0.8991
G2 X99.6451 Y39.9453 I6.273 J-3.1597
G2 X98.7415 Y41.3136 I5.3696 J4.5286
G2 X98.7411 Y41.3142 I1.7862 J0.8998
G2 X98.2911 Y42.4459 I6.2018 J3.1214
G1 X77.6577
G2 X76.2706 Y40.2315 I-5.6517 J1.9987
G1 Y39.6598
G2 X77.6578 Y37.4456 I-4.2631 J-4.2125
G1 X79.156
G1 F50.0 Y39.8456
G1 Z-2.0
G1 F100.0 X96.6961
G2 X96.7498 Y39.9451 I8.3188 J-4.428
G2 X96.6954 Y40.0459 I8.2648 J4.5287
G1 X79.156
G2 X79.0934 Y39.9457 I-7.15 J4.3987
G2 X79.156 Y39.8456 I-7.086 J-4.4984
G1 F50.0 Y39.0456
G1 F100.0 X97.1914
G2 X97.3124 Y39.296 I7.7527 J-3.5906
G2 X97.3129 Y39.297 I3.2157 J-1.6185
G2 X97.6751 Y39.9451 I7.702 J-3.8795
G2 X97.3125 Y40.5937 I7.3395 J4.5287
G2 X97.3119 Y40.5949 I3.2151 J1.6197
G2 X97.1907 Y40.8459 I7.631 J3.8407
G1 X78.694
G2 X78.1248 Y39.9457 I-6.688 J3.5987
G2 X78.694 Y39.0456 I-6.1174 J-4.4984
G1 X79.156
G1 F50.0 Y37.4456
G1 F100.0 X98.2917
G2 X98.7416 Y38.5767 I6.6524 J-1.9906
G2 X98.7418 Y38.5773 I1.7865 J-0.8991
G2 X99.6451 Y39.9453 I6.273 J-3.1597
G2 X98.7415 Y41.3136 I5.3696 J4.5286
G2 X98.7411 Y41.3142 I1.7862 J0.8998
G2 X98.2911 Y42.4459 I6.2018 J3.1214
G1 X77.6577
G2 X76.2706 Y40.2315 I-5.6517 J1.9987
G1 Y39.6598
G2 X77.6578 Y37.4456 I-4.2631 J-4.2125
G1 X79.156
G1 F50.0 Y39.8456
G1 Z-3.0
G1 F100.0 X96.6961
G2 X96.7498 Y39.9451 I8.3188 J-4.428
G2 X96.6954 Y40.0459 I8.2648 J4.5287
G1 X79.156
G2 X79.0934 Y39.9457 I-7.15 J4.3987
G2 X79.156 Y39.8456 I-7.086 J-4.4984
G1 F50.0 Y39.0456
G1 F100.0 X97.1914
G2 X97.3124 Y39.296 I7.7527 J-3.5906
G2 X97.3129 Y39.297 I3.2157 J-1.6185
G2 X97.6751 Y39.9451 I7.702 J-3.8795
G2 X97.3125 Y40.5937 I7.3395 J4.5287
G2 X97.3119 Y40.5949 I3.2151 J1.6197
G2 X97.1907 Y40.8459 I7.631 J3.8407
G1 X78.694
G2 X78.1248 Y39.9457 I-6.688 J3.5987
G2 X78.694 Y39.0456 I-6.1174 J-4.4984
G1 X79.156
G1 F50.0 Y37.4456
G1 F100.0 X98.2917
G2 X98.7416 Y38.5767 I6.6524 J-1.9906
G2 X98.7418 Y38.5773 I1.7865 J-0.8991
G2 X99.6451 Y39.9453 I6.273 J-3.1597
G2 X98.7415 Y41.3136 I5.3696 J4.5286
G2 X98.7411 Y41.3142 I1.7862 J0.8998
G2 X98.2911 Y42.4459 I6.2018 J3.1214
G1 X77.6577
G2 X76.2706 Y40.2315 I-5.6517 J1.9987
G1 Y39.6598
G2 X77.6578 Y37.4456 I-4.2631 J-4.2125
G1 X79.156
G1 F50.0 Y39.8456
G1 Z-4.0
G1 F100.0 X96.6961
G2 X96.7498 Y39.9451 I8.3188 J-4.428
G2 X96.6954 Y40.0459 I8.2648 J4.5287
G1 X79.156
G2 X79.0934 Y39.9457 I-7.15 J4.3987
G2 X79.156 Y39.8456 I-7.086 J-4.4984
G1 F50.0 Y39.0456
G1 F100.0 X97.1914
G2 X97.3124 Y39.296 I7.7527 J-3.5906
G2 X97.3129 Y39.297 I3.2157 J-1.6185
G2 X97.6751 Y39.9451 I7.702 J-3.8795
G2 X97.3125 Y40.5937 I7.3395 J4.5287
G2 X97.3119 Y40.5949 I3.2151 J1.6197
G2 X97.1907 Y40.8459 I7.631 J3.8407
G1 X78.694
G2 X78.1248 Y39.9457 I-6.688 J3.5987
G2 X78.694 Y39.0456 I-6.1174 J-4.4984
G1 X79.156
G1 F50.0 Y37.4456
G1 F100.0 X98.2917
G2 X98.7416 Y38.5767 I6.6524 J-1.9906
G2 X98.7418 Y38.5773 I1.7865 J-0.8991
G2 X99.6451 Y39.9453 I6.273 J-3.1597
G2 X98.7415 Y41.3136 I5.3696 J4.5286
G2 X98.7411 Y41.3142 I1.7862 J0.8998
G2 X98.2911 Y42.4459 I6.2018 J3.1214
G1 X77.6577
G2 X76.2706 Y40.2315 I-5.6517 J1.9987
G1 Y39.6598
G2 X77.6578 Y37.4456 I-4.2631 J-4.2125
G1 X79.156
G1 F50.0 Y39.8456
G1 Z-4.5
G1 F100.0 X96.6961
G2 X96.7498 Y39.9451 I8.3188 J-4.428
G2 X96.6954 Y40.0459 I8.2648 J4.5287
G1 X79.156
G2 X79.0934 Y39.9457 I-7.15 J4.3987
G2 X79.156 Y39.8456 I-7.086 J-4.4984
G1 F50.0 Y39.0456
G1 F100.0 X97.1914
G2 X97.3124 Y39.296 I7.7527 J-3.5906
G2 X97.3129 Y39.297 I3.2157 J-1.6185
G2 X97.6751 Y39.9451 I7.702 J-3.8795
G2 X97.3125 Y40.5937 I7.3395 J4.5287
G2 X97.3119 Y40.5949 I3.2151 J1.6197
G2 X97.1907 Y40.8459 I7.631 J3.8407
G1 X78.694
G2 X78.1248 Y39.9457 I-6.688 J3.5987
G2 X78.694 Y39.0456 I-6.1174 J-4.4984
G1 X79.156
G1 F50.0 Y37.4456
G1 F100.0 X98.2917
G2 X98.7416 Y38.5767 I6.6524 J-1.9906
G2 X98.7418 Y38.5773 I1.7865 J-0.8991
G2 X99.6451 Y39.9453 I6.273 J-3.1597
G2 X98.7415 Y41.3136 I5.3696 J4.5286
G2 X98.7411 Y41.3142 I1.7862 J0.8998
G2 X98.2911 Y42.4459 I6.2018 J3.1214
G1 X77.6577
G2 X76.2706 Y40.2315 I-5.6517 J1.9987
G1 Y39.6598
G2 X77.6578 Y37.4456 I-4.2631 J-4.2125
G1 X79.156
G0 Z3.0
M5
M30
