( Made using CamBam - http://www.cambam.co.uk )
( picker head - front plate 9/1/2013 2:41:12 PM )
( T2 : 2.0 )
G21 G90 G64 G40
G0 Z3.0
( T2 : 2.0 )
T2 M6
( 2mm pocket profile )
G17
M3 S1000
G0 X18.0015 Y9.9791
G0 Z1.0
G1 F50.0 Z-1.0
G1 F70.0 Y9.3508
G2 X19.3671 Y7.5671 I-4.0133 J-4.4873
G2 X19.3673 Y7.5669 I-0.8935 J-0.4491
G2 X19.9181 Y5.8845 I-5.3264 J-2.6754
G1 X37.5103
G2 X39.2253 Y9.2139 I5.9123 J-0.9389
G1 Y10.2307
G2 X37.4567 Y13.9999 I4.1947 J4.2678
G1 X19.9842
G2 X18.0015 Y9.9791 I-5.9712 J0.4451
G1 F50.0 Z-2.0
G1 F70.0 Y9.3508
G2 X19.3671 Y7.5671 I-4.0133 J-4.4873
G2 X19.3673 Y7.5669 I-0.8935 J-0.4491
G2 X19.9181 Y5.8845 I-5.3264 J-2.6754
G1 X37.5103
G2 X39.2253 Y9.2139 I5.9123 J-0.9389
G1 Y10.2307
G2 X37.4567 Y13.9999 I4.1947 J4.2678
G1 X19.9842
G2 X18.0015 Y9.9791 I-5.9712 J0.4451
G1 F50.0 Z-3.0
G1 F70.0 Y9.3508
G2 X19.3671 Y7.5671 I-4.0133 J-4.4873
G2 X19.3673 Y7.5669 I-0.8935 J-0.4491
G2 X19.9181 Y5.8845 I-5.3264 J-2.6754
G1 X37.5103
G2 X39.2253 Y9.2139 I5.9123 J-0.9389
G1 Y10.2307
G2 X37.4567 Y13.9999 I4.1947 J4.2678
G1 X19.9842
G2 X18.0015 Y9.9791 I-5.9712 J0.4451
G1 F50.0 Z-4.0
G1 F70.0 Y9.3508
G2 X19.3671 Y7.5671 I-4.0133 J-4.4873
G2 X19.3673 Y7.5669 I-0.8935 J-0.4491
G2 X19.9181 Y5.8845 I-5.3264 J-2.6754
G1 X37.5103
G2 X39.2253 Y9.2139 I5.9123 J-0.9389
G1 Y10.2307
G2 X37.4567 Y13.9999 I4.1947 J4.2678
G1 X19.9842
G2 X18.0015 Y9.9791 I-5.9712 J0.4451
G1 F50.0 Z-4.5
G1 F70.0 Y9.3508
G2 X19.3671 Y7.5671 I-4.0133 J-4.4873
G2 X19.3673 Y7.5669 I-0.8935 J-0.4491
G2 X19.9181 Y5.8845 I-5.3264 J-2.6754
G1 X37.5103
G2 X39.2253 Y9.2139 I5.9123 J-0.9389
G1 Y10.2307
G2 X37.4567 Y13.9999 I4.1947 J4.2678
G1 X19.9842
G2 X18.0015 Y9.9791 I-5.9712 J0.4451
G0 Z3.0
G0 X19.9758 Y36.0003
G0 Z1.0
G1 F50.0 Z-1.0
G1 F70.0 X37.4569 Y36.0001
G2 X39.4358 Y39.9666 I5.9614 J-0.4973
G1 Y40.04
G2 X38.0703 Y41.8211 I4.0159 J4.4927
G2 X38.0697 Y41.8223 I0.893 J0.45
G2 X37.5193 Y43.5034 I5.3256 J2.6744
G1 X19.9269 Y43.5036
G2 X19.3665 Y41.7641 I-5.8804 J0.9347
G2 X19.3662 Y41.7636 I-0.8935 J0.4491
G2 X18.0002 Y39.9817 I-5.3733 J2.7046
G1 Y39.9095
G2 X19.366 Y38.1283 I-4.0153 J-4.4933
G2 X19.3665 Y38.1273 I-0.893 J-0.4501
G2 X19.9758 Y36.0003 I-5.3237 J-2.6756
G1 F50.0 Z-2.0
G1 F70.0 X37.4569 Y36.0001
G2 X39.4358 Y39.9666 I5.9614 J-0.4973
G1 Y40.04
G2 X38.0703 Y41.8211 I4.0159 J4.4927
G2 X38.0697 Y41.8223 I0.893 J0.45
G2 X37.5193 Y43.5034 I5.3256 J2.6744
G1 X19.9269 Y43.5036
G2 X19.3665 Y41.7641 I-5.8804 J0.9347
G2 X19.3662 Y41.7636 I-0.8935 J0.4491
G2 X18.0002 Y39.9817 I-5.3733 J2.7046
G1 Y39.9095
G2 X19.366 Y38.1283 I-4.0153 J-4.4933
G2 X19.3665 Y38.1273 I-0.893 J-0.4501
G2 X19.9758 Y36.0003 I-5.3237 J-2.6756
G1 F50.0 Z-3.0
G1 F70.0 X37.4569 Y36.0001
G2 X39.4358 Y39.9666 I5.9614 J-0.4973
G1 Y40.04
G2 X38.0703 Y41.8211 I4.0159 J4.4927
G2 X38.0697 Y41.8223 I0.893 J0.45
G2 X37.5193 Y43.5034 I5.3256 J2.6744
G1 X19.9269 Y43.5036
G2 X19.3665 Y41.7641 I-5.8804 J0.9347
G2 X19.3662 Y41.7636 I-0.8935 J0.4491
G2 X18.0002 Y39.9817 I-5.3733 J2.7046
G1 Y39.9095
G2 X19.366 Y38.1283 I-4.0153 J-4.4933
G2 X19.3665 Y38.1273 I-0.893 J-0.4501
G2 X19.9758 Y36.0003 I-5.3237 J-2.6756
G1 F50.0 Z-4.0
G1 F70.0 X37.4569 Y36.0001
G2 X39.4358 Y39.9666 I5.9614 J-0.4973
G1 Y40.04
G2 X38.0703 Y41.8211 I4.0159 J4.4927
G2 X38.0697 Y41.8223 I0.893 J0.45
G2 X37.5193 Y43.5034 I5.3256 J2.6744
G1 X19.9269 Y43.5036
G2 X19.3665 Y41.7641 I-5.8804 J0.9347
G2 X19.3662 Y41.7636 I-0.8935 J0.4491
G2 X18.0002 Y39.9817 I-5.3733 J2.7046
G1 Y39.9095
G2 X19.366 Y38.1283 I-4.0153 J-4.4933
G2 X19.3665 Y38.1273 I-0.893 J-0.4501
G2 X19.9758 Y36.0003 I-5.3237 J-2.6756
G1 F50.0 Z-4.5
G1 F70.0 X37.4569 Y36.0001
G2 X39.4358 Y39.9666 I5.9614 J-0.4973
G1 Y40.04
G2 X38.0703 Y41.8211 I4.0159 J4.4927
G2 X38.0697 Y41.8223 I0.893 J0.45
G2 X37.5193 Y43.5034 I5.3256 J2.6744
G1 X19.9269 Y43.5036
G2 X19.3665 Y41.7641 I-5.8804 J0.9347
G2 X19.3662 Y41.7636 I-0.8935 J0.4491
G2 X18.0002 Y39.9817 I-5.3733 J2.7046
G1 Y39.9095
G2 X19.366 Y38.1283 I-4.0153 J-4.4933
G2 X19.3665 Y38.1273 I-0.893 J-0.4501
G2 X19.9758 Y36.0003 I-5.3237 J-2.6756
G0 Z3.0
G0 X47.4364 Y31.039
G0 Z1.0
G1 F50.0 Z-1.0
G1 F70.0 Y18.9662
G2 X48.085 Y18.2855 I-4.0284 J-4.4876
G1 X54.7996 Y24.9997
G1 X48.0827 Y31.7164
G2 X47.4364 Y31.039 I-4.6648 J3.8032
G1 F50.0 Z-2.0
G1 F70.0 Y18.9662
G2 X48.085 Y18.2855 I-4.0284 J-4.4876
G1 X54.7996 Y24.9997
G1 X48.0827 Y31.7164
G2 X47.4364 Y31.039 I-4.6648 J3.8032
G1 F50.0 Z-3.0
G1 F70.0 Y18.9662
G2 X48.085 Y18.2855 I-4.0284 J-4.4876
G1 X54.7996 Y24.9997
G1 X48.0827 Y31.7164
G2 X47.4364 Y31.039 I-4.6648 J3.8032
G1 F50.0 Z-4.0
G1 F70.0 Y18.9662
G2 X48.085 Y18.2855 I-4.0284 J-4.4876
G1 X54.7996 Y24.9997
G1 X48.0827 Y31.7164
G2 X47.4364 Y31.039 I-4.6648 J3.8032
G1 F50.0 Z-4.5
G1 F70.0 Y18.9662
G2 X48.085 Y18.2855 I-4.0284 J-4.4876
G1 X54.7996 Y24.9997
G1 X48.0827 Y31.7164
G2 X47.4364 Y31.039 I-4.6648 J3.8032
G0 Z3.0
G0 X52.3409 Y35.9436
G0 Z1.0
G1 F50.0 Z-1.0
G1 F70.0 X59.0422 Y29.2423
G1 X67.5962 Y37.7966
G2 X69.0372 Y39.4684 I4.4275 J-2.3595
G1 Y40.4199
G2 X67.1009 Y43.4459 I2.9592 J4.0261
G1 X49.3402
G2 X47.8442 Y40.4402 I-5.8847 J1.054
G1 X52.3409 Y35.9436
G1 F50.0 Z-2.0
G1 F70.0 X59.0422 Y29.2423
G1 X67.5962 Y37.7966
G2 X69.0372 Y39.4684 I4.4275 J-2.3595
G1 Y40.4199
G2 X67.1009 Y43.4459 I2.9592 J4.0261
G1 X49.3402
G2 X47.8442 Y40.4402 I-5.8847 J1.054
G1 X52.3409 Y35.9436
G1 F50.0 Z-3.0
G1 F70.0 X59.0422 Y29.2423
G1 X67.5962 Y37.7966
G2 X69.0372 Y39.4684 I4.4275 J-2.3595
G1 Y40.4199
G2 X67.1009 Y43.4459 I2.9592 J4.0261
G1 X49.3402
G2 X47.8442 Y40.4402 I-5.8847 J1.054
G1 X52.3409 Y35.9436
G1 F50.0 Z-4.0
G1 F70.0 X59.0422 Y29.2423
G1 X67.5962 Y37.7966
G2 X69.0372 Y39.4684 I4.4275 J-2.3595
G1 Y40.4199
G2 X67.1009 Y43.4459 I2.9592 J4.0261
G1 X49.3402
G2 X47.8442 Y40.4402 I-5.8847 J1.054
G1 X52.3409 Y35.9436
G1 F50.0 Z-4.5
G1 F70.0 X59.0422 Y29.2423
G1 X67.5962 Y37.7966
G2 X69.0372 Y39.4684 I4.4275 J-2.3595
G1 Y40.4199
G2 X67.1009 Y43.4459 I2.9592 J4.0261
G1 X49.3402
G2 X47.8442 Y40.4402 I-5.8847 J1.054
G1 X52.3409 Y35.9436
G0 Z3.0
G0 X63.2849 Y24.9997
G0 Z1.0
G1 F50.0 Z-1.0
G1 F70.0 X69.0372 Y19.2473
G1 Y30.7521
G1 X63.2849 Y24.9997
G1 F50.0 Z-2.0
G1 F70.0 X69.0372 Y19.2473
G1 Y30.7521
G1 X63.2849 Y24.9997
G1 F50.0 Z-3.0
G1 F70.0 X69.0372 Y19.2473
G1 Y30.7521
G1 X63.2849 Y24.9997
G1 F50.0 Z-4.0
G1 F70.0 X69.0372 Y19.2473
G1 Y30.7521
G1 X63.2849 Y24.9997
G1 F50.0 Z-4.5
G1 F70.0 X69.0372 Y19.2473
G1 Y30.7521
G1 X63.2849 Y24.9997
G0 Z3.0
G0 X59.0423 Y20.757
G0 Z1.0
G1 F50.0 Z-1.0
G1 F70.0 X59.0422 Y20.7571
G1 X47.5697 Y9.285
G2 X48.8017 Y7.6254 I-4.16 J-4.3754
G2 X48.8023 Y7.6243 I-0.8931 J-0.4498
G2 X49.353 Y5.942 I-5.3285 J-2.6756
G1 X67.0246
G2 X69.0372 Y9.4712 I4.9729 J-0.4974
G1 Y10.4213
G2 X67.4742 Y12.3254 I2.9791 J4.0391
G1 X59.0423 Y20.757
G1 F50.0 Z-2.0
G1 F70.0 X59.0422 Y20.7571
G1 X47.5697 Y9.285
G2 X48.8017 Y7.6254 I-4.16 J-4.3754
G2 X48.8023 Y7.6243 I-0.8931 J-0.4498
G2 X49.353 Y5.942 I-5.3285 J-2.6756
G1 X67.0246
G2 X69.0372 Y9.4712 I4.9729 J-0.4974
G1 Y10.4213
G2 X67.4742 Y12.3254 I2.9791 J4.0391
G1 X59.0423 Y20.757
G1 F50.0 Z-3.0
G1 F70.0 X59.0422 Y20.7571
G1 X47.5697 Y9.285
G2 X48.8017 Y7.6254 I-4.16 J-4.3754
G2 X48.8023 Y7.6243 I-0.8931 J-0.4498
G2 X49.353 Y5.942 I-5.3285 J-2.6756
G1 X67.0246
G2 X69.0372 Y9.4712 I4.9729 J-0.4974
G1 Y10.4213
G2 X67.4742 Y12.3254 I2.9791 J4.0391
G1 X59.0423 Y20.757
G1 F50.0 Z-4.0
G1 F70.0 X59.0422 Y20.7571
G1 X47.5697 Y9.285
G2 X48.8017 Y7.6254 I-4.16 J-4.3754
G2 X48.8023 Y7.6243 I-0.8931 J-0.4498
G2 X49.353 Y5.942 I-5.3285 J-2.6756
G1 X67.0246
G2 X69.0372 Y9.4712 I4.9729 J-0.4974
G1 Y10.4213
G2 X67.4742 Y12.3254 I2.9791 J4.0391
G1 X59.0423 Y20.757
G1 F50.0 Z-4.5
G1 F70.0 X59.0422 Y20.7571
G1 X47.5697 Y9.285
G2 X48.8017 Y7.6254 I-4.16 J-4.3754
G2 X48.8023 Y7.6243 I-0.8931 J-0.4498
G2 X49.353 Y5.942 I-5.3285 J-2.6756
G1 X67.0246
G2 X69.0372 Y9.4712 I4.9729 J-0.4974
G1 Y10.4213
G2 X67.4742 Y12.3254 I2.9791 J4.0391
G1 X59.0423 Y20.757
G0 Z3.0
G0 X75.2706 Y10.6645
G0 Z1.0
G1 F50.0 Z-1.0
G1 F70.0 Y9.2269
G2 X76.9815 Y5.8845 I-3.2631 J-3.7795
G1 X99.0844
G2 X101.0005 Y9.3515 I5.9041 J-1.0
G1 Y9.9794
G2 X99.6349 Y11.7619 I4.029 J4.5008
G2 X99.6343 Y11.7632 I0.893 J0.45
G2 X99.0835 Y13.446 I5.3291 J2.6757
G1 X76.8998
G2 X75.2706 Y10.6645 I-4.8939 J0.9987
G1 F50.0 Z-2.0
G1 F70.0 Y9.2269
G2 X76.9815 Y5.8845 I-3.2631 J-3.7795
G1 X99.0844
G2 X101.0005 Y9.3515 I5.9041 J-1.0
G1 Y9.9794
G2 X99.6349 Y11.7619 I4.029 J4.5008
G2 X99.6343 Y11.7632 I0.893 J0.45
G2 X99.0835 Y13.446 I5.3291 J2.6757
G1 X76.8998
G2 X75.2706 Y10.6645 I-4.8939 J0.9987
G1 F50.0 Z-3.0
G1 F70.0 Y9.2269
G2 X76.9815 Y5.8845 I-3.2631 J-3.7795
G1 X99.0844
G2 X101.0005 Y9.3515 I5.9041 J-1.0
G1 Y9.9794
G2 X99.6349 Y11.7619 I4.029 J4.5008
G2 X99.6343 Y11.7632 I0.893 J0.45
G2 X99.0835 Y13.446 I5.3291 J2.6757
G1 X76.8998
G2 X75.2706 Y10.6645 I-4.8939 J0.9987
G1 F50.0 Z-4.0
G1 F70.0 Y9.2269
G2 X76.9815 Y5.8845 I-3.2631 J-3.7795
G1 X99.0844
G2 X101.0005 Y9.3515 I5.9041 J-1.0
G1 Y9.9794
G2 X99.6349 Y11.7619 I4.029 J4.5008
G2 X99.6343 Y11.7632 I0.893 J0.45
G2 X99.0835 Y13.446 I5.3291 J2.6757
G1 X76.8998
G2 X75.2706 Y10.6645 I-4.8939 J0.9987
G1 F50.0 Z-4.5
G1 F70.0 Y9.2269
G2 X76.9815 Y5.8845 I-3.2631 J-3.7795
G1 X99.0844
G2 X101.0005 Y9.3515 I5.9041 J-1.0
G1 Y9.9794
G2 X99.6349 Y11.7619 I4.029 J4.5008
G2 X99.6343 Y11.7632 I0.893 J0.45
G2 X99.0835 Y13.446 I5.3291 J2.6757
G1 X76.8998
G2 X75.2706 Y10.6645 I-4.8939 J0.9987
G0 Z3.0
G0 X76.8999 Y36.4456
G0 Z1.0
G1 F50.0 Z-1.0
G1 F70.0 X99.0834
G2 X99.6348 Y38.1271 I5.8607 J-0.9906
G2 X99.6349 Y38.1274 I0.8932 J-0.4496
G2 X101.0001 Y39.9086 I5.3799 J-2.7099
G1 Y39.9821
G2 X99.6345 Y41.7635 I4.0145 J4.4917
G2 X99.6344 Y41.7638 I0.8931 J0.4499
G2 X99.0829 Y43.4459 I5.3086 J2.6718
G1 X76.8998
G2 X75.2706 Y40.6644 I-4.8939 J0.9987
G1 Y39.2268
G2 X76.8999 Y36.4456 I-3.2631 J-3.7795
G1 F50.0 Z-2.0
G1 F70.0 X99.0834
G2 X99.6348 Y38.1271 I5.8607 J-0.9906
G2 X99.6349 Y38.1274 I0.8932 J-0.4496
G2 X101.0001 Y39.9086 I5.3799 J-2.7099
G1 Y39.9821
G2 X99.6345 Y41.7635 I4.0145 J4.4917
G2 X99.6344 Y41.7638 I0.8931 J0.4499
G2 X99.0829 Y43.4459 I5.3086 J2.6718
G1 X76.8998
G2 X75.2706 Y40.6644 I-4.8939 J0.9987
G1 Y39.2268
G2 X76.8999 Y36.4456 I-3.2631 J-3.7795
G1 F50.0 Z-3.0
G1 F70.0 X99.0834
G2 X99.6348 Y38.1271 I5.8607 J-0.9906
G2 X99.6349 Y38.1274 I0.8932 J-0.4496
G2 X101.0001 Y39.9086 I5.3799 J-2.7099
G1 Y39.9821
G2 X99.6345 Y41.7635 I4.0145 J4.4917
G2 X99.6344 Y41.7638 I0.8931 J0.4499
G2 X99.0829 Y43.4459 I5.3086 J2.6718
G1 X76.8998
G2 X75.2706 Y40.6644 I-4.8939 J0.9987
G1 Y39.2268
G2 X76.8999 Y36.4456 I-3.2631 J-3.7795
G1 F50.0 Z-4.0
G1 F70.0 X99.0834
G2 X99.6348 Y38.1271 I5.8607 J-0.9906
G2 X99.6349 Y38.1274 I0.8932 J-0.4496
G2 X101.0001 Y39.9086 I5.3799 J-2.7099
G1 Y39.9821
G2 X99.6345 Y41.7635 I4.0145 J4.4917
G2 X99.6344 Y41.7638 I0.8931 J0.4499
G2 X99.0829 Y43.4459 I5.3086 J2.6718
G1 X76.8998
G2 X75.2706 Y40.6644 I-4.8939 J0.9987
G1 Y39.2268
G2 X76.8999 Y36.4456 I-3.2631 J-3.7795
G1 F50.0 Z-4.5
G1 F70.0 X99.0834
G2 X99.6348 Y38.1271 I5.8607 J-0.9906
G2 X99.6349 Y38.1274 I0.8932 J-0.4496
G2 X101.0001 Y39.9086 I5.3799 J-2.7099
G1 Y39.9821
G2 X99.6345 Y41.7635 I4.0145 J4.4917
G2 X99.6344 Y41.7638 I0.8931 J0.4499
G2 X99.0829 Y43.4459 I5.3086 J2.6718
G1 X76.8998
G2 X75.2706 Y40.6644 I-4.8939 J0.9987
G1 Y39.2268
G2 X76.8999 Y36.4456 I-3.2631 J-3.7795
G0 Z3.0
M5
M30
