( Made using CamBam - http://www.cambam.co.uk )
( picker head - front plate 9/1/2013 2:40:04 PM )
( T2 : 2.0 )
( T4 : 4.0 )
( T9 : 3.0 )
( T16 : 1.0 )
G21 G90 G64 G40
G0 Z3.0
( T16 : 1.0 )
T16 M6
( Spot Drill )
G17
M3 S1000
G0 X6.0 Y44.446
G98
G83 X6.0 Y44.446 Z-1.0 Q1.0 R2.0 F50.0
G83 X14.0009 Z-1.0
G83 Y35.4457 Z-1.0
G83 X19.5003 Y30.0001 Z-1.0
G83 Y20.0002 Z-1.0
G83 X14.0005 Y14.446 Z-1.0
G83 X6.0 Z-1.0
G83 Y5.4457 Z-1.0
G83 X14.0009 Y4.8845 Z-1.0
G83 X34.5002 Y20.0002 Z-1.0
G83 Y30.0001 Z-1.0
G83 X43.4358 Y35.5031 Z-1.0
G83 Y44.5034 Z-1.0
G83 X72.0003 Y44.4459 Z-1.0
G83 Y35.4456 Z-1.0
G83 X84.5001 Y29.9999 Z-1.0
G83 Y20.0002 Z-1.0
G83 X72.0003 Y14.446 Z-1.0
G83 Y5.4457 Z-1.0
G83 X43.4358 Y4.942 Z-1.0
G83 X43.4354 Y14.5035 Z-1.0
G83 X6.0 Y35.4457 Z-1.0
G83 X99.5 Y29.9999 Z-1.0
G83 X105.0001 Y35.4456 Z-1.0
G83 Y44.4459 Z-1.0
G83 X99.5 Y20.0002 Z-1.0
G83 X105.0001 Y14.446 Z-1.0
G83 Y4.8845 Z-1.0
G80
( 3mm Drill )
G0 Z3.0
( T9 : 3.0 )
T9 M6
M3 S1000
G0 X6.0 Y44.446
G98
G83 X6.0 Y44.446 Z-5.0 Q1.0 R2.0 F50.0
G83 X14.0009 Z-5.0
G83 Y35.4457 Z-5.0
G83 X19.5003 Y30.0001 Z-5.0
G83 Y20.0002 Z-5.0
G83 X14.0005 Y14.446 Z-5.0
G83 X6.0 Z-5.0
G83 Y5.4457 Z-5.0
G83 X14.0009 Y4.8845 Z-5.0
G83 X34.5002 Y20.0002 Z-5.0
G83 Y30.0001 Z-5.0
G83 X43.4358 Y35.5031 Z-5.0
G83 Y44.5034 Z-5.0
G83 X72.0003 Y44.4459 Z-5.0
G83 Y35.4456 Z-5.0
G83 X84.5001 Y29.9999 Z-5.0
G83 Y20.0002 Z-5.0
G83 X72.0003 Y14.446 Z-5.0
G83 Y5.4457 Z-5.0
G83 X43.4358 Y4.942 Z-5.0
G83 X43.4354 Y14.5035 Z-5.0
G83 X6.0 Y35.4457 Z-5.0
G83 X99.5 Y29.9999 Z-5.0
G83 X105.0001 Y35.4456 Z-5.0
G83 Y44.4459 Z-5.0
G83 X99.5 Y20.0002 Z-5.0
G83 X105.0001 Y14.446 Z-5.0
G83 Y4.8845 Z-5.0
G80
( 4mm mill pocket 1 )
G0 Z3.0
( T4 : 4.0 )
T4 M6
M3 S1000
G0 X14.0017 Y4.6845
G0 Z1.0
G1 F50.0 Z-1.0
G3 F100.0 X14.2015 Y4.8841 I0.0 J0.1999
G3 X14.0017 Y5.0844 I-0.2006 J-0.0003
G3 X13.8012 Y4.8841 I0.0007 J-0.2011
G3 X14.0016 Y4.6845 I0.2004 J0.0007
G1 X14.0017
G1 F50.0 X14.0016 Y3.8845
G3 F100.0 X15.0015 Y4.8842 I0.0 J0.9999
G3 X14.0016 Y5.8844 I-1.0006 J-0.0003
G3 X13.0012 Y4.8842 I0.0007 J-1.0011
G3 X14.0016 Y3.8845 I1.0004 J0.0006
G1 F50.0 X14.0017 Y4.6845
G1 Z-2.0
G3 F100.0 X14.2015 Y4.8841 I0.0 J0.1999
G3 X14.0017 Y5.0844 I-0.2006 J-0.0003
G3 X13.8012 Y4.8841 I0.0007 J-0.2011
G3 X14.0016 Y4.6845 I0.2004 J0.0007
G1 X14.0017
G1 F50.0 X14.0016 Y3.8845
G3 F100.0 X15.0015 Y4.8842 I0.0 J0.9999
G3 X14.0016 Y5.8844 I-1.0006 J-0.0003
G3 X13.0012 Y4.8842 I0.0007 J-1.0011
G3 X14.0016 Y3.8845 I1.0004 J0.0006
G0 Z3.0
G0 X14.001 Y14.246
G0 Z1.0
G1 F50.0 Z-1.0
G3 F100.0 X14.0011 I0.0 J0.1999
G3 X14.2009 Y14.4457 I-0.0001 J0.1999
G3 X14.0009 Y14.646 I-0.2006 J-0.0003
G3 X13.8009 Y14.4459 I0.0006 J-0.2006
G3 X14.0011 Y14.246 I0.2004 J0.0005
G3 X14.0012 I0.0001 J0.2004
G1 X14.001
G1 F50.0 X13.9999 Y13.446
G3 F100.0 X14.001 I0.0013 J1.0004
G1 X14.0011
G1 X14.0009
G1 X14.001
G3 X15.0009 Y14.4457 I0.0 J0.9999
G3 X14.0009 Y15.446 I-1.0006 J-0.0003
G3 X13.0009 Y14.4459 I0.0006 J-1.0006
G3 X13.9999 Y13.446 I1.0004 J0.0004
G1 F50.0 X14.001 Y14.246
G1 Z-2.0
G3 F100.0 X14.0011 I0.0 J0.1999
G3 X14.2009 Y14.4457 I-0.0001 J0.1999
G3 X14.0009 Y14.646 I-0.2006 J-0.0003
G3 X13.8009 Y14.4459 I0.0006 J-0.2006
G3 X14.0011 Y14.246 I0.2004 J0.0005
G3 X14.0012 I0.0001 J0.2004
G1 X14.001
G1 F50.0 X13.9999 Y13.446
G3 F100.0 X14.001 I0.0013 J1.0004
G1 X14.0011
G1 X14.0009
G1 X14.001
G3 X15.0009 Y14.4457 I0.0 J0.9999
G3 X14.0009 Y15.446 I-1.0006 J-0.0003
G3 X13.0009 Y14.4459 I0.0006 J-1.0006
G3 X13.9999 Y13.446 I1.0004 J0.0004
G0 Z3.0
G0 X19.3718 Y19.8471
G0 Z1.0
G1 F50.0 Z-1.0
G3 F100.0 X19.5005 Y19.8002 I0.1288 J0.1535
G3 X19.5006 I0.0001 J0.2004
G1 X19.5004
G3 X19.5005 I0.0 J0.1999
G3 X19.7003 Y19.9998 I-0.0001 J0.1999
G3 X19.5003 Y20.2001 I-0.2006 J-0.0003
G3 X19.3003 Y20.0001 I0.0006 J-0.2006
G3 X19.3718 Y19.8471 I0.2004 J0.0005
G1 F50.0 X18.8576 Y19.2343
G3 F100.0 X19.5004 Y19.0002 I0.6431 J0.7663
G1 X19.5005
G1 X19.5004
G3 X20.5003 Y19.9999 I0.0 J0.9999
G3 X19.5003 Y21.0001 I-1.0006 J-0.0003
G3 X18.5003 Y20.0001 I0.0006 J-1.0006
G3 X18.8576 Y19.2343 I1.0004 J0.0004
G1 F50.0 X19.3718 Y19.8471
G1 Z-2.0
G3 F100.0 X19.5005 Y19.8002 I0.1288 J0.1535
G3 X19.5006 I0.0001 J0.2004
G1 X19.5004
G3 X19.5005 I0.0 J0.1999
G3 X19.7003 Y19.9998 I-0.0001 J0.1999
G3 X19.5003 Y20.2001 I-0.2006 J-0.0003
G3 X19.3003 Y20.0001 I0.0006 J-0.2006
G3 X19.3718 Y19.8471 I0.2004 J0.0005
G1 F50.0 X18.8576 Y19.2343
G3 F100.0 X19.5004 Y19.0002 I0.6431 J0.7663
G1 X19.5005
G1 X19.5004
G3 X20.5003 Y19.9999 I0.0 J0.9999
G3 X19.5003 Y21.0001 I-1.0006 J-0.0003
G3 X18.5003 Y20.0001 I0.0006 J-1.0006
G3 X18.8576 Y19.2343 I1.0004 J0.0004
G0 Z3.0
G0 X19.4887 Y29.8004
G0 Z1.0
G1 F50.0 Z-1.0
G3 F100.0 X19.5005 Y29.8001 I0.0119 J0.2
G3 X19.5006 I0.0001 J0.2004
G1 X19.5004
G3 X19.5005 I0.0 J0.1999
G3 X19.7003 Y29.9997 I-0.0001 J0.1999
G3 X19.5003 Y30.2001 I-0.2006 J-0.0003
G3 X19.3003 Y30.0 I0.0006 J-0.2006
G3 X19.4887 Y29.8004 I0.2004 J0.0005
G1 F50.0 X19.441 Y29.0019
G3 F100.0 X19.5004 Y29.0001 I0.0596 J0.9986
G1 X19.5005
G1 X19.5004
G3 X20.5003 Y29.9998 I0.0 J0.9999
G3 X19.5003 Y31.0001 I-1.0006 J-0.0003
G3 X18.5003 Y30.0 I0.0006 J-1.0006
G3 X19.441 Y29.0019 I1.0004 J0.0004
G1 F50.0 X19.4887 Y29.8004
G1 Z-2.0
G3 F100.0 X19.5005 Y29.8001 I0.0119 J0.2
G3 X19.5006 I0.0001 J0.2004
G1 X19.5004
G3 X19.5005 I0.0 J0.1999
G3 X19.7003 Y29.9997 I-0.0001 J0.1999
G3 X19.5003 Y30.2001 I-0.2006 J-0.0003
G3 X19.3003 Y30.0 I0.0006 J-0.2006
G3 X19.4887 Y29.8004 I0.2004 J0.0005
G1 F50.0 X19.441 Y29.0019
G3 F100.0 X19.5004 Y29.0001 I0.0596 J0.9986
G1 X19.5005
G1 X19.5004
G3 X20.5003 Y29.9998 I0.0 J0.9999
G3 X19.5003 Y31.0001 I-1.0006 J-0.0003
G3 X18.5003 Y30.0 I0.0006 J-1.0006
G3 X19.441 Y29.0019 I1.0004 J0.0004
G0 Z3.0
G0 X14.1303 Y35.2929
G0 Z1.0
G1 F50.0 Z-1.0
G3 F100.0 X14.2012 Y35.4454 I-0.1289 J0.1527
G3 X14.0012 Y35.6457 I-0.2006 J-0.0003
G3 X13.8012 Y35.4456 I0.0006 J-0.2006
G3 X14.0014 Y35.2457 I0.2004 J0.0005
G3 X14.0016 I0.0001 J0.2004
G1 X14.0013
G3 X14.0014 I0.0 J0.1999
G3 X14.1303 Y35.2929 I-0.0001 J0.1999
G1 F50.0 X14.6463 Y34.6816
G3 F100.0 X15.0012 Y35.4455 I-0.645 J0.764
G3 X14.0012 Y36.4457 I-1.0006 J-0.0003
G3 X13.0012 Y35.4457 I0.0006 J-1.0006
G3 X14.0014 Y34.4457 I1.0004 J0.0004
G1 X14.0015
G1 X14.0013
G1 X14.0014
G3 X14.6463 Y34.6816 I0.0 J0.9999
G1 F50.0 X14.1303 Y35.2929
G1 Z-2.0
G3 F100.0 X14.2012 Y35.4454 I-0.1289 J0.1527
G3 X14.0012 Y35.6457 I-0.2006 J-0.0003
G3 X13.8012 Y35.4456 I0.0006 J-0.2006
G3 X14.0014 Y35.2457 I0.2004 J0.0005
G3 X14.0016 I0.0001 J0.2004
G1 X14.0013
G3 X14.0014 I0.0 J0.1999
G3 X14.1303 Y35.2929 I-0.0001 J0.1999
G1 F50.0 X14.6463 Y34.6816
G3 F100.0 X15.0012 Y35.4455 I-0.645 J0.764
G3 X14.0012 Y36.4457 I-1.0006 J-0.0003
G3 X13.0012 Y35.4457 I0.0006 J-1.0006
G3 X14.0014 Y34.4457 I1.0004 J0.0004
G1 X14.0015
G1 X14.0013
G1 X14.0014
G3 X14.6463 Y34.6816 I0.0 J0.9999
G0 Z3.0
G0 X14.0142 Y44.2465
G0 Z1.0
G1 F50.0 Z-1.0
G3 F100.0 X14.2009 Y44.4457 I-0.0132 J0.1994
G3 X14.0009 Y44.646 I-0.2006 J-0.0003
G3 X13.8009 Y44.4459 I0.0006 J-0.2006
G3 X14.0011 Y44.246 I0.2004 J0.0005
G3 X14.0012 I0.0001 J0.2004
G1 X14.001
G3 X14.0011 I0.0 J0.1999
G3 X14.0142 Y44.2465 I-0.0001 J0.1999
G1 F50.0 X14.0669 Y43.4482
G3 F100.0 X15.0009 Y44.4458 I-0.0659 J0.9977
G3 X14.0009 Y45.446 I-1.0006 J-0.0003
G3 X13.0009 Y44.446 I0.0006 J-1.0006
G3 X14.001 Y43.446 I1.0004 J0.0004
G1 X14.0011
G1 X14.0009
G1 X14.001
G3 X14.0669 Y43.4482 I0.0 J0.9999
G1 F50.0 X14.0142 Y44.2465
G1 Z-2.0
G3 F100.0 X14.2009 Y44.4457 I-0.0132 J0.1994
G3 X14.0009 Y44.646 I-0.2006 J-0.0003
G3 X13.8009 Y44.4459 I0.0006 J-0.2006
G3 X14.0011 Y44.246 I0.2004 J0.0005
G3 X14.0012 I0.0001 J0.2004
G1 X14.001
G3 X14.0011 I0.0 J0.1999
G3 X14.0142 Y44.2465 I-0.0001 J0.1999
G1 F50.0 X14.0669 Y43.4482
G3 F100.0 X15.0009 Y44.4458 I-0.0659 J0.9977
G3 X14.0009 Y45.446 I-1.0006 J-0.0003
G3 X13.0009 Y44.446 I0.0006 J-1.0006
G3 X14.001 Y43.446 I1.0004 J0.0004
G1 X14.0011
G1 X14.0009
G1 X14.001
G3 X14.0669 Y43.4482 I0.0 J0.9999
G0 Z3.0
G0 X34.3333 Y30.1098
G0 Z1.0
G1 F50.0 Z-1.0
G3 F100.0 X34.3002 Y30.0 I0.1675 J-0.1103
G3 X34.5004 Y29.8001 I0.2004 J0.0005
G3 X34.5006 I0.0002 J0.2004
G1 X34.5003
G3 X34.5004 I0.0 J0.1999
G3 X34.7002 Y29.9997 I-0.0001 J0.1999
G3 X34.5002 Y30.2001 I-0.2007 J-0.0003
G3 X34.3333 Y30.1098 I0.0006 J-0.2006
G1 F50.0 X33.665 Y30.5496
G3 F100.0 X33.5002 Y30.0 I0.8358 J-0.5501
G3 X34.5004 Y29.0001 I1.0004 J0.0004
G1 X34.5005
G1 X34.5003
G1 X34.5004
G3 X35.5002 Y29.9997 I-0.0001 J0.9999
G3 X34.5002 Y31.0001 I-1.0007 J-0.0004
G3 X33.665 Y30.5496 I0.0006 J-1.0006
G1 F50.0 X34.3333 Y30.1098
G1 Z-2.0
G3 F100.0 X34.3002 Y30.0 I0.1675 J-0.1103
G3 X34.5004 Y29.8001 I0.2004 J0.0005
G3 X34.5006 I0.0002 J0.2004
G1 X34.5003
G3 X34.5004 I0.0 J0.1999
G3 X34.7002 Y29.9997 I-0.0001 J0.1999
G3 X34.5002 Y30.2001 I-0.2007 J-0.0003
G3 X34.3333 Y30.1098 I0.0006 J-0.2006
G1 F50.0 X33.665 Y30.5496
G3 F100.0 X33.5002 Y30.0 I0.8358 J-0.5501
G3 X34.5004 Y29.0001 I1.0004 J0.0004
G1 X34.5005
G1 X34.5003
G1 X34.5004
G3 X35.5002 Y29.9997 I-0.0001 J0.9999
G3 X34.5002 Y31.0001 I-1.0007 J-0.0004
G3 X33.665 Y30.5496 I0.0006 J-1.0006
G0 Z3.0
G0 X34.485 Y20.1995
G0 Z1.0
G1 F50.0 Z-1.0
G3 F100.0 X34.3002 Y20.0001 I0.0158 J-0.1999
G3 X34.5004 Y19.8002 I0.2004 J0.0005
G3 X34.5006 I0.0001 J0.2004
G1 X34.5003
G3 X34.5004 I0.0 J0.1999
G3 X34.7002 Y19.9998 I-0.0001 J0.1999
G3 X34.5002 Y20.2001 I-0.2006 J-0.0003
G3 X34.485 Y20.1995 I0.0006 J-0.2006
G1 F50.0 X34.4218 Y20.997
G3 F100.0 X33.5002 Y20.0001 I0.079 J-0.9974
G3 X34.5004 Y19.0002 I1.0004 J0.0004
G1 X34.5005
G1 X34.5003
G1 X34.5004
G3 X35.5002 Y19.9999 I0.0 J0.9999
G3 X34.5002 Y21.0001 I-1.0006 J-0.0003
G3 X34.4218 Y20.997 I0.0006 J-1.0006
G1 F50.0 X34.485 Y20.1995
G1 Z-2.0
G3 F100.0 X34.3002 Y20.0001 I0.0158 J-0.1999
G3 X34.5004 Y19.8002 I0.2004 J0.0005
G3 X34.5006 I0.0001 J0.2004
G1 X34.5003
G3 X34.5004 I0.0 J0.1999
G3 X34.7002 Y19.9998 I-0.0001 J0.1999
G3 X34.5002 Y20.2001 I-0.2006 J-0.0003
G3 X34.485 Y20.1995 I0.0006 J-0.2006
G1 F50.0 X34.4218 Y20.997
G3 F100.0 X33.5002 Y20.0001 I0.079 J-0.9974
G3 X34.5004 Y19.0002 I1.0004 J0.0004
G1 X34.5005
G1 X34.5003
G1 X34.5004
G3 X35.5002 Y19.9999 I0.0 J0.9999
G3 X34.5002 Y21.0001 I-1.0006 J-0.0003
G3 X34.4218 Y20.997 I0.0006 J-1.0006
G0 Z3.0
G0 X43.2736 Y14.6202
G0 Z1.0
G1 F50.0 Z-1.0
G3 F100.0 X43.2358 Y14.5034 I0.1627 J-0.1172
G3 X43.436 Y14.3035 I0.2004 J0.0005
G3 X43.4361 I0.0001 J0.2004
G1 X43.4359
G3 X43.436 I0.0 J0.1999
G3 X43.6358 Y14.5032 I-0.0001 J0.1999
G3 X43.4358 Y14.7035 I-0.2006 J-0.0003
G3 X43.2736 Y14.6202 I0.0006 J-0.2006
G1 F50.0 X42.6245 Y15.0878
G3 F100.0 X42.4358 Y14.5034 I0.8118 J-0.5848
G3 X43.4359 Y13.5035 I1.0004 J0.0004
G1 X43.436
G1 X43.4358
G1 X43.4359
G3 X44.4358 Y14.5033 I0.0 J0.9999
G3 X43.4358 Y15.5035 I-1.0006 J-0.0003
G3 X42.6245 Y15.0878 I0.0006 J-1.0006
G1 F50.0 X43.2736 Y14.6202
G1 Z-2.0
G3 F100.0 X43.2358 Y14.5034 I0.1627 J-0.1172
G3 X43.436 Y14.3035 I0.2004 J0.0005
G3 X43.4361 I0.0001 J0.2004
G1 X43.4359
G3 X43.436 I0.0 J0.1999
G3 X43.6358 Y14.5032 I-0.0001 J0.1999
G3 X43.4358 Y14.7035 I-0.2006 J-0.0003
G3 X43.2736 Y14.6202 I0.0006 J-0.2006
G1 F50.0 X42.6245 Y15.0878
G3 F100.0 X42.4358 Y14.5034 I0.8118 J-0.5848
G3 X43.4359 Y13.5035 I1.0004 J0.0004
G1 X43.436
G1 X43.4358
G1 X43.4359
G3 X44.4358 Y14.5033 I0.0 J0.9999
G3 X43.4358 Y15.5035 I-1.0006 J-0.0003
G3 X42.6245 Y15.0878 I0.0006 J-1.0006
G0 Z3.0
G0 X43.4207 Y5.1413
G0 Z1.0
G1 F50.0 Z-1.0
G3 F100.0 X43.2361 Y4.9419 I0.016 J-0.2
G3 X43.4365 Y4.742 I0.2004 J0.0005
G1 X43.4366
G3 X43.6364 Y4.9417 I0.0 J0.1999
G3 X43.4363 Y5.142 I-0.2006 J-0.0003
G3 X43.4207 Y5.1413 I0.0004 J-0.2006
G1 F50.0 X43.3569 Y5.9388
G3 F100.0 X42.4361 Y4.9419 I0.0798 J-0.9975
G3 X43.4365 Y3.942 I1.0004 J0.0005
G3 X44.4364 Y4.9418 I0.0 J0.9999
G3 X43.4364 Y5.942 I-1.0006 J-0.0003
G3 X43.3569 Y5.9388 I0.0004 J-1.0006
G1 F50.0 X43.4207 Y5.1413
G1 Z-2.0
G3 F100.0 X43.2361 Y4.9419 I0.016 J-0.2
G3 X43.4365 Y4.742 I0.2004 J0.0005
G1 X43.4366
G3 X43.6364 Y4.9417 I0.0 J0.1999
G3 X43.4363 Y5.142 I-0.2006 J-0.0003
G3 X43.4207 Y5.1413 I0.0004 J-0.2006
G1 F50.0 X43.3569 Y5.9388
G3 F100.0 X42.4361 Y4.9419 I0.0798 J-0.9975
G3 X43.4365 Y3.942 I1.0004 J0.0005
G3 X44.4364 Y4.9418 I0.0 J0.9999
G3 X43.4364 Y5.942 I-1.0006 J-0.0003
G3 X43.3569 Y5.9388 I0.0004 J-1.0006
G0 Z3.0
G0 X43.4359 Y35.3031
G0 Z1.0
G1 F50.0 Z-1.0
G3 F100.0 X43.4363 I0.0005 J0.2004
G3 X43.4365 I0.0001 J0.2004
G1 X43.4362
G3 X43.4363 I0.0 J0.1999
G3 X43.6361 Y35.5028 I-0.0001 J0.1999
G3 X43.4361 Y35.7031 I-0.2006 J-0.0003
G3 X43.2361 Y35.503 I0.0006 J-0.2006
G3 X43.4359 Y35.3031 I0.2004 J0.0005
G1 F50.0 X43.4338 Y34.5031
G3 F100.0 X43.4363 I0.0027 J1.0004
G1 X43.4364
G1 X43.4362
G1 X43.4363
G3 X44.4361 Y35.5029 I0.0 J0.9999
G3 X43.4361 Y36.5031 I-1.0006 J-0.0003
G3 X42.4361 Y35.503 I0.0006 J-1.0006
G3 X43.4338 Y34.5031 I1.0004 J0.0004
G1 F50.0 X43.4359 Y35.3031
G1 Z-2.0
G3 F100.0 X43.4363 I0.0005 J0.2004
G3 X43.4365 I0.0001 J0.2004
G1 X43.4362
G3 X43.4363 I0.0 J0.1999
G3 X43.6361 Y35.5028 I-0.0001 J0.1999
G3 X43.4361 Y35.7031 I-0.2006 J-0.0003
G3 X43.2361 Y35.503 I0.0006 J-0.2006
G3 X43.4359 Y35.3031 I0.2004 J0.0005
G1 F50.0 X43.4338 Y34.5031
G3 F100.0 X43.4363 I0.0027 J1.0004
G1 X43.4364
G1 X43.4362
G1 X43.4363
G3 X44.4361 Y35.5029 I0.0 J0.9999
G3 X43.4361 Y36.5031 I-1.0006 J-0.0003
G3 X42.4361 Y35.503 I0.0006 J-1.0006
G3 X43.4338 Y34.5031 I1.0004 J0.0004
G0 Z3.0
G0 X43.4359 Y44.3034
G0 Z1.0
G1 F50.0 Z-1.0
G3 F100.0 X43.436 I0.0 J0.1999
G3 X43.6358 Y44.5031 I-0.0001 J0.1999
G3 X43.4358 Y44.7034 I-0.2006 J-0.0003
G3 X43.2358 Y44.5033 I0.0006 J-0.2006
G3 X43.436 Y44.3034 I0.2004 J0.0005
G3 X43.4361 I0.0001 J0.2004
G1 X43.4359
G1 F50.0 X43.4348 Y43.5034
G3 F100.0 X43.4359 I0.0013 J1.0004
G1 X43.436
G1 X43.4358
G1 X43.4359
G3 X44.4358 Y44.5032 I0.0 J0.9999
G3 X43.4358 Y45.5034 I-1.0006 J-0.0003
G3 X42.4358 Y44.5033 I0.0006 J-1.0006
G3 X43.4348 Y43.5034 I1.0004 J0.0004
G1 F50.0 X43.4359 Y44.3034
G1 Z-2.0
G3 F100.0 X43.436 I0.0 J0.1999
G3 X43.6358 Y44.5031 I-0.0001 J0.1999
G3 X43.4358 Y44.7034 I-0.2006 J-0.0003
G3 X43.2358 Y44.5033 I0.0006 J-0.2006
G3 X43.436 Y44.3034 I0.2004 J0.0005
G3 X43.4361 I0.0001 J0.2004
G1 X43.4359
G1 F50.0 X43.4348 Y43.5034
G3 F100.0 X43.4359 I0.0013 J1.0004
G1 X43.436
G1 X43.4358
G1 X43.4359
G3 X44.4358 Y44.5032 I0.0 J0.9999
G3 X43.4358 Y45.5034 I-1.0006 J-0.0003
G3 X42.4358 Y44.5033 I0.0006 J-1.0006
G3 X43.4348 Y43.5034 I1.0004 J0.0004
G0 Z3.0
G0 X84.3101 Y30.062
G0 Z1.0
G1 F50.0 Z-1.0
G3 F100.0 X84.3001 Y29.9998 I0.1905 J-0.0627
G3 X84.5003 Y29.7999 I0.2004 J0.0005
G3 X84.5004 I0.0001 J0.2004
G1 X84.5002
G3 X84.5003 I0.0 J0.1999
G3 X84.7001 Y29.9996 I-0.0001 J0.1999
G3 X84.5001 Y30.1999 I-0.2006 J-0.0003
G3 X84.3101 Y30.062 I0.0006 J-0.2006
G1 F50.0 X83.5502 Y30.3119
G3 F100.0 X83.5001 Y29.9998 I0.9505 J-0.3126
G3 X84.5003 Y28.9999 I1.0004 J0.0004
G1 X84.5002
G1 X84.5003
G3 X85.5001 Y29.9997 I0.0 J0.9999
G3 X84.5001 Y30.9999 I-1.0006 J-0.0003
G3 X83.5502 Y30.3119 I0.0006 J-1.0006
G1 F50.0 X84.3101 Y30.062
G1 Z-2.0
G3 F100.0 X84.3001 Y29.9998 I0.1905 J-0.0627
G3 X84.5003 Y29.7999 I0.2004 J0.0005
G3 X84.5004 I0.0001 J0.2004
G1 X84.5002
G3 X84.5003 I0.0 J0.1999
G3 X84.7001 Y29.9996 I-0.0001 J0.1999
G3 X84.5001 Y30.1999 I-0.2006 J-0.0003
G3 X84.3101 Y30.062 I0.0006 J-0.2006
G1 F50.0 X83.5502 Y30.3119
G3 F100.0 X83.5001 Y29.9998 I0.9505 J-0.3126
G3 X84.5003 Y28.9999 I1.0004 J0.0004
G1 X84.5002
G1 X84.5003
G3 X85.5001 Y29.9997 I0.0 J0.9999
G3 X84.5001 Y30.9999 I-1.0006 J-0.0003
G3 X83.5502 Y30.3119 I0.0006 J-1.0006
G0 Z3.0
G0 X84.4823 Y20.1993
G0 Z1.0
G1 F50.0 Z-1.0
G3 F100.0 X84.3001 Y20.0001 I0.0184 J-0.1997
G3 X84.5003 Y19.8002 I0.2004 J0.0005
G3 X84.5004 I0.0001 J0.2004
G1 X84.5002
G3 X84.5003 I0.0 J0.1999
G3 X84.7001 Y19.9998 I-0.0001 J0.1999
G3 X84.5001 Y20.2001 I-0.2006 J-0.0003
G3 X84.4823 Y20.1993 I0.0006 J-0.2006
G1 F50.0 X84.4088 Y20.9959
G3 F100.0 X83.5001 Y20.0001 I0.0918 J-0.9963
G3 X84.5003 Y19.0002 I1.0004 J0.0004
G1 X84.5002
G1 X84.5003
G3 X85.5001 Y19.9999 I0.0 J0.9999
G3 X84.5001 Y21.0001 I-1.0006 J-0.0003
G3 X84.4088 Y20.9959 I0.0006 J-1.0006
G1 F50.0 X84.4823 Y20.1993
G1 Z-2.0
G3 F100.0 X84.3001 Y20.0001 I0.0184 J-0.1997
G3 X84.5003 Y19.8002 I0.2004 J0.0005
G3 X84.5004 I0.0001 J0.2004
G1 X84.5002
G3 X84.5003 I0.0 J0.1999
G3 X84.7001 Y19.9998 I-0.0001 J0.1999
G3 X84.5001 Y20.2001 I-0.2006 J-0.0003
G3 X84.4823 Y20.1993 I0.0006 J-0.2006
G1 F50.0 X84.4088 Y20.9959
G3 F100.0 X83.5001 Y20.0001 I0.0918 J-0.9963
G3 X84.5003 Y19.0002 I1.0004 J0.0004
G1 X84.5002
G1 X84.5003
G3 X85.5001 Y19.9999 I0.0 J0.9999
G3 X84.5001 Y21.0001 I-1.0006 J-0.0003
G3 X84.4088 Y20.9959 I0.0006 J-1.0006
G0 Z3.0
G0 X99.3005 Y20.0128
G0 Z1.0
G1 F50.0 Z-1.0
G3 F100.0 X99.3001 Y20.0001 I0.2001 J-0.0132
G3 X99.5003 Y19.8002 I0.2004 J0.0005
G3 X99.5004 I0.0001 J0.2004
G1 X99.5001
G3 X99.5003 I0.0 J0.1999
G3 X99.7 Y19.9998 I-0.0001 J0.1999
G3 X99.5 Y20.2001 I-0.2006 J-0.0003
G3 X99.3005 Y20.0128 I0.0006 J-0.2006
G1 F50.0 X98.5022 Y20.0655
G3 F100.0 X98.5001 Y20.0001 I0.9984 J-0.0659
G3 X99.5002 Y19.0002 I1.0004 J0.0004
G1 X99.5003
G1 X99.5001
G1 X99.5002
G3 X100.5 Y19.9999 I0.0 J0.9999
G3 X99.5 Y21.0001 I-1.0006 J-0.0003
G3 X98.5022 Y20.0655 I0.0006 J-1.0006
G1 F50.0 X99.3005 Y20.0128
G1 Z-2.0
G3 F100.0 X99.3001 Y20.0001 I0.2001 J-0.0132
G3 X99.5003 Y19.8002 I0.2004 J0.0005
G3 X99.5004 I0.0001 J0.2004
G1 X99.5001
G3 X99.5003 I0.0 J0.1999
G3 X99.7 Y19.9998 I-0.0001 J0.1999
G3 X99.5 Y20.2001 I-0.2006 J-0.0003
G3 X99.3005 Y20.0128 I0.0006 J-0.2006
G1 F50.0 X98.5022 Y20.0655
G3 F100.0 X98.5001 Y20.0001 I0.9984 J-0.0659
G3 X99.5002 Y19.0002 I1.0004 J0.0004
G1 X99.5003
G1 X99.5001
G1 X99.5002
G3 X100.5 Y19.9999 I0.0 J0.9999
G3 X99.5 Y21.0001 I-1.0006 J-0.0003
G3 X98.5022 Y20.0655 I0.0006 J-1.0006
G0 Z3.0
G0 X104.8494 Y14.5766
G0 Z1.0
G1 F50.0 Z-1.0
G3 F100.0 X104.8005 Y14.4459 I0.1517 J-0.1312
G3 X105.0007 Y14.246 I0.2004 J0.0005
G3 X105.0008 I0.0001 J0.2004
G1 X105.0006
G3 X105.0007 I0.0 J0.1999
G3 X105.2005 Y14.4457 I-0.0001 J0.1999
G3 X105.0005 Y14.646 I-0.2006 J-0.0003
G3 X104.8494 Y14.5766 I0.0006 J-0.2006
G1 F50.0 X104.2442 Y15.0999
G3 F100.0 X104.0005 Y14.4459 I0.7568 J-0.6545
G3 X105.0006 Y13.446 I1.0004 J0.0004
G1 X105.0007
G1 X105.0006
G3 X106.0005 Y14.4457 I0.0 J0.9999
G3 X105.0005 Y15.446 I-1.0006 J-0.0003
G3 X104.2442 Y15.0999 I0.0006 J-1.0006
G1 F50.0 X104.8494 Y14.5766
G1 Z-2.0
G3 F100.0 X104.8005 Y14.4459 I0.1517 J-0.1312
G3 X105.0007 Y14.246 I0.2004 J0.0005
G3 X105.0008 I0.0001 J0.2004
G1 X105.0006
G3 X105.0007 I0.0 J0.1999
G3 X105.2005 Y14.4457 I-0.0001 J0.1999
G3 X105.0005 Y14.646 I-0.2006 J-0.0003
G3 X104.8494 Y14.5766 I0.0006 J-0.2006
G1 F50.0 X104.2442 Y15.0999
G3 F100.0 X104.0005 Y14.4459 I0.7568 J-0.6545
G3 X105.0006 Y13.446 I1.0004 J0.0004
G1 X105.0007
G1 X105.0006
G3 X106.0005 Y14.4457 I0.0 J0.9999
G3 X105.0005 Y15.446 I-1.0006 J-0.0003
G3 X104.2442 Y15.0999 I0.0006 J-1.0006
G0 Z3.0
G0 X104.9862 Y5.0839
G0 Z1.0
G1 F50.0 Z-1.0
G3 F100.0 X104.8005 Y4.8844 I0.0148 J-0.2
G3 X105.0007 Y4.6845 I0.2004 J0.0005
G3 X105.0008 I0.0001 J0.2004
G1 X105.0006
G3 X105.0007 I0.0 J0.1999
G3 X105.2005 Y4.8841 I-0.0001 J0.1999
G3 X105.0005 Y5.0844 I-0.2006 J-0.0003
G3 X104.9862 Y5.0839 I0.0006 J-0.2006
G1 F50.0 X104.9271 Y5.8817
G3 F100.0 X104.0005 Y4.8844 I0.0739 J-0.9978
G3 X105.0006 Y3.8845 I1.0004 J0.0004
G1 X105.0007
G1 X105.0006
G3 X106.0005 Y4.8842 I0.0 J0.9999
G3 X105.0005 Y5.8844 I-1.0006 J-0.0003
G3 X104.9271 Y5.8817 I0.0006 J-1.0006
G1 F50.0 X104.9862 Y5.0839
G1 Z-2.0
G3 F100.0 X104.8005 Y4.8844 I0.0148 J-0.2
G3 X105.0007 Y4.6845 I0.2004 J0.0005
G3 X105.0008 I0.0001 J0.2004
G1 X105.0006
G3 X105.0007 I0.0 J0.1999
G3 X105.2005 Y4.8841 I-0.0001 J0.1999
G3 X105.0005 Y5.0844 I-0.2006 J-0.0003
G3 X104.9862 Y5.0839 I0.0006 J-0.2006
G1 F50.0 X104.9271 Y5.8817
G3 F100.0 X104.0005 Y4.8844 I0.0739 J-0.9978
G3 X105.0006 Y3.8845 I1.0004 J0.0004
G1 X105.0007
G1 X105.0006
G3 X106.0005 Y4.8842 I0.0 J0.9999
G3 X105.0005 Y5.8844 I-1.0006 J-0.0003
G3 X104.9271 Y5.8817 I0.0006 J-1.0006
G0 Z3.0
G0 X99.544 Y29.8048
G0 Z1.0
G1 F50.0 Z-1.0
G3 F100.0 X99.7 Y29.9996 I-0.0439 J0.195
G3 X99.5 Y30.1999 I-0.2006 J-0.0003
G3 X99.3001 Y29.9998 I0.0006 J-0.2006
G3 X99.5003 Y29.7999 I0.2004 J0.0005
G3 X99.5004 I0.0001 J0.2004
G1 X99.5001
G3 X99.5003 I0.0 J0.1999
G3 X99.544 Y29.8048 I-0.0001 J0.1999
G1 F50.0 X99.7197 Y29.0243
G3 F100.0 X100.5 Y29.9997 I-0.2195 J0.9755
G3 X99.5 Y30.9999 I-1.0006 J-0.0003
G3 X98.5001 Y29.9998 I0.0006 J-1.0006
G3 X99.5002 Y28.9999 I1.0004 J0.0004
G1 X99.5003
G1 X99.5001
G1 X99.5002
G3 X99.7197 Y29.0243 I0.0 J0.9999
G1 F50.0 X99.544 Y29.8048
G1 Z-2.0
G3 F100.0 X99.7 Y29.9996 I-0.0439 J0.195
G3 X99.5 Y30.1999 I-0.2006 J-0.0003
G3 X99.3001 Y29.9998 I0.0006 J-0.2006
G3 X99.5003 Y29.7999 I0.2004 J0.0005
G3 X99.5004 I0.0001 J0.2004
G1 X99.5001
G3 X99.5003 I0.0 J0.1999
G3 X99.544 Y29.8048 I-0.0001 J0.1999
G1 F50.0 X99.7197 Y29.0243
G3 F100.0 X100.5 Y29.9997 I-0.2195 J0.9755
G3 X99.5 Y30.9999 I-1.0006 J-0.0003
G3 X98.5001 Y29.9998 I0.0006 J-1.0006
G3 X99.5002 Y28.9999 I1.0004 J0.0004
G1 X99.5003
G1 X99.5001
G1 X99.5002
G3 X99.7197 Y29.0243 I0.0 J0.9999
G0 Z3.0
G0 X104.8736 Y35.2912
G0 Z1.0
G1 F50.0 Z-1.0
G3 F100.0 X105.0007 Y35.2456 I0.1273 J0.1548
G3 X105.0008 I0.0001 J0.2004
G1 X105.0006
G3 X105.0007 I0.0 J0.1999
G3 X105.2005 Y35.4452 I-0.0001 J0.1999
G3 X105.0005 Y35.6455 I-0.2006 J-0.0003
G3 X104.8005 Y35.4455 I0.0006 J-0.2006
G3 X104.8736 Y35.2912 I0.2004 J0.0005
G1 F50.0 X104.3654 Y34.6733
G3 F100.0 X105.0006 Y34.4456 I0.6354 J0.7726
G1 X105.0007
G1 X105.0006
G3 X106.0005 Y35.4453 I0.0 J0.9999
G3 X105.0005 Y36.4455 I-1.0006 J-0.0003
G3 X104.0005 Y35.4455 I0.0006 J-1.0006
G3 X104.3654 Y34.6733 I1.0004 J0.0004
G1 F50.0 X104.8736 Y35.2912
G1 Z-2.0
G3 F100.0 X105.0007 Y35.2456 I0.1273 J0.1548
G3 X105.0008 I0.0001 J0.2004
G1 X105.0006
G3 X105.0007 I0.0 J0.1999
G3 X105.2005 Y35.4452 I-0.0001 J0.1999
G3 X105.0005 Y35.6455 I-0.2006 J-0.0003
G3 X104.8005 Y35.4455 I0.0006 J-0.2006
G3 X104.8736 Y35.2912 I0.2004 J0.0005
G1 F50.0 X104.3654 Y34.6733
G3 F100.0 X105.0006 Y34.4456 I0.6354 J0.7726
G1 X105.0007
G1 X105.0006
G3 X106.0005 Y35.4453 I0.0 J0.9999
G3 X105.0005 Y36.4455 I-1.0006 J-0.0003
G3 X104.0005 Y35.4455 I0.0006 J-1.0006
G3 X104.3654 Y34.6733 I1.0004 J0.0004
G0 Z3.0
G0 X104.9875 Y44.2463
G0 Z1.0
G1 F50.0 Z-1.0
G3 F100.0 X105.0004 Y44.2459 I0.013 J0.1999
G3 X105.0005 I0.0001 J0.2004
G1 X105.0002
G3 X105.0004 I0.0 J0.1999
G3 X105.2001 Y44.4455 I-0.0001 J0.1999
G3 X105.0001 Y44.6459 I-0.2006 J-0.0003
G3 X104.8001 Y44.4458 I0.0006 J-0.2006
G3 X104.9875 Y44.2463 I0.2004 J0.0005
G1 F50.0 X104.9356 Y43.448
G3 F100.0 X105.0003 Y43.4459 I0.0649 J0.9983
G1 X105.0004
G1 X105.0002
G1 X105.0003
G3 X106.0001 Y44.4456 I0.0 J0.9999
G3 X105.0001 Y45.4459 I-1.0006 J-0.0003
G3 X104.0001 Y44.4458 I0.0006 J-1.0006
G3 X104.9356 Y43.448 I1.0004 J0.0004
G1 F50.0 X104.9875 Y44.2463
G1 Z-2.0
G3 F100.0 X105.0004 Y44.2459 I0.013 J0.1999
G3 X105.0005 I0.0001 J0.2004
G1 X105.0002
G3 X105.0004 I0.0 J0.1999
G3 X105.2001 Y44.4455 I-0.0001 J0.1999
G3 X105.0001 Y44.6459 I-0.2006 J-0.0003
G3 X104.8001 Y44.4458 I0.0006 J-0.2006
G3 X104.9875 Y44.2463 I0.2004 J0.0005
G1 F50.0 X104.9356 Y43.448
G3 F100.0 X105.0003 Y43.4459 I0.0649 J0.9983
G1 X105.0004
G1 X105.0002
G1 X105.0003
G3 X106.0001 Y44.4456 I0.0 J0.9999
G3 X105.0001 Y45.4459 I-1.0006 J-0.0003
G3 X104.0001 Y44.4458 I0.0006 J-1.0006
G3 X104.9356 Y43.448 I1.0004 J0.0004
( 4mm mill pocket 2 )
S1000
G0 Z3.0
G0 X22.0928 Y9.6651
G0 Z1.0
G1 F50.0 Z-1.0
G2 F100.0 X22.3065 Y9.2845 I-8.1045 J-4.8016
G1 X35.0993
G2 X35.3424 Y9.722 I8.3233 J-4.3389
G2 X34.884 Y10.5999 I8.0775 J4.7764
G1 X22.5772
G2 X22.0928 Y9.6651 I-8.5642 J3.8451
G1 F50.0 X21.4045 Y9.2574
G2 F100.0 X21.6902 Y8.7348 I-7.4163 J-4.3939
G2 X21.6906 Y8.7339 I-3.2165 J-1.6167
G2 X21.8109 Y8.4845 I-7.6497 J-3.8424
G1 X35.5994
G2 X36.2875 Y9.7221 I7.8231 J-3.5389
G2 X35.4146 Y11.3999 I7.1325 J4.7764
G1 X22.0427
G2 X21.1474 Y9.6649 I-8.0298 J3.0451
G2 X21.4045 Y9.2574 I-7.1592 J-4.8014
G1 F50.0 X20.0279 Y8.4418
G2 F100.0 X20.2606 Y8.0162 I-6.0397 J-3.5783
G2 X20.2609 Y8.0157 I-1.787 J-0.8982
G2 X20.71 Y6.8845 I-6.22 J-3.1243
G1 X36.7107
G2 X38.2253 Y9.6143 I6.7119 J-1.9389
G1 Y9.8302
G2 X36.5986 Y12.9999 I5.1947 J4.6682
G1 X20.8497
G2 X19.1098 Y9.6647 I-6.8367 J1.4451
G2 X20.0279 Y8.4418 I-5.1216 J-4.8012
G1 F50.0 X22.0928 Y9.6651
G1 Z-2.0
G2 F100.0 X22.3065 Y9.2845 I-8.1045 J-4.8016
G1 X35.0993
G2 X35.3424 Y9.722 I8.3233 J-4.3389
G2 X34.884 Y10.5999 I8.0775 J4.7764
G1 X22.5772
G2 X22.0928 Y9.6651 I-8.5642 J3.8451
G1 F50.0 X21.4045 Y9.2574
G2 F100.0 X21.6902 Y8.7348 I-7.4163 J-4.3939
G2 X21.6906 Y8.7339 I-3.2165 J-1.6167
G2 X21.8109 Y8.4845 I-7.6497 J-3.8424
G1 X35.5994
G2 X36.2875 Y9.7221 I7.8231 J-3.5389
G2 X35.4146 Y11.3999 I7.1325 J4.7764
G1 X22.0427
G2 X21.1474 Y9.6649 I-8.0298 J3.0451
G2 X21.4045 Y9.2574 I-7.1592 J-4.8014
G1 F50.0 X20.0279 Y8.4418
G2 F100.0 X20.2606 Y8.0162 I-6.0397 J-3.5783
G2 X20.2609 Y8.0157 I-1.787 J-0.8982
G2 X20.71 Y6.8845 I-6.22 J-3.1243
G1 X36.7107
G2 X38.2253 Y9.6143 I6.7119 J-1.9389
G1 Y9.8302
G2 X36.5986 Y12.9999 I5.1947 J4.6682
G1 X20.8497
G2 X19.1098 Y9.6647 I-6.8367 J1.4451
G2 X20.0279 Y8.4418 I-5.1216 J-4.8012
G1 F50.0 X22.0928 Y9.6651
G1 Z-3.0
G2 F100.0 X22.3065 Y9.2845 I-8.1045 J-4.8016
G1 X35.0993
G2 X35.3424 Y9.722 I8.3233 J-4.3389
G2 X34.884 Y10.5999 I8.0775 J4.7764
G1 X22.5772
G2 X22.0928 Y9.6651 I-8.5642 J3.8451
G1 F50.0 X21.4045 Y9.2574
G2 F100.0 X21.6902 Y8.7348 I-7.4163 J-4.3939
G2 X21.6906 Y8.7339 I-3.2165 J-1.6167
G2 X21.8109 Y8.4845 I-7.6497 J-3.8424
G1 X35.5994
G2 X36.2875 Y9.7221 I7.8231 J-3.5389
G2 X35.4146 Y11.3999 I7.1325 J4.7764
G1 X22.0427
G2 X21.1474 Y9.6649 I-8.0298 J3.0451
G2 X21.4045 Y9.2574 I-7.1592 J-4.8014
G1 F50.0 X20.0279 Y8.4418
G2 F100.0 X20.2606 Y8.0162 I-6.0397 J-3.5783
G2 X20.2609 Y8.0157 I-1.787 J-0.8982
G2 X20.71 Y6.8845 I-6.22 J-3.1243
G1 X36.7107
G2 X38.2253 Y9.6143 I6.7119 J-1.9389
G1 Y9.8302
G2 X36.5986 Y12.9999 I5.1947 J4.6682
G1 X20.8497
G2 X19.1098 Y9.6647 I-6.8367 J1.4451
G2 X20.0279 Y8.4418 I-5.1216 J-4.8012
G1 F50.0 X22.0928 Y9.6651
G1 Z-4.0
G2 F100.0 X22.3065 Y9.2845 I-8.1045 J-4.8016
G1 X35.0993
G2 X35.3424 Y9.722 I8.3233 J-4.3389
G2 X34.884 Y10.5999 I8.0775 J4.7764
G1 X22.5772
G2 X22.0928 Y9.6651 I-8.5642 J3.8451
G1 F50.0 X21.4045 Y9.2574
G2 F100.0 X21.6902 Y8.7348 I-7.4163 J-4.3939
G2 X21.6906 Y8.7339 I-3.2165 J-1.6167
G2 X21.8109 Y8.4845 I-7.6497 J-3.8424
G1 X35.5994
G2 X36.2875 Y9.7221 I7.8231 J-3.5389
G2 X35.4146 Y11.3999 I7.1325 J4.7764
G1 X22.0427
G2 X21.1474 Y9.6649 I-8.0298 J3.0451
G2 X21.4045 Y9.2574 I-7.1592 J-4.8014
G1 F50.0 X20.0279 Y8.4418
G2 F100.0 X20.2606 Y8.0162 I-6.0397 J-3.5783
G2 X20.2609 Y8.0157 I-1.787 J-0.8982
G2 X20.71 Y6.8845 I-6.22 J-3.1243
G1 X36.7107
G2 X38.2253 Y9.6143 I6.7119 J-1.9389
G1 Y9.8302
G2 X36.5986 Y12.9999 I5.1947 J4.6682
G1 X20.8497
G2 X19.1098 Y9.6647 I-6.8367 J1.4451
G2 X20.0279 Y8.4418 I-5.1216 J-4.8012
G1 F50.0 X22.0928 Y9.6651
G1 Z-4.5
G2 F100.0 X22.3065 Y9.2845 I-8.1045 J-4.8016
G1 X35.0993
G2 X35.3424 Y9.722 I8.3233 J-4.3389
G2 X34.884 Y10.5999 I8.0775 J4.7764
G1 X22.5772
G2 X22.0928 Y9.6651 I-8.5642 J3.8451
G1 F50.0 X21.4045 Y9.2574
G2 F100.0 X21.6902 Y8.7348 I-7.4163 J-4.3939
G2 X21.6906 Y8.7339 I-3.2165 J-1.6167
G2 X21.8109 Y8.4845 I-7.6497 J-3.8424
G1 X35.5994
G2 X36.2875 Y9.7221 I7.8231 J-3.5389
G2 X35.4146 Y11.3999 I7.1325 J4.7764
G1 X22.0427
G2 X21.1474 Y9.6649 I-8.0298 J3.0451
G2 X21.4045 Y9.2574 I-7.1592 J-4.8014
G1 F50.0 X20.0279 Y8.4418
G2 F100.0 X20.2606 Y8.0162 I-6.0397 J-3.5783
G2 X20.2609 Y8.0157 I-1.787 J-0.8982
G2 X20.71 Y6.8845 I-6.22 J-3.1243
G1 X36.7107
G2 X38.2253 Y9.6143 I6.7119 J-1.9389
G1 Y9.8302
G2 X36.5986 Y12.9999 I5.1947 J4.6682
G1 X20.8497
G2 X19.1098 Y9.6647 I-6.8367 J1.4451
G2 X20.0279 Y8.4418 I-5.1216 J-4.8012
G0 Z3.0
G0 X22.5273 Y39.4002
G0 Z1.0
G1 F50.0 Z-1.0
G1 F100.0 X34.884 Y39.4001
G2 X35.1857 Y40.0026 I8.5344 J-3.8973
G2 X35.1312 Y40.1034 I8.2659 J4.5302
G1 X22.3357 Y40.1035
G2 X22.2512 Y39.9457 I-8.3428 J4.3647
G2 X22.4022 Y39.6586 I-8.2663 J-4.5295
G2 X22.4044 Y39.6542 I-3.9292 J-1.9803
G2 X22.5273 Y39.4002 I-8.3616 J-4.2025
G1 F50.0 Y38.6002
G1 F100.0 X35.4146 Y38.6001
G2 X36.1108 Y40.003 I8.0037 J-3.0973
G2 X35.7485 Y40.651 I7.3409 J4.5297
G2 X35.7462 Y40.6555 I3.2149 J1.62
G2 X35.6267 Y40.9034 I7.6491 J3.8413
G1 X21.8363 Y40.9035
G2 X21.6895 Y40.5965 I-7.7898 J3.5347
G2 X21.6886 Y40.5947 I-3.2165 J1.6168
G2 X21.326 Y39.9456 I-7.6957 J3.8736
G2 X21.6878 Y39.2985 I-7.3411 J-4.5294
G2 X21.6896 Y39.2949 I-3.2148 J-1.6203
G2 X22.0009 Y38.6002 I-7.6468 J-3.8432
G1 X22.5273
G1 F50.0 Y37.0002
G1 F100.0 X36.5987 Y37.0001
G2 X38.0804 Y40.0036 I6.8197 J-1.4973
G2 X37.1773 Y41.3711 I5.3712 J4.5292
G2 X37.1761 Y41.3735 I1.786 J0.9
G2 X36.7275 Y42.5034 I6.2193 J3.1232
G1 X20.7262 Y42.5036
G2 X20.26 Y41.315 I-6.6797 J1.9347
G2 X20.2595 Y41.314 I-1.787 J0.8982
G2 X19.3561 Y39.9455 I-6.2665 J3.1542
G2 X20.259 Y38.5784 I-5.3712 J-4.5293
G2 X20.26 Y38.5764 I-1.786 J-0.9001
G2 X20.8266 Y37.0003 I-6.2172 J-3.1247
G1 X22.5273 Y37.0002
G1 F50.0 Y39.4002
G1 Z-2.0
G1 F100.0 X34.884 Y39.4001
G2 X35.1857 Y40.0026 I8.5344 J-3.8973
G2 X35.1312 Y40.1034 I8.2659 J4.5302
G1 X22.3357 Y40.1035
G2 X22.2512 Y39.9457 I-8.3428 J4.3647
G2 X22.4022 Y39.6586 I-8.2663 J-4.5295
G2 X22.4044 Y39.6542 I-3.9292 J-1.9803
G2 X22.5273 Y39.4002 I-8.3616 J-4.2025
G1 F50.0 Y38.6002
G1 F100.0 X35.4146 Y38.6001
G2 X36.1108 Y40.003 I8.0037 J-3.0973
G2 X35.7485 Y40.651 I7.3409 J4.5297
G2 X35.7462 Y40.6555 I3.2149 J1.62
G2 X35.6267 Y40.9034 I7.6491 J3.8413
G1 X21.8363 Y40.9035
G2 X21.6895 Y40.5965 I-7.7898 J3.5347
G2 X21.6886 Y40.5947 I-3.2165 J1.6168
G2 X21.326 Y39.9456 I-7.6957 J3.8736
G2 X21.6878 Y39.2985 I-7.3411 J-4.5294
G2 X21.6896 Y39.2949 I-3.2148 J-1.6203
G2 X22.0009 Y38.6002 I-7.6468 J-3.8432
G1 X22.5273
G1 F50.0 Y37.0002
G1 F100.0 X36.5987 Y37.0001
G2 X38.0804 Y40.0036 I6.8197 J-1.4973
G2 X37.1773 Y41.3711 I5.3712 J4.5292
G2 X37.1761 Y41.3735 I1.786 J0.9
G2 X36.7275 Y42.5034 I6.2193 J3.1232
G1 X20.7262 Y42.5036
G2 X20.26 Y41.315 I-6.6797 J1.9347
G2 X20.2595 Y41.314 I-1.787 J0.8982
G2 X19.3561 Y39.9455 I-6.2665 J3.1542
G2 X20.259 Y38.5784 I-5.3712 J-4.5293
G2 X20.26 Y38.5764 I-1.786 J-0.9001
G2 X20.8266 Y37.0003 I-6.2172 J-3.1247
G1 X22.5273 Y37.0002
G1 F50.0 Y39.4002
G1 Z-3.0
G1 F100.0 X34.884 Y39.4001
G2 X35.1857 Y40.0026 I8.5344 J-3.8973
G2 X35.1312 Y40.1034 I8.2659 J4.5302
G1 X22.3357 Y40.1035
G2 X22.2512 Y39.9457 I-8.3428 J4.3647
G2 X22.4022 Y39.6586 I-8.2663 J-4.5295
G2 X22.4044 Y39.6542 I-3.9292 J-1.9803
G2 X22.5273 Y39.4002 I-8.3616 J-4.2025
G1 F50.0 Y38.6002
G1 F100.0 X35.4146 Y38.6001
G2 X36.1108 Y40.003 I8.0037 J-3.0973
G2 X35.7485 Y40.651 I7.3409 J4.5297
G2 X35.7462 Y40.6555 I3.2149 J1.62
G2 X35.6267 Y40.9034 I7.6491 J3.8413
G1 X21.8363 Y40.9035
G2 X21.6895 Y40.5965 I-7.7898 J3.5347
G2 X21.6886 Y40.5947 I-3.2165 J1.6168
G2 X21.326 Y39.9456 I-7.6957 J3.8736
G2 X21.6878 Y39.2985 I-7.3411 J-4.5294
G2 X21.6896 Y39.2949 I-3.2148 J-1.6203
G2 X22.0009 Y38.6002 I-7.6468 J-3.8432
G1 X22.5273
G1 F50.0 Y37.0002
G1 F100.0 X36.5987 Y37.0001
G2 X38.0804 Y40.0036 I6.8197 J-1.4973
G2 X37.1773 Y41.3711 I5.3712 J4.5292
G2 X37.1761 Y41.3735 I1.786 J0.9
G2 X36.7275 Y42.5034 I6.2193 J3.1232
G1 X20.7262 Y42.5036
G2 X20.26 Y41.315 I-6.6797 J1.9347
G2 X20.2595 Y41.314 I-1.787 J0.8982
G2 X19.3561 Y39.9455 I-6.2665 J3.1542
G2 X20.259 Y38.5784 I-5.3712 J-4.5293
G2 X20.26 Y38.5764 I-1.786 J-0.9001
G2 X20.8266 Y37.0003 I-6.2172 J-3.1247
G1 X22.5273 Y37.0002
G1 F50.0 Y39.4002
G1 Z-4.0
G1 F100.0 X34.884 Y39.4001
G2 X35.1857 Y40.0026 I8.5344 J-3.8973
G2 X35.1312 Y40.1034 I8.2659 J4.5302
G1 X22.3357 Y40.1035
G2 X22.2512 Y39.9457 I-8.3428 J4.3647
G2 X22.4022 Y39.6586 I-8.2663 J-4.5295
G2 X22.4044 Y39.6542 I-3.9292 J-1.9803
G2 X22.5273 Y39.4002 I-8.3616 J-4.2025
G1 F50.0 Y38.6002
G1 F100.0 X35.4146 Y38.6001
G2 X36.1108 Y40.003 I8.0037 J-3.0973
G2 X35.7485 Y40.651 I7.3409 J4.5297
G2 X35.7462 Y40.6555 I3.2149 J1.62
G2 X35.6267 Y40.9034 I7.6491 J3.8413
G1 X21.8363 Y40.9035
G2 X21.6895 Y40.5965 I-7.7898 J3.5347
G2 X21.6886 Y40.5947 I-3.2165 J1.6168
G2 X21.326 Y39.9456 I-7.6957 J3.8736
G2 X21.6878 Y39.2985 I-7.3411 J-4.5294
G2 X21.6896 Y39.2949 I-3.2148 J-1.6203
G2 X22.0009 Y38.6002 I-7.6468 J-3.8432
G1 X22.5273
G1 F50.0 Y37.0002
G1 F100.0 X36.5987 Y37.0001
G2 X38.0804 Y40.0036 I6.8197 J-1.4973
G2 X37.1773 Y41.3711 I5.3712 J4.5292
G2 X37.1761 Y41.3735 I1.786 J0.9
G2 X36.7275 Y42.5034 I6.2193 J3.1232
G1 X20.7262 Y42.5036
G2 X20.26 Y41.315 I-6.6797 J1.9347
G2 X20.2595 Y41.314 I-1.787 J0.8982
G2 X19.3561 Y39.9455 I-6.2665 J3.1542
G2 X20.259 Y38.5784 I-5.3712 J-4.5293
G2 X20.26 Y38.5764 I-1.786 J-0.9001
G2 X20.8266 Y37.0003 I-6.2172 J-3.1247
G1 X22.5273 Y37.0002
G1 F50.0 Y39.4002
G1 Z-4.5
G1 F100.0 X34.884 Y39.4001
G2 X35.1857 Y40.0026 I8.5344 J-3.8973
G2 X35.1312 Y40.1034 I8.2659 J4.5302
G1 X22.3357 Y40.1035
G2 X22.2512 Y39.9457 I-8.3428 J4.3647
G2 X22.4022 Y39.6586 I-8.2663 J-4.5295
G2 X22.4044 Y39.6542 I-3.9292 J-1.9803
G2 X22.5273 Y39.4002 I-8.3616 J-4.2025
G1 F50.0 Y38.6002
G1 F100.0 X35.4146 Y38.6001
G2 X36.1108 Y40.003 I8.0037 J-3.0973
G2 X35.7485 Y40.651 I7.3409 J4.5297
G2 X35.7462 Y40.6555 I3.2149 J1.62
G2 X35.6267 Y40.9034 I7.6491 J3.8413
G1 X21.8363 Y40.9035
G2 X21.6895 Y40.5965 I-7.7898 J3.5347
G2 X21.6886 Y40.5947 I-3.2165 J1.6168
G2 X21.326 Y39.9456 I-7.6957 J3.8736
G2 X21.6878 Y39.2985 I-7.3411 J-4.5294
G2 X21.6896 Y39.2949 I-3.2148 J-1.6203
G2 X22.0009 Y38.6002 I-7.6468 J-3.8432
G1 X22.5273
G1 F50.0 Y37.0002
G1 F100.0 X36.5987 Y37.0001
G2 X38.0804 Y40.0036 I6.8197 J-1.4973
G2 X37.1773 Y41.3711 I5.3712 J4.5292
G2 X37.1761 Y41.3735 I1.786 J0.9
G2 X36.7275 Y42.5034 I6.2193 J3.1232
G1 X20.7262 Y42.5036
G2 X20.26 Y41.315 I-6.6797 J1.9347
G2 X20.2595 Y41.314 I-1.787 J0.8982
G2 X19.3561 Y39.9455 I-6.2665 J3.1542
G2 X20.259 Y38.5784 I-5.3712 J-4.5293
G2 X20.26 Y38.5764 I-1.786 J-0.9001
G2 X20.8266 Y37.0003 I-6.2172 J-3.1247
G1 X22.5273 Y37.0002
G0 Z3.0
G0 X50.0364 Y26.0858
G0 Z1.0
G1 F50.0 Z-1.0
G1 F100.0 Y23.9137
G1 X51.1225 Y24.9997
G1 X50.0364 Y26.0858
G1 F50.0 X51.1678 Y27.2172
G1 F100.0 X48.4364 Y29.9485
G1 Y20.0512
G1 X53.3853 Y24.9997
G1 X51.1678 Y27.2172
G1 F50.0 X50.0364 Y26.0858
G1 Z-2.0
G1 F100.0 Y23.9137
G1 X51.1225 Y24.9997
G1 X50.0364 Y26.0858
G1 F50.0 X51.1678 Y27.2172
G1 F100.0 X48.4364 Y29.9485
G1 Y20.0512
G1 X53.3853 Y24.9997
G1 X51.1678 Y27.2172
G1 F50.0 X50.0364 Y26.0858
G1 Z-3.0
G1 F100.0 Y23.9137
G1 X51.1225 Y24.9997
G1 X50.0364 Y26.0858
G1 F50.0 X51.1678 Y27.2172
G1 F100.0 X48.4364 Y29.9485
G1 Y20.0512
G1 X53.3853 Y24.9997
G1 X51.1678 Y27.2172
G1 F50.0 X50.0364 Y26.0858
G1 Z-4.0
G1 F100.0 Y23.9137
G1 X51.1225 Y24.9997
G1 X50.0364 Y26.0858
G1 F50.0 X51.1678 Y27.2172
G1 F100.0 X48.4364 Y29.9485
G1 Y20.0512
G1 X53.3853 Y24.9997
G1 X51.1678 Y27.2172
G1 F50.0 X50.0364 Y26.0858
G1 Z-4.5
G1 F100.0 Y23.9137
G1 X51.1225 Y24.9997
G1 X50.0364 Y26.0858
G1 F50.0 X51.1678 Y27.2172
G1 F100.0 X48.4364 Y29.9485
G1 Y20.0512
G1 X53.3853 Y24.9997
G1 X51.1678 Y27.2172
G0 Z3.0
G0 X59.0421 Y37.4448
G0 Z1.0
G1 F50.0 Z-1.0
G1 F100.0 X59.2431 Y37.6459
G1 X58.841
G1 X59.0421 Y37.4448
G1 F50.0 X60.1735 Y36.3135
G1 F100.0 X63.1058 Y39.2459
G1 X54.9783
G1 X59.0421 Y35.1821
G1 X60.1735 Y36.3135
G1 F50.0 X61.3049 Y35.1821
G1 F100.0 X65.5128 Y39.3902
G2 X65.8803 Y39.9402 I6.5109 J-3.9531
G2 X65.3071 Y40.8459 I6.1161 J4.5058
G1 X51.2167
G2 X51.1841 Y40.7773 I-7.7612 J3.654
G1 X59.0422 Y32.9193
G1 X61.3049 Y35.1821
G1 F50.0 X62.4363 Y34.0508
G1 F100.0 X66.7886 Y38.4032
G2 X68.0362 Y39.9431 I5.2351 J-2.9662
G2 X66.3432 Y42.4459 I3.9602 J4.5029
G1 X50.1247
G2 X49.184 Y40.5146 I-6.6692 J2.054
G1 X59.0422 Y30.6565
G1 X62.4363 Y34.0508
G0 Z3.0
G0 X59.0421 Y37.4448
G0 Z0.0
G1 F50.0 Z-2.0
G1 F100.0 X59.2431 Y37.6459
G1 X58.841
G1 X59.0421 Y37.4448
G1 F50.0 X60.1735 Y36.3135
G1 F100.0 X63.1058 Y39.2459
G1 X54.9783
G1 X59.0421 Y35.1821
G1 X60.1735 Y36.3135
G1 F50.0 X61.3049 Y35.1821
G1 F100.0 X65.5128 Y39.3902
G2 X65.8803 Y39.9402 I6.5109 J-3.9531
G2 X65.3071 Y40.8459 I6.1161 J4.5058
G1 X51.2167
G2 X51.1841 Y40.7773 I-7.7612 J3.654
G1 X59.0422 Y32.9193
G1 X61.3049 Y35.1821
G1 F50.0 X62.4363 Y34.0508
G1 F100.0 X66.7886 Y38.4032
G2 X68.0362 Y39.9431 I5.2351 J-2.9662
G2 X66.3432 Y42.4459 I3.9602 J4.5029
G1 X50.1247
G2 X49.184 Y40.5146 I-6.6692 J2.054
G1 X59.0422 Y30.6565
G1 X62.4363 Y34.0508
G0 Z3.0
G0 X59.0421 Y37.4448
G0 Z-1.0
G1 F50.0 Z-3.0
G1 F100.0 X59.2431 Y37.6459
G1 X58.841
G1 X59.0421 Y37.4448
G1 F50.0 X60.1735 Y36.3135
G1 F100.0 X63.1058 Y39.2459
G1 X54.9783
G1 X59.0421 Y35.1821
G1 X60.1735 Y36.3135
G1 F50.0 X61.3049 Y35.1821
G1 F100.0 X65.5128 Y39.3902
G2 X65.8803 Y39.9402 I6.5109 J-3.9531
G2 X65.3071 Y40.8459 I6.1161 J4.5058
G1 X51.2167
G2 X51.1841 Y40.7773 I-7.7612 J3.654
G1 X59.0422 Y32.9193
G1 X61.3049 Y35.1821
G1 F50.0 X62.4363 Y34.0508
G1 F100.0 X66.7886 Y38.4032
G2 X68.0362 Y39.9431 I5.2351 J-2.9662
G2 X66.3432 Y42.4459 I3.9602 J4.5029
G1 X50.1247
G2 X49.184 Y40.5146 I-6.6692 J2.054
G1 X59.0422 Y30.6565
G1 X62.4363 Y34.0508
G0 Z3.0
G0 X59.0421 Y37.4448
G0 Z-2.0
G1 F50.0 Z-4.0
G1 F100.0 X59.2431 Y37.6459
G1 X58.841
G1 X59.0421 Y37.4448
G1 F50.0 X60.1735 Y36.3135
G1 F100.0 X63.1058 Y39.2459
G1 X54.9783
G1 X59.0421 Y35.1821
G1 X60.1735 Y36.3135
G1 F50.0 X61.3049 Y35.1821
G1 F100.0 X65.5128 Y39.3902
G2 X65.8803 Y39.9402 I6.5109 J-3.9531
G2 X65.3071 Y40.8459 I6.1161 J4.5058
G1 X51.2167
G2 X51.1841 Y40.7773 I-7.7612 J3.654
G1 X59.0422 Y32.9193
G1 X61.3049 Y35.1821
G1 F50.0 X62.4363 Y34.0508
G1 F100.0 X66.7886 Y38.4032
G2 X68.0362 Y39.9431 I5.2351 J-2.9662
G2 X66.3432 Y42.4459 I3.9602 J4.5029
G1 X50.1247
G2 X49.184 Y40.5146 I-6.6692 J2.054
G1 X59.0422 Y30.6565
G1 X62.4363 Y34.0508
G0 Z3.0
G0 X59.0421 Y37.4448
G0 Z-3.0
G1 F50.0 Z-4.5
G1 F100.0 X59.2431 Y37.6459
G1 X58.841
G1 X59.0421 Y37.4448
G1 F50.0 X60.1735 Y36.3135
G1 F100.0 X63.1058 Y39.2459
G1 X54.9783
G1 X59.0421 Y35.1821
G1 X60.1735 Y36.3135
G1 F50.0 X61.3049 Y35.1821
G1 F100.0 X65.5128 Y39.3902
G2 X65.8803 Y39.9402 I6.5109 J-3.9531
G2 X65.3071 Y40.8459 I6.1161 J4.5058
G1 X51.2167
G2 X51.1841 Y40.7773 I-7.7612 J3.654
G1 X59.0422 Y32.9193
G1 X61.3049 Y35.1821
G1 F50.0 X62.4363 Y34.0508
G1 F100.0 X66.7886 Y38.4032
G2 X68.0362 Y39.9431 I5.2351 J-2.9662
G2 X66.3432 Y42.4459 I3.9602 J4.5029
G1 X50.1247
G2 X49.184 Y40.5146 I-6.6692 J2.054
G1 X59.0422 Y30.6565
G1 X62.4363 Y34.0508
G0 Z3.0
G0 X67.2372 Y26.4065
G0 Z1.0
G1 F50.0 Z-1.0
G1 F100.0 X65.8304 Y24.9997
G1 X67.2372 Y23.5929
G1 Y26.4065
G1 F50.0 X68.0372
G1 F100.0 Y28.3379
G1 X64.6991 Y24.9997
G1 X68.0372 Y21.6615
G1 Y26.4065
G1 F50.0 X67.2372
G1 Z-2.0
G1 F100.0 X65.8304 Y24.9997
G1 X67.2372 Y23.5929
G1 Y26.4065
G1 F50.0 X68.0372
G1 F100.0 Y28.3379
G1 X64.6991 Y24.9997
G1 X68.0372 Y21.6615
G1 Y26.4065
G1 F50.0 X67.2372
G1 Z-3.0
G1 F100.0 X65.8304 Y24.9997
G1 X67.2372 Y23.5929
G1 Y26.4065
G1 F50.0 X68.0372
G1 F100.0 Y28.3379
G1 X64.6991 Y24.9997
G1 X68.0372 Y21.6615
G1 Y26.4065
G1 F50.0 X67.2372
G1 Z-4.0
G1 F100.0 X65.8304 Y24.9997
G1 X67.2372 Y23.5929
G1 Y26.4065
G1 F50.0 X68.0372
G1 F100.0 Y28.3379
G1 X64.6991 Y24.9997
G1 X68.0372 Y21.6615
G1 Y26.4065
G1 F50.0 X67.2372
G1 Z-4.5
G1 F100.0 X65.8304 Y24.9997
G1 X67.2372 Y23.5929
G1 Y26.4065
G1 F50.0 X68.0372
G1 F100.0 Y28.3379
G1 X64.6991 Y24.9997
G1 X68.0372 Y21.6615
G1 Y26.4065
G0 Z3.0
G0 X59.0422 Y12.5548
G0 Z1.0
G1 F50.0 Z-1.0
G1 F100.0 X58.2294 Y11.742
G1 X59.855
G1 X59.0422 Y12.5548
G1 F50.0 X60.1736 Y13.6862
G1 F100.0 X59.0422 Y14.8175
G1 X54.3665 Y10.142
G1 X63.7179
G1 X60.1736 Y13.6862
G1 F50.0 X61.3049 Y14.8176
G1 F100.0 X59.0422 Y17.0802
G1 X50.9976 Y9.0359
G2 X51.1238 Y8.7949 I-7.588 J-4.1263
G2 X51.1258 Y8.791 I-3.2152 J-1.6194
G2 X51.2459 Y8.542 I-7.652 J-3.8424
G1 X65.0599
G2 X65.8779 Y9.9474 I6.9377 J-3.0974
G2 X65.3487 Y10.774 I6.1384 J4.5131
G1 X61.3049 Y14.8176
G1 F50.0 X62.4363 Y15.949
G1 F100.0 X59.0422 Y19.3429
G1 X48.949 Y9.2501
G2 X49.6948 Y8.0752 I-5.5394 J-4.3405
G2 X49.6959 Y8.073 I-1.7862 J-0.8997
G2 X50.1449 Y6.942 I-6.2221 J-3.1244
G1 X66.1898
G2 X68.0348 Y9.9467 I5.8078 J-1.4974
G2 X66.6493 Y11.7361 I3.9815 J4.5138
G1 X62.4363 Y15.949
G0 Z3.0
G0 X59.0422 Y12.5548
G0 Z0.0
G1 F50.0 Z-2.0
G1 F100.0 X58.2294 Y11.742
G1 X59.855
G1 X59.0422 Y12.5548
G1 F50.0 X60.1736 Y13.6862
G1 F100.0 X59.0422 Y14.8175
G1 X54.3665 Y10.142
G1 X63.7179
G1 X60.1736 Y13.6862
G1 F50.0 X61.3049 Y14.8176
G1 F100.0 X59.0422 Y17.0802
G1 X50.9976 Y9.0359
G2 X51.1238 Y8.7949 I-7.588 J-4.1263
G2 X51.1258 Y8.791 I-3.2152 J-1.6194
G2 X51.2459 Y8.542 I-7.652 J-3.8424
G1 X65.0599
G2 X65.8779 Y9.9474 I6.9377 J-3.0974
G2 X65.3487 Y10.774 I6.1384 J4.5131
G1 X61.3049 Y14.8176
G1 F50.0 X62.4363 Y15.949
G1 F100.0 X59.0422 Y19.3429
G1 X48.949 Y9.2501
G2 X49.6948 Y8.0752 I-5.5394 J-4.3405
G2 X49.6959 Y8.073 I-1.7862 J-0.8997
G2 X50.1449 Y6.942 I-6.2221 J-3.1244
G1 X66.1898
G2 X68.0348 Y9.9467 I5.8078 J-1.4974
G2 X66.6493 Y11.7361 I3.9815 J4.5138
G1 X62.4363 Y15.949
G0 Z3.0
G0 X59.0422 Y12.5548
G0 Z-1.0
G1 F50.0 Z-3.0
G1 F100.0 X58.2294 Y11.742
G1 X59.855
G1 X59.0422 Y12.5548
G1 F50.0 X60.1736 Y13.6862
G1 F100.0 X59.0422 Y14.8175
G1 X54.3665 Y10.142
G1 X63.7179
G1 X60.1736 Y13.6862
G1 F50.0 X61.3049 Y14.8176
G1 F100.0 X59.0422 Y17.0802
G1 X50.9976 Y9.0359
G2 X51.1238 Y8.7949 I-7.588 J-4.1263
G2 X51.1258 Y8.791 I-3.2152 J-1.6194
G2 X51.2459 Y8.542 I-7.652 J-3.8424
G1 X65.0599
G2 X65.8779 Y9.9474 I6.9377 J-3.0974
G2 X65.3487 Y10.774 I6.1384 J4.5131
G1 X61.3049 Y14.8176
G1 F50.0 X62.4363 Y15.949
G1 F100.0 X59.0422 Y19.3429
G1 X48.949 Y9.2501
G2 X49.6948 Y8.0752 I-5.5394 J-4.3405
G2 X49.6959 Y8.073 I-1.7862 J-0.8997
G2 X50.1449 Y6.942 I-6.2221 J-3.1244
G1 X66.1898
G2 X68.0348 Y9.9467 I5.8078 J-1.4974
G2 X66.6493 Y11.7361 I3.9815 J4.5138
G1 X62.4363 Y15.949
G0 Z3.0
G0 X59.0422 Y12.5548
G0 Z-2.0
G1 F50.0 Z-4.0
G1 F100.0 X58.2294 Y11.742
G1 X59.855
G1 X59.0422 Y12.5548
G1 F50.0 X60.1736 Y13.6862
G1 F100.0 X59.0422 Y14.8175
G1 X54.3665 Y10.142
G1 X63.7179
G1 X60.1736 Y13.6862
G1 F50.0 X61.3049 Y14.8176
G1 F100.0 X59.0422 Y17.0802
G1 X50.9976 Y9.0359
G2 X51.1238 Y8.7949 I-7.588 J-4.1263
G2 X51.1258 Y8.791 I-3.2152 J-1.6194
G2 X51.2459 Y8.542 I-7.652 J-3.8424
G1 X65.0599
G2 X65.8779 Y9.9474 I6.9377 J-3.0974
G2 X65.3487 Y10.774 I6.1384 J4.5131
G1 X61.3049 Y14.8176
G1 F50.0 X62.4363 Y15.949
G1 F100.0 X59.0422 Y19.3429
G1 X48.949 Y9.2501
G2 X49.6948 Y8.0752 I-5.5394 J-4.3405
G2 X49.6959 Y8.073 I-1.7862 J-0.8997
G2 X50.1449 Y6.942 I-6.2221 J-3.1244
G1 X66.1898
G2 X68.0348 Y9.9467 I5.8078 J-1.4974
G2 X66.6493 Y11.7361 I3.9815 J4.5138
G1 X62.4363 Y15.949
G0 Z3.0
G0 X59.0422 Y12.5548
G0 Z-3.0
G1 F50.0 Z-4.5
G1 F100.0 X58.2294 Y11.742
G1 X59.855
G1 X59.0422 Y12.5548
G1 F50.0 X60.1736 Y13.6862
G1 F100.0 X59.0422 Y14.8175
G1 X54.3665 Y10.142
G1 X63.7179
G1 X60.1736 Y13.6862
G1 F50.0 X61.3049 Y14.8176
G1 F100.0 X59.0422 Y17.0802
G1 X50.9976 Y9.0359
G2 X51.1238 Y8.7949 I-7.588 J-4.1263
G2 X51.1258 Y8.791 I-3.2152 J-1.6194
G2 X51.2459 Y8.542 I-7.652 J-3.8424
G1 X65.0599
G2 X65.8779 Y9.9474 I6.9377 J-3.0974
G2 X65.3487 Y10.774 I6.1384 J4.5131
G1 X61.3049 Y14.8176
G1 F50.0 X62.4363 Y15.949
G1 F100.0 X59.0422 Y19.3429
G1 X48.949 Y9.2501
G2 X49.6948 Y8.0752 I-5.5394 J-4.3405
G2 X49.6959 Y8.073 I-1.7862 J-0.8997
G2 X50.1449 Y6.942 I-6.2221 J-3.1244
G1 X66.1898
G2 X68.0348 Y9.9467 I5.8078 J-1.4974
G2 X66.6493 Y11.7361 I3.9815 J4.5138
G1 X62.4363 Y15.949
G0 Z3.0
G0 X79.0934 Y9.9458
G0 Z1.0
G1 F50.0 Z-1.0
G2 F100.0 X79.4723 Y9.2845 I-7.086 J-4.4984
G1 X96.6952
G2 X96.9088 Y9.6654 I8.2933 J-4.4
G2 X96.6949 Y10.046 I8.1206 J4.8148
G1 X79.156
G2 X79.0934 Y9.9458 I-7.15 J4.3987
G1 F50.0 X78.418 Y9.5171
G2 F100.0 X78.9669 Y8.4845 I-6.4106 J-4.0696
G1 X97.1912
G2 X97.8543 Y9.6657 I7.7973 J-3.6
G2 X97.313 Y10.592 I7.1752 J4.8144
G2 X97.3107 Y10.5966 I3.2149 J1.62
G2 X97.1905 Y10.846 I7.6527 J3.8424
G1 X78.694
G2 X78.1248 Y9.9458 I-6.688 J3.5987
G2 X78.418 Y9.5171 I-6.1174 J-4.4984
G1 F50.0 X77.0672 Y8.6595
G2 F100.0 X77.8259 Y6.8845 I-5.0598 J-3.2121
G1 X98.2926
G2 X99.892 Y9.6658 I6.6959 J-2.0
G2 X98.7419 Y11.3119 I5.1374 J4.8144
G2 X98.7406 Y11.3145 I1.7861 J0.9
G2 X98.2916 Y12.446 I6.2228 J3.1244
G1 X77.6577
G2 X76.2706 Y10.2316 I-5.6517 J1.9987
G1 Y9.6599
G2 X77.0672 Y8.6595 I-4.2631 J-4.2125
G1 F50.0 X79.0934 Y9.9458
G1 Z-2.0
G2 F100.0 X79.4723 Y9.2845 I-7.086 J-4.4984
G1 X96.6952
G2 X96.9088 Y9.6654 I8.2933 J-4.4
G2 X96.6949 Y10.046 I8.1206 J4.8148
G1 X79.156
G2 X79.0934 Y9.9458 I-7.15 J4.3987
G1 F50.0 X78.418 Y9.5171
G2 F100.0 X78.9669 Y8.4845 I-6.4106 J-4.0696
G1 X97.1912
G2 X97.8543 Y9.6657 I7.7973 J-3.6
G2 X97.313 Y10.592 I7.1752 J4.8144
G2 X97.3107 Y10.5966 I3.2149 J1.62
G2 X97.1905 Y10.846 I7.6527 J3.8424
G1 X78.694
G2 X78.1248 Y9.9458 I-6.688 J3.5987
G2 X78.418 Y9.5171 I-6.1174 J-4.4984
G1 F50.0 X77.0672 Y8.6595
G2 F100.0 X77.8259 Y6.8845 I-5.0598 J-3.2121
G1 X98.2926
G2 X99.892 Y9.6658 I6.6959 J-2.0
G2 X98.7419 Y11.3119 I5.1374 J4.8144
G2 X98.7406 Y11.3145 I1.7861 J0.9
G2 X98.2916 Y12.446 I6.2228 J3.1244
G1 X77.6577
G2 X76.2706 Y10.2316 I-5.6517 J1.9987
G1 Y9.6599
G2 X77.0672 Y8.6595 I-4.2631 J-4.2125
G1 F50.0 X79.0934 Y9.9458
G1 Z-3.0
G2 F100.0 X79.4723 Y9.2845 I-7.086 J-4.4984
G1 X96.6952
G2 X96.9088 Y9.6654 I8.2933 J-4.4
G2 X96.6949 Y10.046 I8.1206 J4.8148
G1 X79.156
G2 X79.0934 Y9.9458 I-7.15 J4.3987
G1 F50.0 X78.418 Y9.5171
G2 F100.0 X78.9669 Y8.4845 I-6.4106 J-4.0696
G1 X97.1912
G2 X97.8543 Y9.6657 I7.7973 J-3.6
G2 X97.313 Y10.592 I7.1752 J4.8144
G2 X97.3107 Y10.5966 I3.2149 J1.62
G2 X97.1905 Y10.846 I7.6527 J3.8424
G1 X78.694
G2 X78.1248 Y9.9458 I-6.688 J3.5987
G2 X78.418 Y9.5171 I-6.1174 J-4.4984
G1 F50.0 X77.0672 Y8.6595
G2 F100.0 X77.8259 Y6.8845 I-5.0598 J-3.2121
G1 X98.2926
G2 X99.892 Y9.6658 I6.6959 J-2.0
G2 X98.7419 Y11.3119 I5.1374 J4.8144
G2 X98.7406 Y11.3145 I1.7861 J0.9
G2 X98.2916 Y12.446 I6.2228 J3.1244
G1 X77.6577
G2 X76.2706 Y10.2316 I-5.6517 J1.9987
G1 Y9.6599
G2 X77.0672 Y8.6595 I-4.2631 J-4.2125
G1 F50.0 X79.0934 Y9.9458
G1 Z-4.0
G2 F100.0 X79.4723 Y9.2845 I-7.086 J-4.4984
G1 X96.6952
G2 X96.9088 Y9.6654 I8.2933 J-4.4
G2 X96.6949 Y10.046 I8.1206 J4.8148
G1 X79.156
G2 X79.0934 Y9.9458 I-7.15 J4.3987
G1 F50.0 X78.418 Y9.5171
G2 F100.0 X78.9669 Y8.4845 I-6.4106 J-4.0696
G1 X97.1912
G2 X97.8543 Y9.6657 I7.7973 J-3.6
G2 X97.313 Y10.592 I7.1752 J4.8144
G2 X97.3107 Y10.5966 I3.2149 J1.62
G2 X97.1905 Y10.846 I7.6527 J3.8424
G1 X78.694
G2 X78.1248 Y9.9458 I-6.688 J3.5987
G2 X78.418 Y9.5171 I-6.1174 J-4.4984
G1 F50.0 X77.0672 Y8.6595
G2 F100.0 X77.8259 Y6.8845 I-5.0598 J-3.2121
G1 X98.2926
G2 X99.892 Y9.6658 I6.6959 J-2.0
G2 X98.7419 Y11.3119 I5.1374 J4.8144
G2 X98.7406 Y11.3145 I1.7861 J0.9
G2 X98.2916 Y12.446 I6.2228 J3.1244
G1 X77.6577
G2 X76.2706 Y10.2316 I-5.6517 J1.9987
G1 Y9.6599
G2 X77.0672 Y8.6595 I-4.2631 J-4.2125
G1 F50.0 X79.0934 Y9.9458
G1 Z-4.5
G2 F100.0 X79.4723 Y9.2845 I-7.086 J-4.4984
G1 X96.6952
G2 X96.9088 Y9.6654 I8.2933 J-4.4
G2 X96.6949 Y10.046 I8.1206 J4.8148
G1 X79.156
G2 X79.0934 Y9.9458 I-7.15 J4.3987
G1 F50.0 X78.418 Y9.5171
G2 F100.0 X78.9669 Y8.4845 I-6.4106 J-4.0696
G1 X97.1912
G2 X97.8543 Y9.6657 I7.7973 J-3.6
G2 X97.313 Y10.592 I7.1752 J4.8144
G2 X97.3107 Y10.5966 I3.2149 J1.62
G2 X97.1905 Y10.846 I7.6527 J3.8424
G1 X78.694
G2 X78.1248 Y9.9458 I-6.688 J3.5987
G2 X78.418 Y9.5171 I-6.1174 J-4.4984
G1 F50.0 X77.0672 Y8.6595
G2 F100.0 X77.8259 Y6.8845 I-5.0598 J-3.2121
G1 X98.2926
G2 X99.892 Y9.6658 I6.6959 J-2.0
G2 X98.7419 Y11.3119 I5.1374 J4.8144
G2 X98.7406 Y11.3145 I1.7861 J0.9
G2 X98.2916 Y12.446 I6.2228 J3.1244
G1 X77.6577
G2 X76.2706 Y10.2316 I-5.6517 J1.9987
G1 Y9.6599
G2 X77.0672 Y8.6595 I-4.2631 J-4.2125
G0 Z3.0
G0 X79.156 Y39.8456
G0 Z1.0
G1 F50.0 Z-1.0
G1 F100.0 X96.6961
G2 X96.7498 Y39.9451 I8.3188 J-4.428
G2 X96.6954 Y40.0459 I8.2648 J4.5287
G1 X79.156
G2 X79.0934 Y39.9457 I-7.15 J4.3987
G2 X79.156 Y39.8456 I-7.086 J-4.4984
G1 F50.0 Y39.0456
G1 F100.0 X97.1914
G2 X97.3124 Y39.296 I7.7527 J-3.5906
G2 X97.3129 Y39.297 I3.2157 J-1.6185
G2 X97.6751 Y39.9451 I7.702 J-3.8795
G2 X97.3125 Y40.5937 I7.3395 J4.5287
G2 X97.3119 Y40.5949 I3.2151 J1.6197
G2 X97.1907 Y40.8459 I7.631 J3.8407
G1 X78.694
G2 X78.1248 Y39.9457 I-6.688 J3.5987
G2 X78.694 Y39.0456 I-6.1174 J-4.4984
G1 X79.156
G1 F50.0 Y37.4456
G1 F100.0 X98.2917
G2 X98.7416 Y38.5767 I6.6524 J-1.9906
G2 X98.7418 Y38.5773 I1.7865 J-0.8991
G2 X99.6451 Y39.9453 I6.273 J-3.1597
G2 X98.7415 Y41.3136 I5.3696 J4.5286
G2 X98.7411 Y41.3142 I1.7862 J0.8998
G2 X98.2911 Y42.4459 I6.2018 J3.1214
G1 X77.6577
G2 X76.2706 Y40.2315 I-5.6517 J1.9987
G1 Y39.6598
G2 X77.6578 Y37.4456 I-4.2631 J-4.2125
G1 X79.156
G1 F50.0 Y39.8456
G1 Z-2.0
G1 F100.0 X96.6961
G2 X96.7498 Y39.9451 I8.3188 J-4.428
G2 X96.6954 Y40.0459 I8.2648 J4.5287
G1 X79.156
G2 X79.0934 Y39.9457 I-7.15 J4.3987
G2 X79.156 Y39.8456 I-7.086 J-4.4984
G1 F50.0 Y39.0456
G1 F100.0 X97.1914
G2 X97.3124 Y39.296 I7.7527 J-3.5906
G2 X97.3129 Y39.297 I3.2157 J-1.6185
G2 X97.6751 Y39.9451 I7.702 J-3.8795
G2 X97.3125 Y40.5937 I7.3395 J4.5287
G2 X97.3119 Y40.5949 I3.2151 J1.6197
G2 X97.1907 Y40.8459 I7.631 J3.8407
G1 X78.694
G2 X78.1248 Y39.9457 I-6.688 J3.5987
G2 X78.694 Y39.0456 I-6.1174 J-4.4984
G1 X79.156
G1 F50.0 Y37.4456
G1 F100.0 X98.2917
G2 X98.7416 Y38.5767 I6.6524 J-1.9906
G2 X98.7418 Y38.5773 I1.7865 J-0.8991
G2 X99.6451 Y39.9453 I6.273 J-3.1597
G2 X98.7415 Y41.3136 I5.3696 J4.5286
G2 X98.7411 Y41.3142 I1.7862 J0.8998
G2 X98.2911 Y42.4459 I6.2018 J3.1214
G1 X77.6577
G2 X76.2706 Y40.2315 I-5.6517 J1.9987
G1 Y39.6598
G2 X77.6578 Y37.4456 I-4.2631 J-4.2125
G1 X79.156
G1 F50.0 Y39.8456
G1 Z-3.0
G1 F100.0 X96.6961
G2 X96.7498 Y39.9451 I8.3188 J-4.428
G2 X96.6954 Y40.0459 I8.2648 J4.5287
G1 X79.156
G2 X79.0934 Y39.9457 I-7.15 J4.3987
G2 X79.156 Y39.8456 I-7.086 J-4.4984
G1 F50.0 Y39.0456
G1 F100.0 X97.1914
G2 X97.3124 Y39.296 I7.7527 J-3.5906
G2 X97.3129 Y39.297 I3.2157 J-1.6185
G2 X97.6751 Y39.9451 I7.702 J-3.8795
G2 X97.3125 Y40.5937 I7.3395 J4.5287
G2 X97.3119 Y40.5949 I3.2151 J1.6197
G2 X97.1907 Y40.8459 I7.631 J3.8407
G1 X78.694
G2 X78.1248 Y39.9457 I-6.688 J3.5987
G2 X78.694 Y39.0456 I-6.1174 J-4.4984
G1 X79.156
G1 F50.0 Y37.4456
G1 F100.0 X98.2917
G2 X98.7416 Y38.5767 I6.6524 J-1.9906
G2 X98.7418 Y38.5773 I1.7865 J-0.8991
G2 X99.6451 Y39.9453 I6.273 J-3.1597
G2 X98.7415 Y41.3136 I5.3696 J4.5286
G2 X98.7411 Y41.3142 I1.7862 J0.8998
G2 X98.2911 Y42.4459 I6.2018 J3.1214
G1 X77.6577
G2 X76.2706 Y40.2315 I-5.6517 J1.9987
G1 Y39.6598
G2 X77.6578 Y37.4456 I-4.2631 J-4.2125
G1 X79.156
G1 F50.0 Y39.8456
G1 Z-4.0
G1 F100.0 X96.6961
G2 X96.7498 Y39.9451 I8.3188 J-4.428
G2 X96.6954 Y40.0459 I8.2648 J4.5287
G1 X79.156
G2 X79.0934 Y39.9457 I-7.15 J4.3987
G2 X79.156 Y39.8456 I-7.086 J-4.4984
G1 F50.0 Y39.0456
G1 F100.0 X97.1914
G2 X97.3124 Y39.296 I7.7527 J-3.5906
G2 X97.3129 Y39.297 I3.2157 J-1.6185
G2 X97.6751 Y39.9451 I7.702 J-3.8795
G2 X97.3125 Y40.5937 I7.3395 J4.5287
G2 X97.3119 Y40.5949 I3.2151 J1.6197
G2 X97.1907 Y40.8459 I7.631 J3.8407
G1 X78.694
G2 X78.1248 Y39.9457 I-6.688 J3.5987
G2 X78.694 Y39.0456 I-6.1174 J-4.4984
G1 X79.156
G1 F50.0 Y37.4456
G1 F100.0 X98.2917
G2 X98.7416 Y38.5767 I6.6524 J-1.9906
G2 X98.7418 Y38.5773 I1.7865 J-0.8991
G2 X99.6451 Y39.9453 I6.273 J-3.1597
G2 X98.7415 Y41.3136 I5.3696 J4.5286
G2 X98.7411 Y41.3142 I1.7862 J0.8998
G2 X98.2911 Y42.4459 I6.2018 J3.1214
G1 X77.6577
G2 X76.2706 Y40.2315 I-5.6517 J1.9987
G1 Y39.6598
G2 X77.6578 Y37.4456 I-4.2631 J-4.2125
G1 X79.156
G1 F50.0 Y39.8456
G1 Z-4.5
G1 F100.0 X96.6961
G2 X96.7498 Y39.9451 I8.3188 J-4.428
G2 X96.6954 Y40.0459 I8.2648 J4.5287
G1 X79.156
G2 X79.0934 Y39.9457 I-7.15 J4.3987
G2 X79.156 Y39.8456 I-7.086 J-4.4984
G1 F50.0 Y39.0456
G1 F100.0 X97.1914
G2 X97.3124 Y39.296 I7.7527 J-3.5906
G2 X97.3129 Y39.297 I3.2157 J-1.6185
G2 X97.6751 Y39.9451 I7.702 J-3.8795
G2 X97.3125 Y40.5937 I7.3395 J4.5287
G2 X97.3119 Y40.5949 I3.2151 J1.6197
G2 X97.1907 Y40.8459 I7.631 J3.8407
G1 X78.694
G2 X78.1248 Y39.9457 I-6.688 J3.5987
G2 X78.694 Y39.0456 I-6.1174 J-4.4984
G1 X79.156
G1 F50.0 Y37.4456
G1 F100.0 X98.2917
G2 X98.7416 Y38.5767 I6.6524 J-1.9906
G2 X98.7418 Y38.5773 I1.7865 J-0.8991
G2 X99.6451 Y39.9453 I6.273 J-3.1597
G2 X98.7415 Y41.3136 I5.3696 J4.5286
G2 X98.7411 Y41.3142 I1.7862 J0.8998
G2 X98.2911 Y42.4459 I6.2018 J3.1214
G1 X77.6577
G2 X76.2706 Y40.2315 I-5.6517 J1.9987
G1 Y39.6598
G2 X77.6578 Y37.4456 I-4.2631 J-4.2125
G1 X79.156
( 2mm pocket profile )
G0 Z3.0
( T2 : 2.0 )
T2 M6
M3 S1000
G0 X18.0015 Y9.9791
G0 Z1.0
G1 F50.0 Z-1.0
G1 F70.0 Y9.3508
G2 X19.3671 Y7.5671 I-4.0133 J-4.4873
G2 X19.3673 Y7.5669 I-0.8935 J-0.4491
G2 X19.9181 Y5.8845 I-5.3264 J-2.6754
G1 X37.5103
G2 X39.2253 Y9.2139 I5.9123 J-0.9389
G1 Y10.2307
G2 X37.4567 Y13.9999 I4.1947 J4.2678
G1 X19.9842
G2 X18.0015 Y9.9791 I-5.9712 J0.4451
G1 F50.0 Z-2.0
G1 F70.0 Y9.3508
G2 X19.3671 Y7.5671 I-4.0133 J-4.4873
G2 X19.3673 Y7.5669 I-0.8935 J-0.4491
G2 X19.9181 Y5.8845 I-5.3264 J-2.6754
G1 X37.5103
G2 X39.2253 Y9.2139 I5.9123 J-0.9389
G1 Y10.2307
G2 X37.4567 Y13.9999 I4.1947 J4.2678
G1 X19.9842
G2 X18.0015 Y9.9791 I-5.9712 J0.4451
G1 F50.0 Z-3.0
G1 F70.0 Y9.3508
G2 X19.3671 Y7.5671 I-4.0133 J-4.4873
G2 X19.3673 Y7.5669 I-0.8935 J-0.4491
G2 X19.9181 Y5.8845 I-5.3264 J-2.6754
G1 X37.5103
G2 X39.2253 Y9.2139 I5.9123 J-0.9389
G1 Y10.2307
G2 X37.4567 Y13.9999 I4.1947 J4.2678
G1 X19.9842
G2 X18.0015 Y9.9791 I-5.9712 J0.4451
G1 F50.0 Z-4.0
G1 F70.0 Y9.3508
G2 X19.3671 Y7.5671 I-4.0133 J-4.4873
G2 X19.3673 Y7.5669 I-0.8935 J-0.4491
G2 X19.9181 Y5.8845 I-5.3264 J-2.6754
G1 X37.5103
G2 X39.2253 Y9.2139 I5.9123 J-0.9389
G1 Y10.2307
G2 X37.4567 Y13.9999 I4.1947 J4.2678
G1 X19.9842
G2 X18.0015 Y9.9791 I-5.9712 J0.4451
G1 F50.0 Z-4.5
G1 F70.0 Y9.3508
G2 X19.3671 Y7.5671 I-4.0133 J-4.4873
G2 X19.3673 Y7.5669 I-0.8935 J-0.4491
G2 X19.9181 Y5.8845 I-5.3264 J-2.6754
G1 X37.5103
G2 X39.2253 Y9.2139 I5.9123 J-0.9389
G1 Y10.2307
G2 X37.4567 Y13.9999 I4.1947 J4.2678
G1 X19.9842
G2 X18.0015 Y9.9791 I-5.9712 J0.4451
G0 Z3.0
G0 X19.9758 Y36.0003
G0 Z1.0
G1 F50.0 Z-1.0
G1 F70.0 X37.4569 Y36.0001
G2 X39.4358 Y39.9666 I5.9614 J-0.4973
G1 Y40.04
G2 X38.0703 Y41.8211 I4.0159 J4.4927
G2 X38.0697 Y41.8223 I0.893 J0.45
G2 X37.5193 Y43.5034 I5.3256 J2.6744
G1 X19.9269 Y43.5036
G2 X19.3665 Y41.7641 I-5.8804 J0.9347
G2 X19.3662 Y41.7636 I-0.8935 J0.4491
G2 X18.0002 Y39.9817 I-5.3733 J2.7046
G1 Y39.9095
G2 X19.366 Y38.1283 I-4.0153 J-4.4933
G2 X19.3665 Y38.1273 I-0.893 J-0.4501
G2 X19.9758 Y36.0003 I-5.3237 J-2.6756
G1 F50.0 Z-2.0
G1 F70.0 X37.4569 Y36.0001
G2 X39.4358 Y39.9666 I5.9614 J-0.4973
G1 Y40.04
G2 X38.0703 Y41.8211 I4.0159 J4.4927
G2 X38.0697 Y41.8223 I0.893 J0.45
G2 X37.5193 Y43.5034 I5.3256 J2.6744
G1 X19.9269 Y43.5036
G2 X19.3665 Y41.7641 I-5.8804 J0.9347
G2 X19.3662 Y41.7636 I-0.8935 J0.4491
G2 X18.0002 Y39.9817 I-5.3733 J2.7046
G1 Y39.9095
G2 X19.366 Y38.1283 I-4.0153 J-4.4933
G2 X19.3665 Y38.1273 I-0.893 J-0.4501
G2 X19.9758 Y36.0003 I-5.3237 J-2.6756
G1 F50.0 Z-3.0
G1 F70.0 X37.4569 Y36.0001
G2 X39.4358 Y39.9666 I5.9614 J-0.4973
G1 Y40.04
G2 X38.0703 Y41.8211 I4.0159 J4.4927
G2 X38.0697 Y41.8223 I0.893 J0.45
G2 X37.5193 Y43.5034 I5.3256 J2.6744
G1 X19.9269 Y43.5036
G2 X19.3665 Y41.7641 I-5.8804 J0.9347
G2 X19.3662 Y41.7636 I-0.8935 J0.4491
G2 X18.0002 Y39.9817 I-5.3733 J2.7046
G1 Y39.9095
G2 X19.366 Y38.1283 I-4.0153 J-4.4933
G2 X19.3665 Y38.1273 I-0.893 J-0.4501
G2 X19.9758 Y36.0003 I-5.3237 J-2.6756
G1 F50.0 Z-4.0
G1 F70.0 X37.4569 Y36.0001
G2 X39.4358 Y39.9666 I5.9614 J-0.4973
G1 Y40.04
G2 X38.0703 Y41.8211 I4.0159 J4.4927
G2 X38.0697 Y41.8223 I0.893 J0.45
G2 X37.5193 Y43.5034 I5.3256 J2.6744
G1 X19.9269 Y43.5036
G2 X19.3665 Y41.7641 I-5.8804 J0.9347
G2 X19.3662 Y41.7636 I-0.8935 J0.4491
G2 X18.0002 Y39.9817 I-5.3733 J2.7046
G1 Y39.9095
G2 X19.366 Y38.1283 I-4.0153 J-4.4933
G2 X19.3665 Y38.1273 I-0.893 J-0.4501
G2 X19.9758 Y36.0003 I-5.3237 J-2.6756
G1 F50.0 Z-4.5
G1 F70.0 X37.4569 Y36.0001
G2 X39.4358 Y39.9666 I5.9614 J-0.4973
G1 Y40.04
G2 X38.0703 Y41.8211 I4.0159 J4.4927
G2 X38.0697 Y41.8223 I0.893 J0.45
G2 X37.5193 Y43.5034 I5.3256 J2.6744
G1 X19.9269 Y43.5036
G2 X19.3665 Y41.7641 I-5.8804 J0.9347
G2 X19.3662 Y41.7636 I-0.8935 J0.4491
G2 X18.0002 Y39.9817 I-5.3733 J2.7046
G1 Y39.9095
G2 X19.366 Y38.1283 I-4.0153 J-4.4933
G2 X19.3665 Y38.1273 I-0.893 J-0.4501
G2 X19.9758 Y36.0003 I-5.3237 J-2.6756
G0 Z3.0
G0 X47.4364 Y31.039
G0 Z1.0
G1 F50.0 Z-1.0
G1 F70.0 Y18.9662
G2 X48.085 Y18.2855 I-4.0284 J-4.4876
G1 X54.7996 Y24.9997
G1 X48.0827 Y31.7164
G2 X47.4364 Y31.039 I-4.6648 J3.8032
G1 F50.0 Z-2.0
G1 F70.0 Y18.9662
G2 X48.085 Y18.2855 I-4.0284 J-4.4876
G1 X54.7996 Y24.9997
G1 X48.0827 Y31.7164
G2 X47.4364 Y31.039 I-4.6648 J3.8032
G1 F50.0 Z-3.0
G1 F70.0 Y18.9662
G2 X48.085 Y18.2855 I-4.0284 J-4.4876
G1 X54.7996 Y24.9997
G1 X48.0827 Y31.7164
G2 X47.4364 Y31.039 I-4.6648 J3.8032
G1 F50.0 Z-4.0
G1 F70.0 Y18.9662
G2 X48.085 Y18.2855 I-4.0284 J-4.4876
G1 X54.7996 Y24.9997
G1 X48.0827 Y31.7164
G2 X47.4364 Y31.039 I-4.6648 J3.8032
G1 F50.0 Z-4.5
G1 F70.0 Y18.9662
G2 X48.085 Y18.2855 I-4.0284 J-4.4876
G1 X54.7996 Y24.9997
G1 X48.0827 Y31.7164
G2 X47.4364 Y31.039 I-4.6648 J3.8032
G0 Z3.0
G0 X52.3409 Y35.9436
G0 Z1.0
G1 F50.0 Z-1.0
G1 F70.0 X59.0422 Y29.2423
G1 X67.5962 Y37.7966
G2 X69.0372 Y39.4684 I4.4275 J-2.3595
G1 Y40.4199
G2 X67.1009 Y43.4459 I2.9592 J4.0261
G1 X49.3402
G2 X47.8442 Y40.4402 I-5.8847 J1.054
G1 X52.3409 Y35.9436
G1 F50.0 Z-2.0
G1 F70.0 X59.0422 Y29.2423
G1 X67.5962 Y37.7966
G2 X69.0372 Y39.4684 I4.4275 J-2.3595
G1 Y40.4199
G2 X67.1009 Y43.4459 I2.9592 J4.0261
G1 X49.3402
G2 X47.8442 Y40.4402 I-5.8847 J1.054
G1 X52.3409 Y35.9436
G1 F50.0 Z-3.0
G1 F70.0 X59.0422 Y29.2423
G1 X67.5962 Y37.7966
G2 X69.0372 Y39.4684 I4.4275 J-2.3595
G1 Y40.4199
G2 X67.1009 Y43.4459 I2.9592 J4.0261
G1 X49.3402
G2 X47.8442 Y40.4402 I-5.8847 J1.054
G1 X52.3409 Y35.9436
G1 F50.0 Z-4.0
G1 F70.0 X59.0422 Y29.2423
G1 X67.5962 Y37.7966
G2 X69.0372 Y39.4684 I4.4275 J-2.3595
G1 Y40.4199
G2 X67.1009 Y43.4459 I2.9592 J4.0261
G1 X49.3402
G2 X47.8442 Y40.4402 I-5.8847 J1.054
G1 X52.3409 Y35.9436
G1 F50.0 Z-4.5
G1 F70.0 X59.0422 Y29.2423
G1 X67.5962 Y37.7966
G2 X69.0372 Y39.4684 I4.4275 J-2.3595
G1 Y40.4199
G2 X67.1009 Y43.4459 I2.9592 J4.0261
G1 X49.3402
G2 X47.8442 Y40.4402 I-5.8847 J1.054
G1 X52.3409 Y35.9436
G0 Z3.0
G0 X63.2849 Y24.9997
G0 Z1.0
G1 F50.0 Z-1.0
G1 F70.0 X69.0372 Y19.2473
G1 Y30.7521
G1 X63.2849 Y24.9997
G1 F50.0 Z-2.0
G1 F70.0 X69.0372 Y19.2473
G1 Y30.7521
G1 X63.2849 Y24.9997
G1 F50.0 Z-3.0
G1 F70.0 X69.0372 Y19.2473
G1 Y30.7521
G1 X63.2849 Y24.9997
G1 F50.0 Z-4.0
G1 F70.0 X69.0372 Y19.2473
G1 Y30.7521
G1 X63.2849 Y24.9997
G1 F50.0 Z-4.5
G1 F70.0 X69.0372 Y19.2473
G1 Y30.7521
G1 X63.2849 Y24.9997
G0 Z3.0
G0 X59.0423 Y20.757
G0 Z1.0
G1 F50.0 Z-1.0
G1 F70.0 X59.0422 Y20.7571
G1 X47.5697 Y9.285
G2 X48.8017 Y7.6254 I-4.16 J-4.3754
G2 X48.8023 Y7.6243 I-0.8931 J-0.4498
G2 X49.353 Y5.942 I-5.3285 J-2.6756
G1 X67.0246
G2 X69.0372 Y9.4712 I4.9729 J-0.4974
G1 Y10.4213
G2 X67.4742 Y12.3254 I2.9791 J4.0391
G1 X59.0423 Y20.757
G1 F50.0 Z-2.0
G1 F70.0 X59.0422 Y20.7571
G1 X47.5697 Y9.285
G2 X48.8017 Y7.6254 I-4.16 J-4.3754
G2 X48.8023 Y7.6243 I-0.8931 J-0.4498
G2 X49.353 Y5.942 I-5.3285 J-2.6756
G1 X67.0246
G2 X69.0372 Y9.4712 I4.9729 J-0.4974
G1 Y10.4213
G2 X67.4742 Y12.3254 I2.9791 J4.0391
G1 X59.0423 Y20.757
G1 F50.0 Z-3.0
G1 F70.0 X59.0422 Y20.7571
G1 X47.5697 Y9.285
G2 X48.8017 Y7.6254 I-4.16 J-4.3754
G2 X48.8023 Y7.6243 I-0.8931 J-0.4498
G2 X49.353 Y5.942 I-5.3285 J-2.6756
G1 X67.0246
G2 X69.0372 Y9.4712 I4.9729 J-0.4974
G1 Y10.4213
G2 X67.4742 Y12.3254 I2.9791 J4.0391
G1 X59.0423 Y20.757
G1 F50.0 Z-4.0
G1 F70.0 X59.0422 Y20.7571
G1 X47.5697 Y9.285
G2 X48.8017 Y7.6254 I-4.16 J-4.3754
G2 X48.8023 Y7.6243 I-0.8931 J-0.4498
G2 X49.353 Y5.942 I-5.3285 J-2.6756
G1 X67.0246
G2 X69.0372 Y9.4712 I4.9729 J-0.4974
G1 Y10.4213
G2 X67.4742 Y12.3254 I2.9791 J4.0391
G1 X59.0423 Y20.757
G1 F50.0 Z-4.5
G1 F70.0 X59.0422 Y20.7571
G1 X47.5697 Y9.285
G2 X48.8017 Y7.6254 I-4.16 J-4.3754
G2 X48.8023 Y7.6243 I-0.8931 J-0.4498
G2 X49.353 Y5.942 I-5.3285 J-2.6756
G1 X67.0246
G2 X69.0372 Y9.4712 I4.9729 J-0.4974
G1 Y10.4213
G2 X67.4742 Y12.3254 I2.9791 J4.0391
G1 X59.0423 Y20.757
G0 Z3.0
G0 X75.2706 Y10.6645
G0 Z1.0
G1 F50.0 Z-1.0
G1 F70.0 Y9.2269
G2 X76.9815 Y5.8845 I-3.2631 J-3.7795
G1 X99.0844
G2 X101.0005 Y9.3515 I5.9041 J-1.0
G1 Y9.9794
G2 X99.6349 Y11.7619 I4.029 J4.5008
G2 X99.6343 Y11.7632 I0.893 J0.45
G2 X99.0835 Y13.446 I5.3291 J2.6757
G1 X76.8998
G2 X75.2706 Y10.6645 I-4.8939 J0.9987
G1 F50.0 Z-2.0
G1 F70.0 Y9.2269
G2 X76.9815 Y5.8845 I-3.2631 J-3.7795
G1 X99.0844
G2 X101.0005 Y9.3515 I5.9041 J-1.0
G1 Y9.9794
G2 X99.6349 Y11.7619 I4.029 J4.5008
G2 X99.6343 Y11.7632 I0.893 J0.45
G2 X99.0835 Y13.446 I5.3291 J2.6757
G1 X76.8998
G2 X75.2706 Y10.6645 I-4.8939 J0.9987
G1 F50.0 Z-3.0
G1 F70.0 Y9.2269
G2 X76.9815 Y5.8845 I-3.2631 J-3.7795
G1 X99.0844
G2 X101.0005 Y9.3515 I5.9041 J-1.0
G1 Y9.9794
G2 X99.6349 Y11.7619 I4.029 J4.5008
G2 X99.6343 Y11.7632 I0.893 J0.45
G2 X99.0835 Y13.446 I5.3291 J2.6757
G1 X76.8998
G2 X75.2706 Y10.6645 I-4.8939 J0.9987
G1 F50.0 Z-4.0
G1 F70.0 Y9.2269
G2 X76.9815 Y5.8845 I-3.2631 J-3.7795
G1 X99.0844
G2 X101.0005 Y9.3515 I5.9041 J-1.0
G1 Y9.9794
G2 X99.6349 Y11.7619 I4.029 J4.5008
G2 X99.6343 Y11.7632 I0.893 J0.45
G2 X99.0835 Y13.446 I5.3291 J2.6757
G1 X76.8998
G2 X75.2706 Y10.6645 I-4.8939 J0.9987
G1 F50.0 Z-4.5
G1 F70.0 Y9.2269
G2 X76.9815 Y5.8845 I-3.2631 J-3.7795
G1 X99.0844
G2 X101.0005 Y9.3515 I5.9041 J-1.0
G1 Y9.9794
G2 X99.6349 Y11.7619 I4.029 J4.5008
G2 X99.6343 Y11.7632 I0.893 J0.45
G2 X99.0835 Y13.446 I5.3291 J2.6757
G1 X76.8998
G2 X75.2706 Y10.6645 I-4.8939 J0.9987
G0 Z3.0
G0 X76.8999 Y36.4456
G0 Z1.0
G1 F50.0 Z-1.0
G1 F70.0 X99.0834
G2 X99.6348 Y38.1271 I5.8607 J-0.9906
G2 X99.6349 Y38.1274 I0.8932 J-0.4496
G2 X101.0001 Y39.9086 I5.3799 J-2.7099
G1 Y39.9821
G2 X99.6345 Y41.7635 I4.0145 J4.4917
G2 X99.6344 Y41.7638 I0.8931 J0.4499
G2 X99.0829 Y43.4459 I5.3086 J2.6718
G1 X76.8998
G2 X75.2706 Y40.6644 I-4.8939 J0.9987
G1 Y39.2268
G2 X76.8999 Y36.4456 I-3.2631 J-3.7795
G1 F50.0 Z-2.0
G1 F70.0 X99.0834
G2 X99.6348 Y38.1271 I5.8607 J-0.9906
G2 X99.6349 Y38.1274 I0.8932 J-0.4496
G2 X101.0001 Y39.9086 I5.3799 J-2.7099
G1 Y39.9821
G2 X99.6345 Y41.7635 I4.0145 J4.4917
G2 X99.6344 Y41.7638 I0.8931 J0.4499
G2 X99.0829 Y43.4459 I5.3086 J2.6718
G1 X76.8998
G2 X75.2706 Y40.6644 I-4.8939 J0.9987
G1 Y39.2268
G2 X76.8999 Y36.4456 I-3.2631 J-3.7795
G1 F50.0 Z-3.0
G1 F70.0 X99.0834
G2 X99.6348 Y38.1271 I5.8607 J-0.9906
G2 X99.6349 Y38.1274 I0.8932 J-0.4496
G2 X101.0001 Y39.9086 I5.3799 J-2.7099
G1 Y39.9821
G2 X99.6345 Y41.7635 I4.0145 J4.4917
G2 X99.6344 Y41.7638 I0.8931 J0.4499
G2 X99.0829 Y43.4459 I5.3086 J2.6718
G1 X76.8998
G2 X75.2706 Y40.6644 I-4.8939 J0.9987
G1 Y39.2268
G2 X76.8999 Y36.4456 I-3.2631 J-3.7795
G1 F50.0 Z-4.0
G1 F70.0 X99.0834
G2 X99.6348 Y38.1271 I5.8607 J-0.9906
G2 X99.6349 Y38.1274 I0.8932 J-0.4496
G2 X101.0001 Y39.9086 I5.3799 J-2.7099
G1 Y39.9821
G2 X99.6345 Y41.7635 I4.0145 J4.4917
G2 X99.6344 Y41.7638 I0.8931 J0.4499
G2 X99.0829 Y43.4459 I5.3086 J2.6718
G1 X76.8998
G2 X75.2706 Y40.6644 I-4.8939 J0.9987
G1 Y39.2268
G2 X76.8999 Y36.4456 I-3.2631 J-3.7795
G1 F50.0 Z-4.5
G1 F70.0 X99.0834
G2 X99.6348 Y38.1271 I5.8607 J-0.9906
G2 X99.6349 Y38.1274 I0.8932 J-0.4496
G2 X101.0001 Y39.9086 I5.3799 J-2.7099
G1 Y39.9821
G2 X99.6345 Y41.7635 I4.0145 J4.4917
G2 X99.6344 Y41.7638 I0.8931 J0.4499
G2 X99.0829 Y43.4459 I5.3086 J2.6718
G1 X76.8998
G2 X75.2706 Y40.6644 I-4.8939 J0.9987
G1 Y39.2268
G2 X76.8999 Y36.4456 I-3.2631 J-3.7795
( 4mm mill cutout )
G0 Z3.0
( T4 : 4.0 )
T4 M6
M3 S1000
G0 X108.0001 Y-2.0
G0 Z1.0
G1 F50.0 Z-1.0
G1 F100.0 X0.0
G2 X-2.0 Y0.0 I0.0 J2.0
G1 Y19.4458
G2 X0.0 Y21.4458 I2.0 J0.0
G1 X9.0009
G1 Y28.0001
G1 X0.0
G2 X-2.0 Y30.0001 I0.0 J2.0
G1 Y50.0002
G2 X0.0 Y52.0002 I2.0 J0.0
G1 X108.0001 Y52.0
G2 X110.0001 Y50.0 I0.0 J-2.0
G1 Y0.0
G2 X108.0001 Y-2.0 I-2.0 J0.0
G1 F50.0 Z-2.0
G1 F100.0 X0.0
G2 X-2.0 Y0.0 I0.0 J2.0
G1 Y19.4458
G2 X0.0 Y21.4458 I2.0 J0.0
G1 X9.0009
G1 Y28.0001
G1 X0.0
G2 X-2.0 Y30.0001 I0.0 J2.0
G1 Y50.0002
G2 X0.0 Y52.0002 I2.0 J0.0
G1 X108.0001 Y52.0
G2 X110.0001 Y50.0 I0.0 J-2.0
G1 Y0.0
G2 X108.0001 Y-2.0 I-2.0 J0.0
G1 F50.0 Z-3.0
G1 F100.0 X0.0
G2 X-2.0 Y0.0 I0.0 J2.0
G1 Y19.4458
G2 X0.0 Y21.4458 I2.0 J0.0
G1 X9.0009
G1 Y28.0001
G1 X0.0
G2 X-2.0 Y30.0001 I0.0 J2.0
G1 Y50.0002
G2 X0.0 Y52.0002 I2.0 J0.0
G1 X108.0001 Y52.0
G2 X110.0001 Y50.0 I0.0 J-2.0
G1 Y0.0
G2 X108.0001 Y-2.0 I-2.0 J0.0
G1 F50.0 Z-4.0
G1 F100.0 X0.0
G2 X-2.0 Y0.0 I0.0 J2.0
G1 Y19.4458
G2 X0.0 Y21.4458 I2.0 J0.0
G1 X9.0009
G1 Y28.0001
G1 X0.0
G2 X-2.0 Y30.0001 I0.0 J2.0
G1 Y50.0002
G2 X0.0 Y52.0002 I2.0 J0.0
G1 X108.0001 Y52.0
G2 X110.0001 Y50.0 I0.0 J-2.0
G1 Y0.0
G2 X108.0001 Y-2.0 I-2.0 J0.0
G1 F50.0 Z-4.5
G1 F100.0 X0.0
G2 X-2.0 Y0.0 I0.0 J2.0
G1 Y19.4458
G2 X0.0 Y21.4458 I2.0 J0.0
G1 X9.0009
G1 Y28.0001
G1 X0.0
G2 X-2.0 Y30.0001 I0.0 J2.0
G1 Y50.0002
G2 X0.0 Y52.0002 I2.0 J0.0
G1 X108.0001 Y52.0
G2 X110.0001 Y50.0 I0.0 J-2.0
G1 Y0.0
G2 X108.0001 Y-2.0 I-2.0 J0.0
G0 Z3.0
M5
M30
