( Made using CamBam - http://www.cambam.co.uk )
( head-spacer plate 10/22/2012 6:23:07 PM )
( T6 : 6.0 )
G21 G90 G64 G40
G0 Z3.0
( T6 : 6.0 )
T6 M6
( 6mm mill pocket )
G17
M3 S1000
G0 X12.7357 Y53.8244
G1 F50.0 Z-1.0
G3 F150.0 X14.3201 Y52.0711 I8.3936 J5.9924
G1 Y17.1022
G3 X12.7937 Y17.213 I-1.5262 J-10.4524
G3 X10.9201 Y17.0455 I0.0003 J-10.5636
G1 Y51.8738
G3 X12.7357 Y53.8244 I-6.5781 J7.9433
G1 F50.0 X10.7824 Y55.2189
G3 F150.0 X12.2554 Y59.8164 I-6.4404 J4.5981
G1 Y59.817
G3 X12.2388 Y60.3292 I-7.9131 J-0.0002
G3 X12.6199 Y60.3247 I0.3678 J14.8636
G3 X13.2332 Y60.3368 I0.0133 J14.8685
G3 X13.2161 Y59.8167 I7.8958 J-0.5197
G1 Y59.8165
G1 Y59.8169
G1 Y59.8167
G3 X16.7201 Y53.2459 I7.9132 J0.0001
G1 Y15.4943
G3 Y15.486 I5.4 J0.0
G2 X16.4248 Y13.9611 I-4.0523 J-0.0062
G3 X12.7938 Y14.813 I-3.6308 J-7.3113
G1 X12.7937
G3 X8.8788 Y13.8129 I0.0002 J-8.1636
G2 X8.52 Y15.4862 I3.6947 J1.6672
G3 X8.5201 Y15.4943 I-5.4 J0.0081
G1 Y53.0965
G3 X10.7824 Y55.2189 I-4.1781 J6.7205
G1 F50.0 X8.8291 Y56.6134
G3 F150.0 X9.8554 Y59.8166 I-4.4871 J3.2036
G1 Y59.8169
G3 X8.5209 Y63.4131 I-5.5131 J-0.0001
G3 X12.6199 Y62.7247 I4.0857 J11.7797
G3 X17.0605 Y63.5372 I0.0133 J12.4685
G3 X15.6161 Y59.8168 I4.0684 J-3.7202
G1 Y59.8166
G1 Y59.8169
G1 Y59.8168
G3 X19.1201 Y54.6828 I5.5132 J0.0
G1 Y15.4943
G3 Y15.4897 I3.0 J0.0
G2 X17.8816 Y11.6787 I-6.4523 J-0.0099
G3 X17.8798 Y11.6763 I2.4242 J-1.7673
G2 X16.9469 Y10.6457 I-5.2749 J3.8377
G3 X12.7938 Y12.413 I-4.153 J-3.996
G3 X8.4873 Y10.4798 I0.0001 J-5.7636
G2 X7.4345 Y11.5766 I4.1436 J5.0307
G3 X7.4325 Y11.5792 I-2.3919 J-1.8108
G2 X6.12 Y15.4898 I5.141 J3.9009
G3 X6.1201 Y15.4943 I-3.0 J0.0045
G1 Y54.5982
G3 X8.8291 Y56.6134 I-1.7781 J5.2188
G0 Z3.0
G0 X12.7357 Y53.8244
G1 F50.0 Z-2.0
G3 F150.0 X14.3201 Y52.0711 I8.3936 J5.9924
G1 Y17.1022
G3 X12.7937 Y17.213 I-1.5262 J-10.4524
G3 X10.9201 Y17.0455 I0.0003 J-10.5636
G1 Y51.8738
G3 X12.7357 Y53.8244 I-6.5781 J7.9433
G1 F50.0 X10.7824 Y55.2189
G3 F150.0 X12.2554 Y59.8164 I-6.4404 J4.5981
G1 Y59.817
G3 X12.2388 Y60.3292 I-7.9131 J-0.0002
G3 X12.6199 Y60.3247 I0.3678 J14.8636
G3 X13.2332 Y60.3368 I0.0133 J14.8685
G3 X13.2161 Y59.8167 I7.8958 J-0.5197
G1 Y59.8165
G1 Y59.8169
G1 Y59.8167
G3 X16.7201 Y53.2459 I7.9132 J0.0001
G1 Y15.4943
G3 Y15.486 I5.4 J0.0
G2 X16.4248 Y13.9611 I-4.0523 J-0.0062
G3 X12.7938 Y14.813 I-3.6308 J-7.3113
G1 X12.7937
G3 X8.8788 Y13.8129 I0.0002 J-8.1636
G2 X8.52 Y15.4862 I3.6947 J1.6672
G3 X8.5201 Y15.4943 I-5.4 J0.0081
G1 Y53.0965
G3 X10.7824 Y55.2189 I-4.1781 J6.7205
G1 F50.0 X8.8291 Y56.6134
G3 F150.0 X9.8554 Y59.8166 I-4.4871 J3.2036
G1 Y59.8169
G3 X8.5209 Y63.4131 I-5.5131 J-0.0001
G3 X12.6199 Y62.7247 I4.0857 J11.7797
G3 X17.0605 Y63.5372 I0.0133 J12.4685
G3 X15.6161 Y59.8168 I4.0684 J-3.7202
G1 Y59.8166
G1 Y59.8169
G1 Y59.8168
G3 X19.1201 Y54.6828 I5.5132 J0.0
G1 Y15.4943
G3 Y15.4897 I3.0 J0.0
G2 X17.8816 Y11.6787 I-6.4523 J-0.0099
G3 X17.8798 Y11.6763 I2.4242 J-1.7673
G2 X16.9469 Y10.6457 I-5.2749 J3.8377
G3 X12.7938 Y12.413 I-4.153 J-3.996
G3 X8.4873 Y10.4798 I0.0001 J-5.7636
G2 X7.4345 Y11.5766 I4.1436 J5.0307
G3 X7.4325 Y11.5792 I-2.3919 J-1.8108
G2 X6.12 Y15.4898 I5.141 J3.9009
G3 X6.1201 Y15.4943 I-3.0 J0.0045
G1 Y54.5982
G3 X8.8291 Y56.6134 I-1.7781 J5.2188
G0 Z3.0
G0 X12.7357 Y53.8244
G1 F50.0 Z-3.0
G3 F150.0 X14.3201 Y52.0711 I8.3936 J5.9924
G1 Y17.1022
G3 X12.7937 Y17.213 I-1.5262 J-10.4524
G3 X10.9201 Y17.0455 I0.0003 J-10.5636
G1 Y51.8738
G3 X12.7357 Y53.8244 I-6.5781 J7.9433
G1 F50.0 X10.7824 Y55.2189
G3 F150.0 X12.2554 Y59.8164 I-6.4404 J4.5981
G1 Y59.817
G3 X12.2388 Y60.3292 I-7.9131 J-0.0002
G3 X12.6199 Y60.3247 I0.3678 J14.8636
G3 X13.2332 Y60.3368 I0.0133 J14.8685
G3 X13.2161 Y59.8167 I7.8958 J-0.5197
G1 Y59.8165
G1 Y59.8169
G1 Y59.8167
G3 X16.7201 Y53.2459 I7.9132 J0.0001
G1 Y15.4943
G3 Y15.486 I5.4 J0.0
G2 X16.4248 Y13.9611 I-4.0523 J-0.0062
G3 X12.7938 Y14.813 I-3.6308 J-7.3113
G1 X12.7937
G3 X8.8788 Y13.8129 I0.0002 J-8.1636
G2 X8.52 Y15.4862 I3.6947 J1.6672
G3 X8.5201 Y15.4943 I-5.4 J0.0081
G1 Y53.0965
G3 X10.7824 Y55.2189 I-4.1781 J6.7205
G1 F50.0 X8.8291 Y56.6134
G3 F150.0 X9.8554 Y59.8166 I-4.4871 J3.2036
G1 Y59.8169
G3 X8.5209 Y63.4131 I-5.5131 J-0.0001
G3 X12.6199 Y62.7247 I4.0857 J11.7797
G3 X17.0605 Y63.5372 I0.0133 J12.4685
G3 X15.6161 Y59.8168 I4.0684 J-3.7202
G1 Y59.8166
G1 Y59.8169
G1 Y59.8168
G3 X19.1201 Y54.6828 I5.5132 J0.0
G1 Y15.4943
G3 Y15.4897 I3.0 J0.0
G2 X17.8816 Y11.6787 I-6.4523 J-0.0099
G3 X17.8798 Y11.6763 I2.4242 J-1.7673
G2 X16.9469 Y10.6457 I-5.2749 J3.8377
G3 X12.7938 Y12.413 I-4.153 J-3.996
G3 X8.4873 Y10.4798 I0.0001 J-5.7636
G2 X7.4345 Y11.5766 I4.1436 J5.0307
G3 X7.4325 Y11.5792 I-2.3919 J-1.8108
G2 X6.12 Y15.4898 I5.141 J3.9009
G3 X6.1201 Y15.4943 I-3.0 J0.0045
G1 Y54.5982
G3 X8.8291 Y56.6134 I-1.7781 J5.2188
G0 Z3.0
G0 X12.7357 Y53.8244
G1 F50.0 Z-4.0
G3 F150.0 X14.3201 Y52.0711 I8.3936 J5.9924
G1 Y17.1022
G3 X12.7937 Y17.213 I-1.5262 J-10.4524
G3 X10.9201 Y17.0455 I0.0003 J-10.5636
G1 Y51.8738
G3 X12.7357 Y53.8244 I-6.5781 J7.9433
G1 F50.0 X10.7824 Y55.2189
G3 F150.0 X12.2554 Y59.8164 I-6.4404 J4.5981
G1 Y59.817
G3 X12.2388 Y60.3292 I-7.9131 J-0.0002
G3 X12.6199 Y60.3247 I0.3678 J14.8636
G3 X13.2332 Y60.3368 I0.0133 J14.8685
G3 X13.2161 Y59.8167 I7.8958 J-0.5197
G1 Y59.8165
G1 Y59.8169
G1 Y59.8167
G3 X16.7201 Y53.2459 I7.9132 J0.0001
G1 Y15.4943
G3 Y15.486 I5.4 J0.0
G2 X16.4248 Y13.9611 I-4.0523 J-0.0062
G3 X12.7938 Y14.813 I-3.6308 J-7.3113
G1 X12.7937
G3 X8.8788 Y13.8129 I0.0002 J-8.1636
G2 X8.52 Y15.4862 I3.6947 J1.6672
G3 X8.5201 Y15.4943 I-5.4 J0.0081
G1 Y53.0965
G3 X10.7824 Y55.2189 I-4.1781 J6.7205
G1 F50.0 X8.8291 Y56.6134
G3 F150.0 X9.8554 Y59.8166 I-4.4871 J3.2036
G1 Y59.8169
G3 X8.5209 Y63.4131 I-5.5131 J-0.0001
G3 X12.6199 Y62.7247 I4.0857 J11.7797
G3 X17.0605 Y63.5372 I0.0133 J12.4685
G3 X15.6161 Y59.8168 I4.0684 J-3.7202
G1 Y59.8166
G1 Y59.8169
G1 Y59.8168
G3 X19.1201 Y54.6828 I5.5132 J0.0
G1 Y15.4943
G3 Y15.4897 I3.0 J0.0
G2 X17.8816 Y11.6787 I-6.4523 J-0.0099
G3 X17.8798 Y11.6763 I2.4242 J-1.7673
G2 X16.9469 Y10.6457 I-5.2749 J3.8377
G3 X12.7938 Y12.413 I-4.153 J-3.996
G3 X8.4873 Y10.4798 I0.0001 J-5.7636
G2 X7.4345 Y11.5766 I4.1436 J5.0307
G3 X7.4325 Y11.5792 I-2.3919 J-1.8108
G2 X6.12 Y15.4898 I5.141 J3.9009
G3 X6.1201 Y15.4943 I-3.0 J0.0045
G1 Y54.5982
G3 X8.8291 Y56.6134 I-1.7781 J5.2188
G0 Z3.0
G0 X12.7357 Y53.8244
G1 F50.0 Z-5.0
G3 F150.0 X14.3201 Y52.0711 I8.3936 J5.9924
G1 Y17.1022
G3 X12.7937 Y17.213 I-1.5262 J-10.4524
G3 X10.9201 Y17.0455 I0.0003 J-10.5636
G1 Y51.8738
G3 X12.7357 Y53.8244 I-6.5781 J7.9433
G1 F50.0 X10.7824 Y55.2189
G3 F150.0 X12.2554 Y59.8164 I-6.4404 J4.5981
G1 Y59.817
G3 X12.2388 Y60.3292 I-7.9131 J-0.0002
G3 X12.6199 Y60.3247 I0.3678 J14.8636
G3 X13.2332 Y60.3368 I0.0133 J14.8685
G3 X13.2161 Y59.8167 I7.8958 J-0.5197
G1 Y59.8165
G1 Y59.8169
G1 Y59.8167
G3 X16.7201 Y53.2459 I7.9132 J0.0001
G1 Y15.4943
G3 Y15.486 I5.4 J0.0
G2 X16.4248 Y13.9611 I-4.0523 J-0.0062
G3 X12.7938 Y14.813 I-3.6308 J-7.3113
G1 X12.7937
G3 X8.8788 Y13.8129 I0.0002 J-8.1636
G2 X8.52 Y15.4862 I3.6947 J1.6672
G3 X8.5201 Y15.4943 I-5.4 J0.0081
G1 Y53.0965
G3 X10.7824 Y55.2189 I-4.1781 J6.7205
G1 F50.0 X8.8291 Y56.6134
G3 F150.0 X9.8554 Y59.8166 I-4.4871 J3.2036
G1 Y59.8169
G3 X8.5209 Y63.4131 I-5.5131 J-0.0001
G3 X12.6199 Y62.7247 I4.0857 J11.7797
G3 X17.0605 Y63.5372 I0.0133 J12.4685
G3 X15.6161 Y59.8168 I4.0684 J-3.7202
G1 Y59.8166
G1 Y59.8169
G1 Y59.8168
G3 X19.1201 Y54.6828 I5.5132 J0.0
G1 Y15.4943
G3 Y15.4897 I3.0 J0.0
G2 X17.8816 Y11.6787 I-6.4523 J-0.0099
G3 X17.8798 Y11.6763 I2.4242 J-1.7673
G2 X16.9469 Y10.6457 I-5.2749 J3.8377
G3 X12.7938 Y12.413 I-4.153 J-3.996
G3 X8.4873 Y10.4798 I0.0001 J-5.7636
G2 X7.4345 Y11.5766 I4.1436 J5.0307
G3 X7.4325 Y11.5792 I-2.3919 J-1.8108
G2 X6.12 Y15.4898 I5.141 J3.9009
G3 X6.1201 Y15.4943 I-3.0 J0.0045
G1 Y54.5982
G3 X8.8291 Y56.6134 I-1.7781 J5.2188
G0 Z3.0
G0 X12.7357 Y53.8244
G1 F50.0 Z-6.0
G3 F150.0 X14.3201 Y52.0711 I8.3936 J5.9924
G1 Y17.1022
G3 X12.7937 Y17.213 I-1.5262 J-10.4524
G3 X10.9201 Y17.0455 I0.0003 J-10.5636
G1 Y51.8738
G3 X12.7357 Y53.8244 I-6.5781 J7.9433
G1 F50.0 X10.7824 Y55.2189
G3 F150.0 X12.2554 Y59.8164 I-6.4404 J4.5981
G1 Y59.817
G3 X12.2388 Y60.3292 I-7.9131 J-0.0002
G3 X12.6199 Y60.3247 I0.3678 J14.8636
G3 X13.2332 Y60.3368 I0.0133 J14.8685
G3 X13.2161 Y59.8167 I7.8958 J-0.5197
G1 Y59.8165
G1 Y59.8169
G1 Y59.8167
G3 X16.7201 Y53.2459 I7.9132 J0.0001
G1 Y15.4943
G3 Y15.486 I5.4 J0.0
G2 X16.4248 Y13.9611 I-4.0523 J-0.0062
G3 X12.7938 Y14.813 I-3.6308 J-7.3113
G1 X12.7937
G3 X8.8788 Y13.8129 I0.0002 J-8.1636
G2 X8.52 Y15.4862 I3.6947 J1.6672
G3 X8.5201 Y15.4943 I-5.4 J0.0081
G1 Y53.0965
G3 X10.7824 Y55.2189 I-4.1781 J6.7205
G1 F50.0 X8.8291 Y56.6134
G3 F150.0 X9.8554 Y59.8166 I-4.4871 J3.2036
G1 Y59.8169
G3 X8.5209 Y63.4131 I-5.5131 J-0.0001
G3 X12.6199 Y62.7247 I4.0857 J11.7797
G3 X17.0605 Y63.5372 I0.0133 J12.4685
G3 X15.6161 Y59.8168 I4.0684 J-3.7202
G1 Y59.8166
G1 Y59.8169
G1 Y59.8168
G3 X19.1201 Y54.6828 I5.5132 J0.0
G1 Y15.4943
G3 Y15.4897 I3.0 J0.0
G2 X17.8816 Y11.6787 I-6.4523 J-0.0099
G3 X17.8798 Y11.6763 I2.4242 J-1.7673
G2 X16.9469 Y10.6457 I-5.2749 J3.8377
G3 X12.7938 Y12.413 I-4.153 J-3.996
G3 X8.4873 Y10.4798 I0.0001 J-5.7636
G2 X7.4345 Y11.5766 I4.1436 J5.0307
G3 X7.4325 Y11.5792 I-2.3919 J-1.8108
G2 X6.12 Y15.4898 I5.141 J3.9009
G3 X6.1201 Y15.4943 I-3.0 J0.0045
G1 Y54.5982
G3 X8.8291 Y56.6134 I-1.7781 J5.2188
G0 Z3.0
G0 X12.7357 Y53.8244
G1 F50.0 Z-7.0
G3 F150.0 X14.3201 Y52.0711 I8.3936 J5.9924
G1 Y17.1022
G3 X12.7937 Y17.213 I-1.5262 J-10.4524
G3 X10.9201 Y17.0455 I0.0003 J-10.5636
G1 Y51.8738
G3 X12.7357 Y53.8244 I-6.5781 J7.9433
G1 F50.0 X10.7824 Y55.2189
G3 F150.0 X12.2554 Y59.8164 I-6.4404 J4.5981
G1 Y59.817
G3 X12.2388 Y60.3292 I-7.9131 J-0.0002
G3 X12.6199 Y60.3247 I0.3678 J14.8636
G3 X13.2332 Y60.3368 I0.0133 J14.8685
G3 X13.2161 Y59.8167 I7.8958 J-0.5197
G1 Y59.8165
G1 Y59.8169
G1 Y59.8167
G3 X16.7201 Y53.2459 I7.9132 J0.0001
G1 Y15.4943
G3 Y15.486 I5.4 J0.0
G2 X16.4248 Y13.9611 I-4.0523 J-0.0062
G3 X12.7938 Y14.813 I-3.6308 J-7.3113
G1 X12.7937
G3 X8.8788 Y13.8129 I0.0002 J-8.1636
G2 X8.52 Y15.4862 I3.6947 J1.6672
G3 X8.5201 Y15.4943 I-5.4 J0.0081
G1 Y53.0965
G3 X10.7824 Y55.2189 I-4.1781 J6.7205
G1 F50.0 X8.8291 Y56.6134
G3 F150.0 X9.8554 Y59.8166 I-4.4871 J3.2036
G1 Y59.8169
G3 X8.5209 Y63.4131 I-5.5131 J-0.0001
G3 X12.6199 Y62.7247 I4.0857 J11.7797
G3 X17.0605 Y63.5372 I0.0133 J12.4685
G3 X15.6161 Y59.8168 I4.0684 J-3.7202
G1 Y59.8166
G1 Y59.8169
G1 Y59.8168
G3 X19.1201 Y54.6828 I5.5132 J0.0
G1 Y15.4943
G3 Y15.4897 I3.0 J0.0
G2 X17.8816 Y11.6787 I-6.4523 J-0.0099
G3 X17.8798 Y11.6763 I2.4242 J-1.7673
G2 X16.9469 Y10.6457 I-5.2749 J3.8377
G3 X12.7938 Y12.413 I-4.153 J-3.996
G3 X8.4873 Y10.4798 I0.0001 J-5.7636
G2 X7.4345 Y11.5766 I4.1436 J5.0307
G3 X7.4325 Y11.5792 I-2.3919 J-1.8108
G2 X6.12 Y15.4898 I5.141 J3.9009
G3 X6.1201 Y15.4943 I-3.0 J0.0045
G1 Y54.5982
G3 X8.8291 Y56.6134 I-1.7781 J5.2188
G0 Z3.0
G0 X12.7357 Y53.8244
G1 F50.0 Z-8.0
G3 F150.0 X14.3201 Y52.0711 I8.3936 J5.9924
G1 Y17.1022
G3 X12.7937 Y17.213 I-1.5262 J-10.4524
G3 X10.9201 Y17.0455 I0.0003 J-10.5636
G1 Y51.8738
G3 X12.7357 Y53.8244 I-6.5781 J7.9433
G1 F50.0 X10.7824 Y55.2189
G3 F150.0 X12.2554 Y59.8164 I-6.4404 J4.5981
G1 Y59.817
G3 X12.2388 Y60.3292 I-7.9131 J-0.0002
G3 X12.6199 Y60.3247 I0.3678 J14.8636
G3 X13.2332 Y60.3368 I0.0133 J14.8685
G3 X13.2161 Y59.8167 I7.8958 J-0.5197
G1 Y59.8165
G1 Y59.8169
G1 Y59.8167
G3 X16.7201 Y53.2459 I7.9132 J0.0001
G1 Y15.4943
G3 Y15.486 I5.4 J0.0
G2 X16.4248 Y13.9611 I-4.0523 J-0.0062
G3 X12.7938 Y14.813 I-3.6308 J-7.3113
G1 X12.7937
G3 X8.8788 Y13.8129 I0.0002 J-8.1636
G2 X8.52 Y15.4862 I3.6947 J1.6672
G3 X8.5201 Y15.4943 I-5.4 J0.0081
G1 Y53.0965
G3 X10.7824 Y55.2189 I-4.1781 J6.7205
G1 F50.0 X8.8291 Y56.6134
G3 F150.0 X9.8554 Y59.8166 I-4.4871 J3.2036
G1 Y59.8169
G3 X8.5209 Y63.4131 I-5.5131 J-0.0001
G3 X12.6199 Y62.7247 I4.0857 J11.7797
G3 X17.0605 Y63.5372 I0.0133 J12.4685
G3 X15.6161 Y59.8168 I4.0684 J-3.7202
G1 Y59.8166
G1 Y59.8169
G1 Y59.8168
G3 X19.1201 Y54.6828 I5.5132 J0.0
G1 Y15.4943
G3 Y15.4897 I3.0 J0.0
G2 X17.8816 Y11.6787 I-6.4523 J-0.0099
G3 X17.8798 Y11.6763 I2.4242 J-1.7673
G2 X16.9469 Y10.6457 I-5.2749 J3.8377
G3 X12.7938 Y12.413 I-4.153 J-3.996
G3 X8.4873 Y10.4798 I0.0001 J-5.7636
G2 X7.4345 Y11.5766 I4.1436 J5.0307
G3 X7.4325 Y11.5792 I-2.3919 J-1.8108
G2 X6.12 Y15.4898 I5.141 J3.9009
G3 X6.1201 Y15.4943 I-3.0 J0.0045
G1 Y54.5982
G3 X8.8291 Y56.6134 I-1.7781 J5.2188
G0 Z3.0
G0 X12.7357 Y53.8244
G1 F50.0 Z-9.0
G3 F150.0 X14.3201 Y52.0711 I8.3936 J5.9924
G1 Y17.1022
G3 X12.7937 Y17.213 I-1.5262 J-10.4524
G3 X10.9201 Y17.0455 I0.0003 J-10.5636
G1 Y51.8738
G3 X12.7357 Y53.8244 I-6.5781 J7.9433
G1 F50.0 X10.7824 Y55.2189
G3 F150.0 X12.2554 Y59.8164 I-6.4404 J4.5981
G1 Y59.817
G3 X12.2388 Y60.3292 I-7.9131 J-0.0002
G3 X12.6199 Y60.3247 I0.3678 J14.8636
G3 X13.2332 Y60.3368 I0.0133 J14.8685
G3 X13.2161 Y59.8167 I7.8958 J-0.5197
G1 Y59.8165
G1 Y59.8169
G1 Y59.8167
G3 X16.7201 Y53.2459 I7.9132 J0.0001
G1 Y15.4943
G3 Y15.486 I5.4 J0.0
G2 X16.4248 Y13.9611 I-4.0523 J-0.0062
G3 X12.7938 Y14.813 I-3.6308 J-7.3113
G1 X12.7937
G3 X8.8788 Y13.8129 I0.0002 J-8.1636
G2 X8.52 Y15.4862 I3.6947 J1.6672
G3 X8.5201 Y15.4943 I-5.4 J0.0081
G1 Y53.0965
G3 X10.7824 Y55.2189 I-4.1781 J6.7205
G1 F50.0 X8.8291 Y56.6134
G3 F150.0 X9.8554 Y59.8166 I-4.4871 J3.2036
G1 Y59.8169
G3 X8.5209 Y63.4131 I-5.5131 J-0.0001
G3 X12.6199 Y62.7247 I4.0857 J11.7797
G3 X17.0605 Y63.5372 I0.0133 J12.4685
G3 X15.6161 Y59.8168 I4.0684 J-3.7202
G1 Y59.8166
G1 Y59.8169
G1 Y59.8168
G3 X19.1201 Y54.6828 I5.5132 J0.0
G1 Y15.4943
G3 Y15.4897 I3.0 J0.0
G2 X17.8816 Y11.6787 I-6.4523 J-0.0099
G3 X17.8798 Y11.6763 I2.4242 J-1.7673
G2 X16.9469 Y10.6457 I-5.2749 J3.8377
G3 X12.7938 Y12.413 I-4.153 J-3.996
G3 X8.4873 Y10.4798 I0.0001 J-5.7636
G2 X7.4345 Y11.5766 I4.1436 J5.0307
G3 X7.4325 Y11.5792 I-2.3919 J-1.8108
G2 X6.12 Y15.4898 I5.141 J3.9009
G3 X6.1201 Y15.4943 I-3.0 J0.0045
G1 Y54.5982
G3 X8.8291 Y56.6134 I-1.7781 J5.2188
G0 Z3.0
G0 X12.7357 Y53.8244
G1 F50.0 Z-10.0
G3 F150.0 X14.3201 Y52.0711 I8.3936 J5.9924
G1 Y17.1022
G3 X12.7937 Y17.213 I-1.5262 J-10.4524
G3 X10.9201 Y17.0455 I0.0003 J-10.5636
G1 Y51.8738
G3 X12.7357 Y53.8244 I-6.5781 J7.9433
G1 F50.0 X10.7824 Y55.2189
G3 F150.0 X12.2554 Y59.8164 I-6.4404 J4.5981
G1 Y59.817
G3 X12.2388 Y60.3292 I-7.9131 J-0.0002
G3 X12.6199 Y60.3247 I0.3678 J14.8636
G3 X13.2332 Y60.3368 I0.0133 J14.8685
G3 X13.2161 Y59.8167 I7.8958 J-0.5197
G1 Y59.8165
G1 Y59.8169
G1 Y59.8167
G3 X16.7201 Y53.2459 I7.9132 J0.0001
G1 Y15.4943
G3 Y15.486 I5.4 J0.0
G2 X16.4248 Y13.9611 I-4.0523 J-0.0062
G3 X12.7938 Y14.813 I-3.6308 J-7.3113
G1 X12.7937
G3 X8.8788 Y13.8129 I0.0002 J-8.1636
G2 X8.52 Y15.4862 I3.6947 J1.6672
G3 X8.5201 Y15.4943 I-5.4 J0.0081
G1 Y53.0965
G3 X10.7824 Y55.2189 I-4.1781 J6.7205
G1 F50.0 X8.8291 Y56.6134
G3 F150.0 X9.8554 Y59.8166 I-4.4871 J3.2036
G1 Y59.8169
G3 X8.5209 Y63.4131 I-5.5131 J-0.0001
G3 X12.6199 Y62.7247 I4.0857 J11.7797
G3 X17.0605 Y63.5372 I0.0133 J12.4685
G3 X15.6161 Y59.8168 I4.0684 J-3.7202
G1 Y59.8166
G1 Y59.8169
G1 Y59.8168
G3 X19.1201 Y54.6828 I5.5132 J0.0
G1 Y15.4943
G3 Y15.4897 I3.0 J0.0
G2 X17.8816 Y11.6787 I-6.4523 J-0.0099
G3 X17.8798 Y11.6763 I2.4242 J-1.7673
G2 X16.9469 Y10.6457 I-5.2749 J3.8377
G3 X12.7938 Y12.413 I-4.153 J-3.996
G3 X8.4873 Y10.4798 I0.0001 J-5.7636
G2 X7.4345 Y11.5766 I4.1436 J5.0307
G3 X7.4325 Y11.5792 I-2.3919 J-1.8108
G2 X6.12 Y15.4898 I5.141 J3.9009
G3 X6.1201 Y15.4943 I-3.0 J0.0045
G1 Y54.5982
G3 X8.8291 Y56.6134 I-1.7781 J5.2188
G0 Z3.0
G0 X12.7357 Y53.8244
G1 F50.0 Z-11.0
G3 F150.0 X14.3201 Y52.0711 I8.3936 J5.9924
G1 Y17.1022
G3 X12.7937 Y17.213 I-1.5262 J-10.4524
G3 X10.9201 Y17.0455 I0.0003 J-10.5636
G1 Y51.8738
G3 X12.7357 Y53.8244 I-6.5781 J7.9433
G1 F50.0 X10.7824 Y55.2189
G3 F150.0 X12.2554 Y59.8164 I-6.4404 J4.5981
G1 Y59.817
G3 X12.2388 Y60.3292 I-7.9131 J-0.0002
G3 X12.6199 Y60.3247 I0.3678 J14.8636
G3 X13.2332 Y60.3368 I0.0133 J14.8685
G3 X13.2161 Y59.8167 I7.8958 J-0.5197
G1 Y59.8165
G1 Y59.8169
G1 Y59.8167
G3 X16.7201 Y53.2459 I7.9132 J0.0001
G1 Y15.4943
G3 Y15.486 I5.4 J0.0
G2 X16.4248 Y13.9611 I-4.0523 J-0.0062
G3 X12.7938 Y14.813 I-3.6308 J-7.3113
G1 X12.7937
G3 X8.8788 Y13.8129 I0.0002 J-8.1636
G2 X8.52 Y15.4862 I3.6947 J1.6672
G3 X8.5201 Y15.4943 I-5.4 J0.0081
G1 Y53.0965
G3 X10.7824 Y55.2189 I-4.1781 J6.7205
G1 F50.0 X8.8291 Y56.6134
G3 F150.0 X9.8554 Y59.8166 I-4.4871 J3.2036
G1 Y59.8169
G3 X8.5209 Y63.4131 I-5.5131 J-0.0001
G3 X12.6199 Y62.7247 I4.0857 J11.7797
G3 X17.0605 Y63.5372 I0.0133 J12.4685
G3 X15.6161 Y59.8168 I4.0684 J-3.7202
G1 Y59.8166
G1 Y59.8169
G1 Y59.8168
G3 X19.1201 Y54.6828 I5.5132 J0.0
G1 Y15.4943
G3 Y15.4897 I3.0 J0.0
G2 X17.8816 Y11.6787 I-6.4523 J-0.0099
G3 X17.8798 Y11.6763 I2.4242 J-1.7673
G2 X16.9469 Y10.6457 I-5.2749 J3.8377
G3 X12.7938 Y12.413 I-4.153 J-3.996
G3 X8.4873 Y10.4798 I0.0001 J-5.7636
G2 X7.4345 Y11.5766 I4.1436 J5.0307
G3 X7.4325 Y11.5792 I-2.3919 J-1.8108
G2 X6.12 Y15.4898 I5.141 J3.9009
G3 X6.1201 Y15.4943 I-3.0 J0.0045
G1 Y54.5982
G3 X8.8291 Y56.6134 I-1.7781 J5.2188
G0 Z3.0
G0 X12.7357 Y53.8244
G1 F50.0 Z-12.0
G3 F150.0 X14.3201 Y52.0711 I8.3936 J5.9924
G1 Y17.1022
G3 X12.7937 Y17.213 I-1.5262 J-10.4524
G3 X10.9201 Y17.0455 I0.0003 J-10.5636
G1 Y51.8738
G3 X12.7357 Y53.8244 I-6.5781 J7.9433
G1 F50.0 X10.7824 Y55.2189
G3 F150.0 X12.2554 Y59.8164 I-6.4404 J4.5981
G1 Y59.817
G3 X12.2388 Y60.3292 I-7.9131 J-0.0002
G3 X12.6199 Y60.3247 I0.3678 J14.8636
G3 X13.2332 Y60.3368 I0.0133 J14.8685
G3 X13.2161 Y59.8167 I7.8958 J-0.5197
G1 Y59.8165
G1 Y59.8169
G1 Y59.8167
G3 X16.7201 Y53.2459 I7.9132 J0.0001
G1 Y15.4943
G3 Y15.486 I5.4 J0.0
G2 X16.4248 Y13.9611 I-4.0523 J-0.0062
G3 X12.7938 Y14.813 I-3.6308 J-7.3113
G1 X12.7937
G3 X8.8788 Y13.8129 I0.0002 J-8.1636
G2 X8.52 Y15.4862 I3.6947 J1.6672
G3 X8.5201 Y15.4943 I-5.4 J0.0081
G1 Y53.0965
G3 X10.7824 Y55.2189 I-4.1781 J6.7205
G1 F50.0 X8.8291 Y56.6134
G3 F150.0 X9.8554 Y59.8166 I-4.4871 J3.2036
G1 Y59.8169
G3 X8.5209 Y63.4131 I-5.5131 J-0.0001
G3 X12.6199 Y62.7247 I4.0857 J11.7797
G3 X17.0605 Y63.5372 I0.0133 J12.4685
G3 X15.6161 Y59.8168 I4.0684 J-3.7202
G1 Y59.8166
G1 Y59.8169
G1 Y59.8168
G3 X19.1201 Y54.6828 I5.5132 J0.0
G1 Y15.4943
G3 Y15.4897 I3.0 J0.0
G2 X17.8816 Y11.6787 I-6.4523 J-0.0099
G3 X17.8798 Y11.6763 I2.4242 J-1.7673
G2 X16.9469 Y10.6457 I-5.2749 J3.8377
G3 X12.7938 Y12.413 I-4.153 J-3.996
G3 X8.4873 Y10.4798 I0.0001 J-5.7636
G2 X7.4345 Y11.5766 I4.1436 J5.0307
G3 X7.4325 Y11.5792 I-2.3919 J-1.8108
G2 X6.12 Y15.4898 I5.141 J3.9009
G3 X6.1201 Y15.4943 I-3.0 J0.0045
G1 Y54.5982
G3 X8.8291 Y56.6134 I-1.7781 J5.2188
G0 Z3.0
G0 X12.7357 Y53.8244
G1 F50.0 Z-13.0
G3 F150.0 X14.3201 Y52.0711 I8.3936 J5.9924
G1 Y17.1022
G3 X12.7937 Y17.213 I-1.5262 J-10.4524
G3 X10.9201 Y17.0455 I0.0003 J-10.5636
G1 Y51.8738
G3 X12.7357 Y53.8244 I-6.5781 J7.9433
G1 F50.0 X10.7824 Y55.2189
G3 F150.0 X12.2554 Y59.8164 I-6.4404 J4.5981
G1 Y59.817
G3 X12.2388 Y60.3292 I-7.9131 J-0.0002
G3 X12.6199 Y60.3247 I0.3678 J14.8636
G3 X13.2332 Y60.3368 I0.0133 J14.8685
G3 X13.2161 Y59.8167 I7.8958 J-0.5197
G1 Y59.8165
G1 Y59.8169
G1 Y59.8167
G3 X16.7201 Y53.2459 I7.9132 J0.0001
G1 Y15.4943
G3 Y15.486 I5.4 J0.0
G2 X16.4248 Y13.9611 I-4.0523 J-0.0062
G3 X12.7938 Y14.813 I-3.6308 J-7.3113
G1 X12.7937
G3 X8.8788 Y13.8129 I0.0002 J-8.1636
G2 X8.52 Y15.4862 I3.6947 J1.6672
G3 X8.5201 Y15.4943 I-5.4 J0.0081
G1 Y53.0965
G3 X10.7824 Y55.2189 I-4.1781 J6.7205
G1 F50.0 X8.8291 Y56.6134
G3 F150.0 X9.8554 Y59.8166 I-4.4871 J3.2036
G1 Y59.8169
G3 X8.5209 Y63.4131 I-5.5131 J-0.0001
G3 X12.6199 Y62.7247 I4.0857 J11.7797
G3 X17.0605 Y63.5372 I0.0133 J12.4685
G3 X15.6161 Y59.8168 I4.0684 J-3.7202
G1 Y59.8166
G1 Y59.8169
G1 Y59.8168
G3 X19.1201 Y54.6828 I5.5132 J0.0
G1 Y15.4943
G3 Y15.4897 I3.0 J0.0
G2 X17.8816 Y11.6787 I-6.4523 J-0.0099
G3 X17.8798 Y11.6763 I2.4242 J-1.7673
G2 X16.9469 Y10.6457 I-5.2749 J3.8377
G3 X12.7938 Y12.413 I-4.153 J-3.996
G3 X8.4873 Y10.4798 I0.0001 J-5.7636
G2 X7.4345 Y11.5766 I4.1436 J5.0307
G3 X7.4325 Y11.5792 I-2.3919 J-1.8108
G2 X6.12 Y15.4898 I5.141 J3.9009
G3 X6.1201 Y15.4943 I-3.0 J0.0045
G1 Y54.5982
G3 X8.8291 Y56.6134 I-1.7781 J5.2188
G0 Z3.0
G0 X12.7357 Y53.8244
G1 F50.0 Z-14.0
G3 F150.0 X14.3201 Y52.0711 I8.3936 J5.9924
G1 Y17.1022
G3 X12.7937 Y17.213 I-1.5262 J-10.4524
G3 X10.9201 Y17.0455 I0.0003 J-10.5636
G1 Y51.8738
G3 X12.7357 Y53.8244 I-6.5781 J7.9433
G1 F50.0 X10.7824 Y55.2189
G3 F150.0 X12.2554 Y59.8164 I-6.4404 J4.5981
G1 Y59.817
G3 X12.2388 Y60.3292 I-7.9131 J-0.0002
G3 X12.6199 Y60.3247 I0.3678 J14.8636
G3 X13.2332 Y60.3368 I0.0133 J14.8685
G3 X13.2161 Y59.8167 I7.8958 J-0.5197
G1 Y59.8165
G1 Y59.8169
G1 Y59.8167
G3 X16.7201 Y53.2459 I7.9132 J0.0001
G1 Y15.4943
G3 Y15.486 I5.4 J0.0
G2 X16.4248 Y13.9611 I-4.0523 J-0.0062
G3 X12.7938 Y14.813 I-3.6308 J-7.3113
G1 X12.7937
G3 X8.8788 Y13.8129 I0.0002 J-8.1636
G2 X8.52 Y15.4862 I3.6947 J1.6672
G3 X8.5201 Y15.4943 I-5.4 J0.0081
G1 Y53.0965
G3 X10.7824 Y55.2189 I-4.1781 J6.7205
G1 F50.0 X8.8291 Y56.6134
G3 F150.0 X9.8554 Y59.8166 I-4.4871 J3.2036
G1 Y59.8169
G3 X8.5209 Y63.4131 I-5.5131 J-0.0001
G3 X12.6199 Y62.7247 I4.0857 J11.7797
G3 X17.0605 Y63.5372 I0.0133 J12.4685
G3 X15.6161 Y59.8168 I4.0684 J-3.7202
G1 Y59.8166
G1 Y59.8169
G1 Y59.8168
G3 X19.1201 Y54.6828 I5.5132 J0.0
G1 Y15.4943
G3 Y15.4897 I3.0 J0.0
G2 X17.8816 Y11.6787 I-6.4523 J-0.0099
G3 X17.8798 Y11.6763 I2.4242 J-1.7673
G2 X16.9469 Y10.6457 I-5.2749 J3.8377
G3 X12.7938 Y12.413 I-4.153 J-3.996
G3 X8.4873 Y10.4798 I0.0001 J-5.7636
G2 X7.4345 Y11.5766 I4.1436 J5.0307
G3 X7.4325 Y11.5792 I-2.3919 J-1.8108
G2 X6.12 Y15.4898 I5.141 J3.9009
G3 X6.1201 Y15.4943 I-3.0 J0.0045
G1 Y54.5982
G3 X8.8291 Y56.6134 I-1.7781 J5.2188
G0 Z3.0
G0 X12.7357 Y53.8244
G1 F50.0 Z-15.0
G3 F150.0 X14.3201 Y52.0711 I8.3936 J5.9924
G1 Y17.1022
G3 X12.7937 Y17.213 I-1.5262 J-10.4524
G3 X10.9201 Y17.0455 I0.0003 J-10.5636
G1 Y51.8738
G3 X12.7357 Y53.8244 I-6.5781 J7.9433
G1 F50.0 X10.7824 Y55.2189
G3 F150.0 X12.2554 Y59.8164 I-6.4404 J4.5981
G1 Y59.817
G3 X12.2388 Y60.3292 I-7.9131 J-0.0002
G3 X12.6199 Y60.3247 I0.3678 J14.8636
G3 X13.2332 Y60.3368 I0.0133 J14.8685
G3 X13.2161 Y59.8167 I7.8958 J-0.5197
G1 Y59.8165
G1 Y59.8169
G1 Y59.8167
G3 X16.7201 Y53.2459 I7.9132 J0.0001
G1 Y15.4943
G3 Y15.486 I5.4 J0.0
G2 X16.4248 Y13.9611 I-4.0523 J-0.0062
G3 X12.7938 Y14.813 I-3.6308 J-7.3113
G1 X12.7937
G3 X8.8788 Y13.8129 I0.0002 J-8.1636
G2 X8.52 Y15.4862 I3.6947 J1.6672
G3 X8.5201 Y15.4943 I-5.4 J0.0081
G1 Y53.0965
G3 X10.7824 Y55.2189 I-4.1781 J6.7205
G1 F50.0 X8.8291 Y56.6134
G3 F150.0 X9.8554 Y59.8166 I-4.4871 J3.2036
G1 Y59.8169
G3 X8.5209 Y63.4131 I-5.5131 J-0.0001
G3 X12.6199 Y62.7247 I4.0857 J11.7797
G3 X17.0605 Y63.5372 I0.0133 J12.4685
G3 X15.6161 Y59.8168 I4.0684 J-3.7202
G1 Y59.8166
G1 Y59.8169
G1 Y59.8168
G3 X19.1201 Y54.6828 I5.5132 J0.0
G1 Y15.4943
G3 Y15.4897 I3.0 J0.0
G2 X17.8816 Y11.6787 I-6.4523 J-0.0099
G3 X17.8798 Y11.6763 I2.4242 J-1.7673
G2 X16.9469 Y10.6457 I-5.2749 J3.8377
G3 X12.7938 Y12.413 I-4.153 J-3.996
G3 X8.4873 Y10.4798 I0.0001 J-5.7636
G2 X7.4345 Y11.5766 I4.1436 J5.0307
G3 X7.4325 Y11.5792 I-2.3919 J-1.8108
G2 X6.12 Y15.4898 I5.141 J3.9009
G3 X6.1201 Y15.4943 I-3.0 J0.0045
G1 Y54.5982
G3 X8.8291 Y56.6134 I-1.7781 J5.2188
G0 Z3.0
G0 X12.7357 Y53.8244
G1 F50.0 Z-16.0
G3 F150.0 X14.3201 Y52.0711 I8.3936 J5.9924
G1 Y17.1022
G3 X12.7937 Y17.213 I-1.5262 J-10.4524
G3 X10.9201 Y17.0455 I0.0003 J-10.5636
G1 Y51.8738
G3 X12.7357 Y53.8244 I-6.5781 J7.9433
G1 F50.0 X10.7824 Y55.2189
G3 F150.0 X12.2554 Y59.8164 I-6.4404 J4.5981
G1 Y59.817
G3 X12.2388 Y60.3292 I-7.9131 J-0.0002
G3 X12.6199 Y60.3247 I0.3678 J14.8636
G3 X13.2332 Y60.3368 I0.0133 J14.8685
G3 X13.2161 Y59.8167 I7.8958 J-0.5197
G1 Y59.8165
G1 Y59.8169
G1 Y59.8167
G3 X16.7201 Y53.2459 I7.9132 J0.0001
G1 Y15.4943
G3 Y15.486 I5.4 J0.0
G2 X16.4248 Y13.9611 I-4.0523 J-0.0062
G3 X12.7938 Y14.813 I-3.6308 J-7.3113
G1 X12.7937
G3 X8.8788 Y13.8129 I0.0002 J-8.1636
G2 X8.52 Y15.4862 I3.6947 J1.6672
G3 X8.5201 Y15.4943 I-5.4 J0.0081
G1 Y53.0965
G3 X10.7824 Y55.2189 I-4.1781 J6.7205
G1 F50.0 X8.8291 Y56.6134
G3 F150.0 X9.8554 Y59.8166 I-4.4871 J3.2036
G1 Y59.8169
G3 X8.5209 Y63.4131 I-5.5131 J-0.0001
G3 X12.6199 Y62.7247 I4.0857 J11.7797
G3 X17.0605 Y63.5372 I0.0133 J12.4685
G3 X15.6161 Y59.8168 I4.0684 J-3.7202
G1 Y59.8166
G1 Y59.8169
G1 Y59.8168
G3 X19.1201 Y54.6828 I5.5132 J0.0
G1 Y15.4943
G3 Y15.4897 I3.0 J0.0
G2 X17.8816 Y11.6787 I-6.4523 J-0.0099
G3 X17.8798 Y11.6763 I2.4242 J-1.7673
G2 X16.9469 Y10.6457 I-5.2749 J3.8377
G3 X12.7938 Y12.413 I-4.153 J-3.996
G3 X8.4873 Y10.4798 I0.0001 J-5.7636
G2 X7.4345 Y11.5766 I4.1436 J5.0307
G3 X7.4325 Y11.5792 I-2.3919 J-1.8108
G2 X6.12 Y15.4898 I5.141 J3.9009
G3 X6.1201 Y15.4943 I-3.0 J0.0045
G1 Y54.5982
G3 X8.8291 Y56.6134 I-1.7781 J5.2188
G0 Z3.0
G0 X12.7357 Y53.8244
G1 F50.0 Z-17.0
G3 F150.0 X14.3201 Y52.0711 I8.3936 J5.9924
G1 Y17.1022
G3 X12.7937 Y17.213 I-1.5262 J-10.4524
G3 X10.9201 Y17.0455 I0.0003 J-10.5636
G1 Y51.8738
G3 X12.7357 Y53.8244 I-6.5781 J7.9433
G1 F50.0 X10.7824 Y55.2189
G3 F150.0 X12.2554 Y59.8164 I-6.4404 J4.5981
G1 Y59.817
G3 X12.2388 Y60.3292 I-7.9131 J-0.0002
G3 X12.6199 Y60.3247 I0.3678 J14.8636
G3 X13.2332 Y60.3368 I0.0133 J14.8685
G3 X13.2161 Y59.8167 I7.8958 J-0.5197
G1 Y59.8165
G1 Y59.8169
G1 Y59.8167
G3 X16.7201 Y53.2459 I7.9132 J0.0001
G1 Y15.4943
G3 Y15.486 I5.4 J0.0
G2 X16.4248 Y13.9611 I-4.0523 J-0.0062
G3 X12.7938 Y14.813 I-3.6308 J-7.3113
G1 X12.7937
G3 X8.8788 Y13.8129 I0.0002 J-8.1636
G2 X8.52 Y15.4862 I3.6947 J1.6672
G3 X8.5201 Y15.4943 I-5.4 J0.0081
G1 Y53.0965
G3 X10.7824 Y55.2189 I-4.1781 J6.7205
G1 F50.0 X8.8291 Y56.6134
G3 F150.0 X9.8554 Y59.8166 I-4.4871 J3.2036
G1 Y59.8169
G3 X8.5209 Y63.4131 I-5.5131 J-0.0001
G3 X12.6199 Y62.7247 I4.0857 J11.7797
G3 X17.0605 Y63.5372 I0.0133 J12.4685
G3 X15.6161 Y59.8168 I4.0684 J-3.7202
G1 Y59.8166
G1 Y59.8169
G1 Y59.8168
G3 X19.1201 Y54.6828 I5.5132 J0.0
G1 Y15.4943
G3 Y15.4897 I3.0 J0.0
G2 X17.8816 Y11.6787 I-6.4523 J-0.0099
G3 X17.8798 Y11.6763 I2.4242 J-1.7673
G2 X16.9469 Y10.6457 I-5.2749 J3.8377
G3 X12.7938 Y12.413 I-4.153 J-3.996
G3 X8.4873 Y10.4798 I0.0001 J-5.7636
G2 X7.4345 Y11.5766 I4.1436 J5.0307
G3 X7.4325 Y11.5792 I-2.3919 J-1.8108
G2 X6.12 Y15.4898 I5.141 J3.9009
G3 X6.1201 Y15.4943 I-3.0 J0.0045
G1 Y54.5982
G3 X8.8291 Y56.6134 I-1.7781 J5.2188
G0 Z3.0
G0 X12.7357 Y53.8244
G1 F50.0 Z-18.0
G3 F150.0 X14.3201 Y52.0711 I8.3936 J5.9924
G1 Y17.1022
G3 X12.7937 Y17.213 I-1.5262 J-10.4524
G3 X10.9201 Y17.0455 I0.0003 J-10.5636
G1 Y51.8738
G3 X12.7357 Y53.8244 I-6.5781 J7.9433
G1 F50.0 X10.7824 Y55.2189
G3 F150.0 X12.2554 Y59.8164 I-6.4404 J4.5981
G1 Y59.817
G3 X12.2388 Y60.3292 I-7.9131 J-0.0002
G3 X12.6199 Y60.3247 I0.3678 J14.8636
G3 X13.2332 Y60.3368 I0.0133 J14.8685
G3 X13.2161 Y59.8167 I7.8958 J-0.5197
G1 Y59.8165
G1 Y59.8169
G1 Y59.8167
G3 X16.7201 Y53.2459 I7.9132 J0.0001
G1 Y15.4943
G3 Y15.486 I5.4 J0.0
G2 X16.4248 Y13.9611 I-4.0523 J-0.0062
G3 X12.7938 Y14.813 I-3.6308 J-7.3113
G1 X12.7937
G3 X8.8788 Y13.8129 I0.0002 J-8.1636
G2 X8.52 Y15.4862 I3.6947 J1.6672
G3 X8.5201 Y15.4943 I-5.4 J0.0081
G1 Y53.0965
G3 X10.7824 Y55.2189 I-4.1781 J6.7205
G1 F50.0 X8.8291 Y56.6134
G3 F150.0 X9.8554 Y59.8166 I-4.4871 J3.2036
G1 Y59.8169
G3 X8.5209 Y63.4131 I-5.5131 J-0.0001
G3 X12.6199 Y62.7247 I4.0857 J11.7797
G3 X17.0605 Y63.5372 I0.0133 J12.4685
G3 X15.6161 Y59.8168 I4.0684 J-3.7202
G1 Y59.8166
G1 Y59.8169
G1 Y59.8168
G3 X19.1201 Y54.6828 I5.5132 J0.0
G1 Y15.4943
G3 Y15.4897 I3.0 J0.0
G2 X17.8816 Y11.6787 I-6.4523 J-0.0099
G3 X17.8798 Y11.6763 I2.4242 J-1.7673
G2 X16.9469 Y10.6457 I-5.2749 J3.8377
G3 X12.7938 Y12.413 I-4.153 J-3.996
G3 X8.4873 Y10.4798 I0.0001 J-5.7636
G2 X7.4345 Y11.5766 I4.1436 J5.0307
G3 X7.4325 Y11.5792 I-2.3919 J-1.8108
G2 X6.12 Y15.4898 I5.141 J3.9009
G3 X6.1201 Y15.4943 I-3.0 J0.0045
G1 Y54.5982
G3 X8.8291 Y56.6134 I-1.7781 J5.2188
G0 Z3.0
M5
M30
