( Made using CamBam - http://www.cambam.co.uk )
( head-spacer plate 10/22/2012 7:06:18 PM )
( T7 : 4.0 )
G21 G90 G64 G40
G0 Z3.0
( T7 : 4.0 )
T7 M6
( 4mm cutout )
G17
M3 S1000
G0 X17.9438 Y91.998
G1 F50.0 Z-2.0
G2 F200.0 X24.3482 Y89.3457 I0.0103 J-9.0338
G2 X27.0005 Y82.9411 I-6.3803 J-6.3938
G1 Y76.5753
G1 Y70.5025
G1 Y13.4241
G2 X26.2808 Y8.6114 I-16.3088 J-0.0212
G2 Y8.6113 I-15.5891 J4.7915
G1 Y8.6115
G2 Y8.6114 I-15.0485 J4.6238
G2 X24.1347 Y4.215 I-15.0484 J4.6239
G2 X24.1333 Y4.213 I-1.6391 J1.146
G2 X21.9702 Y1.7417 I-12.5123 J8.7698
G2 X18.2993 Y-0.7172 I-9.7508 J10.5871
G2 X18.2983 Y-0.7177 I-0.8448 J1.8128
G2 X12.5004 Y-2.0 I-5.7952 J12.4538
G2 X7.8655 Y-1.1953 I-0.0097 J13.6945
G2 X7.8628 Y-1.1944 I0.6755 J1.8825
G2 X3.7847 Y1.0944 I4.8129 J13.3532
G2 X1.5831 Y3.2703 I9.4103 J11.7229
G1 X1.583 Y3.2705
G2 X-0.5777 Y6.7528 I11.965 J9.8358
G2 X-0.5778 Y6.7529 I14.1258 J6.3534
G1 X-0.5777 Y6.7527
G2 Y6.7528 I14.7014 J6.6143
G2 X-1.9378 Y11.9853 I14.7015 J6.6142
G2 X-1.9381 Y11.9895 I1.9926 J0.1714
G2 X-2.0 Y13.4169 I17.6309 J1.4793
G2 Y13.4228 I2.0 J0.0059
G1 Y76.529
G2 X-1.9997 Y76.6468 I2.0312 J0.0529
G1 Y82.9412
G2 X0.6526 Y89.3456 I9.0338 J0.0103
G2 X7.0572 Y91.998 I6.3938 J-6.3803
G1 X17.9438
G1 F50.0 Z-4.0
G2 F200.0 X24.3482 Y89.3457 I0.0103 J-9.0338
G2 X27.0005 Y82.9411 I-6.3803 J-6.3938
G1 Y76.5753
G1 Y70.5025
G1 Y13.4241
G2 X26.2808 Y8.6114 I-16.3088 J-0.0212
G2 Y8.6113 I-15.5891 J4.7915
G1 Y8.6115
G2 Y8.6114 I-15.0485 J4.6238
G2 X24.1347 Y4.215 I-15.0484 J4.6239
G2 X24.1333 Y4.213 I-1.6391 J1.146
G2 X21.9702 Y1.7417 I-12.5123 J8.7698
G2 X18.2993 Y-0.7172 I-9.7508 J10.5871
G2 X18.2983 Y-0.7177 I-0.8448 J1.8128
G2 X12.5004 Y-2.0 I-5.7952 J12.4538
G2 X7.8655 Y-1.1953 I-0.0097 J13.6945
G2 X7.8628 Y-1.1944 I0.6755 J1.8825
G2 X3.7847 Y1.0944 I4.8129 J13.3532
G2 X1.5831 Y3.2703 I9.4103 J11.7229
G1 X1.583 Y3.2705
G2 X-0.5777 Y6.7528 I11.965 J9.8358
G2 X-0.5778 Y6.7529 I14.1258 J6.3534
G1 X-0.5777 Y6.7527
G2 Y6.7528 I14.7014 J6.6143
G2 X-1.9378 Y11.9853 I14.7015 J6.6142
G2 X-1.9381 Y11.9895 I1.9926 J0.1714
G2 X-2.0 Y13.4169 I17.6309 J1.4793
G2 Y13.4228 I2.0 J0.0059
G1 Y76.529
G2 X-1.9997 Y76.6468 I2.0312 J0.0529
G1 Y82.9412
G2 X0.6526 Y89.3456 I9.0338 J0.0103
G2 X7.0572 Y91.998 I6.3938 J-6.3803
G1 X17.9438
G1 F50.0 Z-6.0
G2 F200.0 X24.3482 Y89.3457 I0.0103 J-9.0338
G2 X27.0005 Y82.9411 I-6.3803 J-6.3938
G1 Y76.5753
G1 Y70.5025
G1 Y13.4241
G2 X26.2808 Y8.6114 I-16.3088 J-0.0212
G2 Y8.6113 I-15.5891 J4.7915
G1 Y8.6115
G2 Y8.6114 I-15.0485 J4.6238
G2 X24.1347 Y4.215 I-15.0484 J4.6239
G2 X24.1333 Y4.213 I-1.6391 J1.146
G2 X21.9702 Y1.7417 I-12.5123 J8.7698
G2 X18.2993 Y-0.7172 I-9.7508 J10.5871
G2 X18.2983 Y-0.7177 I-0.8448 J1.8128
G2 X12.5004 Y-2.0 I-5.7952 J12.4538
G2 X7.8655 Y-1.1953 I-0.0097 J13.6945
G2 X7.8628 Y-1.1944 I0.6755 J1.8825
G2 X3.7847 Y1.0944 I4.8129 J13.3532
G2 X1.5831 Y3.2703 I9.4103 J11.7229
G1 X1.583 Y3.2705
G2 X-0.5777 Y6.7528 I11.965 J9.8358
G2 X-0.5778 Y6.7529 I14.1258 J6.3534
G1 X-0.5777 Y6.7527
G2 Y6.7528 I14.7014 J6.6143
G2 X-1.9378 Y11.9853 I14.7015 J6.6142
G2 X-1.9381 Y11.9895 I1.9926 J0.1714
G2 X-2.0 Y13.4169 I17.6309 J1.4793
G2 Y13.4228 I2.0 J0.0059
G1 Y76.529
G2 X-1.9997 Y76.6468 I2.0312 J0.0529
G1 Y82.9412
G2 X0.6526 Y89.3456 I9.0338 J0.0103
G2 X7.0572 Y91.998 I6.3938 J-6.3803
G1 X17.9438
G1 F50.0 Z-8.0
G2 F200.0 X24.3482 Y89.3457 I0.0103 J-9.0338
G2 X27.0005 Y82.9411 I-6.3803 J-6.3938
G1 Y76.5753
G1 Y70.5025
G1 Y13.4241
G2 X26.2808 Y8.6114 I-16.3088 J-0.0212
G2 Y8.6113 I-15.5891 J4.7915
G1 Y8.6115
G2 Y8.6114 I-15.0485 J4.6238
G2 X24.1347 Y4.215 I-15.0484 J4.6239
G2 X24.1333 Y4.213 I-1.6391 J1.146
G2 X21.9702 Y1.7417 I-12.5123 J8.7698
G2 X18.2993 Y-0.7172 I-9.7508 J10.5871
G2 X18.2983 Y-0.7177 I-0.8448 J1.8128
G2 X12.5004 Y-2.0 I-5.7952 J12.4538
G2 X7.8655 Y-1.1953 I-0.0097 J13.6945
G2 X7.8628 Y-1.1944 I0.6755 J1.8825
G2 X3.7847 Y1.0944 I4.8129 J13.3532
G2 X1.5831 Y3.2703 I9.4103 J11.7229
G1 X1.583 Y3.2705
G2 X-0.5777 Y6.7528 I11.965 J9.8358
G2 X-0.5778 Y6.7529 I14.1258 J6.3534
G1 X-0.5777 Y6.7527
G2 Y6.7528 I14.7014 J6.6143
G2 X-1.9378 Y11.9853 I14.7015 J6.6142
G2 X-1.9381 Y11.9895 I1.9926 J0.1714
G2 X-2.0 Y13.4169 I17.6309 J1.4793
G2 Y13.4228 I2.0 J0.0059
G1 Y76.529
G2 X-1.9997 Y76.6468 I2.0312 J0.0529
G1 Y82.9412
G2 X0.6526 Y89.3456 I9.0338 J0.0103
G2 X7.0572 Y91.998 I6.3938 J-6.3803
G1 X17.9438
G1 F50.0 Z-10.0
G2 F200.0 X24.3482 Y89.3457 I0.0103 J-9.0338
G2 X27.0005 Y82.9411 I-6.3803 J-6.3938
G1 Y76.5753
G1 Y70.5025
G1 Y13.4241
G2 X26.2808 Y8.6114 I-16.3088 J-0.0212
G2 Y8.6113 I-15.5891 J4.7915
G1 Y8.6115
G2 Y8.6114 I-15.0485 J4.6238
G2 X24.1347 Y4.215 I-15.0484 J4.6239
G2 X24.1333 Y4.213 I-1.6391 J1.146
G2 X21.9702 Y1.7417 I-12.5123 J8.7698
G2 X18.2993 Y-0.7172 I-9.7508 J10.5871
G2 X18.2983 Y-0.7177 I-0.8448 J1.8128
G2 X12.5004 Y-2.0 I-5.7952 J12.4538
G2 X7.8655 Y-1.1953 I-0.0097 J13.6945
G2 X7.8628 Y-1.1944 I0.6755 J1.8825
G2 X3.7847 Y1.0944 I4.8129 J13.3532
G2 X1.5831 Y3.2703 I9.4103 J11.7229
G1 X1.583 Y3.2705
G2 X-0.5777 Y6.7528 I11.965 J9.8358
G2 X-0.5778 Y6.7529 I14.1258 J6.3534
G1 X-0.5777 Y6.7527
G2 Y6.7528 I14.7014 J6.6143
G2 X-1.9378 Y11.9853 I14.7015 J6.6142
G2 X-1.9381 Y11.9895 I1.9926 J0.1714
G2 X-2.0 Y13.4169 I17.6309 J1.4793
G2 Y13.4228 I2.0 J0.0059
G1 Y76.529
G2 X-1.9997 Y76.6468 I2.0312 J0.0529
G1 Y82.9412
G2 X0.6526 Y89.3456 I9.0338 J0.0103
G2 X7.0572 Y91.998 I6.3938 J-6.3803
G1 X17.9438
G1 F50.0 Z-12.0
G2 F200.0 X24.3482 Y89.3457 I0.0103 J-9.0338
G2 X27.0005 Y82.9411 I-6.3803 J-6.3938
G1 Y76.5753
G1 Y70.5025
G1 Y13.4241
G2 X26.2808 Y8.6114 I-16.3088 J-0.0212
G2 Y8.6113 I-15.5891 J4.7915
G1 Y8.6115
G2 Y8.6114 I-15.0485 J4.6238
G2 X24.1347 Y4.215 I-15.0484 J4.6239
G2 X24.1333 Y4.213 I-1.6391 J1.146
G2 X21.9702 Y1.7417 I-12.5123 J8.7698
G2 X18.2993 Y-0.7172 I-9.7508 J10.5871
G2 X18.2983 Y-0.7177 I-0.8448 J1.8128
G2 X12.5004 Y-2.0 I-5.7952 J12.4538
G2 X7.8655 Y-1.1953 I-0.0097 J13.6945
G2 X7.8628 Y-1.1944 I0.6755 J1.8825
G2 X3.7847 Y1.0944 I4.8129 J13.3532
G2 X1.5831 Y3.2703 I9.4103 J11.7229
G1 X1.583 Y3.2705
G2 X-0.5777 Y6.7528 I11.965 J9.8358
G2 X-0.5778 Y6.7529 I14.1258 J6.3534
G1 X-0.5777 Y6.7527
G2 Y6.7528 I14.7014 J6.6143
G2 X-1.9378 Y11.9853 I14.7015 J6.6142
G2 X-1.9381 Y11.9895 I1.9926 J0.1714
G2 X-2.0 Y13.4169 I17.6309 J1.4793
G2 Y13.4228 I2.0 J0.0059
G1 Y76.529
G2 X-1.9997 Y76.6468 I2.0312 J0.0529
G1 Y82.9412
G2 X0.6526 Y89.3456 I9.0338 J0.0103
G2 X7.0572 Y91.998 I6.3938 J-6.3803
G1 X17.9438
G1 F50.0 Z-14.0
G2 F200.0 X24.3482 Y89.3457 I0.0103 J-9.0338
G2 X27.0005 Y82.9411 I-6.3803 J-6.3938
G1 Y76.5753
G1 Y70.5025
G1 Y13.4241
G2 X26.2808 Y8.6114 I-16.3088 J-0.0212
G2 Y8.6113 I-15.5891 J4.7915
G1 Y8.6115
G2 Y8.6114 I-15.0485 J4.6238
G2 X24.1347 Y4.215 I-15.0484 J4.6239
G2 X24.1333 Y4.213 I-1.6391 J1.146
G2 X21.9702 Y1.7417 I-12.5123 J8.7698
G2 X18.2993 Y-0.7172 I-9.7508 J10.5871
G2 X18.2983 Y-0.7177 I-0.8448 J1.8128
G2 X12.5004 Y-2.0 I-5.7952 J12.4538
G2 X7.8655 Y-1.1953 I-0.0097 J13.6945
G2 X7.8628 Y-1.1944 I0.6755 J1.8825
G2 X3.7847 Y1.0944 I4.8129 J13.3532
G2 X1.5831 Y3.2703 I9.4103 J11.7229
G1 X1.583 Y3.2705
G2 X-0.5777 Y6.7528 I11.965 J9.8358
G2 X-0.5778 Y6.7529 I14.1258 J6.3534
G1 X-0.5777 Y6.7527
G2 Y6.7528 I14.7014 J6.6143
G2 X-1.9378 Y11.9853 I14.7015 J6.6142
G2 X-1.9381 Y11.9895 I1.9926 J0.1714
G2 X-2.0 Y13.4169 I17.6309 J1.4793
G2 Y13.4228 I2.0 J0.0059
G1 Y76.529
G2 X-1.9997 Y76.6468 I2.0312 J0.0529
G1 Y82.9412
G2 X0.6526 Y89.3456 I9.0338 J0.0103
G2 X7.0572 Y91.998 I6.3938 J-6.3803
G1 X17.9438
G1 F50.0 Z-16.0
G2 F200.0 X24.3482 Y89.3457 I0.0103 J-9.0338
G2 X27.0005 Y82.9411 I-6.3803 J-6.3938
G1 Y76.5753
G1 Y70.5025
G1 Y13.4241
G2 X26.2808 Y8.6114 I-16.3088 J-0.0212
G2 Y8.6113 I-15.5891 J4.7915
G1 Y8.6115
G2 Y8.6114 I-15.0485 J4.6238
G2 X24.1347 Y4.215 I-15.0484 J4.6239
G2 X24.1333 Y4.213 I-1.6391 J1.146
G2 X21.9702 Y1.7417 I-12.5123 J8.7698
G2 X18.2993 Y-0.7172 I-9.7508 J10.5871
G2 X18.2983 Y-0.7177 I-0.8448 J1.8128
G2 X12.5004 Y-2.0 I-5.7952 J12.4538
G2 X7.8655 Y-1.1953 I-0.0097 J13.6945
G2 X7.8628 Y-1.1944 I0.6755 J1.8825
G2 X3.7847 Y1.0944 I4.8129 J13.3532
G2 X1.5831 Y3.2703 I9.4103 J11.7229
G1 X1.583 Y3.2705
G2 X-0.5777 Y6.7528 I11.965 J9.8358
G2 X-0.5778 Y6.7529 I14.1258 J6.3534
G1 X-0.5777 Y6.7527
G2 Y6.7528 I14.7014 J6.6143
G2 X-1.9378 Y11.9853 I14.7015 J6.6142
G2 X-1.9381 Y11.9895 I1.9926 J0.1714
G2 X-2.0 Y13.4169 I17.6309 J1.4793
G2 Y13.4228 I2.0 J0.0059
G1 Y76.529
G2 X-1.9997 Y76.6468 I2.0312 J0.0529
G1 Y82.9412
G2 X0.6526 Y89.3456 I9.0338 J0.0103
G2 X7.0572 Y91.998 I6.3938 J-6.3803
G1 X17.9438
G1 F50.0 Z-18.0
G2 F200.0 X24.3482 Y89.3457 I0.0103 J-9.0338
G2 X27.0005 Y82.9411 I-6.3803 J-6.3938
G1 Y76.5753
G1 Y70.5025
G1 Y13.4241
G2 X26.2808 Y8.6114 I-16.3088 J-0.0212
G2 Y8.6113 I-15.5891 J4.7915
G1 Y8.6115
G2 Y8.6114 I-15.0485 J4.6238
G2 X24.1347 Y4.215 I-15.0484 J4.6239
G2 X24.1333 Y4.213 I-1.6391 J1.146
G2 X21.9702 Y1.7417 I-12.5123 J8.7698
G2 X18.2993 Y-0.7172 I-9.7508 J10.5871
G2 X18.2983 Y-0.7177 I-0.8448 J1.8128
G2 X12.5004 Y-2.0 I-5.7952 J12.4538
G2 X7.8655 Y-1.1953 I-0.0097 J13.6945
G2 X7.8628 Y-1.1944 I0.6755 J1.8825
G2 X3.7847 Y1.0944 I4.8129 J13.3532
G2 X1.5831 Y3.2703 I9.4103 J11.7229
G1 X1.583 Y3.2705
G2 X-0.5777 Y6.7528 I11.965 J9.8358
G2 X-0.5778 Y6.7529 I14.1258 J6.3534
G1 X-0.5777 Y6.7527
G2 Y6.7528 I14.7014 J6.6143
G2 X-1.9378 Y11.9853 I14.7015 J6.6142
G2 X-1.9381 Y11.9895 I1.9926 J0.1714
G2 X-2.0 Y13.4169 I17.6309 J1.4793
G2 Y13.4228 I2.0 J0.0059
G1 Y76.529
G2 X-1.9997 Y76.6468 I2.0312 J0.0529
G1 Y82.9412
G2 X0.6526 Y89.3456 I9.0338 J0.0103
G2 X7.0572 Y91.998 I6.3938 J-6.3803
G1 X17.9438
G1 F50.0 Z-20.0
G2 F200.0 X24.3482 Y89.3457 I0.0103 J-9.0338
G2 X27.0005 Y82.9411 I-6.3803 J-6.3938
G1 Y76.5753
G1 Y70.5025
G1 Y13.4241
G2 X26.2808 Y8.6114 I-16.3088 J-0.0212
G2 Y8.6113 I-15.5891 J4.7915
G1 Y8.6115
G2 Y8.6114 I-15.0485 J4.6238
G2 X24.1347 Y4.215 I-15.0484 J4.6239
G2 X24.1333 Y4.213 I-1.6391 J1.146
G2 X21.9702 Y1.7417 I-12.5123 J8.7698
G2 X18.2993 Y-0.7172 I-9.7508 J10.5871
G2 X18.2983 Y-0.7177 I-0.8448 J1.8128
G2 X12.5004 Y-2.0 I-5.7952 J12.4538
G2 X7.8655 Y-1.1953 I-0.0097 J13.6945
G2 X7.8628 Y-1.1944 I0.6755 J1.8825
G2 X3.7847 Y1.0944 I4.8129 J13.3532
G2 X1.5831 Y3.2703 I9.4103 J11.7229
G1 X1.583 Y3.2705
G2 X-0.5777 Y6.7528 I11.965 J9.8358
G2 X-0.5778 Y6.7529 I14.1258 J6.3534
G1 X-0.5777 Y6.7527
G2 Y6.7528 I14.7014 J6.6143
G2 X-1.9378 Y11.9853 I14.7015 J6.6142
G2 X-1.9381 Y11.9895 I1.9926 J0.1714
G2 X-2.0 Y13.4169 I17.6309 J1.4793
G2 Y13.4228 I2.0 J0.0059
G1 Y76.529
G2 X-1.9997 Y76.6468 I2.0312 J0.0529
G1 Y82.9412
G2 X0.6526 Y89.3456 I9.0338 J0.0103
G2 X7.0572 Y91.998 I6.3938 J-6.3803
G1 X17.9438
G1 F50.0 Z-22.0
G2 F200.0 X24.3482 Y89.3457 I0.0103 J-9.0338
G2 X27.0005 Y82.9411 I-6.3803 J-6.3938
G1 Y76.5753
G1 Y70.5025
G1 Y13.4241
G2 X26.2808 Y8.6114 I-16.3088 J-0.0212
G2 Y8.6113 I-15.5891 J4.7915
G1 Y8.6115
G2 Y8.6114 I-15.0485 J4.6238
G2 X24.1347 Y4.215 I-15.0484 J4.6239
G2 X24.1333 Y4.213 I-1.6391 J1.146
G2 X21.9702 Y1.7417 I-12.5123 J8.7698
G2 X18.2993 Y-0.7172 I-9.7508 J10.5871
G2 X18.2983 Y-0.7177 I-0.8448 J1.8128
G2 X12.5004 Y-2.0 I-5.7952 J12.4538
G2 X7.8655 Y-1.1953 I-0.0097 J13.6945
G2 X7.8628 Y-1.1944 I0.6755 J1.8825
G2 X3.7847 Y1.0944 I4.8129 J13.3532
G2 X1.5831 Y3.2703 I9.4103 J11.7229
G1 X1.583 Y3.2705
G2 X-0.5777 Y6.7528 I11.965 J9.8358
G2 X-0.5778 Y6.7529 I14.1258 J6.3534
G1 X-0.5777 Y6.7527
G2 Y6.7528 I14.7014 J6.6143
G2 X-1.9378 Y11.9853 I14.7015 J6.6142
G2 X-1.9381 Y11.9895 I1.9926 J0.1714
G2 X-2.0 Y13.4169 I17.6309 J1.4793
G2 Y13.4228 I2.0 J0.0059
G1 Y76.529
G2 X-1.9997 Y76.6468 I2.0312 J0.0529
G1 Y82.9412
G2 X0.6526 Y89.3456 I9.0338 J0.0103
G2 X7.0572 Y91.998 I6.3938 J-6.3803
G1 X17.9438
G0 Z3.0
M5
M30
