( Made using CamBam - http://www.cambam.co.uk )
( head-spacer plate 10/22/2012 7:05:49 PM )
( T3 : 3.0 )
G21 G90 G64 G40
G0 Z3.0
( T3 : 3.0 )
T3 M6
( 3mm mill pocket profile )
G17
M3 S1000
G0 X17.1161 Y59.8167
G1 F50.0 Z-1.5
G1 F150.0 Y59.8168
G2 X20.6201 Y63.7975 I4.0129 J0.0002
G1 Y67.6743
G2 X20.3981 Y67.4463 I-7.9716 J7.5386
G2 X12.6199 Y64.2247 I-7.7649 J7.7469
G2 X4.8419 Y67.4462 I-0.0133 J10.9682
G2 X4.6201 Y67.6741 I7.7472 J7.7653
G1 Y63.8203
G2 X8.3554 Y59.8169 I-0.2777 J-4.0035
G1 Y59.8167
G2 X4.6201 Y55.8133 I-4.0134 J0.0003
G1 Y15.4943
G2 X4.62 Y15.4921 I-1.5 J0.0
G3 X6.2375 Y10.6725 I7.9535 J-0.0119
G2 X6.2385 Y10.6712 I-1.1949 J-0.9067
G3 X8.9102 Y8.4086 I6.3923 J4.8393
G2 X12.7938 Y10.913 I3.8837 J-1.7591
G2 X16.6056 Y8.5593 I0.0001 J-4.2633
G3 X19.0928 Y10.7938 I-4.0007 J6.9546
G2 X19.0937 Y10.795 I1.213 J-0.8825
G3 X20.6201 Y15.492 I-6.4259 J4.6848
G2 Y15.4943 I1.5 J0.0023
G1 Y55.8361
G2 X17.1161 Y59.8168 I0.5092 J3.9807
G1 Y59.8169
G1 Y59.8167
G1 F50.0 Z-3.0
G1 F150.0 Y59.8168
G2 X20.6201 Y63.7975 I4.0129 J0.0002
G1 Y67.6743
G2 X20.3981 Y67.4463 I-7.9716 J7.5386
G2 X12.6199 Y64.2247 I-7.7649 J7.7469
G2 X4.8419 Y67.4462 I-0.0133 J10.9682
G2 X4.6201 Y67.6741 I7.7472 J7.7653
G1 Y63.8203
G2 X8.3554 Y59.8169 I-0.2777 J-4.0035
G1 Y59.8167
G2 X4.6201 Y55.8133 I-4.0134 J0.0003
G1 Y15.4943
G2 X4.62 Y15.4921 I-1.5 J0.0
G3 X6.2375 Y10.6725 I7.9535 J-0.0119
G2 X6.2385 Y10.6712 I-1.1949 J-0.9067
G3 X8.9102 Y8.4086 I6.3923 J4.8393
G2 X12.7938 Y10.913 I3.8837 J-1.7591
G2 X16.6056 Y8.5593 I0.0001 J-4.2633
G3 X19.0928 Y10.7938 I-4.0007 J6.9546
G2 X19.0937 Y10.795 I1.213 J-0.8825
G3 X20.6201 Y15.492 I-6.4259 J4.6848
G2 Y15.4943 I1.5 J0.0023
G1 Y55.8361
G2 X17.1161 Y59.8168 I0.5092 J3.9807
G1 Y59.8169
G1 Y59.8167
G1 F50.0 Z-4.5
G1 F150.0 Y59.8168
G2 X20.6201 Y63.7975 I4.0129 J0.0002
G1 Y67.6743
G2 X20.3981 Y67.4463 I-7.9716 J7.5386
G2 X12.6199 Y64.2247 I-7.7649 J7.7469
G2 X4.8419 Y67.4462 I-0.0133 J10.9682
G2 X4.6201 Y67.6741 I7.7472 J7.7653
G1 Y63.8203
G2 X8.3554 Y59.8169 I-0.2777 J-4.0035
G1 Y59.8167
G2 X4.6201 Y55.8133 I-4.0134 J0.0003
G1 Y15.4943
G2 X4.62 Y15.4921 I-1.5 J0.0
G3 X6.2375 Y10.6725 I7.9535 J-0.0119
G2 X6.2385 Y10.6712 I-1.1949 J-0.9067
G3 X8.9102 Y8.4086 I6.3923 J4.8393
G2 X12.7938 Y10.913 I3.8837 J-1.7591
G2 X16.6056 Y8.5593 I0.0001 J-4.2633
G3 X19.0928 Y10.7938 I-4.0007 J6.9546
G2 X19.0937 Y10.795 I1.213 J-0.8825
G3 X20.6201 Y15.492 I-6.4259 J4.6848
G2 Y15.4943 I1.5 J0.0023
G1 Y55.8361
G2 X17.1161 Y59.8168 I0.5092 J3.9807
G1 Y59.8169
G1 Y59.8167
G1 F50.0 Z-6.0
G1 F150.0 Y59.8168
G2 X20.6201 Y63.7975 I4.0129 J0.0002
G1 Y67.6743
G2 X20.3981 Y67.4463 I-7.9716 J7.5386
G2 X12.6199 Y64.2247 I-7.7649 J7.7469
G2 X4.8419 Y67.4462 I-0.0133 J10.9682
G2 X4.6201 Y67.6741 I7.7472 J7.7653
G1 Y63.8203
G2 X8.3554 Y59.8169 I-0.2777 J-4.0035
G1 Y59.8167
G2 X4.6201 Y55.8133 I-4.0134 J0.0003
G1 Y15.4943
G2 X4.62 Y15.4921 I-1.5 J0.0
G3 X6.2375 Y10.6725 I7.9535 J-0.0119
G2 X6.2385 Y10.6712 I-1.1949 J-0.9067
G3 X8.9102 Y8.4086 I6.3923 J4.8393
G2 X12.7938 Y10.913 I3.8837 J-1.7591
G2 X16.6056 Y8.5593 I0.0001 J-4.2633
G3 X19.0928 Y10.7938 I-4.0007 J6.9546
G2 X19.0937 Y10.795 I1.213 J-0.8825
G3 X20.6201 Y15.492 I-6.4259 J4.6848
G2 Y15.4943 I1.5 J0.0023
G1 Y55.8361
G2 X17.1161 Y59.8168 I0.5092 J3.9807
G1 Y59.8169
G1 Y59.8167
G1 F50.0 Z-7.5
G1 F150.0 Y59.8168
G2 X20.6201 Y63.7975 I4.0129 J0.0002
G1 Y67.6743
G2 X20.3981 Y67.4463 I-7.9716 J7.5386
G2 X12.6199 Y64.2247 I-7.7649 J7.7469
G2 X4.8419 Y67.4462 I-0.0133 J10.9682
G2 X4.6201 Y67.6741 I7.7472 J7.7653
G1 Y63.8203
G2 X8.3554 Y59.8169 I-0.2777 J-4.0035
G1 Y59.8167
G2 X4.6201 Y55.8133 I-4.0134 J0.0003
G1 Y15.4943
G2 X4.62 Y15.4921 I-1.5 J0.0
G3 X6.2375 Y10.6725 I7.9535 J-0.0119
G2 X6.2385 Y10.6712 I-1.1949 J-0.9067
G3 X8.9102 Y8.4086 I6.3923 J4.8393
G2 X12.7938 Y10.913 I3.8837 J-1.7591
G2 X16.6056 Y8.5593 I0.0001 J-4.2633
G3 X19.0928 Y10.7938 I-4.0007 J6.9546
G2 X19.0937 Y10.795 I1.213 J-0.8825
G3 X20.6201 Y15.492 I-6.4259 J4.6848
G2 Y15.4943 I1.5 J0.0023
G1 Y55.8361
G2 X17.1161 Y59.8168 I0.5092 J3.9807
G1 Y59.8169
G1 Y59.8167
G1 F50.0 Z-9.0
G1 F150.0 Y59.8168
G2 X20.6201 Y63.7975 I4.0129 J0.0002
G1 Y67.6743
G2 X20.3981 Y67.4463 I-7.9716 J7.5386
G2 X12.6199 Y64.2247 I-7.7649 J7.7469
G2 X4.8419 Y67.4462 I-0.0133 J10.9682
G2 X4.6201 Y67.6741 I7.7472 J7.7653
G1 Y63.8203
G2 X8.3554 Y59.8169 I-0.2777 J-4.0035
G1 Y59.8167
G2 X4.6201 Y55.8133 I-4.0134 J0.0003
G1 Y15.4943
G2 X4.62 Y15.4921 I-1.5 J0.0
G3 X6.2375 Y10.6725 I7.9535 J-0.0119
G2 X6.2385 Y10.6712 I-1.1949 J-0.9067
G3 X8.9102 Y8.4086 I6.3923 J4.8393
G2 X12.7938 Y10.913 I3.8837 J-1.7591
G2 X16.6056 Y8.5593 I0.0001 J-4.2633
G3 X19.0928 Y10.7938 I-4.0007 J6.9546
G2 X19.0937 Y10.795 I1.213 J-0.8825
G3 X20.6201 Y15.492 I-6.4259 J4.6848
G2 Y15.4943 I1.5 J0.0023
G1 Y55.8361
G2 X17.1161 Y59.8168 I0.5092 J3.9807
G1 Y59.8169
G1 Y59.8167
G1 F50.0 Z-10.5
G1 F150.0 Y59.8168
G2 X20.6201 Y63.7975 I4.0129 J0.0002
G1 Y67.6743
G2 X20.3981 Y67.4463 I-7.9716 J7.5386
G2 X12.6199 Y64.2247 I-7.7649 J7.7469
G2 X4.8419 Y67.4462 I-0.0133 J10.9682
G2 X4.6201 Y67.6741 I7.7472 J7.7653
G1 Y63.8203
G2 X8.3554 Y59.8169 I-0.2777 J-4.0035
G1 Y59.8167
G2 X4.6201 Y55.8133 I-4.0134 J0.0003
G1 Y15.4943
G2 X4.62 Y15.4921 I-1.5 J0.0
G3 X6.2375 Y10.6725 I7.9535 J-0.0119
G2 X6.2385 Y10.6712 I-1.1949 J-0.9067
G3 X8.9102 Y8.4086 I6.3923 J4.8393
G2 X12.7938 Y10.913 I3.8837 J-1.7591
G2 X16.6056 Y8.5593 I0.0001 J-4.2633
G3 X19.0928 Y10.7938 I-4.0007 J6.9546
G2 X19.0937 Y10.795 I1.213 J-0.8825
G3 X20.6201 Y15.492 I-6.4259 J4.6848
G2 Y15.4943 I1.5 J0.0023
G1 Y55.8361
G2 X17.1161 Y59.8168 I0.5092 J3.9807
G1 Y59.8169
G1 Y59.8167
G1 F50.0 Z-12.0
G1 F150.0 Y59.8168
G2 X20.6201 Y63.7975 I4.0129 J0.0002
G1 Y67.6743
G2 X20.3981 Y67.4463 I-7.9716 J7.5386
G2 X12.6199 Y64.2247 I-7.7649 J7.7469
G2 X4.8419 Y67.4462 I-0.0133 J10.9682
G2 X4.6201 Y67.6741 I7.7472 J7.7653
G1 Y63.8203
G2 X8.3554 Y59.8169 I-0.2777 J-4.0035
G1 Y59.8167
G2 X4.6201 Y55.8133 I-4.0134 J0.0003
G1 Y15.4943
G2 X4.62 Y15.4921 I-1.5 J0.0
G3 X6.2375 Y10.6725 I7.9535 J-0.0119
G2 X6.2385 Y10.6712 I-1.1949 J-0.9067
G3 X8.9102 Y8.4086 I6.3923 J4.8393
G2 X12.7938 Y10.913 I3.8837 J-1.7591
G2 X16.6056 Y8.5593 I0.0001 J-4.2633
G3 X19.0928 Y10.7938 I-4.0007 J6.9546
G2 X19.0937 Y10.795 I1.213 J-0.8825
G3 X20.6201 Y15.492 I-6.4259 J4.6848
G2 Y15.4943 I1.5 J0.0023
G1 Y55.8361
G2 X17.1161 Y59.8168 I0.5092 J3.9807
G1 Y59.8169
G1 Y59.8167
G1 F50.0 Z-13.5
G1 F150.0 Y59.8168
G2 X20.6201 Y63.7975 I4.0129 J0.0002
G1 Y67.6743
G2 X20.3981 Y67.4463 I-7.9716 J7.5386
G2 X12.6199 Y64.2247 I-7.7649 J7.7469
G2 X4.8419 Y67.4462 I-0.0133 J10.9682
G2 X4.6201 Y67.6741 I7.7472 J7.7653
G1 Y63.8203
G2 X8.3554 Y59.8169 I-0.2777 J-4.0035
G1 Y59.8167
G2 X4.6201 Y55.8133 I-4.0134 J0.0003
G1 Y15.4943
G2 X4.62 Y15.4921 I-1.5 J0.0
G3 X6.2375 Y10.6725 I7.9535 J-0.0119
G2 X6.2385 Y10.6712 I-1.1949 J-0.9067
G3 X8.9102 Y8.4086 I6.3923 J4.8393
G2 X12.7938 Y10.913 I3.8837 J-1.7591
G2 X16.6056 Y8.5593 I0.0001 J-4.2633
G3 X19.0928 Y10.7938 I-4.0007 J6.9546
G2 X19.0937 Y10.795 I1.213 J-0.8825
G3 X20.6201 Y15.492 I-6.4259 J4.6848
G2 Y15.4943 I1.5 J0.0023
G1 Y55.8361
G2 X17.1161 Y59.8168 I0.5092 J3.9807
G1 Y59.8169
G1 Y59.8167
G1 F50.0 Z-15.0
G1 F150.0 Y59.8168
G2 X20.6201 Y63.7975 I4.0129 J0.0002
G1 Y67.6743
G2 X20.3981 Y67.4463 I-7.9716 J7.5386
G2 X12.6199 Y64.2247 I-7.7649 J7.7469
G2 X4.8419 Y67.4462 I-0.0133 J10.9682
G2 X4.6201 Y67.6741 I7.7472 J7.7653
G1 Y63.8203
G2 X8.3554 Y59.8169 I-0.2777 J-4.0035
G1 Y59.8167
G2 X4.6201 Y55.8133 I-4.0134 J0.0003
G1 Y15.4943
G2 X4.62 Y15.4921 I-1.5 J0.0
G3 X6.2375 Y10.6725 I7.9535 J-0.0119
G2 X6.2385 Y10.6712 I-1.1949 J-0.9067
G3 X8.9102 Y8.4086 I6.3923 J4.8393
G2 X12.7938 Y10.913 I3.8837 J-1.7591
G2 X16.6056 Y8.5593 I0.0001 J-4.2633
G3 X19.0928 Y10.7938 I-4.0007 J6.9546
G2 X19.0937 Y10.795 I1.213 J-0.8825
G3 X20.6201 Y15.492 I-6.4259 J4.6848
G2 Y15.4943 I1.5 J0.0023
G1 Y55.8361
G2 X17.1161 Y59.8168 I0.5092 J3.9807
G1 Y59.8169
G1 Y59.8167
G1 F50.0 Z-16.5
G1 F150.0 Y59.8168
G2 X20.6201 Y63.7975 I4.0129 J0.0002
G1 Y67.6743
G2 X20.3981 Y67.4463 I-7.9716 J7.5386
G2 X12.6199 Y64.2247 I-7.7649 J7.7469
G2 X4.8419 Y67.4462 I-0.0133 J10.9682
G2 X4.6201 Y67.6741 I7.7472 J7.7653
G1 Y63.8203
G2 X8.3554 Y59.8169 I-0.2777 J-4.0035
G1 Y59.8167
G2 X4.6201 Y55.8133 I-4.0134 J0.0003
G1 Y15.4943
G2 X4.62 Y15.4921 I-1.5 J0.0
G3 X6.2375 Y10.6725 I7.9535 J-0.0119
G2 X6.2385 Y10.6712 I-1.1949 J-0.9067
G3 X8.9102 Y8.4086 I6.3923 J4.8393
G2 X12.7938 Y10.913 I3.8837 J-1.7591
G2 X16.6056 Y8.5593 I0.0001 J-4.2633
G3 X19.0928 Y10.7938 I-4.0007 J6.9546
G2 X19.0937 Y10.795 I1.213 J-0.8825
G3 X20.6201 Y15.492 I-6.4259 J4.6848
G2 Y15.4943 I1.5 J0.0023
G1 Y55.8361
G2 X17.1161 Y59.8168 I0.5092 J3.9807
G1 Y59.8169
G1 Y59.8167
G1 F50.0 Z-18.0
G1 F150.0 Y59.8168
G2 X20.6201 Y63.7975 I4.0129 J0.0002
G1 Y67.6743
G2 X20.3981 Y67.4463 I-7.9716 J7.5386
G2 X12.6199 Y64.2247 I-7.7649 J7.7469
G2 X4.8419 Y67.4462 I-0.0133 J10.9682
G2 X4.6201 Y67.6741 I7.7472 J7.7653
G1 Y63.8203
G2 X8.3554 Y59.8169 I-0.2777 J-4.0035
G1 Y59.8167
G2 X4.6201 Y55.8133 I-4.0134 J0.0003
G1 Y15.4943
G2 X4.62 Y15.4921 I-1.5 J0.0
G3 X6.2375 Y10.6725 I7.9535 J-0.0119
G2 X6.2385 Y10.6712 I-1.1949 J-0.9067
G3 X8.9102 Y8.4086 I6.3923 J4.8393
G2 X12.7938 Y10.913 I3.8837 J-1.7591
G2 X16.6056 Y8.5593 I0.0001 J-4.2633
G3 X19.0928 Y10.7938 I-4.0007 J6.9546
G2 X19.0937 Y10.795 I1.213 J-0.8825
G3 X20.6201 Y15.492 I-6.4259 J4.6848
G2 Y15.4943 I1.5 J0.0023
G1 Y55.8361
G2 X17.1161 Y59.8168 I0.5092 J3.9807
G1 Y59.8169
G1 Y59.8167
G0 Z3.0
M5
M30
