( Made using CamBam - http://www.cambam.co.uk )
( nut block 11/18/2013 6:09:55 PM )
( T4 : 4.0 )
G21 G90 G91.1 G64 G40
G0 Z3.0
( T4 : 4.0 )
T4 M6
( 4mm mill cutout )
G17
M3 S1000
G0 X22.0007 Y-2.0
G0 Z1.0
G1 F25.0 Z-1.0
G1 F150.0 X0.0
G2 X-2.0 Y0.0 I0.0 J2.0
G1 Y12.0
G2 X0.0 Y14.0 I2.0 J0.0
G1 X22.0007
G2 X24.0007 Y12.0 I0.0 J-2.0
G1 Y0.0
G2 X22.0007 Y-2.0 I-2.0 J0.0
G1 F25.0 Z-2.0
G1 F150.0 X0.0
G2 X-2.0 Y0.0 I0.0 J2.0
G1 Y12.0
G2 X0.0 Y14.0 I2.0 J0.0
G1 X22.0007
G2 X24.0007 Y12.0 I0.0 J-2.0
G1 Y0.0
G2 X22.0007 Y-2.0 I-2.0 J0.0
G1 F25.0 Z-3.0
G1 F150.0 X0.0
G2 X-2.0 Y0.0 I0.0 J2.0
G1 Y12.0
G2 X0.0 Y14.0 I2.0 J0.0
G1 X22.0007
G2 X24.0007 Y12.0 I0.0 J-2.0
G1 Y0.0
G2 X22.0007 Y-2.0 I-2.0 J0.0
G1 F25.0 Z-4.0
G1 F150.0 X0.0
G2 X-2.0 Y0.0 I0.0 J2.0
G1 Y12.0
G2 X0.0 Y14.0 I2.0 J0.0
G1 X22.0007
G2 X24.0007 Y12.0 I0.0 J-2.0
G1 Y0.0
G2 X22.0007 Y-2.0 I-2.0 J0.0
G1 F25.0 Z-5.0
G1 F150.0 X0.0
G2 X-2.0 Y0.0 I0.0 J2.0
G1 Y12.0
G2 X0.0 Y14.0 I2.0 J0.0
G1 X22.0007
G2 X24.0007 Y12.0 I0.0 J-2.0
G1 Y0.0
G2 X22.0007 Y-2.0 I-2.0 J0.0
G1 F25.0 Z-6.0
G1 F150.0 X0.0
G2 X-2.0 Y0.0 I0.0 J2.0
G1 Y12.0
G2 X0.0 Y14.0 I2.0 J0.0
G1 X22.0007
G2 X24.0007 Y12.0 I0.0 J-2.0
G1 Y0.0
G2 X22.0007 Y-2.0 I-2.0 J0.0
G1 F25.0 Z-7.0
G1 F150.0 X0.0
G2 X-2.0 Y0.0 I0.0 J2.0
G1 Y12.0
G2 X0.0 Y14.0 I2.0 J0.0
G1 X22.0007
G2 X24.0007 Y12.0 I0.0 J-2.0
G1 Y0.0
G2 X22.0007 Y-2.0 I-2.0 J0.0
G1 F25.0 Z-8.0
G1 F150.0 X0.0
G2 X-2.0 Y0.0 I0.0 J2.0
G1 Y12.0
G2 X0.0 Y14.0 I2.0 J0.0
G1 X22.0007
G2 X24.0007 Y12.0 I0.0 J-2.0
G1 Y0.0
G2 X22.0007 Y-2.0 I-2.0 J0.0
G1 F25.0 Z-9.0
G1 F150.0 X0.0
G2 X-2.0 Y0.0 I0.0 J2.0
G1 Y12.0
G2 X0.0 Y14.0 I2.0 J0.0
G1 X22.0007
G2 X24.0007 Y12.0 I0.0 J-2.0
G1 Y0.0
G2 X22.0007 Y-2.0 I-2.0 J0.0
G1 F25.0 Z-10.0
G1 F150.0 X0.0
G2 X-2.0 Y0.0 I0.0 J2.0
G1 Y12.0
G2 X0.0 Y14.0 I2.0 J0.0
G1 X22.0007
G2 X24.0007 Y12.0 I0.0 J-2.0
G1 Y0.0
G2 X22.0007 Y-2.0 I-2.0 J0.0
G1 F25.0 Z-11.0
G1 F150.0 X0.0
G2 X-2.0 Y0.0 I0.0 J2.0
G1 Y12.0
G2 X0.0 Y14.0 I2.0 J0.0
G1 X22.0007
G2 X24.0007 Y12.0 I0.0 J-2.0
G1 Y0.0
G2 X22.0007 Y-2.0 I-2.0 J0.0
G0 Z3.0
M5
M30
