( Made using CamBam - http://www.cambam.co.uk )
( picker head - top motor mount 9/2/2013 11:21:26 AM )
( T8 : 2.0 )
G21 G90 G64 G40
G0 Z3.0
( T8 : 2.0 )
T8 M6
( 2mm Drill )
G17
M3 S1000
G0 X2.0002 Y17.9999
G98
G83 X2.0002 Y17.9999 Z-5.0 Q1.0 R2.0 F50.0
G83 X17.9999 Y18.0583 Z-5.0
G83 X32.0001 Y17.9999 Z-5.0
G83 X47.9998 Y18.0583 Z-5.0
G83 Y2.0001 Z-5.0
G83 X32.0001 Z-5.0
G83 X17.9999 Z-5.0
G83 X2.0002 Z-5.0
G80
G0 Z3.0
M5
M30
