( Made using CamBam - http://www.cambam.co.uk )
( picker head - top motor mount 9/2/2013 11:21:40 AM )
( T2 : 2.0 )
G21 G90 G64 G40
G0 Z3.0
( T2 : 2.0 )
T2 M6
( 2mm mill pocket )
G17
M3 S1000
G0 X10.064 Y48.1592
G0 Z1.0
G1 F40.0 Z-0.5
G2 F50.0 X10.1638 Y48.0595 I0.0 J-0.0998
G1 Y48.0593
G1 Y42.0597
G2 X10.0638 Y41.9595 I-0.1003 J0.0001
G2 X9.9638 Y42.0597 I0.0003 J0.1003
G1 Y48.059
G2 X10.064 Y48.1592 I0.1003 J-0.0001
G1 X10.0641
G1 X10.064
G1 F40.0 X10.0637 Y48.5592
G2 F50.0 X10.064 I0.0004 J-0.5003
G2 X10.5638 Y48.0594 I0.0001 J-0.4998
G1 Y48.0593
G1 Y42.0596
G2 X10.0638 Y41.5595 I-0.5003 J0.0002
G2 X9.5638 Y42.0596 I0.0003 J0.5003
G1 Y48.0591
G2 X10.0637 Y48.5592 I0.5003 J-0.0002
G1 F40.0 X10.064 Y48.1592
G1 Z-1.0
G2 F50.0 X10.1638 Y48.0595 I0.0 J-0.0998
G1 Y48.0593
G1 Y42.0597
G2 X10.0638 Y41.9595 I-0.1003 J0.0001
G2 X9.9638 Y42.0597 I0.0003 J0.1003
G1 Y48.059
G2 X10.064 Y48.1592 I0.1003 J-0.0001
G1 X10.0641
G1 X10.064
G1 F40.0 X10.0637 Y48.5592
G2 F50.0 X10.064 I0.0004 J-0.5003
G2 X10.5638 Y48.0594 I0.0001 J-0.4998
G1 Y48.0593
G1 Y42.0596
G2 X10.0638 Y41.5595 I-0.5003 J0.0002
G2 X9.5638 Y42.0596 I0.0003 J0.5003
G1 Y48.0591
G2 X10.0637 Y48.5592 I0.5003 J-0.0002
G1 F40.0 X10.064 Y48.1592
G1 Z-1.5
G2 F50.0 X10.1638 Y48.0595 I0.0 J-0.0998
G1 Y48.0593
G1 Y42.0597
G2 X10.0638 Y41.9595 I-0.1003 J0.0001
G2 X9.9638 Y42.0597 I0.0003 J0.1003
G1 Y48.059
G2 X10.064 Y48.1592 I0.1003 J-0.0001
G1 X10.0641
G1 X10.064
G1 F40.0 X10.0637 Y48.5592
G2 F50.0 X10.064 I0.0004 J-0.5003
G2 X10.5638 Y48.0594 I0.0001 J-0.4998
G1 Y48.0593
G1 Y42.0596
G2 X10.0638 Y41.5595 I-0.5003 J0.0002
G2 X9.5638 Y42.0596 I0.0003 J0.5003
G1 Y48.0591
G2 X10.0637 Y48.5592 I0.5003 J-0.0002
G1 F40.0 X10.064 Y48.1592
G1 Z-2.0
G2 F50.0 X10.1638 Y48.0595 I0.0 J-0.0998
G1 Y48.0593
G1 Y42.0597
G2 X10.0638 Y41.9595 I-0.1003 J0.0001
G2 X9.9638 Y42.0597 I0.0003 J0.1003
G1 Y48.059
G2 X10.064 Y48.1592 I0.1003 J-0.0001
G1 X10.0641
G1 X10.064
G1 F40.0 X10.0637 Y48.5592
G2 F50.0 X10.064 I0.0004 J-0.5003
G2 X10.5638 Y48.0594 I0.0001 J-0.4998
G1 Y48.0593
G1 Y42.0596
G2 X10.0638 Y41.5595 I-0.5003 J0.0002
G2 X9.5638 Y42.0596 I0.0003 J0.5003
G1 Y48.0591
G2 X10.0637 Y48.5592 I0.5003 J-0.0002
G1 F40.0 X10.064 Y48.1592
G1 Z-2.5
G2 F50.0 X10.1638 Y48.0595 I0.0 J-0.0998
G1 Y48.0593
G1 Y42.0597
G2 X10.0638 Y41.9595 I-0.1003 J0.0001
G2 X9.9638 Y42.0597 I0.0003 J0.1003
G1 Y48.059
G2 X10.064 Y48.1592 I0.1003 J-0.0001
G1 X10.0641
G1 X10.064
G1 F40.0 X10.0637 Y48.5592
G2 F50.0 X10.064 I0.0004 J-0.5003
G2 X10.5638 Y48.0594 I0.0001 J-0.4998
G1 Y48.0593
G1 Y42.0596
G2 X10.0638 Y41.5595 I-0.5003 J0.0002
G2 X9.5638 Y42.0596 I0.0003 J0.5003
G1 Y48.0591
G2 X10.0637 Y48.5592 I0.5003 J-0.0002
G1 F40.0 X10.064 Y48.1592
G1 Z-3.0
G2 F50.0 X10.1638 Y48.0595 I0.0 J-0.0998
G1 Y48.0593
G1 Y42.0597
G2 X10.0638 Y41.9595 I-0.1003 J0.0001
G2 X9.9638 Y42.0597 I0.0003 J0.1003
G1 Y48.059
G2 X10.064 Y48.1592 I0.1003 J-0.0001
G1 X10.0641
G1 X10.064
G1 F40.0 X10.0637 Y48.5592
G2 F50.0 X10.064 I0.0004 J-0.5003
G2 X10.5638 Y48.0594 I0.0001 J-0.4998
G1 Y48.0593
G1 Y42.0596
G2 X10.0638 Y41.5595 I-0.5003 J0.0002
G2 X9.5638 Y42.0596 I0.0003 J0.5003
G1 Y48.0591
G2 X10.0637 Y48.5592 I0.5003 J-0.0002
G1 F40.0 X10.064 Y48.1592
G1 Z-3.5
G2 F50.0 X10.1638 Y48.0595 I0.0 J-0.0998
G1 Y48.0593
G1 Y42.0597
G2 X10.0638 Y41.9595 I-0.1003 J0.0001
G2 X9.9638 Y42.0597 I0.0003 J0.1003
G1 Y48.059
G2 X10.064 Y48.1592 I0.1003 J-0.0001
G1 X10.0641
G1 X10.064
G1 F40.0 X10.0637 Y48.5592
G2 F50.0 X10.064 I0.0004 J-0.5003
G2 X10.5638 Y48.0594 I0.0001 J-0.4998
G1 Y48.0593
G1 Y42.0596
G2 X10.0638 Y41.5595 I-0.5003 J0.0002
G2 X9.5638 Y42.0596 I0.0003 J0.5003
G1 Y48.0591
G2 X10.0637 Y48.5592 I0.5003 J-0.0002
G1 F40.0 X10.064 Y48.1592
G1 Z-4.0
G2 F50.0 X10.1638 Y48.0595 I0.0 J-0.0998
G1 Y48.0593
G1 Y42.0597
G2 X10.0638 Y41.9595 I-0.1003 J0.0001
G2 X9.9638 Y42.0597 I0.0003 J0.1003
G1 Y48.059
G2 X10.064 Y48.1592 I0.1003 J-0.0001
G1 X10.0641
G1 X10.064
G1 F40.0 X10.0637 Y48.5592
G2 F50.0 X10.064 I0.0004 J-0.5003
G2 X10.5638 Y48.0594 I0.0001 J-0.4998
G1 Y48.0593
G1 Y42.0596
G2 X10.0638 Y41.5595 I-0.5003 J0.0002
G2 X9.5638 Y42.0596 I0.0003 J0.5003
G1 Y48.0591
G2 X10.0637 Y48.5592 I0.5003 J-0.0002
G1 F40.0 X10.064 Y48.1592
G1 Z-4.5
G2 F50.0 X10.1638 Y48.0595 I0.0 J-0.0998
G1 Y48.0593
G1 Y42.0597
G2 X10.0638 Y41.9595 I-0.1003 J0.0001
G2 X9.9638 Y42.0597 I0.0003 J0.1003
G1 Y48.059
G2 X10.064 Y48.1592 I0.1003 J-0.0001
G1 X10.0641
G1 X10.064
G1 F40.0 X10.0637 Y48.5592
G2 F50.0 X10.064 I0.0004 J-0.5003
G2 X10.5638 Y48.0594 I0.0001 J-0.4998
G1 Y48.0593
G1 Y42.0596
G2 X10.0638 Y41.5595 I-0.5003 J0.0002
G2 X9.5638 Y42.0596 I0.0003 J0.5003
G1 Y48.0591
G2 X10.0637 Y48.5592 I0.5003 J-0.0002
G0 Z3.0
G0 X24.9569 Y48.0621
G0 Z1.0
G1 F40.0 Z-0.5
G2 F50.0 X25.0571 Y48.1591 I0.1002 J-0.0033
G2 X25.1569 Y48.0593 I0.0 J-0.0998
G1 Y48.0591
G1 Y42.0595
G2 X25.0568 Y41.9593 I-0.1003 J0.0001
G2 X24.9569 Y42.0595 I0.0003 J0.1003
G1 Y48.0589
G2 Y48.0621 I0.1003 J-0.0001
G1 F40.0 X24.5572 Y48.0755
G2 F50.0 X25.057 Y48.5591 I0.5 J-0.0167
G1 X25.0571
G1 X25.057
G2 X25.5569 Y48.0592 I0.0001 J-0.4998
G1 Y48.0591
G1 Y42.0594
G2 X25.0568 Y41.5593 I-0.5003 J0.0002
G2 X24.5569 Y42.0594 I0.0003 J0.5003
G1 Y48.059
G2 X24.5572 Y48.0755 I0.5003 J-0.0002
G1 F40.0 X24.9569 Y48.0621
G1 Z-1.0
G2 F50.0 X25.0571 Y48.1591 I0.1002 J-0.0033
G2 X25.1569 Y48.0593 I0.0 J-0.0998
G1 Y48.0591
G1 Y42.0595
G2 X25.0568 Y41.9593 I-0.1003 J0.0001
G2 X24.9569 Y42.0595 I0.0003 J0.1003
G1 Y48.0589
G2 Y48.0621 I0.1003 J-0.0001
G1 F40.0 X24.5572 Y48.0755
G2 F50.0 X25.057 Y48.5591 I0.5 J-0.0167
G1 X25.0571
G1 X25.057
G2 X25.5569 Y48.0592 I0.0001 J-0.4998
G1 Y48.0591
G1 Y42.0594
G2 X25.0568 Y41.5593 I-0.5003 J0.0002
G2 X24.5569 Y42.0594 I0.0003 J0.5003
G1 Y48.059
G2 X24.5572 Y48.0755 I0.5003 J-0.0002
G1 F40.0 X24.9569 Y48.0621
G1 Z-1.5
G2 F50.0 X25.0571 Y48.1591 I0.1002 J-0.0033
G2 X25.1569 Y48.0593 I0.0 J-0.0998
G1 Y48.0591
G1 Y42.0595
G2 X25.0568 Y41.9593 I-0.1003 J0.0001
G2 X24.9569 Y42.0595 I0.0003 J0.1003
G1 Y48.0589
G2 Y48.0621 I0.1003 J-0.0001
G1 F40.0 X24.5572 Y48.0755
G2 F50.0 X25.057 Y48.5591 I0.5 J-0.0167
G1 X25.0571
G1 X25.057
G2 X25.5569 Y48.0592 I0.0001 J-0.4998
G1 Y48.0591
G1 Y42.0594
G2 X25.0568 Y41.5593 I-0.5003 J0.0002
G2 X24.5569 Y42.0594 I0.0003 J0.5003
G1 Y48.059
G2 X24.5572 Y48.0755 I0.5003 J-0.0002
G1 F40.0 X24.9569 Y48.0621
G1 Z-2.0
G2 F50.0 X25.0571 Y48.1591 I0.1002 J-0.0033
G2 X25.1569 Y48.0593 I0.0 J-0.0998
G1 Y48.0591
G1 Y42.0595
G2 X25.0568 Y41.9593 I-0.1003 J0.0001
G2 X24.9569 Y42.0595 I0.0003 J0.1003
G1 Y48.0589
G2 Y48.0621 I0.1003 J-0.0001
G1 F40.0 X24.5572 Y48.0755
G2 F50.0 X25.057 Y48.5591 I0.5 J-0.0167
G1 X25.0571
G1 X25.057
G2 X25.5569 Y48.0592 I0.0001 J-0.4998
G1 Y48.0591
G1 Y42.0594
G2 X25.0568 Y41.5593 I-0.5003 J0.0002
G2 X24.5569 Y42.0594 I0.0003 J0.5003
G1 Y48.059
G2 X24.5572 Y48.0755 I0.5003 J-0.0002
G1 F40.0 X24.9569 Y48.0621
G1 Z-2.5
G2 F50.0 X25.0571 Y48.1591 I0.1002 J-0.0033
G2 X25.1569 Y48.0593 I0.0 J-0.0998
G1 Y48.0591
G1 Y42.0595
G2 X25.0568 Y41.9593 I-0.1003 J0.0001
G2 X24.9569 Y42.0595 I0.0003 J0.1003
G1 Y48.0589
G2 Y48.0621 I0.1003 J-0.0001
G1 F40.0 X24.5572 Y48.0755
G2 F50.0 X25.057 Y48.5591 I0.5 J-0.0167
G1 X25.0571
G1 X25.057
G2 X25.5569 Y48.0592 I0.0001 J-0.4998
G1 Y48.0591
G1 Y42.0594
G2 X25.0568 Y41.5593 I-0.5003 J0.0002
G2 X24.5569 Y42.0594 I0.0003 J0.5003
G1 Y48.059
G2 X24.5572 Y48.0755 I0.5003 J-0.0002
G1 F40.0 X24.9569 Y48.0621
G1 Z-3.0
G2 F50.0 X25.0571 Y48.1591 I0.1002 J-0.0033
G2 X25.1569 Y48.0593 I0.0 J-0.0998
G1 Y48.0591
G1 Y42.0595
G2 X25.0568 Y41.9593 I-0.1003 J0.0001
G2 X24.9569 Y42.0595 I0.0003 J0.1003
G1 Y48.0589
G2 Y48.0621 I0.1003 J-0.0001
G1 F40.0 X24.5572 Y48.0755
G2 F50.0 X25.057 Y48.5591 I0.5 J-0.0167
G1 X25.0571
G1 X25.057
G2 X25.5569 Y48.0592 I0.0001 J-0.4998
G1 Y48.0591
G1 Y42.0594
G2 X25.0568 Y41.5593 I-0.5003 J0.0002
G2 X24.5569 Y42.0594 I0.0003 J0.5003
G1 Y48.059
G2 X24.5572 Y48.0755 I0.5003 J-0.0002
G1 F40.0 X24.9569 Y48.0621
G1 Z-3.5
G2 F50.0 X25.0571 Y48.1591 I0.1002 J-0.0033
G2 X25.1569 Y48.0593 I0.0 J-0.0998
G1 Y48.0591
G1 Y42.0595
G2 X25.0568 Y41.9593 I-0.1003 J0.0001
G2 X24.9569 Y42.0595 I0.0003 J0.1003
G1 Y48.0589
G2 Y48.0621 I0.1003 J-0.0001
G1 F40.0 X24.5572 Y48.0755
G2 F50.0 X25.057 Y48.5591 I0.5 J-0.0167
G1 X25.0571
G1 X25.057
G2 X25.5569 Y48.0592 I0.0001 J-0.4998
G1 Y48.0591
G1 Y42.0594
G2 X25.0568 Y41.5593 I-0.5003 J0.0002
G2 X24.5569 Y42.0594 I0.0003 J0.5003
G1 Y48.059
G2 X24.5572 Y48.0755 I0.5003 J-0.0002
G1 F40.0 X24.9569 Y48.0621
G1 Z-4.0
G2 F50.0 X25.0571 Y48.1591 I0.1002 J-0.0033
G2 X25.1569 Y48.0593 I0.0 J-0.0998
G1 Y48.0591
G1 Y42.0595
G2 X25.0568 Y41.9593 I-0.1003 J0.0001
G2 X24.9569 Y42.0595 I0.0003 J0.1003
G1 Y48.0589
G2 Y48.0621 I0.1003 J-0.0001
G1 F40.0 X24.5572 Y48.0755
G2 F50.0 X25.057 Y48.5591 I0.5 J-0.0167
G1 X25.0571
G1 X25.057
G2 X25.5569 Y48.0592 I0.0001 J-0.4998
G1 Y48.0591
G1 Y42.0594
G2 X25.0568 Y41.5593 I-0.5003 J0.0002
G2 X24.5569 Y42.0594 I0.0003 J0.5003
G1 Y48.059
G2 X24.5572 Y48.0755 I0.5003 J-0.0002
G1 F40.0 X24.9569 Y48.0621
G1 Z-4.5
G2 F50.0 X25.0571 Y48.1591 I0.1002 J-0.0033
G2 X25.1569 Y48.0593 I0.0 J-0.0998
G1 Y48.0591
G1 Y42.0595
G2 X25.0568 Y41.9593 I-0.1003 J0.0001
G2 X24.9569 Y42.0595 I0.0003 J0.1003
G1 Y48.0589
G2 Y48.0621 I0.1003 J-0.0001
G1 F40.0 X24.5572 Y48.0755
G2 F50.0 X25.057 Y48.5591 I0.5 J-0.0167
G1 X25.0571
G1 X25.057
G2 X25.5569 Y48.0592 I0.0001 J-0.4998
G1 Y48.0591
G1 Y42.0594
G2 X25.0568 Y41.5593 I-0.5003 J0.0002
G2 X24.5569 Y42.0594 I0.0003 J0.5003
G1 Y48.059
G2 X24.5572 Y48.0755 I0.5003 J-0.0002
G0 Z3.0
G0 X40.2352 Y48.0587
G0 Z1.0
G1 F40.0 Z-0.5
G2 F50.0 X40.3354 Y48.1589 I0.1003 J-0.0001
G2 X40.4352 Y48.0591 I0.0 J-0.0998
G1 Y48.0589
G1 Y42.0594
G2 X40.3351 Y41.9591 I-0.1003 J0.0001
G2 X40.2352 Y42.0593 I0.0003 J0.1003
G1 Y48.0587
G1 F40.0 X39.8352 Y48.0592
G2 F50.0 X40.3353 Y48.5589 I0.5003 J-0.0005
G1 X40.3354
G1 X40.3353
G2 X40.8352 Y48.0591 I0.0001 J-0.4998
G1 Y48.0589
G1 Y42.0593
G2 X40.3352 Y41.5591 I-0.5003 J0.0002
G2 X39.8352 Y42.0592 I0.0003 J0.5003
G1 Y48.0588
G2 Y48.0592 I0.5003 J-0.0002
G1 F40.0 X40.2352 Y48.0587
G1 Z-1.0
G2 F50.0 X40.3354 Y48.1589 I0.1003 J-0.0001
G2 X40.4352 Y48.0591 I0.0 J-0.0998
G1 Y48.0589
G1 Y42.0594
G2 X40.3351 Y41.9591 I-0.1003 J0.0001
G2 X40.2352 Y42.0593 I0.0003 J0.1003
G1 Y48.0587
G1 F40.0 X39.8352 Y48.0592
G2 F50.0 X40.3353 Y48.5589 I0.5003 J-0.0005
G1 X40.3354
G1 X40.3353
G2 X40.8352 Y48.0591 I0.0001 J-0.4998
G1 Y48.0589
G1 Y42.0593
G2 X40.3352 Y41.5591 I-0.5003 J0.0002
G2 X39.8352 Y42.0592 I0.0003 J0.5003
G1 Y48.0588
G2 Y48.0592 I0.5003 J-0.0002
G1 F40.0 X40.2352 Y48.0587
G1 Z-1.5
G2 F50.0 X40.3354 Y48.1589 I0.1003 J-0.0001
G2 X40.4352 Y48.0591 I0.0 J-0.0998
G1 Y48.0589
G1 Y42.0594
G2 X40.3351 Y41.9591 I-0.1003 J0.0001
G2 X40.2352 Y42.0593 I0.0003 J0.1003
G1 Y48.0587
G1 F40.0 X39.8352 Y48.0592
G2 F50.0 X40.3353 Y48.5589 I0.5003 J-0.0005
G1 X40.3354
G1 X40.3353
G2 X40.8352 Y48.0591 I0.0001 J-0.4998
G1 Y48.0589
G1 Y42.0593
G2 X40.3352 Y41.5591 I-0.5003 J0.0002
G2 X39.8352 Y42.0592 I0.0003 J0.5003
G1 Y48.0588
G2 Y48.0592 I0.5003 J-0.0002
G1 F40.0 X40.2352 Y48.0587
G1 Z-2.0
G2 F50.0 X40.3354 Y48.1589 I0.1003 J-0.0001
G2 X40.4352 Y48.0591 I0.0 J-0.0998
G1 Y48.0589
G1 Y42.0594
G2 X40.3351 Y41.9591 I-0.1003 J0.0001
G2 X40.2352 Y42.0593 I0.0003 J0.1003
G1 Y48.0587
G1 F40.0 X39.8352 Y48.0592
G2 F50.0 X40.3353 Y48.5589 I0.5003 J-0.0005
G1 X40.3354
G1 X40.3353
G2 X40.8352 Y48.0591 I0.0001 J-0.4998
G1 Y48.0589
G1 Y42.0593
G2 X40.3352 Y41.5591 I-0.5003 J0.0002
G2 X39.8352 Y42.0592 I0.0003 J0.5003
G1 Y48.0588
G2 Y48.0592 I0.5003 J-0.0002
G1 F40.0 X40.2352 Y48.0587
G1 Z-2.5
G2 F50.0 X40.3354 Y48.1589 I0.1003 J-0.0001
G2 X40.4352 Y48.0591 I0.0 J-0.0998
G1 Y48.0589
G1 Y42.0594
G2 X40.3351 Y41.9591 I-0.1003 J0.0001
G2 X40.2352 Y42.0593 I0.0003 J0.1003
G1 Y48.0587
G1 F40.0 X39.8352 Y48.0592
G2 F50.0 X40.3353 Y48.5589 I0.5003 J-0.0005
G1 X40.3354
G1 X40.3353
G2 X40.8352 Y48.0591 I0.0001 J-0.4998
G1 Y48.0589
G1 Y42.0593
G2 X40.3352 Y41.5591 I-0.5003 J0.0002
G2 X39.8352 Y42.0592 I0.0003 J0.5003
G1 Y48.0588
G2 Y48.0592 I0.5003 J-0.0002
G1 F40.0 X40.2352 Y48.0587
G1 Z-3.0
G2 F50.0 X40.3354 Y48.1589 I0.1003 J-0.0001
G2 X40.4352 Y48.0591 I0.0 J-0.0998
G1 Y48.0589
G1 Y42.0594
G2 X40.3351 Y41.9591 I-0.1003 J0.0001
G2 X40.2352 Y42.0593 I0.0003 J0.1003
G1 Y48.0587
G1 F40.0 X39.8352 Y48.0592
G2 F50.0 X40.3353 Y48.5589 I0.5003 J-0.0005
G1 X40.3354
G1 X40.3353
G2 X40.8352 Y48.0591 I0.0001 J-0.4998
G1 Y48.0589
G1 Y42.0593
G2 X40.3352 Y41.5591 I-0.5003 J0.0002
G2 X39.8352 Y42.0592 I0.0003 J0.5003
G1 Y48.0588
G2 Y48.0592 I0.5003 J-0.0002
G1 F40.0 X40.2352 Y48.0587
G1 Z-3.5
G2 F50.0 X40.3354 Y48.1589 I0.1003 J-0.0001
G2 X40.4352 Y48.0591 I0.0 J-0.0998
G1 Y48.0589
G1 Y42.0594
G2 X40.3351 Y41.9591 I-0.1003 J0.0001
G2 X40.2352 Y42.0593 I0.0003 J0.1003
G1 Y48.0587
G1 F40.0 X39.8352 Y48.0592
G2 F50.0 X40.3353 Y48.5589 I0.5003 J-0.0005
G1 X40.3354
G1 X40.3353
G2 X40.8352 Y48.0591 I0.0001 J-0.4998
G1 Y48.0589
G1 Y42.0593
G2 X40.3352 Y41.5591 I-0.5003 J0.0002
G2 X39.8352 Y42.0592 I0.0003 J0.5003
G1 Y48.0588
G2 Y48.0592 I0.5003 J-0.0002
G1 F40.0 X40.2352 Y48.0587
G1 Z-4.0
G2 F50.0 X40.3354 Y48.1589 I0.1003 J-0.0001
G2 X40.4352 Y48.0591 I0.0 J-0.0998
G1 Y48.0589
G1 Y42.0594
G2 X40.3351 Y41.9591 I-0.1003 J0.0001
G2 X40.2352 Y42.0593 I0.0003 J0.1003
G1 Y48.0587
G1 F40.0 X39.8352 Y48.0592
G2 F50.0 X40.3353 Y48.5589 I0.5003 J-0.0005
G1 X40.3354
G1 X40.3353
G2 X40.8352 Y48.0591 I0.0001 J-0.4998
G1 Y48.0589
G1 Y42.0593
G2 X40.3352 Y41.5591 I-0.5003 J0.0002
G2 X39.8352 Y42.0592 I0.0003 J0.5003
G1 Y48.0588
G2 Y48.0592 I0.5003 J-0.0002
G1 F40.0 X40.2352 Y48.0587
G1 Z-4.5
G2 F50.0 X40.3354 Y48.1589 I0.1003 J-0.0001
G2 X40.4352 Y48.0591 I0.0 J-0.0998
G1 Y48.0589
G1 Y42.0594
G2 X40.3351 Y41.9591 I-0.1003 J0.0001
G2 X40.2352 Y42.0593 I0.0003 J0.1003
G1 Y48.0587
G1 F40.0 X39.8352 Y48.0592
G2 F50.0 X40.3353 Y48.5589 I0.5003 J-0.0005
G1 X40.3354
G1 X40.3353
G2 X40.8352 Y48.0591 I0.0001 J-0.4998
G1 Y48.0589
G1 Y42.0593
G2 X40.3352 Y41.5591 I-0.5003 J0.0002
G2 X39.8352 Y42.0592 I0.0003 J0.5003
G1 Y48.0588
G2 Y48.0592 I0.5003 J-0.0002
G0 Z3.0
M5
M30
