( Made using CamBam - http://www.cambam.co.uk )
( picker head - top motor mount 9/2/2013 11:22:03 AM )
( T4 : 4.0 )
G21 G90 G64 G40
G0 Z3.0
( T4 : 4.0 )
T4 M6
( Pocket1 )
G17
M3 S1000
G0 X10.0639 Y48.2594
G0 Z1.0
G1 F300.0 Z-1.0
G3 F800.0 X9.8638 Y48.059 I0.0005 J-0.2006
G1 Y42.06
G3 X10.0641 Y41.8596 I0.2006 J0.0001
G3 X10.2638 Y42.0595 I-0.0002 J0.1999
G1 Y42.0596
G1 Y48.0591
G1 Y48.0594
G1 Y48.0591
G3 X10.0639 Y48.2594 I-0.2004 J-0.0001
G1 F300.0 X10.0658 Y49.0594
G3 F800.0 X10.0639 I-0.0023 J-1.0004
G3 X9.0638 Y48.0592 I0.0005 J-1.0006
G1 Y42.0599
G3 X10.064 Y41.0596 I1.0006 J0.0003
G3 X11.0638 Y42.0595 I-0.0001 J0.9999
G1 Y42.0596
G1 Y48.0593
G1 Y48.0594
G1 Y48.0592
G1 Y48.0593
G3 X10.0658 Y49.0594 I-1.0004 J-0.0002
G1 F300.0 X10.0639 Y48.2594
G1 Z-1.6
G3 F800.0 X9.8638 Y48.059 I0.0005 J-0.2006
G1 Y42.06
G3 X10.0641 Y41.8596 I0.2006 J0.0001
G3 X10.2638 Y42.0595 I-0.0002 J0.1999
G1 Y42.0596
G1 Y48.0591
G1 Y48.0594
G1 Y48.0591
G3 X10.0639 Y48.2594 I-0.2004 J-0.0001
G1 F300.0 X10.0658 Y49.0594
G3 F800.0 X10.0639 I-0.0023 J-1.0004
G3 X9.0638 Y48.0592 I0.0005 J-1.0006
G1 Y42.0599
G3 X10.064 Y41.0596 I1.0006 J0.0003
G3 X11.0638 Y42.0595 I-0.0001 J0.9999
G1 Y42.0596
G1 Y48.0593
G1 Y48.0594
G1 Y48.0592
G1 Y48.0593
G3 X10.0658 Y49.0594 I-1.0004 J-0.0002
G0 Z3.0
G0 X24.8573 Y48.072
G0 Z1.0
G1 F300.0 Z-1.0
G3 F800.0 X24.8569 Y48.0588 I0.2001 J-0.0134
G1 Y42.0599
G3 X25.0572 Y41.8595 I0.2006 J0.0001
G3 X25.2569 Y42.0593 I-0.0002 J0.1999
G1 Y42.0594
G1 Y48.059
G1 Y48.0593
G1 Y48.0589
G1 Y48.059
G3 X25.057 Y48.2592 I-0.2004 J-0.0001
G3 X24.8573 Y48.072 I0.0005 J-0.2006
G1 F300.0 X24.0591 Y48.1253
G3 F800.0 X24.0569 Y48.059 I0.9983 J-0.0666
G1 Y42.0597
G3 X25.0571 Y41.0595 I1.0006 J0.0003
G3 X26.0569 Y42.0594 I-0.0001 J0.9999
G1 Y48.0591
G1 Y48.0593
G1 Y48.059
G1 Y48.0591
G3 X25.0569 Y49.0592 I-1.0004 J-0.0002
G3 X24.0591 Y48.1253 I0.0005 J-1.0006
G1 F300.0 X24.8573 Y48.072
G1 Z-1.6
G3 F800.0 X24.8569 Y48.0588 I0.2001 J-0.0134
G1 Y42.0599
G3 X25.0572 Y41.8595 I0.2006 J0.0001
G3 X25.2569 Y42.0593 I-0.0002 J0.1999
G1 Y42.0594
G1 Y48.059
G1 Y48.0593
G1 Y48.0589
G1 Y48.059
G3 X25.057 Y48.2592 I-0.2004 J-0.0001
G3 X24.8573 Y48.072 I0.0005 J-0.2006
G1 F300.0 X24.0591 Y48.1253
G3 F800.0 X24.0569 Y48.059 I0.9983 J-0.0666
G1 Y42.0597
G3 X25.0571 Y41.0595 I1.0006 J0.0003
G3 X26.0569 Y42.0594 I-0.0001 J0.9999
G1 Y48.0591
G1 Y48.0593
G1 Y48.059
G1 Y48.0591
G3 X25.0569 Y49.0592 I-1.0004 J-0.0002
G3 X24.0591 Y48.1253 I0.0005 J-1.0006
G0 Z3.0
G0 X40.1352 Y48.0593
G0 Z1.0
G1 F300.0 Z-1.0
G3 F800.0 Y48.0587 I0.2006 J-0.0008
G1 Y42.0597
G3 X40.3355 Y41.8593 I0.2006 J0.0001
G3 X40.5352 Y42.0592 I-0.0002 J0.1999
G1 Y42.0593
G1 Y48.0588
G1 Y48.0591
G1 Y48.0587
G1 Y48.0588
G3 X40.3353 Y48.2591 I-0.2004 J-0.0001
G3 X40.1352 Y48.0593 I0.0005 J-0.2006
G1 F300.0 X39.3352 Y48.0626
G3 F800.0 Y48.0588 I1.0006 J-0.0041
G1 Y42.0595
G3 X40.3354 Y41.0593 I1.0006 J0.0003
G3 X41.3352 Y42.0592 I-0.0001 J0.9999
G1 Y42.0593
G1 Y48.0589
G1 Y48.0591
G1 Y48.0588
G1 Y48.0589
G3 X40.3352 Y49.0591 I-1.0004 J-0.0002
G3 X39.3352 Y48.0626 I0.0005 J-1.0006
G1 F300.0 X40.1352 Y48.0593
G1 Z-1.6
G3 F800.0 Y48.0587 I0.2006 J-0.0008
G1 Y42.0597
G3 X40.3355 Y41.8593 I0.2006 J0.0001
G3 X40.5352 Y42.0592 I-0.0002 J0.1999
G1 Y42.0593
G1 Y48.0588
G1 Y48.0591
G1 Y48.0587
G1 Y48.0588
G3 X40.3353 Y48.2591 I-0.2004 J-0.0001
G3 X40.1352 Y48.0593 I0.0005 J-0.2006
G1 F300.0 X39.3352 Y48.0626
G3 F800.0 Y48.0588 I1.0006 J-0.0041
G1 Y42.0595
G3 X40.3354 Y41.0593 I1.0006 J0.0003
G3 X41.3352 Y42.0592 I-0.0001 J0.9999
G1 Y42.0593
G1 Y48.0589
G1 Y48.0591
G1 Y48.0588
G1 Y48.0589
G3 X40.3352 Y49.0591 I-1.0004 J-0.0002
G3 X39.3352 Y48.0626 I0.0005 J-1.0006
( Pocket2 )
S1000
G0 Z3.0
G0 X10.6418 Y24.3798
G0 Z1.0
G1 F300.0 Z-1.0
G1 F100.0 Y32.9355
G1 X9.4417
G1 Y24.3798
G1 X10.6418
G1 F300.0 Y23.5798
G1 F100.0 X11.4418
G1 Y33.7355
G1 X8.6417
G1 Y23.5798
G1 X10.6418
G1 F300.0 Y21.9798
G1 F100.0 X12.4589
G3 X12.7347 Y22.0715 I-0.0017 J0.466
G3 X12.9834 Y22.404 I-0.4411 J0.5892
G2 X12.9849 Y22.4079 I1.8744 J-0.6975
G3 X13.0418 Y22.7237 I-0.8392 J0.3143
G2 Y22.7271 I2.0 J0.0034
G1 Y34.5882
G2 Y34.5956 I2.0 J0.0
G3 X12.9176 Y35.0444 I-0.8618 J0.0032
G2 X12.9147 Y35.0492 I1.7117 J1.0344
G3 X12.6422 Y35.297 I-0.5484 J-0.3293
G3 X12.4603 Y35.3355 I-0.1825 J-0.4131
G1 X7.6246
G3 X7.3488 Y35.2439 I0.0017 J-0.466
G3 X7.1001 Y34.9114 I0.4411 J-0.5892
G2 X7.0986 Y34.9075 I-1.8744 J0.6975
G3 X7.0417 Y34.5917 I0.8392 J-0.3143
G2 Y34.5882 I-2.0 J-0.0034
G1 Y22.7271
G2 Y22.7198 I-2.0 J0.0
G3 X7.1659 Y22.2709 I0.8618 J-0.0032
G2 X7.1688 Y22.2662 I-1.7117 J-1.0344
G3 X7.4413 Y22.0183 I0.5484 J0.3293
G3 X7.6232 Y21.9798 I0.1825 J0.4131
G1 X10.6418
G1 F300.0 Y24.3798
G1 Z-2.0
G1 F100.0 Y32.9355
G1 X9.4417
G1 Y24.3798
G1 X10.6418
G1 F300.0 Y23.5798
G1 F100.0 X11.4418
G1 Y33.7355
G1 X8.6417
G1 Y23.5798
G1 X10.6418
G1 F300.0 Y21.9798
G1 F100.0 X12.4589
G3 X12.7347 Y22.0715 I-0.0017 J0.466
G3 X12.9834 Y22.404 I-0.4411 J0.5892
G2 X12.9849 Y22.4079 I1.8744 J-0.6975
G3 X13.0418 Y22.7237 I-0.8392 J0.3143
G2 Y22.7271 I2.0 J0.0034
G1 Y34.5882
G2 Y34.5956 I2.0 J0.0
G3 X12.9176 Y35.0444 I-0.8618 J0.0032
G2 X12.9147 Y35.0492 I1.7117 J1.0344
G3 X12.6422 Y35.297 I-0.5484 J-0.3293
G3 X12.4603 Y35.3355 I-0.1825 J-0.4131
G1 X7.6246
G3 X7.3488 Y35.2439 I0.0017 J-0.466
G3 X7.1001 Y34.9114 I0.4411 J-0.5892
G2 X7.0986 Y34.9075 I-1.8744 J0.6975
G3 X7.0417 Y34.5917 I0.8392 J-0.3143
G2 Y34.5882 I-2.0 J-0.0034
G1 Y22.7271
G2 Y22.7198 I-2.0 J0.0
G3 X7.1659 Y22.2709 I0.8618 J-0.0032
G2 X7.1688 Y22.2662 I-1.7117 J-1.0344
G3 X7.4413 Y22.0183 I0.5484 J0.3293
G3 X7.6232 Y21.9798 I0.1825 J0.4131
G1 X10.6418
G1 F300.0 Y24.3798
G1 Z-3.0
G1 F100.0 Y32.9355
G1 X9.4417
G1 Y24.3798
G1 X10.6418
G1 F300.0 Y23.5798
G1 F100.0 X11.4418
G1 Y33.7355
G1 X8.6417
G1 Y23.5798
G1 X10.6418
G1 F300.0 Y21.9798
G1 F100.0 X12.4589
G3 X12.7347 Y22.0715 I-0.0017 J0.466
G3 X12.9834 Y22.404 I-0.4411 J0.5892
G2 X12.9849 Y22.4079 I1.8744 J-0.6975
G3 X13.0418 Y22.7237 I-0.8392 J0.3143
G2 Y22.7271 I2.0 J0.0034
G1 Y34.5882
G2 Y34.5956 I2.0 J0.0
G3 X12.9176 Y35.0444 I-0.8618 J0.0032
G2 X12.9147 Y35.0492 I1.7117 J1.0344
G3 X12.6422 Y35.297 I-0.5484 J-0.3293
G3 X12.4603 Y35.3355 I-0.1825 J-0.4131
G1 X7.6246
G3 X7.3488 Y35.2439 I0.0017 J-0.466
G3 X7.1001 Y34.9114 I0.4411 J-0.5892
G2 X7.0986 Y34.9075 I-1.8744 J0.6975
G3 X7.0417 Y34.5917 I0.8392 J-0.3143
G2 Y34.5882 I-2.0 J-0.0034
G1 Y22.7271
G2 Y22.7198 I-2.0 J0.0
G3 X7.1659 Y22.2709 I0.8618 J-0.0032
G2 X7.1688 Y22.2662 I-1.7117 J-1.0344
G3 X7.4413 Y22.0183 I0.5484 J0.3293
G3 X7.6232 Y21.9798 I0.1825 J0.4131
G1 X10.6418
G1 F300.0 Y24.3798
G1 Z-4.0
G1 F100.0 Y32.9355
G1 X9.4417
G1 Y24.3798
G1 X10.6418
G1 F300.0 Y23.5798
G1 F100.0 X11.4418
G1 Y33.7355
G1 X8.6417
G1 Y23.5798
G1 X10.6418
G1 F300.0 Y21.9798
G1 F100.0 X12.4589
G3 X12.7347 Y22.0715 I-0.0017 J0.466
G3 X12.9834 Y22.404 I-0.4411 J0.5892
G2 X12.9849 Y22.4079 I1.8744 J-0.6975
G3 X13.0418 Y22.7237 I-0.8392 J0.3143
G2 Y22.7271 I2.0 J0.0034
G1 Y34.5882
G2 Y34.5956 I2.0 J0.0
G3 X12.9176 Y35.0444 I-0.8618 J0.0032
G2 X12.9147 Y35.0492 I1.7117 J1.0344
G3 X12.6422 Y35.297 I-0.5484 J-0.3293
G3 X12.4603 Y35.3355 I-0.1825 J-0.4131
G1 X7.6246
G3 X7.3488 Y35.2439 I0.0017 J-0.466
G3 X7.1001 Y34.9114 I0.4411 J-0.5892
G2 X7.0986 Y34.9075 I-1.8744 J0.6975
G3 X7.0417 Y34.5917 I0.8392 J-0.3143
G2 Y34.5882 I-2.0 J-0.0034
G1 Y22.7271
G2 Y22.7198 I-2.0 J0.0
G3 X7.1659 Y22.2709 I0.8618 J-0.0032
G2 X7.1688 Y22.2662 I-1.7117 J-1.0344
G3 X7.4413 Y22.0183 I0.5484 J0.3293
G3 X7.6232 Y21.9798 I0.1825 J0.4131
G1 X10.6418
G1 F300.0 Y24.3798
G1 Z-4.5
G1 F100.0 Y32.9355
G1 X9.4417
G1 Y24.3798
G1 X10.6418
G1 F300.0 Y23.5798
G1 F100.0 X11.4418
G1 Y33.7355
G1 X8.6417
G1 Y23.5798
G1 X10.6418
G1 F300.0 Y21.9798
G1 F100.0 X12.4589
G3 X12.7347 Y22.0715 I-0.0017 J0.466
G3 X12.9834 Y22.404 I-0.4411 J0.5892
G2 X12.9849 Y22.4079 I1.8744 J-0.6975
G3 X13.0418 Y22.7237 I-0.8392 J0.3143
G2 Y22.7271 I2.0 J0.0034
G1 Y34.5882
G2 Y34.5956 I2.0 J0.0
G3 X12.9176 Y35.0444 I-0.8618 J0.0032
G2 X12.9147 Y35.0492 I1.7117 J1.0344
G3 X12.6422 Y35.297 I-0.5484 J-0.3293
G3 X12.4603 Y35.3355 I-0.1825 J-0.4131
G1 X7.6246
G3 X7.3488 Y35.2439 I0.0017 J-0.466
G3 X7.1001 Y34.9114 I0.4411 J-0.5892
G2 X7.0986 Y34.9075 I-1.8744 J0.6975
G3 X7.0417 Y34.5917 I0.8392 J-0.3143
G2 Y34.5882 I-2.0 J-0.0034
G1 Y22.7271
G2 Y22.7198 I-2.0 J0.0
G3 X7.1659 Y22.2709 I0.8618 J-0.0032
G2 X7.1688 Y22.2662 I-1.7117 J-1.0344
G3 X7.4413 Y22.0183 I0.5484 J0.3293
G3 X7.6232 Y21.9798 I0.1825 J0.4131
G1 X10.6418
G0 Z3.0
G0 X10.0492 Y10.799
G0 Z1.0
G1 F300.0 Z-1.0
G3 F100.0 X10.0068 Y10.8001 I-0.0414 J-0.7804
G2 X9.9927 I-0.0067 J5.2
G3 X9.4394 Y10.5709 I-0.0011 J-0.7798
G2 X9.4296 Y10.5611 I-3.682 J3.6719
G3 X9.1999 Y10.0066 I0.5521 J-0.5535
G2 Y9.9935 I-5.2 J-0.0066
G3 X9.4297 Y9.4388 I0.782 J-0.001
G2 X9.4386 Y9.4299 I-3.6724 J-3.6815
G3 X9.9938 Y9.1999 I0.5542 J0.5529
G2 X10.0074 I0.0063 J-5.2
G3 X10.5607 Y9.4291 I0.0011 J0.7799
G2 X10.5698 Y9.4382 I3.6821 J-3.6718
G3 X10.8001 Y9.9941 I-0.5537 J0.5549
G2 Y10.007 I5.2 J0.006
G3 X10.5706 Y10.561 I-0.7811 J0.001
G2 X10.5612 Y10.5705 I3.6722 J3.6817
G3 X10.0492 Y10.799 I-0.5533 J-0.5519
G1 F300.0 X10.1339 Y12.3967
G3 F100.0 X10.0047 Y12.4001 I-0.1261 J-2.3782
G2 X9.9949 I-0.0047 J3.6
G3 X8.3064 Y11.7007 I-0.0034 J-2.3798
G2 X8.2997 Y11.694 I-2.5491 J2.5421
G3 X7.5999 Y10.0046 I1.682 J-1.6863
G2 Y9.9955 I-3.6 J-0.0045
G3 X8.2997 Y8.306 I2.382 J-0.003
G2 X8.3059 Y8.2999 I-2.5424 J-2.5487
G3 X9.9957 Y7.5999 I1.6869 J1.6829
G2 X10.0051 I0.0044 J-3.6
G3 X11.6937 Y8.2993 I0.0033 J2.3799
G2 X11.7 Y8.3057 I2.5491 J-2.542
G3 X12.4001 Y9.9959 I-1.6839 J1.6875
G2 Y10.0048 I3.6 J0.0042
G3 X11.7005 Y11.6939 I-2.3811 J0.0032
G2 X11.6939 Y11.7004 I2.5423 J2.5489
G3 X10.1339 Y12.3967 I-1.6861 J-1.6819
G1 F300.0 X10.2186 Y13.9945
G3 F100.0 X10.0027 Y14.0001 I-0.2107 J-3.976
G2 X9.9972 I-0.0026 J2.0
G3 X7.1735 Y12.8305 I-0.0057 J-3.9798
G2 X7.1698 Y12.8268 I-1.4162 J1.4123
G3 X5.9999 Y10.0026 I2.812 J-2.8191
G2 Y9.9975 I-2.0 J-0.0025
G3 X7.1697 Y7.1733 I3.982 J-0.0051
G2 X7.1732 Y7.1698 I-1.4125 J-1.416
G3 X9.9976 Y5.9999 I2.8196 J2.8129
G2 X10.0029 I0.0024 J-2.0
G3 X12.8266 Y7.1695 I0.0056 J3.9799
G2 X12.8301 Y7.1731 I1.4162 J-1.4122
G3 X14.0001 Y9.9978 I-2.814 J2.8201
G2 Y10.0027 I2.0 J0.0023
G3 X12.8304 Y12.8267 I-3.9811 J0.0053
G2 X12.8267 Y12.8304 I1.4124 J1.4161
G3 X10.2186 Y13.9945 I-2.8189 J-2.8118
G0 Z3.0
G0 X10.0492 Y10.799
G0 Z0.0
G1 F300.0 Z-2.0
G3 F100.0 X10.0068 Y10.8001 I-0.0414 J-0.7804
G2 X9.9927 I-0.0067 J5.2
G3 X9.4394 Y10.5709 I-0.0011 J-0.7798
G2 X9.4296 Y10.5611 I-3.682 J3.6719
G3 X9.1999 Y10.0066 I0.5521 J-0.5535
G2 Y9.9935 I-5.2 J-0.0066
G3 X9.4297 Y9.4388 I0.782 J-0.001
G2 X9.4386 Y9.4299 I-3.6724 J-3.6815
G3 X9.9938 Y9.1999 I0.5542 J0.5529
G2 X10.0074 I0.0063 J-5.2
G3 X10.5607 Y9.4291 I0.0011 J0.7799
G2 X10.5698 Y9.4382 I3.6821 J-3.6718
G3 X10.8001 Y9.9941 I-0.5537 J0.5549
G2 Y10.007 I5.2 J0.006
G3 X10.5706 Y10.561 I-0.7811 J0.001
G2 X10.5612 Y10.5705 I3.6722 J3.6817
G3 X10.0492 Y10.799 I-0.5533 J-0.5519
G1 F300.0 X10.1339 Y12.3967
G3 F100.0 X10.0047 Y12.4001 I-0.1261 J-2.3782
G2 X9.9949 I-0.0047 J3.6
G3 X8.3064 Y11.7007 I-0.0034 J-2.3798
G2 X8.2997 Y11.694 I-2.5491 J2.5421
G3 X7.5999 Y10.0046 I1.682 J-1.6863
G2 Y9.9955 I-3.6 J-0.0045
G3 X8.2997 Y8.306 I2.382 J-0.003
G2 X8.3059 Y8.2999 I-2.5424 J-2.5487
G3 X9.9957 Y7.5999 I1.6869 J1.6829
G2 X10.0051 I0.0044 J-3.6
G3 X11.6937 Y8.2993 I0.0033 J2.3799
G2 X11.7 Y8.3057 I2.5491 J-2.542
G3 X12.4001 Y9.9959 I-1.6839 J1.6875
G2 Y10.0048 I3.6 J0.0042
G3 X11.7005 Y11.6939 I-2.3811 J0.0032
G2 X11.6939 Y11.7004 I2.5423 J2.5489
G3 X10.1339 Y12.3967 I-1.6861 J-1.6819
G1 F300.0 X10.2186 Y13.9945
G3 F100.0 X10.0027 Y14.0001 I-0.2107 J-3.976
G2 X9.9972 I-0.0026 J2.0
G3 X7.1735 Y12.8305 I-0.0057 J-3.9798
G2 X7.1698 Y12.8268 I-1.4162 J1.4123
G3 X5.9999 Y10.0026 I2.812 J-2.8191
G2 Y9.9975 I-2.0 J-0.0025
G3 X7.1697 Y7.1733 I3.982 J-0.0051
G2 X7.1732 Y7.1698 I-1.4125 J-1.416
G3 X9.9976 Y5.9999 I2.8196 J2.8129
G2 X10.0029 I0.0024 J-2.0
G3 X12.8266 Y7.1695 I0.0056 J3.9799
G2 X12.8301 Y7.1731 I1.4162 J-1.4122
G3 X14.0001 Y9.9978 I-2.814 J2.8201
G2 Y10.0027 I2.0 J0.0023
G3 X12.8304 Y12.8267 I-3.9811 J0.0053
G2 X12.8267 Y12.8304 I1.4124 J1.4161
G3 X10.2186 Y13.9945 I-2.8189 J-2.8118
G0 Z3.0
G0 X10.0492 Y10.799
G0 Z-1.0
G1 F300.0 Z-3.0
G3 F100.0 X10.0068 Y10.8001 I-0.0414 J-0.7804
G2 X9.9927 I-0.0067 J5.2
G3 X9.4394 Y10.5709 I-0.0011 J-0.7798
G2 X9.4296 Y10.5611 I-3.682 J3.6719
G3 X9.1999 Y10.0066 I0.5521 J-0.5535
G2 Y9.9935 I-5.2 J-0.0066
G3 X9.4297 Y9.4388 I0.782 J-0.001
G2 X9.4386 Y9.4299 I-3.6724 J-3.6815
G3 X9.9938 Y9.1999 I0.5542 J0.5529
G2 X10.0074 I0.0063 J-5.2
G3 X10.5607 Y9.4291 I0.0011 J0.7799
G2 X10.5698 Y9.4382 I3.6821 J-3.6718
G3 X10.8001 Y9.9941 I-0.5537 J0.5549
G2 Y10.007 I5.2 J0.006
G3 X10.5706 Y10.561 I-0.7811 J0.001
G2 X10.5612 Y10.5705 I3.6722 J3.6817
G3 X10.0492 Y10.799 I-0.5533 J-0.5519
G1 F300.0 X10.1339 Y12.3967
G3 F100.0 X10.0047 Y12.4001 I-0.1261 J-2.3782
G2 X9.9949 I-0.0047 J3.6
G3 X8.3064 Y11.7007 I-0.0034 J-2.3798
G2 X8.2997 Y11.694 I-2.5491 J2.5421
G3 X7.5999 Y10.0046 I1.682 J-1.6863
G2 Y9.9955 I-3.6 J-0.0045
G3 X8.2997 Y8.306 I2.382 J-0.003
G2 X8.3059 Y8.2999 I-2.5424 J-2.5487
G3 X9.9957 Y7.5999 I1.6869 J1.6829
G2 X10.0051 I0.0044 J-3.6
G3 X11.6937 Y8.2993 I0.0033 J2.3799
G2 X11.7 Y8.3057 I2.5491 J-2.542
G3 X12.4001 Y9.9959 I-1.6839 J1.6875
G2 Y10.0048 I3.6 J0.0042
G3 X11.7005 Y11.6939 I-2.3811 J0.0032
G2 X11.6939 Y11.7004 I2.5423 J2.5489
G3 X10.1339 Y12.3967 I-1.6861 J-1.6819
G1 F300.0 X10.2186 Y13.9945
G3 F100.0 X10.0027 Y14.0001 I-0.2107 J-3.976
G2 X9.9972 I-0.0026 J2.0
G3 X7.1735 Y12.8305 I-0.0057 J-3.9798
G2 X7.1698 Y12.8268 I-1.4162 J1.4123
G3 X5.9999 Y10.0026 I2.812 J-2.8191
G2 Y9.9975 I-2.0 J-0.0025
G3 X7.1697 Y7.1733 I3.982 J-0.0051
G2 X7.1732 Y7.1698 I-1.4125 J-1.416
G3 X9.9976 Y5.9999 I2.8196 J2.8129
G2 X10.0029 I0.0024 J-2.0
G3 X12.8266 Y7.1695 I0.0056 J3.9799
G2 X12.8301 Y7.1731 I1.4162 J-1.4122
G3 X14.0001 Y9.9978 I-2.814 J2.8201
G2 Y10.0027 I2.0 J0.0023
G3 X12.8304 Y12.8267 I-3.9811 J0.0053
G2 X12.8267 Y12.8304 I1.4124 J1.4161
G3 X10.2186 Y13.9945 I-2.8189 J-2.8118
G0 Z3.0
G0 X10.0492 Y10.799
G0 Z-2.0
G1 F300.0 Z-4.0
G3 F100.0 X10.0068 Y10.8001 I-0.0414 J-0.7804
G2 X9.9927 I-0.0067 J5.2
G3 X9.4394 Y10.5709 I-0.0011 J-0.7798
G2 X9.4296 Y10.5611 I-3.682 J3.6719
G3 X9.1999 Y10.0066 I0.5521 J-0.5535
G2 Y9.9935 I-5.2 J-0.0066
G3 X9.4297 Y9.4388 I0.782 J-0.001
G2 X9.4386 Y9.4299 I-3.6724 J-3.6815
G3 X9.9938 Y9.1999 I0.5542 J0.5529
G2 X10.0074 I0.0063 J-5.2
G3 X10.5607 Y9.4291 I0.0011 J0.7799
G2 X10.5698 Y9.4382 I3.6821 J-3.6718
G3 X10.8001 Y9.9941 I-0.5537 J0.5549
G2 Y10.007 I5.2 J0.006
G3 X10.5706 Y10.561 I-0.7811 J0.001
G2 X10.5612 Y10.5705 I3.6722 J3.6817
G3 X10.0492 Y10.799 I-0.5533 J-0.5519
G1 F300.0 X10.1339 Y12.3967
G3 F100.0 X10.0047 Y12.4001 I-0.1261 J-2.3782
G2 X9.9949 I-0.0047 J3.6
G3 X8.3064 Y11.7007 I-0.0034 J-2.3798
G2 X8.2997 Y11.694 I-2.5491 J2.5421
G3 X7.5999 Y10.0046 I1.682 J-1.6863
G2 Y9.9955 I-3.6 J-0.0045
G3 X8.2997 Y8.306 I2.382 J-0.003
G2 X8.3059 Y8.2999 I-2.5424 J-2.5487
G3 X9.9957 Y7.5999 I1.6869 J1.6829
G2 X10.0051 I0.0044 J-3.6
G3 X11.6937 Y8.2993 I0.0033 J2.3799
G2 X11.7 Y8.3057 I2.5491 J-2.542
G3 X12.4001 Y9.9959 I-1.6839 J1.6875
G2 Y10.0048 I3.6 J0.0042
G3 X11.7005 Y11.6939 I-2.3811 J0.0032
G2 X11.6939 Y11.7004 I2.5423 J2.5489
G3 X10.1339 Y12.3967 I-1.6861 J-1.6819
G1 F300.0 X10.2186 Y13.9945
G3 F100.0 X10.0027 Y14.0001 I-0.2107 J-3.976
G2 X9.9972 I-0.0026 J2.0
G3 X7.1735 Y12.8305 I-0.0057 J-3.9798
G2 X7.1698 Y12.8268 I-1.4162 J1.4123
G3 X5.9999 Y10.0026 I2.812 J-2.8191
G2 Y9.9975 I-2.0 J-0.0025
G3 X7.1697 Y7.1733 I3.982 J-0.0051
G2 X7.1732 Y7.1698 I-1.4125 J-1.416
G3 X9.9976 Y5.9999 I2.8196 J2.8129
G2 X10.0029 I0.0024 J-2.0
G3 X12.8266 Y7.1695 I0.0056 J3.9799
G2 X12.8301 Y7.1731 I1.4162 J-1.4122
G3 X14.0001 Y9.9978 I-2.814 J2.8201
G2 Y10.0027 I2.0 J0.0023
G3 X12.8304 Y12.8267 I-3.9811 J0.0053
G2 X12.8267 Y12.8304 I1.4124 J1.4161
G3 X10.2186 Y13.9945 I-2.8189 J-2.8118
G0 Z3.0
G0 X10.0492 Y10.799
G0 Z-3.0
G1 F300.0 Z-4.5
G3 F100.0 X10.0068 Y10.8001 I-0.0414 J-0.7804
G2 X9.9927 I-0.0067 J5.2
G3 X9.4394 Y10.5709 I-0.0011 J-0.7798
G2 X9.4296 Y10.5611 I-3.682 J3.6719
G3 X9.1999 Y10.0066 I0.5521 J-0.5535
G2 Y9.9935 I-5.2 J-0.0066
G3 X9.4297 Y9.4388 I0.782 J-0.001
G2 X9.4386 Y9.4299 I-3.6724 J-3.6815
G3 X9.9938 Y9.1999 I0.5542 J0.5529
G2 X10.0074 I0.0063 J-5.2
G3 X10.5607 Y9.4291 I0.0011 J0.7799
G2 X10.5698 Y9.4382 I3.6821 J-3.6718
G3 X10.8001 Y9.9941 I-0.5537 J0.5549
G2 Y10.007 I5.2 J0.006
G3 X10.5706 Y10.561 I-0.7811 J0.001
G2 X10.5612 Y10.5705 I3.6722 J3.6817
G3 X10.0492 Y10.799 I-0.5533 J-0.5519
G1 F300.0 X10.1339 Y12.3967
G3 F100.0 X10.0047 Y12.4001 I-0.1261 J-2.3782
G2 X9.9949 I-0.0047 J3.6
G3 X8.3064 Y11.7007 I-0.0034 J-2.3798
G2 X8.2997 Y11.694 I-2.5491 J2.5421
G3 X7.5999 Y10.0046 I1.682 J-1.6863
G2 Y9.9955 I-3.6 J-0.0045
G3 X8.2997 Y8.306 I2.382 J-0.003
G2 X8.3059 Y8.2999 I-2.5424 J-2.5487
G3 X9.9957 Y7.5999 I1.6869 J1.6829
G2 X10.0051 I0.0044 J-3.6
G3 X11.6937 Y8.2993 I0.0033 J2.3799
G2 X11.7 Y8.3057 I2.5491 J-2.542
G3 X12.4001 Y9.9959 I-1.6839 J1.6875
G2 Y10.0048 I3.6 J0.0042
G3 X11.7005 Y11.6939 I-2.3811 J0.0032
G2 X11.6939 Y11.7004 I2.5423 J2.5489
G3 X10.1339 Y12.3967 I-1.6861 J-1.6819
G1 F300.0 X10.2186 Y13.9945
G3 F100.0 X10.0027 Y14.0001 I-0.2107 J-3.976
G2 X9.9972 I-0.0026 J2.0
G3 X7.1735 Y12.8305 I-0.0057 J-3.9798
G2 X7.1698 Y12.8268 I-1.4162 J1.4123
G3 X5.9999 Y10.0026 I2.812 J-2.8191
G2 Y9.9975 I-2.0 J-0.0025
G3 X7.1697 Y7.1733 I3.982 J-0.0051
G2 X7.1732 Y7.1698 I-1.4125 J-1.416
G3 X9.9976 Y5.9999 I2.8196 J2.8129
G2 X10.0029 I0.0024 J-2.0
G3 X12.8266 Y7.1695 I0.0056 J3.9799
G2 X12.8301 Y7.1731 I1.4162 J-1.4122
G3 X14.0001 Y9.9978 I-2.814 J2.8201
G2 Y10.0027 I2.0 J0.0023
G3 X12.8304 Y12.8267 I-3.9811 J0.0053
G2 X12.8267 Y12.8304 I1.4124 J1.4161
G3 X10.2186 Y13.9945 I-2.8189 J-2.8118
G0 Z3.0
G0 X39.2069 Y10.1115
G0 Z1.0
G1 F300.0 Z-1.0
G3 F100.0 X39.2 Y10.0068 I0.7746 J-0.1038
G2 Y9.9936 I-5.2 J-0.0067
G3 X39.4298 Y9.4387 I0.7824 J-0.001
G2 X39.4394 Y9.4291 I-3.6725 J-3.6814
G3 X39.9927 Y9.1999 I0.5522 J0.5507
G2 X40.0065 I0.0073 J-5.2
G3 X40.5611 Y9.4296 I0.001 J0.7819
G2 X40.5707 Y9.4393 I3.6816 J-3.6723
G3 X40.8 Y9.9928 I-0.5509 J0.5524
G2 Y10.0071 I5.2 J0.0073
G3 X40.5706 Y10.5608 I-0.7805 J0.0011
G2 X40.5616 Y10.5698 I3.672 J3.6819
G3 X40.0058 Y10.8001 I-0.555 J-0.5537
G2 X39.992 I-0.0058 J5.2
G3 X39.4399 Y10.5714 I-0.0012 J-0.778
G2 X39.4296 Y10.5611 I-3.6826 J3.6713
G3 X39.2069 Y10.1115 I0.5519 J-0.5533
G1 F300.0 X37.6211 Y10.3239
G3 F100.0 X37.6 Y10.0047 I2.3605 J-0.3162
G2 Y9.9956 I-3.6 J-0.0046
G3 X38.2998 Y8.306 I2.3824 J-0.003
G2 X38.3064 Y8.2993 I-2.5425 J-2.5487
G3 X39.9949 Y7.5999 I1.6852 J1.6805
G2 X40.0045 I0.005 J-3.6
G3 X41.6939 Y8.2997 I0.003 J2.3819
G2 X41.7005 Y8.3064 I2.5488 J-2.5424
G3 X42.4 Y9.995 I-1.6807 J1.6853
G2 Y10.005 I3.6 J0.0051
G3 X41.7005 Y11.6937 I-2.3805 J0.0032
G2 X41.6942 Y11.6999 I2.5422 J2.549
G3 X40.004 Y12.4001 I-1.6876 J-1.6838
G2 X39.9944 I-0.004 J3.6
G3 X38.3068 Y11.701 I-0.0036 J-2.3779
G2 X38.2997 Y11.6939 I-2.5495 J2.5417
G3 X37.6211 Y10.3239 I1.6819 J-1.6861
G1 F300.0 X36.0352 Y10.5364
G3 F100.0 X36.0 Y10.0026 I3.9463 J-0.5286
G2 Y9.9976 I-2.0 J-0.0026
G3 X37.1698 Y7.1732 I3.9824 J-0.005
G2 X37.1735 Y7.1695 I-1.4125 J-1.4159
G3 X39.9972 Y5.9999 I2.8181 J2.8103
G2 X40.0025 I0.0028 J-2.0
G3 X42.8267 Y7.1697 I0.005 J3.9819
G2 X42.8304 Y7.1735 I1.416 J-1.4124
G3 X44.0 Y9.9973 I-2.8106 J2.8182
G2 Y10.0028 I2.0 J0.0028
G3 X42.8303 Y12.8266 I-3.9805 J0.0054
G2 X42.8269 Y12.8301 I1.4123 J1.4161
G3 X40.0022 Y14.0001 I-2.8202 J-2.814
G2 X39.9969 I-0.0022 J2.0
G3 X37.1737 Y12.8306 I-0.0061 J-3.9779
G2 X37.1697 Y12.8267 I-1.4164 J1.412
G3 X36.0352 Y10.5364 I2.8118 J-2.8189
G0 Z3.0
G0 X39.2069 Y10.1115
G0 Z0.0
G1 F300.0 Z-2.0
G3 F100.0 X39.2 Y10.0068 I0.7746 J-0.1038
G2 Y9.9936 I-5.2 J-0.0067
G3 X39.4298 Y9.4387 I0.7824 J-0.001
G2 X39.4394 Y9.4291 I-3.6725 J-3.6814
G3 X39.9927 Y9.1999 I0.5522 J0.5507
G2 X40.0065 I0.0073 J-5.2
G3 X40.5611 Y9.4296 I0.001 J0.7819
G2 X40.5707 Y9.4393 I3.6816 J-3.6723
G3 X40.8 Y9.9928 I-0.5509 J0.5524
G2 Y10.0071 I5.2 J0.0073
G3 X40.5706 Y10.5608 I-0.7805 J0.0011
G2 X40.5616 Y10.5698 I3.672 J3.6819
G3 X40.0058 Y10.8001 I-0.555 J-0.5537
G2 X39.992 I-0.0058 J5.2
G3 X39.4399 Y10.5714 I-0.0012 J-0.778
G2 X39.4296 Y10.5611 I-3.6826 J3.6713
G3 X39.2069 Y10.1115 I0.5519 J-0.5533
G1 F300.0 X37.6211 Y10.3239
G3 F100.0 X37.6 Y10.0047 I2.3605 J-0.3162
G2 Y9.9956 I-3.6 J-0.0046
G3 X38.2998 Y8.306 I2.3824 J-0.003
G2 X38.3064 Y8.2993 I-2.5425 J-2.5487
G3 X39.9949 Y7.5999 I1.6852 J1.6805
G2 X40.0045 I0.005 J-3.6
G3 X41.6939 Y8.2997 I0.003 J2.3819
G2 X41.7005 Y8.3064 I2.5488 J-2.5424
G3 X42.4 Y9.995 I-1.6807 J1.6853
G2 Y10.005 I3.6 J0.0051
G3 X41.7005 Y11.6937 I-2.3805 J0.0032
G2 X41.6942 Y11.6999 I2.5422 J2.549
G3 X40.004 Y12.4001 I-1.6876 J-1.6838
G2 X39.9944 I-0.004 J3.6
G3 X38.3068 Y11.701 I-0.0036 J-2.3779
G2 X38.2997 Y11.6939 I-2.5495 J2.5417
G3 X37.6211 Y10.3239 I1.6819 J-1.6861
G1 F300.0 X36.0352 Y10.5364
G3 F100.0 X36.0 Y10.0026 I3.9463 J-0.5286
G2 Y9.9976 I-2.0 J-0.0026
G3 X37.1698 Y7.1732 I3.9824 J-0.005
G2 X37.1735 Y7.1695 I-1.4125 J-1.4159
G3 X39.9972 Y5.9999 I2.8181 J2.8103
G2 X40.0025 I0.0028 J-2.0
G3 X42.8267 Y7.1697 I0.005 J3.9819
G2 X42.8304 Y7.1735 I1.416 J-1.4124
G3 X44.0 Y9.9973 I-2.8106 J2.8182
G2 Y10.0028 I2.0 J0.0028
G3 X42.8303 Y12.8266 I-3.9805 J0.0054
G2 X42.8269 Y12.8301 I1.4123 J1.4161
G3 X40.0022 Y14.0001 I-2.8202 J-2.814
G2 X39.9969 I-0.0022 J2.0
G3 X37.1737 Y12.8306 I-0.0061 J-3.9779
G2 X37.1697 Y12.8267 I-1.4164 J1.412
G3 X36.0352 Y10.5364 I2.8118 J-2.8189
G0 Z3.0
G0 X39.2069 Y10.1115
G0 Z-1.0
G1 F300.0 Z-3.0
G3 F100.0 X39.2 Y10.0068 I0.7746 J-0.1038
G2 Y9.9936 I-5.2 J-0.0067
G3 X39.4298 Y9.4387 I0.7824 J-0.001
G2 X39.4394 Y9.4291 I-3.6725 J-3.6814
G3 X39.9927 Y9.1999 I0.5522 J0.5507
G2 X40.0065 I0.0073 J-5.2
G3 X40.5611 Y9.4296 I0.001 J0.7819
G2 X40.5707 Y9.4393 I3.6816 J-3.6723
G3 X40.8 Y9.9928 I-0.5509 J0.5524
G2 Y10.0071 I5.2 J0.0073
G3 X40.5706 Y10.5608 I-0.7805 J0.0011
G2 X40.5616 Y10.5698 I3.672 J3.6819
G3 X40.0058 Y10.8001 I-0.555 J-0.5537
G2 X39.992 I-0.0058 J5.2
G3 X39.4399 Y10.5714 I-0.0012 J-0.778
G2 X39.4296 Y10.5611 I-3.6826 J3.6713
G3 X39.2069 Y10.1115 I0.5519 J-0.5533
G1 F300.0 X37.6211 Y10.3239
G3 F100.0 X37.6 Y10.0047 I2.3605 J-0.3162
G2 Y9.9956 I-3.6 J-0.0046
G3 X38.2998 Y8.306 I2.3824 J-0.003
G2 X38.3064 Y8.2993 I-2.5425 J-2.5487
G3 X39.9949 Y7.5999 I1.6852 J1.6805
G2 X40.0045 I0.005 J-3.6
G3 X41.6939 Y8.2997 I0.003 J2.3819
G2 X41.7005 Y8.3064 I2.5488 J-2.5424
G3 X42.4 Y9.995 I-1.6807 J1.6853
G2 Y10.005 I3.6 J0.0051
G3 X41.7005 Y11.6937 I-2.3805 J0.0032
G2 X41.6942 Y11.6999 I2.5422 J2.549
G3 X40.004 Y12.4001 I-1.6876 J-1.6838
G2 X39.9944 I-0.004 J3.6
G3 X38.3068 Y11.701 I-0.0036 J-2.3779
G2 X38.2997 Y11.6939 I-2.5495 J2.5417
G3 X37.6211 Y10.3239 I1.6819 J-1.6861
G1 F300.0 X36.0352 Y10.5364
G3 F100.0 X36.0 Y10.0026 I3.9463 J-0.5286
G2 Y9.9976 I-2.0 J-0.0026
G3 X37.1698 Y7.1732 I3.9824 J-0.005
G2 X37.1735 Y7.1695 I-1.4125 J-1.4159
G3 X39.9972 Y5.9999 I2.8181 J2.8103
G2 X40.0025 I0.0028 J-2.0
G3 X42.8267 Y7.1697 I0.005 J3.9819
G2 X42.8304 Y7.1735 I1.416 J-1.4124
G3 X44.0 Y9.9973 I-2.8106 J2.8182
G2 Y10.0028 I2.0 J0.0028
G3 X42.8303 Y12.8266 I-3.9805 J0.0054
G2 X42.8269 Y12.8301 I1.4123 J1.4161
G3 X40.0022 Y14.0001 I-2.8202 J-2.814
G2 X39.9969 I-0.0022 J2.0
G3 X37.1737 Y12.8306 I-0.0061 J-3.9779
G2 X37.1697 Y12.8267 I-1.4164 J1.412
G3 X36.0352 Y10.5364 I2.8118 J-2.8189
G0 Z3.0
G0 X39.2069 Y10.1115
G0 Z-2.0
G1 F300.0 Z-4.0
G3 F100.0 X39.2 Y10.0068 I0.7746 J-0.1038
G2 Y9.9936 I-5.2 J-0.0067
G3 X39.4298 Y9.4387 I0.7824 J-0.001
G2 X39.4394 Y9.4291 I-3.6725 J-3.6814
G3 X39.9927 Y9.1999 I0.5522 J0.5507
G2 X40.0065 I0.0073 J-5.2
G3 X40.5611 Y9.4296 I0.001 J0.7819
G2 X40.5707 Y9.4393 I3.6816 J-3.6723
G3 X40.8 Y9.9928 I-0.5509 J0.5524
G2 Y10.0071 I5.2 J0.0073
G3 X40.5706 Y10.5608 I-0.7805 J0.0011
G2 X40.5616 Y10.5698 I3.672 J3.6819
G3 X40.0058 Y10.8001 I-0.555 J-0.5537
G2 X39.992 I-0.0058 J5.2
G3 X39.4399 Y10.5714 I-0.0012 J-0.778
G2 X39.4296 Y10.5611 I-3.6826 J3.6713
G3 X39.2069 Y10.1115 I0.5519 J-0.5533
G1 F300.0 X37.6211 Y10.3239
G3 F100.0 X37.6 Y10.0047 I2.3605 J-0.3162
G2 Y9.9956 I-3.6 J-0.0046
G3 X38.2998 Y8.306 I2.3824 J-0.003
G2 X38.3064 Y8.2993 I-2.5425 J-2.5487
G3 X39.9949 Y7.5999 I1.6852 J1.6805
G2 X40.0045 I0.005 J-3.6
G3 X41.6939 Y8.2997 I0.003 J2.3819
G2 X41.7005 Y8.3064 I2.5488 J-2.5424
G3 X42.4 Y9.995 I-1.6807 J1.6853
G2 Y10.005 I3.6 J0.0051
G3 X41.7005 Y11.6937 I-2.3805 J0.0032
G2 X41.6942 Y11.6999 I2.5422 J2.549
G3 X40.004 Y12.4001 I-1.6876 J-1.6838
G2 X39.9944 I-0.004 J3.6
G3 X38.3068 Y11.701 I-0.0036 J-2.3779
G2 X38.2997 Y11.6939 I-2.5495 J2.5417
G3 X37.6211 Y10.3239 I1.6819 J-1.6861
G1 F300.0 X36.0352 Y10.5364
G3 F100.0 X36.0 Y10.0026 I3.9463 J-0.5286
G2 Y9.9976 I-2.0 J-0.0026
G3 X37.1698 Y7.1732 I3.9824 J-0.005
G2 X37.1735 Y7.1695 I-1.4125 J-1.4159
G3 X39.9972 Y5.9999 I2.8181 J2.8103
G2 X40.0025 I0.0028 J-2.0
G3 X42.8267 Y7.1697 I0.005 J3.9819
G2 X42.8304 Y7.1735 I1.416 J-1.4124
G3 X44.0 Y9.9973 I-2.8106 J2.8182
G2 Y10.0028 I2.0 J0.0028
G3 X42.8303 Y12.8266 I-3.9805 J0.0054
G2 X42.8269 Y12.8301 I1.4123 J1.4161
G3 X40.0022 Y14.0001 I-2.8202 J-2.814
G2 X39.9969 I-0.0022 J2.0
G3 X37.1737 Y12.8306 I-0.0061 J-3.9779
G2 X37.1697 Y12.8267 I-1.4164 J1.412
G3 X36.0352 Y10.5364 I2.8118 J-2.8189
G0 Z3.0
G0 X39.2069 Y10.1115
G0 Z-3.0
G1 F300.0 Z-4.5
G3 F100.0 X39.2 Y10.0068 I0.7746 J-0.1038
G2 Y9.9936 I-5.2 J-0.0067
G3 X39.4298 Y9.4387 I0.7824 J-0.001
G2 X39.4394 Y9.4291 I-3.6725 J-3.6814
G3 X39.9927 Y9.1999 I0.5522 J0.5507
G2 X40.0065 I0.0073 J-5.2
G3 X40.5611 Y9.4296 I0.001 J0.7819
G2 X40.5707 Y9.4393 I3.6816 J-3.6723
G3 X40.8 Y9.9928 I-0.5509 J0.5524
G2 Y10.0071 I5.2 J0.0073
G3 X40.5706 Y10.5608 I-0.7805 J0.0011
G2 X40.5616 Y10.5698 I3.672 J3.6819
G3 X40.0058 Y10.8001 I-0.555 J-0.5537
G2 X39.992 I-0.0058 J5.2
G3 X39.4399 Y10.5714 I-0.0012 J-0.778
G2 X39.4296 Y10.5611 I-3.6826 J3.6713
G3 X39.2069 Y10.1115 I0.5519 J-0.5533
G1 F300.0 X37.6211 Y10.3239
G3 F100.0 X37.6 Y10.0047 I2.3605 J-0.3162
G2 Y9.9956 I-3.6 J-0.0046
G3 X38.2998 Y8.306 I2.3824 J-0.003
G2 X38.3064 Y8.2993 I-2.5425 J-2.5487
G3 X39.9949 Y7.5999 I1.6852 J1.6805
G2 X40.0045 I0.005 J-3.6
G3 X41.6939 Y8.2997 I0.003 J2.3819
G2 X41.7005 Y8.3064 I2.5488 J-2.5424
G3 X42.4 Y9.995 I-1.6807 J1.6853
G2 Y10.005 I3.6 J0.0051
G3 X41.7005 Y11.6937 I-2.3805 J0.0032
G2 X41.6942 Y11.6999 I2.5422 J2.549
G3 X40.004 Y12.4001 I-1.6876 J-1.6838
G2 X39.9944 I-0.004 J3.6
G3 X38.3068 Y11.701 I-0.0036 J-2.3779
G2 X38.2997 Y11.6939 I-2.5495 J2.5417
G3 X37.6211 Y10.3239 I1.6819 J-1.6861
G1 F300.0 X36.0352 Y10.5364
G3 F100.0 X36.0 Y10.0026 I3.9463 J-0.5286
G2 Y9.9976 I-2.0 J-0.0026
G3 X37.1698 Y7.1732 I3.9824 J-0.005
G2 X37.1735 Y7.1695 I-1.4125 J-1.4159
G3 X39.9972 Y5.9999 I2.8181 J2.8103
G2 X40.0025 I0.0028 J-2.0
G3 X42.8267 Y7.1697 I0.005 J3.9819
G2 X42.8304 Y7.1735 I1.416 J-1.4124
G3 X44.0 Y9.9973 I-2.8106 J2.8182
G2 Y10.0028 I2.0 J0.0028
G3 X42.8303 Y12.8266 I-3.9805 J0.0054
G2 X42.8269 Y12.8301 I1.4123 J1.4161
G3 X40.0022 Y14.0001 I-2.8202 J-2.814
G2 X39.9969 I-0.0022 J2.0
G3 X37.1737 Y12.8306 I-0.0061 J-3.9779
G2 X37.1697 Y12.8267 I-1.4164 J1.412
G3 X36.0352 Y10.5364 I2.8118 J-2.8189
G0 Z3.0
G0 X39.7353 Y24.3798
G0 Z1.0
G1 F300.0 Z-1.0
G1 F100.0 X40.935
G1 Y32.9355
G1 X39.7353
G1 Y24.3798
G1 F300.0 X38.9353
G1 F100.0 Y23.5798
G1 X41.735
G1 Y33.7355
G1 X38.9353
G1 Y24.3798
G1 F300.0 X37.3353
G1 F100.0 Y22.7271
G2 Y22.7201 I-2.0 J0.0
G3 X37.4597 Y22.2706 I0.8635 J-0.003
G2 X37.4621 Y22.2665 I-1.712 J-1.034
G3 X37.7349 Y22.0182 I0.5501 J0.3304
G3 X37.9165 Y21.9798 I0.1823 J0.4132
G1 X42.7526
G3 X43.0281 Y22.0714 I-0.0015 J0.4646
G3 X43.2765 Y22.4034 I-0.4392 J0.5875
G2 X43.2782 Y22.4079 I1.8747 J-0.6969
G3 X43.335 Y22.7235 I-0.8383 J0.314
G2 Y22.7271 I2.0 J0.0036
G1 Y34.5882
G2 X43.3351 Y34.5953 I2.0 J0.0
G3 X43.2107 Y35.0448 I-0.8635 J0.003
G2 X43.2082 Y35.0489 I1.712 J1.034
G3 X42.9354 Y35.2971 I-0.5501 J-0.3304
G3 X42.7538 Y35.3355 I-0.1823 J-0.4132
G1 X37.9177
G3 X37.6422 Y35.2439 I0.0015 J-0.4646
G3 X37.3939 Y34.912 I0.4392 J-0.5875
G2 X37.3922 Y34.9074 I-1.8747 J0.6969
G3 X37.3353 Y34.5918 I0.8383 J-0.314
G2 Y34.5882 I-2.0 J-0.0036
G1 Y24.3798
G1 F300.0 X39.7353
G1 Z-2.0
G1 F100.0 X40.935
G1 Y32.9355
G1 X39.7353
G1 Y24.3798
G1 F300.0 X38.9353
G1 F100.0 Y23.5798
G1 X41.735
G1 Y33.7355
G1 X38.9353
G1 Y24.3798
G1 F300.0 X37.3353
G1 F100.0 Y22.7271
G2 Y22.7201 I-2.0 J0.0
G3 X37.4597 Y22.2706 I0.8635 J-0.003
G2 X37.4621 Y22.2665 I-1.712 J-1.034
G3 X37.7349 Y22.0182 I0.5501 J0.3304
G3 X37.9165 Y21.9798 I0.1823 J0.4132
G1 X42.7526
G3 X43.0281 Y22.0714 I-0.0015 J0.4646
G3 X43.2765 Y22.4034 I-0.4392 J0.5875
G2 X43.2782 Y22.4079 I1.8747 J-0.6969
G3 X43.335 Y22.7235 I-0.8383 J0.314
G2 Y22.7271 I2.0 J0.0036
G1 Y34.5882
G2 X43.3351 Y34.5953 I2.0 J0.0
G3 X43.2107 Y35.0448 I-0.8635 J0.003
G2 X43.2082 Y35.0489 I1.712 J1.034
G3 X42.9354 Y35.2971 I-0.5501 J-0.3304
G3 X42.7538 Y35.3355 I-0.1823 J-0.4132
G1 X37.9177
G3 X37.6422 Y35.2439 I0.0015 J-0.4646
G3 X37.3939 Y34.912 I0.4392 J-0.5875
G2 X37.3922 Y34.9074 I-1.8747 J0.6969
G3 X37.3353 Y34.5918 I0.8383 J-0.314
G2 Y34.5882 I-2.0 J-0.0036
G1 Y24.3798
G1 F300.0 X39.7353
G1 Z-3.0
G1 F100.0 X40.935
G1 Y32.9355
G1 X39.7353
G1 Y24.3798
G1 F300.0 X38.9353
G1 F100.0 Y23.5798
G1 X41.735
G1 Y33.7355
G1 X38.9353
G1 Y24.3798
G1 F300.0 X37.3353
G1 F100.0 Y22.7271
G2 Y22.7201 I-2.0 J0.0
G3 X37.4597 Y22.2706 I0.8635 J-0.003
G2 X37.4621 Y22.2665 I-1.712 J-1.034
G3 X37.7349 Y22.0182 I0.5501 J0.3304
G3 X37.9165 Y21.9798 I0.1823 J0.4132
G1 X42.7526
G3 X43.0281 Y22.0714 I-0.0015 J0.4646
G3 X43.2765 Y22.4034 I-0.4392 J0.5875
G2 X43.2782 Y22.4079 I1.8747 J-0.6969
G3 X43.335 Y22.7235 I-0.8383 J0.314
G2 Y22.7271 I2.0 J0.0036
G1 Y34.5882
G2 X43.3351 Y34.5953 I2.0 J0.0
G3 X43.2107 Y35.0448 I-0.8635 J0.003
G2 X43.2082 Y35.0489 I1.712 J1.034
G3 X42.9354 Y35.2971 I-0.5501 J-0.3304
G3 X42.7538 Y35.3355 I-0.1823 J-0.4132
G1 X37.9177
G3 X37.6422 Y35.2439 I0.0015 J-0.4646
G3 X37.3939 Y34.912 I0.4392 J-0.5875
G2 X37.3922 Y34.9074 I-1.8747 J0.6969
G3 X37.3353 Y34.5918 I0.8383 J-0.314
G2 Y34.5882 I-2.0 J-0.0036
G1 Y24.3798
G1 F300.0 X39.7353
G1 Z-4.0
G1 F100.0 X40.935
G1 Y32.9355
G1 X39.7353
G1 Y24.3798
G1 F300.0 X38.9353
G1 F100.0 Y23.5798
G1 X41.735
G1 Y33.7355
G1 X38.9353
G1 Y24.3798
G1 F300.0 X37.3353
G1 F100.0 Y22.7271
G2 Y22.7201 I-2.0 J0.0
G3 X37.4597 Y22.2706 I0.8635 J-0.003
G2 X37.4621 Y22.2665 I-1.712 J-1.034
G3 X37.7349 Y22.0182 I0.5501 J0.3304
G3 X37.9165 Y21.9798 I0.1823 J0.4132
G1 X42.7526
G3 X43.0281 Y22.0714 I-0.0015 J0.4646
G3 X43.2765 Y22.4034 I-0.4392 J0.5875
G2 X43.2782 Y22.4079 I1.8747 J-0.6969
G3 X43.335 Y22.7235 I-0.8383 J0.314
G2 Y22.7271 I2.0 J0.0036
G1 Y34.5882
G2 X43.3351 Y34.5953 I2.0 J0.0
G3 X43.2107 Y35.0448 I-0.8635 J0.003
G2 X43.2082 Y35.0489 I1.712 J1.034
G3 X42.9354 Y35.2971 I-0.5501 J-0.3304
G3 X42.7538 Y35.3355 I-0.1823 J-0.4132
G1 X37.9177
G3 X37.6422 Y35.2439 I0.0015 J-0.4646
G3 X37.3939 Y34.912 I0.4392 J-0.5875
G2 X37.3922 Y34.9074 I-1.8747 J0.6969
G3 X37.3353 Y34.5918 I0.8383 J-0.314
G2 Y34.5882 I-2.0 J-0.0036
G1 Y24.3798
G1 F300.0 X39.7353
G1 Z-4.5
G1 F100.0 X40.935
G1 Y32.9355
G1 X39.7353
G1 Y24.3798
G1 F300.0 X38.9353
G1 F100.0 Y23.5798
G1 X41.735
G1 Y33.7355
G1 X38.9353
G1 Y24.3798
G1 F300.0 X37.3353
G1 F100.0 Y22.7271
G2 Y22.7201 I-2.0 J0.0
G3 X37.4597 Y22.2706 I0.8635 J-0.003
G2 X37.4621 Y22.2665 I-1.712 J-1.034
G3 X37.7349 Y22.0182 I0.5501 J0.3304
G3 X37.9165 Y21.9798 I0.1823 J0.4132
G1 X42.7526
G3 X43.0281 Y22.0714 I-0.0015 J0.4646
G3 X43.2765 Y22.4034 I-0.4392 J0.5875
G2 X43.2782 Y22.4079 I1.8747 J-0.6969
G3 X43.335 Y22.7235 I-0.8383 J0.314
G2 Y22.7271 I2.0 J0.0036
G1 Y34.5882
G2 X43.3351 Y34.5953 I2.0 J0.0
G3 X43.2107 Y35.0448 I-0.8635 J0.003
G2 X43.2082 Y35.0489 I1.712 J1.034
G3 X42.9354 Y35.2971 I-0.5501 J-0.3304
G3 X42.7538 Y35.3355 I-0.1823 J-0.4132
G1 X37.9177
G3 X37.6422 Y35.2439 I0.0015 J-0.4646
G3 X37.3939 Y34.912 I0.4392 J-0.5875
G2 X37.3922 Y34.9074 I-1.8747 J0.6969
G3 X37.3353 Y34.5918 I0.8383 J-0.314
G2 Y34.5882 I-2.0 J-0.0036
G1 Y24.3798
( Profile1 )
S1000
G0 Z3.0
G0 X15.5001 Y10.0028
G0 Z1.0
G1 F50.0 Z-1.0
G3 F100.0 X13.8911 Y13.8873 I-5.4754 J0.0075
G2 X13.8875 Y13.8908 I1.4123 J1.4161
G3 X10.0024 Y15.5001 I-3.8787 J-3.8696
G2 X9.9971 I-0.0024 J2.0
G3 X6.113 Y13.8912 I-0.0081 J-5.4735
G2 X6.1092 Y13.8874 I-1.4163 J1.4121
G3 X4.5001 Y10.0026 I3.8682 J-3.8779
G2 Y9.9975 I-2.0 J-0.0025
G3 X6.1092 Y6.1126 I5.4772 J-0.0071
G2 X6.1126 Y6.1092 I-1.4125 J-1.416
G3 X9.9978 Y4.4999 I3.8788 J3.8698
G2 X10.0031 I0.0023 J-2.0
G3 X13.8871 Y6.1088 I0.0082 J5.4731
G2 X13.8911 Y6.1128 I1.4163 J-1.4121
G3 X15.5001 Y9.9974 I-3.8669 J3.8771
G2 Y10.0028 I2.0 J0.0027
G1 F50.0 Z-1.7
G3 F100.0 X13.8911 Y13.8873 I-5.4754 J0.0075
G2 X13.8875 Y13.8908 I1.4123 J1.4161
G3 X10.0024 Y15.5001 I-3.8787 J-3.8696
G2 X9.9971 I-0.0024 J2.0
G3 X6.113 Y13.8912 I-0.0081 J-5.4735
G2 X6.1092 Y13.8874 I-1.4163 J1.4121
G3 X4.5001 Y10.0026 I3.8682 J-3.8779
G2 Y9.9975 I-2.0 J-0.0025
G3 X6.1092 Y6.1126 I5.4772 J-0.0071
G2 X6.1126 Y6.1092 I-1.4125 J-1.416
G3 X9.9978 Y4.4999 I3.8788 J3.8698
G2 X10.0031 I0.0023 J-2.0
G3 X13.8871 Y6.1088 I0.0082 J5.4731
G2 X13.8911 Y6.1128 I1.4163 J-1.4121
G3 X15.5001 Y9.9974 I-3.8669 J3.8771
G2 Y10.0028 I2.0 J0.0027
G0 Z3.0
G0 X34.5 Y10.008
G0 Z1.0
G1 F50.0 Z-1.0
G3 F100.0 Y10.0026 I5.4773 J0.0015
G2 Y9.9975 I-2.0 J-0.0025
G3 X36.109 Y6.1126 I5.4772 J-0.0071
G2 X36.1124 Y6.1092 I-1.4125 J-1.416
G3 X39.9976 Y4.4999 I3.8788 J3.8698
G2 X40.003 I0.0023 J-2.0
G3 X43.887 Y6.1088 I0.0082 J5.4731
G2 X43.891 Y6.1128 I1.4163 J-1.4121
G3 X45.4999 Y9.9974 I-3.8669 J3.8771
G2 Y10.0028 I2.0 J0.0027
G3 X43.891 Y13.8873 I-5.4754 J0.0075
G2 X43.8874 Y13.8908 I1.4123 J1.4161
G3 X40.0023 Y15.5001 I-3.8787 J-3.8696
G2 X39.997 I-0.0024 J2.0
G3 X36.1129 Y13.8912 I-0.0081 J-5.4735
G2 X36.1091 Y13.8874 I-1.4163 J1.4121
G3 X34.5 Y10.008 I3.8682 J-3.8779
G1 F50.0 Z-1.7
G3 F100.0 Y10.0026 I5.4773 J0.0015
G2 Y9.9975 I-2.0 J-0.0025
G3 X36.109 Y6.1126 I5.4772 J-0.0071
G2 X36.1124 Y6.1092 I-1.4125 J-1.416
G3 X39.9976 Y4.4999 I3.8788 J3.8698
G2 X40.003 I0.0023 J-2.0
G3 X43.887 Y6.1088 I0.0082 J5.4731
G2 X43.891 Y6.1128 I1.4163 J-1.4121
G3 X45.4999 Y9.9974 I-3.8669 J3.8771
G2 Y10.0028 I2.0 J0.0027
G3 X43.891 Y13.8873 I-5.4754 J0.0075
G2 X43.8874 Y13.8908 I1.4123 J1.4161
G3 X40.0023 Y15.5001 I-3.8787 J-3.8696
G2 X39.997 I-0.0024 J2.0
G3 X36.1129 Y13.8912 I-0.0081 J-5.4735
G2 X36.1091 Y13.8874 I-1.4163 J1.4121
G3 X34.5 Y10.008 I3.8682 J-3.8779
( Profile2 )
S1000
G0 Z3.0
G0 X52.0 Y0.9999
G0 Z1.0
G1 F50.0 Z-1.0
G2 F100.0 X49.0002 Y-2.0 I-3.0002 J0.0004
G1 X48.9999
G1 X48.8694
G1 X29.9999
G1 X29.9998
G1 X20.0001 Y-1.9993
G1 X20.0
G1 X20.0002
G1 X20.0001
G1 X1.0002 Y-2.0
G2 X0.9997 I-0.0001 J2.0
G2 X-2.0 Y0.9997 I0.0006 J3.0003
G2 Y1.0001 I2.0 J0.0004
G1 Y6.0007
G1 Y20.0
G1 Y47.9996
G2 X-1.3868 Y51.0662 I7.9341 J0.0081
G2 X-1.3862 Y51.0677 I1.8454 J-0.771
G2 X0.3466 Y53.6508 I7.4283 J-3.1103
G2 X5.9991 Y56.0007 I5.6559 J-5.6316
G2 X6.0 I0.0009 J-2.0
G1 X43.999
G2 X47.0656 Y55.3875 I0.0081 J-7.9341
G2 X47.067 Y55.3869 I-0.771 J-1.8454
G2 X49.6501 Y53.6541 I-3.1103 J-7.4283
G2 X52.0 Y48.0015 I-5.6316 J-5.6559
G2 Y48.0007 I-2.0 J-0.0009
G1 Y20.0
G1 Y6.0007
G1 Y1.0971
G1 Y1.0001
G1 Y0.9999
G1 F50.0 Z-2.0
G2 F100.0 X49.0002 Y-2.0 I-3.0002 J0.0004
G1 X48.9999
G1 X48.8694
G1 X29.9999
G1 X29.9998
G1 X20.0001 Y-1.9993
G1 X20.0
G1 X20.0002
G1 X20.0001
G1 X1.0002 Y-2.0
G2 X0.9997 I-0.0001 J2.0
G2 X-2.0 Y0.9997 I0.0006 J3.0003
G2 Y1.0001 I2.0 J0.0004
G1 Y6.0007
G1 Y20.0
G1 Y47.9996
G2 X-1.3868 Y51.0662 I7.9341 J0.0081
G2 X-1.3862 Y51.0677 I1.8454 J-0.771
G2 X0.3466 Y53.6508 I7.4283 J-3.1103
G2 X5.9991 Y56.0007 I5.6559 J-5.6316
G2 X6.0 I0.0009 J-2.0
G1 X43.999
G2 X47.0656 Y55.3875 I0.0081 J-7.9341
G2 X47.067 Y55.3869 I-0.771 J-1.8454
G2 X49.6501 Y53.6541 I-3.1103 J-7.4283
G2 X52.0 Y48.0015 I-5.6316 J-5.6559
G2 Y48.0007 I-2.0 J-0.0009
G1 Y20.0
G1 Y6.0007
G1 Y1.0971
G1 Y1.0001
G1 Y0.9999
G1 F50.0 Z-3.0
G2 F100.0 X49.0002 Y-2.0 I-3.0002 J0.0004
G1 X48.9999
G1 X48.8694
G1 X29.9999
G1 X29.9998
G1 X20.0001 Y-1.9993
G1 X20.0
G1 X20.0002
G1 X20.0001
G1 X1.0002 Y-2.0
G2 X0.9997 I-0.0001 J2.0
G2 X-2.0 Y0.9997 I0.0006 J3.0003
G2 Y1.0001 I2.0 J0.0004
G1 Y6.0007
G1 Y20.0
G1 Y47.9996
G2 X-1.3868 Y51.0662 I7.9341 J0.0081
G2 X-1.3862 Y51.0677 I1.8454 J-0.771
G2 X0.3466 Y53.6508 I7.4283 J-3.1103
G2 X5.9991 Y56.0007 I5.6559 J-5.6316
G2 X6.0 I0.0009 J-2.0
G1 X43.999
G2 X47.0656 Y55.3875 I0.0081 J-7.9341
G2 X47.067 Y55.3869 I-0.771 J-1.8454
G2 X49.6501 Y53.6541 I-3.1103 J-7.4283
G2 X52.0 Y48.0015 I-5.6316 J-5.6559
G2 Y48.0007 I-2.0 J-0.0009
G1 Y20.0
G1 Y6.0007
G1 Y1.0971
G1 Y1.0001
G1 Y0.9999
G1 F50.0 Z-4.0
G2 F100.0 X49.0002 Y-2.0 I-3.0002 J0.0004
G1 X48.9999
G1 X48.8694
G1 X29.9999
G1 X29.9998
G1 X20.0001 Y-1.9993
G1 X20.0
G1 X20.0002
G1 X20.0001
G1 X1.0002 Y-2.0
G2 X0.9997 I-0.0001 J2.0
G2 X-2.0 Y0.9997 I0.0006 J3.0003
G2 Y1.0001 I2.0 J0.0004
G1 Y6.0007
G1 Y20.0
G1 Y47.9996
G2 X-1.3868 Y51.0662 I7.9341 J0.0081
G2 X-1.3862 Y51.0677 I1.8454 J-0.771
G2 X0.3466 Y53.6508 I7.4283 J-3.1103
G2 X5.9991 Y56.0007 I5.6559 J-5.6316
G2 X6.0 I0.0009 J-2.0
G1 X43.999
G2 X47.0656 Y55.3875 I0.0081 J-7.9341
G2 X47.067 Y55.3869 I-0.771 J-1.8454
G2 X49.6501 Y53.6541 I-3.1103 J-7.4283
G2 X52.0 Y48.0015 I-5.6316 J-5.6559
G2 Y48.0007 I-2.0 J-0.0009
G1 Y20.0
G1 Y6.0007
G1 Y1.0971
G1 Y1.0001
G1 Y0.9999
G1 F50.0 Z-4.5
G2 F100.0 X49.0002 Y-2.0 I-3.0002 J0.0004
G1 X48.9999
G1 X48.8694
G1 X29.9999
G1 X29.9998
G1 X20.0001 Y-1.9993
G1 X20.0
G1 X20.0002
G1 X20.0001
G1 X1.0002 Y-2.0
G2 X0.9997 I-0.0001 J2.0
G2 X-2.0 Y0.9997 I0.0006 J3.0003
G2 Y1.0001 I2.0 J0.0004
G1 Y6.0007
G1 Y20.0
G1 Y47.9996
G2 X-1.3868 Y51.0662 I7.9341 J0.0081
G2 X-1.3862 Y51.0677 I1.8454 J-0.771
G2 X0.3466 Y53.6508 I7.4283 J-3.1103
G2 X5.9991 Y56.0007 I5.6559 J-5.6316
G2 X6.0 I0.0009 J-2.0
G1 X43.999
G2 X47.0656 Y55.3875 I0.0081 J-7.9341
G2 X47.067 Y55.3869 I-0.771 J-1.8454
G2 X49.6501 Y53.6541 I-3.1103 J-7.4283
G2 X52.0 Y48.0015 I-5.6316 J-5.6559
G2 Y48.0007 I-2.0 J-0.0009
G1 Y20.0
G1 Y6.0007
G1 Y1.0971
G1 Y1.0001
G1 Y0.9999
G0 Z3.0
M5
M30
