( Made using CamBam - http://www.cambam.co.uk )
( picker head - top motor mount 9/3/2013 11:14:42 AM )
( T4 : 4.0 )
G21 G90 G64 G40
G0 Z3.0
( T4 : 4.0 )
T4 M6
( Profile2 )
G17
M3 S1000
G0 X52.0 Y0.9999
G0 Z1.0
G1 F50.0 Z-1.0
G2 F100.0 X49.0002 Y-2.0 I-3.0002 J0.0004
G1 X48.9999
G1 X48.8694
G1 X29.9999
G1 X29.9998
G1 X20.0001 Y-1.9993
G1 X20.0
G1 X20.0002
G1 X20.0001
G1 X1.0002 Y-2.0
G2 X0.9997 I-0.0001 J2.0
G2 X-2.0 Y0.9997 I0.0006 J3.0003
G2 Y1.0001 I2.0 J0.0004
G1 Y6.0007
G1 Y20.0
G1 Y47.9996
G2 X-1.3868 Y51.0662 I7.9341 J0.0081
G2 X-1.3862 Y51.0677 I1.8454 J-0.771
G2 X0.3466 Y53.6508 I7.4283 J-3.1103
G2 X5.9991 Y56.0007 I5.6559 J-5.6316
G2 X6.0 I0.0009 J-2.0
G1 X43.999
G2 X47.0656 Y55.3875 I0.0081 J-7.9341
G2 X47.067 Y55.3869 I-0.771 J-1.8454
G2 X49.6501 Y53.6541 I-3.1103 J-7.4283
G2 X52.0 Y48.0015 I-5.6316 J-5.6559
G2 Y48.0007 I-2.0 J-0.0009
G1 Y20.0
G1 Y6.0007
G1 Y1.0971
G1 Y1.0001
G1 Y0.9999
G1 F50.0 Z-2.0
G2 F100.0 X49.0002 Y-2.0 I-3.0002 J0.0004
G1 X48.9999
G1 X48.8694
G1 X29.9999
G1 X29.9998
G1 X20.0001 Y-1.9993
G1 X20.0
G1 X20.0002
G1 X20.0001
G1 X1.0002 Y-2.0
G2 X0.9997 I-0.0001 J2.0
G2 X-2.0 Y0.9997 I0.0006 J3.0003
G2 Y1.0001 I2.0 J0.0004
G1 Y6.0007
G1 Y20.0
G1 Y47.9996
G2 X-1.3868 Y51.0662 I7.9341 J0.0081
G2 X-1.3862 Y51.0677 I1.8454 J-0.771
G2 X0.3466 Y53.6508 I7.4283 J-3.1103
G2 X5.9991 Y56.0007 I5.6559 J-5.6316
G2 X6.0 I0.0009 J-2.0
G1 X43.999
G2 X47.0656 Y55.3875 I0.0081 J-7.9341
G2 X47.067 Y55.3869 I-0.771 J-1.8454
G2 X49.6501 Y53.6541 I-3.1103 J-7.4283
G2 X52.0 Y48.0015 I-5.6316 J-5.6559
G2 Y48.0007 I-2.0 J-0.0009
G1 Y20.0
G1 Y6.0007
G1 Y1.0971
G1 Y1.0001
G1 Y0.9999
G1 F50.0 Z-3.0
G2 F100.0 X49.0002 Y-2.0 I-3.0002 J0.0004
G1 X48.9999
G1 X48.8694
G1 X29.9999
G1 X29.9998
G1 X20.0001 Y-1.9993
G1 X20.0
G1 X20.0002
G1 X20.0001
G1 X1.0002 Y-2.0
G2 X0.9997 I-0.0001 J2.0
G2 X-2.0 Y0.9997 I0.0006 J3.0003
G2 Y1.0001 I2.0 J0.0004
G1 Y6.0007
G1 Y20.0
G1 Y47.9996
G2 X-1.3868 Y51.0662 I7.9341 J0.0081
G2 X-1.3862 Y51.0677 I1.8454 J-0.771
G2 X0.3466 Y53.6508 I7.4283 J-3.1103
G2 X5.9991 Y56.0007 I5.6559 J-5.6316
G2 X6.0 I0.0009 J-2.0
G1 X43.999
G2 X47.0656 Y55.3875 I0.0081 J-7.9341
G2 X47.067 Y55.3869 I-0.771 J-1.8454
G2 X49.6501 Y53.6541 I-3.1103 J-7.4283
G2 X52.0 Y48.0015 I-5.6316 J-5.6559
G2 Y48.0007 I-2.0 J-0.0009
G1 Y20.0
G1 Y6.0007
G1 Y1.0971
G1 Y1.0001
G1 Y0.9999
G1 F50.0 Z-4.0
G2 F100.0 X49.0002 Y-2.0 I-3.0002 J0.0004
G1 X48.9999
G1 X48.8694
G1 X29.9999
G1 X29.9998
G1 X20.0001 Y-1.9993
G1 X20.0
G1 X20.0002
G1 X20.0001
G1 X1.0002 Y-2.0
G2 X0.9997 I-0.0001 J2.0
G2 X-2.0 Y0.9997 I0.0006 J3.0003
G2 Y1.0001 I2.0 J0.0004
G1 Y6.0007
G1 Y20.0
G1 Y47.9996
G2 X-1.3868 Y51.0662 I7.9341 J0.0081
G2 X-1.3862 Y51.0677 I1.8454 J-0.771
G2 X0.3466 Y53.6508 I7.4283 J-3.1103
G2 X5.9991 Y56.0007 I5.6559 J-5.6316
G2 X6.0 I0.0009 J-2.0
G1 X43.999
G2 X47.0656 Y55.3875 I0.0081 J-7.9341
G2 X47.067 Y55.3869 I-0.771 J-1.8454
G2 X49.6501 Y53.6541 I-3.1103 J-7.4283
G2 X52.0 Y48.0015 I-5.6316 J-5.6559
G2 Y48.0007 I-2.0 J-0.0009
G1 Y20.0
G1 Y6.0007
G1 Y1.0971
G1 Y1.0001
G1 Y0.9999
G1 F50.0 Z-4.5
G2 F100.0 X49.0002 Y-2.0 I-3.0002 J0.0004
G1 X48.9999
G1 X48.8694
G1 X29.9999
G1 X29.9998
G1 X20.0001 Y-1.9993
G1 X20.0
G1 X20.0002
G1 X20.0001
G1 X1.0002 Y-2.0
G2 X0.9997 I-0.0001 J2.0
G2 X-2.0 Y0.9997 I0.0006 J3.0003
G2 Y1.0001 I2.0 J0.0004
G1 Y6.0007
G1 Y20.0
G1 Y47.9996
G2 X-1.3868 Y51.0662 I7.9341 J0.0081
G2 X-1.3862 Y51.0677 I1.8454 J-0.771
G2 X0.3466 Y53.6508 I7.4283 J-3.1103
G2 X5.9991 Y56.0007 I5.6559 J-5.6316
G2 X6.0 I0.0009 J-2.0
G1 X43.999
G2 X47.0656 Y55.3875 I0.0081 J-7.9341
G2 X47.067 Y55.3869 I-0.771 J-1.8454
G2 X49.6501 Y53.6541 I-3.1103 J-7.4283
G2 X52.0 Y48.0015 I-5.6316 J-5.6559
G2 Y48.0007 I-2.0 J-0.0009
G1 Y20.0
G1 Y6.0007
G1 Y1.0971
G1 Y1.0001
G1 Y0.9999
G0 Z3.0
M5
M30
