( Made using CamBam - http://www.cambam.co.uk )
( picker head - top motor mount 9/3/2013 11:44:10 AM )
( T4 : 4.0 )
G21 G90 G64 G40
G0 Z3.0
( T4 : 4.0 )
T4 M6
( Profile1 )
G17
M3 S1000
G0 X15.5001 Y10.0028
G0 Z1.0
G1 F50.0 Z-1.0
G3 F100.0 X13.8911 Y13.8873 I-5.4754 J0.0075
G2 X13.8875 Y13.8908 I1.4123 J1.4161
G3 X10.0024 Y15.5001 I-3.8787 J-3.8696
G2 X9.9971 I-0.0024 J2.0
G3 X6.113 Y13.8912 I-0.0081 J-5.4735
G2 X6.1092 Y13.8874 I-1.4163 J1.4121
G3 X4.5001 Y10.0026 I3.8682 J-3.8779
G2 Y9.9975 I-2.0 J-0.0025
G3 X6.1092 Y6.1126 I5.4772 J-0.0071
G2 X6.1126 Y6.1092 I-1.4125 J-1.416
G3 X9.9978 Y4.4999 I3.8788 J3.8698
G2 X10.0031 I0.0023 J-2.0
G3 X13.8871 Y6.1088 I0.0082 J5.4731
G2 X13.8911 Y6.1128 I1.4163 J-1.4121
G3 X15.5001 Y9.9974 I-3.8669 J3.8771
G2 Y10.0028 I2.0 J0.0027
G1 F50.0 Z-1.7
G3 F100.0 X13.8911 Y13.8873 I-5.4754 J0.0075
G2 X13.8875 Y13.8908 I1.4123 J1.4161
G3 X10.0024 Y15.5001 I-3.8787 J-3.8696
G2 X9.9971 I-0.0024 J2.0
G3 X6.113 Y13.8912 I-0.0081 J-5.4735
G2 X6.1092 Y13.8874 I-1.4163 J1.4121
G3 X4.5001 Y10.0026 I3.8682 J-3.8779
G2 Y9.9975 I-2.0 J-0.0025
G3 X6.1092 Y6.1126 I5.4772 J-0.0071
G2 X6.1126 Y6.1092 I-1.4125 J-1.416
G3 X9.9978 Y4.4999 I3.8788 J3.8698
G2 X10.0031 I0.0023 J-2.0
G3 X13.8871 Y6.1088 I0.0082 J5.4731
G2 X13.8911 Y6.1128 I1.4163 J-1.4121
G3 X15.5001 Y9.9974 I-3.8669 J3.8771
G2 Y10.0028 I2.0 J0.0027
G0 Z3.0
G0 X34.5 Y10.008
G0 Z1.0
G1 F50.0 Z-1.0
G3 F100.0 Y10.0026 I5.4773 J0.0015
G2 Y9.9975 I-2.0 J-0.0025
G3 X36.109 Y6.1126 I5.4772 J-0.0071
G2 X36.1124 Y6.1092 I-1.4125 J-1.416
G3 X39.9976 Y4.4999 I3.8788 J3.8698
G2 X40.003 I0.0023 J-2.0
G3 X43.887 Y6.1088 I0.0082 J5.4731
G2 X43.891 Y6.1128 I1.4163 J-1.4121
G3 X45.4999 Y9.9974 I-3.8669 J3.8771
G2 Y10.0028 I2.0 J0.0027
G3 X43.891 Y13.8873 I-5.4754 J0.0075
G2 X43.8874 Y13.8908 I1.4123 J1.4161
G3 X40.0023 Y15.5001 I-3.8787 J-3.8696
G2 X39.997 I-0.0024 J2.0
G3 X36.1129 Y13.8912 I-0.0081 J-5.4735
G2 X36.1091 Y13.8874 I-1.4163 J1.4121
G3 X34.5 Y10.008 I3.8682 J-3.8779
G1 F50.0 Z-1.7
G3 F100.0 Y10.0026 I5.4773 J0.0015
G2 Y9.9975 I-2.0 J-0.0025
G3 X36.109 Y6.1126 I5.4772 J-0.0071
G2 X36.1124 Y6.1092 I-1.4125 J-1.416
G3 X39.9976 Y4.4999 I3.8788 J3.8698
G2 X40.003 I0.0023 J-2.0
G3 X43.887 Y6.1088 I0.0082 J5.4731
G2 X43.891 Y6.1128 I1.4163 J-1.4121
G3 X45.4999 Y9.9974 I-3.8669 J3.8771
G2 Y10.0028 I2.0 J0.0027
G3 X43.891 Y13.8873 I-5.4754 J0.0075
G2 X43.8874 Y13.8908 I1.4123 J1.4161
G3 X40.0023 Y15.5001 I-3.8787 J-3.8696
G2 X39.997 I-0.0024 J2.0
G3 X36.1129 Y13.8912 I-0.0081 J-5.4735
G2 X36.1091 Y13.8874 I-1.4163 J1.4121
G3 X34.5 Y10.008 I3.8682 J-3.8779
G0 Z3.0
M5
M30
