( Made using CamBam - http://www.cambam.co.uk )
( belt mount - 10mm 9/29/2013 12:34:49 PM )
( T4 : 4.0 )
G21 G90 G64 G40
G0 Z3.0
( T4 : 4.0 )
T4 M6
( Profile1 )
G17
M3 S1000
G0 X50.8236 Y37.0001
G0 Z1.0
G1 F50.0 Z-1.0
G2 F120.0 X52.0234 Y36.8582 I0.0145 J-5.0217
G2 X53.2716 Y36.3459 I-1.0099 J-4.2375
G2 X53.2769 Y36.3427 I-1.0367 J-1.7103
G2 X54.1338 Y35.6097 I-1.8487 J-3.0287
G2 X54.1402 Y35.6023 I-1.525 J-1.294
G2 X54.5928 Y34.8704 I-2.283 J-1.9179
G2 X54.8267 Y33.7616 I-2.5884 J-1.1251
G2 Y33.7501 I-2.0 J-0.0115
G1 Y32.125
G1 Y30.4999
G1 Y4.5002
G1 Y1.2501
G2 X54.8266 Y1.2292 I-2.0 J0.0
G2 X54.3558 Y-0.3103 I-2.8491 J0.0297
G2 X53.5244 Y-1.1767 I-2.7629 J1.8192
G2 X52.9935 Y-1.5016 I-2.3024 J3.1656
G2 X52.6443 Y-1.6597 I-1.6394 J3.1555
G2 X51.8665 Y-1.8937 I-1.7671 J4.4651
G2 X51.862 Y-1.8946 I-0.412 J1.9571
G2 X50.8236 Y-2.0 I-1.0237 J4.9179
G1 X31.8616
G2 X31.856 I0.0 J2.0
G2 X30.6483 Y-1.8682 I0.0161 J5.748
G2 X30.2953 Y-1.783 I1.5144 J7.0451
G2 X30.2889 Y-1.7813 I0.5183 J1.9317
G2 X28.8772 Y-1.2146 I1.7202 J6.3273
G2 X27.9288 Y-0.5516 I2.4341 J4.4914
G2 X27.3685 Y0.0648 I2.4844 J2.8212
G3 X27.3247 Y0.102 I-0.7212 J-0.8061
G3 X27.1311 Y0.2226 I-0.7852 J-1.0446
G2 X27.1234 Y0.2265 I0.9056 J1.7832
G3 X26.4809 Y0.4554 I-1.1835 J-2.3057
G2 X26.4674 Y0.4584 I0.4175 J1.9559
G3 X26.0934 Y0.5001 I-0.3831 J-1.736
G1 X5.4377
G2 X5.4269 I0.0 J2.0
G2 X4.3952 Y0.6002 I0.0307 J5.6864
G2 X3.5361 Y0.8121 I1.3076 J7.1482
G2 X3.4509 Y0.8384 I0.6464 J2.2407
G2 X3.3626 Y0.8678 I0.698 J2.248
G2 X1.6708 Y1.649 I2.5893 J7.8302
G2 X1.1807 Y1.9779 I3.2658 J5.3949
G2 X0.6087 Y2.4607 I3.0908 J4.2433
G1 X-0.0983 Y3.1478
G2 X-0.106 Y3.1553 I1.394 J1.4341
G2 X-0.7944 Y3.9771 I3.8826 J3.9519
G2 X-1.2842 Y4.7932 I5.6929 J3.9716
G2 X-1.9375 Y6.504 I7.1352 J3.7049
G2 X0.0 Y9.0001 I1.9375 J0.4961
G1 X27.8616
G1 Y26.0
G1 X0.015
G2 X-1.9179 Y28.5138 I0.0 J2.0
G2 X-1.4699 Y29.7757 I7.9626 J-2.1165
G2 X-0.8001 Y30.9755 I6.9739 J-3.1066
G2 X-0.7973 Y30.9794 I1.6515 J-1.1281
G2 X-0.1396 Y31.776 I4.8168 J-3.3074
G2 X-0.122 Y31.7937 I1.4236 J-1.4047
G1 X0.6092 Y32.5165
G2 X0.6199 Y32.527 I1.406 J-1.4224
G2 X1.354 Y33.1312 I3.979 J-4.0864
G2 X2.0781 Y33.5742 I4.1658 J-5.995
G2 X3.5744 Y34.1972 I3.9372 J-7.3484
G2 X4.6866 Y34.4463 I2.1163 J-6.8404
G2 X4.7039 Y34.4487 I0.2804 J-1.9802
G2 X5.4138 Y34.4999 I0.7809 J-5.8824
G2 X5.4377 Y34.5 I0.0239 J-1.9999
G1 X26.0943
G3 X26.4606 Y34.5403 I-0.0071 J1.748
G2 X26.4686 Y34.5421 I0.4272 J-1.9538
G3 X26.6241 Y34.5795 I-0.672 J3.1348
G3 X27.1721 Y34.8 I-0.6739 J2.4666
G2 X27.1758 Y34.8019 I0.9558 J-1.7568
G3 X27.3667 Y34.9328 I-0.5278 J0.9749
G2 X27.7791 Y35.4113 I3.0147 J-2.1811
G2 X27.7928 Y35.4245 I1.3988 J-1.4295
G2 X28.1722 Y35.7543 I3.5192 J-3.6658
G2 X28.1911 Y35.769 I1.2357 J-1.5726
G2 X29.013 Y36.287 I3.2287 J-4.2116
G2 X30.6367 Y36.8659 I3.0063 J-5.8662
G2 X31.8546 Y37.0001 I1.2383 J-5.6435
G2 X31.8616 I0.0071 J-2.0
G1 X50.8236
G1 F50.0 Z-2.0
G2 F120.0 X52.0234 Y36.8582 I0.0145 J-5.0217
G2 X53.2716 Y36.3459 I-1.0099 J-4.2375
G2 X53.2769 Y36.3427 I-1.0367 J-1.7103
G2 X54.1338 Y35.6097 I-1.8487 J-3.0287
G2 X54.1402 Y35.6023 I-1.525 J-1.294
G2 X54.5928 Y34.8704 I-2.283 J-1.9179
G2 X54.8267 Y33.7616 I-2.5884 J-1.1251
G2 Y33.7501 I-2.0 J-0.0115
G1 Y32.125
G1 Y30.4999
G1 Y4.5002
G1 Y1.2501
G2 X54.8266 Y1.2292 I-2.0 J0.0
G2 X54.3558 Y-0.3103 I-2.8491 J0.0297
G2 X53.5244 Y-1.1767 I-2.7629 J1.8192
G2 X52.9935 Y-1.5016 I-2.3024 J3.1656
G2 X52.6443 Y-1.6597 I-1.6394 J3.1555
G2 X51.8665 Y-1.8937 I-1.7671 J4.4651
G2 X51.862 Y-1.8946 I-0.412 J1.9571
G2 X50.8236 Y-2.0 I-1.0237 J4.9179
G1 X31.8616
G2 X31.856 I0.0 J2.0
G2 X30.6483 Y-1.8682 I0.0161 J5.748
G2 X30.2953 Y-1.783 I1.5144 J7.0451
G2 X30.2889 Y-1.7813 I0.5183 J1.9317
G2 X28.8772 Y-1.2146 I1.7202 J6.3273
G2 X27.9288 Y-0.5516 I2.4341 J4.4914
G2 X27.3685 Y0.0648 I2.4844 J2.8212
G3 X27.3247 Y0.102 I-0.7212 J-0.8061
G3 X27.1311 Y0.2226 I-0.7852 J-1.0446
G2 X27.1234 Y0.2265 I0.9056 J1.7832
G3 X26.4809 Y0.4554 I-1.1835 J-2.3057
G2 X26.4674 Y0.4584 I0.4175 J1.9559
G3 X26.0934 Y0.5001 I-0.3831 J-1.736
G1 X5.4377
G2 X5.4269 I0.0 J2.0
G2 X4.3952 Y0.6002 I0.0307 J5.6864
G2 X3.5361 Y0.8121 I1.3076 J7.1482
G2 X3.4509 Y0.8384 I0.6464 J2.2407
G2 X3.3626 Y0.8678 I0.698 J2.248
G2 X1.6708 Y1.649 I2.5893 J7.8302
G2 X1.1807 Y1.9779 I3.2658 J5.3949
G2 X0.6087 Y2.4607 I3.0908 J4.2433
G1 X-0.0983 Y3.1478
G2 X-0.106 Y3.1553 I1.394 J1.4341
G2 X-0.7944 Y3.9771 I3.8826 J3.9519
G2 X-1.2842 Y4.7932 I5.6929 J3.9716
G2 X-1.9375 Y6.504 I7.1352 J3.7049
G2 X0.0 Y9.0001 I1.9375 J0.4961
G1 X27.8616
G1 Y26.0
G1 X0.015
G2 X-1.9179 Y28.5138 I0.0 J2.0
G2 X-1.4699 Y29.7757 I7.9626 J-2.1165
G2 X-0.8001 Y30.9755 I6.9739 J-3.1066
G2 X-0.7973 Y30.9794 I1.6515 J-1.1281
G2 X-0.1396 Y31.776 I4.8168 J-3.3074
G2 X-0.122 Y31.7937 I1.4236 J-1.4047
G1 X0.6092 Y32.5165
G2 X0.6199 Y32.527 I1.406 J-1.4224
G2 X1.354 Y33.1312 I3.979 J-4.0864
G2 X2.0781 Y33.5742 I4.1658 J-5.995
G2 X3.5744 Y34.1972 I3.9372 J-7.3484
G2 X4.6866 Y34.4463 I2.1163 J-6.8404
G2 X4.7039 Y34.4487 I0.2804 J-1.9802
G2 X5.4138 Y34.4999 I0.7809 J-5.8824
G2 X5.4377 Y34.5 I0.0239 J-1.9999
G1 X26.0943
G3 X26.4606 Y34.5403 I-0.0071 J1.748
G2 X26.4686 Y34.5421 I0.4272 J-1.9538
G3 X26.6241 Y34.5795 I-0.672 J3.1348
G3 X27.1721 Y34.8 I-0.6739 J2.4666
G2 X27.1758 Y34.8019 I0.9558 J-1.7568
G3 X27.3667 Y34.9328 I-0.5278 J0.9749
G2 X27.7791 Y35.4113 I3.0147 J-2.1811
G2 X27.7928 Y35.4245 I1.3988 J-1.4295
G2 X28.1722 Y35.7543 I3.5192 J-3.6658
G2 X28.1911 Y35.769 I1.2357 J-1.5726
G2 X29.013 Y36.287 I3.2287 J-4.2116
G2 X30.6367 Y36.8659 I3.0063 J-5.8662
G2 X31.8546 Y37.0001 I1.2383 J-5.6435
G2 X31.8616 I0.0071 J-2.0
G1 X50.8236
G1 F50.0 Z-3.0
G2 F120.0 X52.0234 Y36.8582 I0.0145 J-5.0217
G2 X53.2716 Y36.3459 I-1.0099 J-4.2375
G2 X53.2769 Y36.3427 I-1.0367 J-1.7103
G2 X54.1338 Y35.6097 I-1.8487 J-3.0287
G2 X54.1402 Y35.6023 I-1.525 J-1.294
G2 X54.5928 Y34.8704 I-2.283 J-1.9179
G2 X54.8267 Y33.7616 I-2.5884 J-1.1251
G2 Y33.7501 I-2.0 J-0.0115
G1 Y32.125
G1 Y30.4999
G1 Y4.5002
G1 Y1.2501
G2 X54.8266 Y1.2292 I-2.0 J0.0
G2 X54.3558 Y-0.3103 I-2.8491 J0.0297
G2 X53.5244 Y-1.1767 I-2.7629 J1.8192
G2 X52.9935 Y-1.5016 I-2.3024 J3.1656
G2 X52.6443 Y-1.6597 I-1.6394 J3.1555
G2 X51.8665 Y-1.8937 I-1.7671 J4.4651
G2 X51.862 Y-1.8946 I-0.412 J1.9571
G2 X50.8236 Y-2.0 I-1.0237 J4.9179
G1 X31.8616
G2 X31.856 I0.0 J2.0
G2 X30.6483 Y-1.8682 I0.0161 J5.748
G2 X30.2953 Y-1.783 I1.5144 J7.0451
G2 X30.2889 Y-1.7813 I0.5183 J1.9317
G2 X28.8772 Y-1.2146 I1.7202 J6.3273
G2 X27.9288 Y-0.5516 I2.4341 J4.4914
G2 X27.3685 Y0.0648 I2.4844 J2.8212
G3 X27.3247 Y0.102 I-0.7212 J-0.8061
G3 X27.1311 Y0.2226 I-0.7852 J-1.0446
G2 X27.1234 Y0.2265 I0.9056 J1.7832
G3 X26.4809 Y0.4554 I-1.1835 J-2.3057
G2 X26.4674 Y0.4584 I0.4175 J1.9559
G3 X26.0934 Y0.5001 I-0.3831 J-1.736
G1 X5.4377
G2 X5.4269 I0.0 J2.0
G2 X4.3952 Y0.6002 I0.0307 J5.6864
G2 X3.5361 Y0.8121 I1.3076 J7.1482
G2 X3.4509 Y0.8384 I0.6464 J2.2407
G2 X3.3626 Y0.8678 I0.698 J2.248
G2 X1.6708 Y1.649 I2.5893 J7.8302
G2 X1.1807 Y1.9779 I3.2658 J5.3949
G2 X0.6087 Y2.4607 I3.0908 J4.2433
G1 X-0.0983 Y3.1478
G2 X-0.106 Y3.1553 I1.394 J1.4341
G2 X-0.7944 Y3.9771 I3.8826 J3.9519
G2 X-1.2842 Y4.7932 I5.6929 J3.9716
G2 X-1.9375 Y6.504 I7.1352 J3.7049
G2 X0.0 Y9.0001 I1.9375 J0.4961
G1 X27.8616
G1 Y26.0
G1 X0.015
G2 X-1.9179 Y28.5138 I0.0 J2.0
G2 X-1.4699 Y29.7757 I7.9626 J-2.1165
G2 X-0.8001 Y30.9755 I6.9739 J-3.1066
G2 X-0.7973 Y30.9794 I1.6515 J-1.1281
G2 X-0.1396 Y31.776 I4.8168 J-3.3074
G2 X-0.122 Y31.7937 I1.4236 J-1.4047
G1 X0.6092 Y32.5165
G2 X0.6199 Y32.527 I1.406 J-1.4224
G2 X1.354 Y33.1312 I3.979 J-4.0864
G2 X2.0781 Y33.5742 I4.1658 J-5.995
G2 X3.5744 Y34.1972 I3.9372 J-7.3484
G2 X4.6866 Y34.4463 I2.1163 J-6.8404
G2 X4.7039 Y34.4487 I0.2804 J-1.9802
G2 X5.4138 Y34.4999 I0.7809 J-5.8824
G2 X5.4377 Y34.5 I0.0239 J-1.9999
G1 X26.0943
G3 X26.4606 Y34.5403 I-0.0071 J1.748
G2 X26.4686 Y34.5421 I0.4272 J-1.9538
G3 X26.6241 Y34.5795 I-0.672 J3.1348
G3 X27.1721 Y34.8 I-0.6739 J2.4666
G2 X27.1758 Y34.8019 I0.9558 J-1.7568
G3 X27.3667 Y34.9328 I-0.5278 J0.9749
G2 X27.7791 Y35.4113 I3.0147 J-2.1811
G2 X27.7928 Y35.4245 I1.3988 J-1.4295
G2 X28.1722 Y35.7543 I3.5192 J-3.6658
G2 X28.1911 Y35.769 I1.2357 J-1.5726
G2 X29.013 Y36.287 I3.2287 J-4.2116
G2 X30.6367 Y36.8659 I3.0063 J-5.8662
G2 X31.8546 Y37.0001 I1.2383 J-5.6435
G2 X31.8616 I0.0071 J-2.0
G1 X50.8236
G1 F50.0 Z-4.0
G2 F120.0 X52.0234 Y36.8582 I0.0145 J-5.0217
G2 X53.2716 Y36.3459 I-1.0099 J-4.2375
G2 X53.2769 Y36.3427 I-1.0367 J-1.7103
G2 X54.1338 Y35.6097 I-1.8487 J-3.0287
G2 X54.1402 Y35.6023 I-1.525 J-1.294
G2 X54.5928 Y34.8704 I-2.283 J-1.9179
G2 X54.8267 Y33.7616 I-2.5884 J-1.1251
G2 Y33.7501 I-2.0 J-0.0115
G1 Y32.125
G1 Y30.4999
G1 Y4.5002
G1 Y1.2501
G2 X54.8266 Y1.2292 I-2.0 J0.0
G2 X54.3558 Y-0.3103 I-2.8491 J0.0297
G2 X53.5244 Y-1.1767 I-2.7629 J1.8192
G2 X52.9935 Y-1.5016 I-2.3024 J3.1656
G2 X52.6443 Y-1.6597 I-1.6394 J3.1555
G2 X51.8665 Y-1.8937 I-1.7671 J4.4651
G2 X51.862 Y-1.8946 I-0.412 J1.9571
G2 X50.8236 Y-2.0 I-1.0237 J4.9179
G1 X31.8616
G2 X31.856 I0.0 J2.0
G2 X30.6483 Y-1.8682 I0.0161 J5.748
G2 X30.2953 Y-1.783 I1.5144 J7.0451
G2 X30.2889 Y-1.7813 I0.5183 J1.9317
G2 X28.8772 Y-1.2146 I1.7202 J6.3273
G2 X27.9288 Y-0.5516 I2.4341 J4.4914
G2 X27.3685 Y0.0648 I2.4844 J2.8212
G3 X27.3247 Y0.102 I-0.7212 J-0.8061
G3 X27.1311 Y0.2226 I-0.7852 J-1.0446
G2 X27.1234 Y0.2265 I0.9056 J1.7832
G3 X26.4809 Y0.4554 I-1.1835 J-2.3057
G2 X26.4674 Y0.4584 I0.4175 J1.9559
G3 X26.0934 Y0.5001 I-0.3831 J-1.736
G1 X5.4377
G2 X5.4269 I0.0 J2.0
G2 X4.3952 Y0.6002 I0.0307 J5.6864
G2 X3.5361 Y0.8121 I1.3076 J7.1482
G2 X3.4509 Y0.8384 I0.6464 J2.2407
G2 X3.3626 Y0.8678 I0.698 J2.248
G2 X1.6708 Y1.649 I2.5893 J7.8302
G2 X1.1807 Y1.9779 I3.2658 J5.3949
G2 X0.6087 Y2.4607 I3.0908 J4.2433
G1 X-0.0983 Y3.1478
G2 X-0.106 Y3.1553 I1.394 J1.4341
G2 X-0.7944 Y3.9771 I3.8826 J3.9519
G2 X-1.2842 Y4.7932 I5.6929 J3.9716
G2 X-1.9375 Y6.504 I7.1352 J3.7049
G2 X0.0 Y9.0001 I1.9375 J0.4961
G1 X27.8616
G1 Y26.0
G1 X0.015
G2 X-1.9179 Y28.5138 I0.0 J2.0
G2 X-1.4699 Y29.7757 I7.9626 J-2.1165
G2 X-0.8001 Y30.9755 I6.9739 J-3.1066
G2 X-0.7973 Y30.9794 I1.6515 J-1.1281
G2 X-0.1396 Y31.776 I4.8168 J-3.3074
G2 X-0.122 Y31.7937 I1.4236 J-1.4047
G1 X0.6092 Y32.5165
G2 X0.6199 Y32.527 I1.406 J-1.4224
G2 X1.354 Y33.1312 I3.979 J-4.0864
G2 X2.0781 Y33.5742 I4.1658 J-5.995
G2 X3.5744 Y34.1972 I3.9372 J-7.3484
G2 X4.6866 Y34.4463 I2.1163 J-6.8404
G2 X4.7039 Y34.4487 I0.2804 J-1.9802
G2 X5.4138 Y34.4999 I0.7809 J-5.8824
G2 X5.4377 Y34.5 I0.0239 J-1.9999
G1 X26.0943
G3 X26.4606 Y34.5403 I-0.0071 J1.748
G2 X26.4686 Y34.5421 I0.4272 J-1.9538
G3 X26.6241 Y34.5795 I-0.672 J3.1348
G3 X27.1721 Y34.8 I-0.6739 J2.4666
G2 X27.1758 Y34.8019 I0.9558 J-1.7568
G3 X27.3667 Y34.9328 I-0.5278 J0.9749
G2 X27.7791 Y35.4113 I3.0147 J-2.1811
G2 X27.7928 Y35.4245 I1.3988 J-1.4295
G2 X28.1722 Y35.7543 I3.5192 J-3.6658
G2 X28.1911 Y35.769 I1.2357 J-1.5726
G2 X29.013 Y36.287 I3.2287 J-4.2116
G2 X30.6367 Y36.8659 I3.0063 J-5.8662
G2 X31.8546 Y37.0001 I1.2383 J-5.6435
G2 X31.8616 I0.0071 J-2.0
G1 X50.8236
G1 F50.0 Z-5.0
G2 F120.0 X52.0234 Y36.8582 I0.0145 J-5.0217
G2 X53.2716 Y36.3459 I-1.0099 J-4.2375
G2 X53.2769 Y36.3427 I-1.0367 J-1.7103
G2 X54.1338 Y35.6097 I-1.8487 J-3.0287
G2 X54.1402 Y35.6023 I-1.525 J-1.294
G2 X54.5928 Y34.8704 I-2.283 J-1.9179
G2 X54.8267 Y33.7616 I-2.5884 J-1.1251
G2 Y33.7501 I-2.0 J-0.0115
G1 Y32.125
G1 Y30.4999
G1 Y4.5002
G1 Y1.2501
G2 X54.8266 Y1.2292 I-2.0 J0.0
G2 X54.3558 Y-0.3103 I-2.8491 J0.0297
G2 X53.5244 Y-1.1767 I-2.7629 J1.8192
G2 X52.9935 Y-1.5016 I-2.3024 J3.1656
G2 X52.6443 Y-1.6597 I-1.6394 J3.1555
G2 X51.8665 Y-1.8937 I-1.7671 J4.4651
G2 X51.862 Y-1.8946 I-0.412 J1.9571
G2 X50.8236 Y-2.0 I-1.0237 J4.9179
G1 X31.8616
G2 X31.856 I0.0 J2.0
G2 X30.6483 Y-1.8682 I0.0161 J5.748
G2 X30.2953 Y-1.783 I1.5144 J7.0451
G2 X30.2889 Y-1.7813 I0.5183 J1.9317
G2 X28.8772 Y-1.2146 I1.7202 J6.3273
G2 X27.9288 Y-0.5516 I2.4341 J4.4914
G2 X27.3685 Y0.0648 I2.4844 J2.8212
G3 X27.3247 Y0.102 I-0.7212 J-0.8061
G3 X27.1311 Y0.2226 I-0.7852 J-1.0446
G2 X27.1234 Y0.2265 I0.9056 J1.7832
G3 X26.4809 Y0.4554 I-1.1835 J-2.3057
G2 X26.4674 Y0.4584 I0.4175 J1.9559
G3 X26.0934 Y0.5001 I-0.3831 J-1.736
G1 X5.4377
G2 X5.4269 I0.0 J2.0
G2 X4.3952 Y0.6002 I0.0307 J5.6864
G2 X3.5361 Y0.8121 I1.3076 J7.1482
G2 X3.4509 Y0.8384 I0.6464 J2.2407
G2 X3.3626 Y0.8678 I0.698 J2.248
G2 X1.6708 Y1.649 I2.5893 J7.8302
G2 X1.1807 Y1.9779 I3.2658 J5.3949
G2 X0.6087 Y2.4607 I3.0908 J4.2433
G1 X-0.0983 Y3.1478
G2 X-0.106 Y3.1553 I1.394 J1.4341
G2 X-0.7944 Y3.9771 I3.8826 J3.9519
G2 X-1.2842 Y4.7932 I5.6929 J3.9716
G2 X-1.9375 Y6.504 I7.1352 J3.7049
G2 X0.0 Y9.0001 I1.9375 J0.4961
G1 X27.8616
G1 Y26.0
G1 X0.015
G2 X-1.9179 Y28.5138 I0.0 J2.0
G2 X-1.4699 Y29.7757 I7.9626 J-2.1165
G2 X-0.8001 Y30.9755 I6.9739 J-3.1066
G2 X-0.7973 Y30.9794 I1.6515 J-1.1281
G2 X-0.1396 Y31.776 I4.8168 J-3.3074
G2 X-0.122 Y31.7937 I1.4236 J-1.4047
G1 X0.6092 Y32.5165
G2 X0.6199 Y32.527 I1.406 J-1.4224
G2 X1.354 Y33.1312 I3.979 J-4.0864
G2 X2.0781 Y33.5742 I4.1658 J-5.995
G2 X3.5744 Y34.1972 I3.9372 J-7.3484
G2 X4.6866 Y34.4463 I2.1163 J-6.8404
G2 X4.7039 Y34.4487 I0.2804 J-1.9802
G2 X5.4138 Y34.4999 I0.7809 J-5.8824
G2 X5.4377 Y34.5 I0.0239 J-1.9999
G1 X26.0943
G3 X26.4606 Y34.5403 I-0.0071 J1.748
G2 X26.4686 Y34.5421 I0.4272 J-1.9538
G3 X26.6241 Y34.5795 I-0.672 J3.1348
G3 X27.1721 Y34.8 I-0.6739 J2.4666
G2 X27.1758 Y34.8019 I0.9558 J-1.7568
G3 X27.3667 Y34.9328 I-0.5278 J0.9749
G2 X27.7791 Y35.4113 I3.0147 J-2.1811
G2 X27.7928 Y35.4245 I1.3988 J-1.4295
G2 X28.1722 Y35.7543 I3.5192 J-3.6658
G2 X28.1911 Y35.769 I1.2357 J-1.5726
G2 X29.013 Y36.287 I3.2287 J-4.2116
G2 X30.6367 Y36.8659 I3.0063 J-5.8662
G2 X31.8546 Y37.0001 I1.2383 J-5.6435
G2 X31.8616 I0.0071 J-2.0
G1 X50.8236
G1 F50.0 Z-6.0
G2 F120.0 X52.0234 Y36.8582 I0.0145 J-5.0217
G2 X53.2716 Y36.3459 I-1.0099 J-4.2375
G2 X53.2769 Y36.3427 I-1.0367 J-1.7103
G2 X54.1338 Y35.6097 I-1.8487 J-3.0287
G2 X54.1402 Y35.6023 I-1.525 J-1.294
G2 X54.5928 Y34.8704 I-2.283 J-1.9179
G2 X54.8267 Y33.7616 I-2.5884 J-1.1251
G2 Y33.7501 I-2.0 J-0.0115
G1 Y32.125
G1 Y30.4999
G1 Y4.5002
G1 Y1.2501
G2 X54.8266 Y1.2292 I-2.0 J0.0
G2 X54.3558 Y-0.3103 I-2.8491 J0.0297
G2 X53.5244 Y-1.1767 I-2.7629 J1.8192
G2 X52.9935 Y-1.5016 I-2.3024 J3.1656
G2 X52.6443 Y-1.6597 I-1.6394 J3.1555
G2 X51.8665 Y-1.8937 I-1.7671 J4.4651
G2 X51.862 Y-1.8946 I-0.412 J1.9571
G2 X50.8236 Y-2.0 I-1.0237 J4.9179
G1 X31.8616
G2 X31.856 I0.0 J2.0
G2 X30.6483 Y-1.8682 I0.0161 J5.748
G2 X30.2953 Y-1.783 I1.5144 J7.0451
G2 X30.2889 Y-1.7813 I0.5183 J1.9317
G2 X28.8772 Y-1.2146 I1.7202 J6.3273
G2 X27.9288 Y-0.5516 I2.4341 J4.4914
G2 X27.3685 Y0.0648 I2.4844 J2.8212
G3 X27.3247 Y0.102 I-0.7212 J-0.8061
G3 X27.1311 Y0.2226 I-0.7852 J-1.0446
G2 X27.1234 Y0.2265 I0.9056 J1.7832
G3 X26.4809 Y0.4554 I-1.1835 J-2.3057
G2 X26.4674 Y0.4584 I0.4175 J1.9559
G3 X26.0934 Y0.5001 I-0.3831 J-1.736
G1 X5.4377
G2 X5.4269 I0.0 J2.0
G2 X4.3952 Y0.6002 I0.0307 J5.6864
G2 X3.5361 Y0.8121 I1.3076 J7.1482
G2 X3.4509 Y0.8384 I0.6464 J2.2407
G2 X3.3626 Y0.8678 I0.698 J2.248
G2 X1.6708 Y1.649 I2.5893 J7.8302
G2 X1.1807 Y1.9779 I3.2658 J5.3949
G2 X0.6087 Y2.4607 I3.0908 J4.2433
G1 X-0.0983 Y3.1478
G2 X-0.106 Y3.1553 I1.394 J1.4341
G2 X-0.7944 Y3.9771 I3.8826 J3.9519
G2 X-1.2842 Y4.7932 I5.6929 J3.9716
G2 X-1.9375 Y6.504 I7.1352 J3.7049
G2 X0.0 Y9.0001 I1.9375 J0.4961
G1 X27.8616
G1 Y26.0
G1 X0.015
G2 X-1.9179 Y28.5138 I0.0 J2.0
G2 X-1.4699 Y29.7757 I7.9626 J-2.1165
G2 X-0.8001 Y30.9755 I6.9739 J-3.1066
G2 X-0.7973 Y30.9794 I1.6515 J-1.1281
G2 X-0.1396 Y31.776 I4.8168 J-3.3074
G2 X-0.122 Y31.7937 I1.4236 J-1.4047
G1 X0.6092 Y32.5165
G2 X0.6199 Y32.527 I1.406 J-1.4224
G2 X1.354 Y33.1312 I3.979 J-4.0864
G2 X2.0781 Y33.5742 I4.1658 J-5.995
G2 X3.5744 Y34.1972 I3.9372 J-7.3484
G2 X4.6866 Y34.4463 I2.1163 J-6.8404
G2 X4.7039 Y34.4487 I0.2804 J-1.9802
G2 X5.4138 Y34.4999 I0.7809 J-5.8824
G2 X5.4377 Y34.5 I0.0239 J-1.9999
G1 X26.0943
G3 X26.4606 Y34.5403 I-0.0071 J1.748
G2 X26.4686 Y34.5421 I0.4272 J-1.9538
G3 X26.6241 Y34.5795 I-0.672 J3.1348
G3 X27.1721 Y34.8 I-0.6739 J2.4666
G2 X27.1758 Y34.8019 I0.9558 J-1.7568
G3 X27.3667 Y34.9328 I-0.5278 J0.9749
G2 X27.7791 Y35.4113 I3.0147 J-2.1811
G2 X27.7928 Y35.4245 I1.3988 J-1.4295
G2 X28.1722 Y35.7543 I3.5192 J-3.6658
G2 X28.1911 Y35.769 I1.2357 J-1.5726
G2 X29.013 Y36.287 I3.2287 J-4.2116
G2 X30.6367 Y36.8659 I3.0063 J-5.8662
G2 X31.8546 Y37.0001 I1.2383 J-5.6435
G2 X31.8616 I0.0071 J-2.0
G1 X50.8236
G1 F50.0 Z-7.0
G2 F120.0 X52.0234 Y36.8582 I0.0145 J-5.0217
G2 X53.2716 Y36.3459 I-1.0099 J-4.2375
G2 X53.2769 Y36.3427 I-1.0367 J-1.7103
G2 X54.1338 Y35.6097 I-1.8487 J-3.0287
G2 X54.1402 Y35.6023 I-1.525 J-1.294
G2 X54.5928 Y34.8704 I-2.283 J-1.9179
G2 X54.8267 Y33.7616 I-2.5884 J-1.1251
G2 Y33.7501 I-2.0 J-0.0115
G1 Y32.125
G1 Y30.4999
G1 Y4.5002
G1 Y1.2501
G2 X54.8266 Y1.2292 I-2.0 J0.0
G2 X54.3558 Y-0.3103 I-2.8491 J0.0297
G2 X53.5244 Y-1.1767 I-2.7629 J1.8192
G2 X52.9935 Y-1.5016 I-2.3024 J3.1656
G2 X52.6443 Y-1.6597 I-1.6394 J3.1555
G2 X51.8665 Y-1.8937 I-1.7671 J4.4651
G2 X51.862 Y-1.8946 I-0.412 J1.9571
G2 X50.8236 Y-2.0 I-1.0237 J4.9179
G1 X31.8616
G2 X31.856 I0.0 J2.0
G2 X30.6483 Y-1.8682 I0.0161 J5.748
G2 X30.2953 Y-1.783 I1.5144 J7.0451
G2 X30.2889 Y-1.7813 I0.5183 J1.9317
G2 X28.8772 Y-1.2146 I1.7202 J6.3273
G2 X27.9288 Y-0.5516 I2.4341 J4.4914
G2 X27.3685 Y0.0648 I2.4844 J2.8212
G3 X27.3247 Y0.102 I-0.7212 J-0.8061
G3 X27.1311 Y0.2226 I-0.7852 J-1.0446
G2 X27.1234 Y0.2265 I0.9056 J1.7832
G3 X26.4809 Y0.4554 I-1.1835 J-2.3057
G2 X26.4674 Y0.4584 I0.4175 J1.9559
G3 X26.0934 Y0.5001 I-0.3831 J-1.736
G1 X5.4377
G2 X5.4269 I0.0 J2.0
G2 X4.3952 Y0.6002 I0.0307 J5.6864
G2 X3.5361 Y0.8121 I1.3076 J7.1482
G2 X3.4509 Y0.8384 I0.6464 J2.2407
G2 X3.3626 Y0.8678 I0.698 J2.248
G2 X1.6708 Y1.649 I2.5893 J7.8302
G2 X1.1807 Y1.9779 I3.2658 J5.3949
G2 X0.6087 Y2.4607 I3.0908 J4.2433
G1 X-0.0983 Y3.1478
G2 X-0.106 Y3.1553 I1.394 J1.4341
G2 X-0.7944 Y3.9771 I3.8826 J3.9519
G2 X-1.2842 Y4.7932 I5.6929 J3.9716
G2 X-1.9375 Y6.504 I7.1352 J3.7049
G2 X0.0 Y9.0001 I1.9375 J0.4961
G1 X27.8616
G1 Y26.0
G1 X0.015
G2 X-1.9179 Y28.5138 I0.0 J2.0
G2 X-1.4699 Y29.7757 I7.9626 J-2.1165
G2 X-0.8001 Y30.9755 I6.9739 J-3.1066
G2 X-0.7973 Y30.9794 I1.6515 J-1.1281
G2 X-0.1396 Y31.776 I4.8168 J-3.3074
G2 X-0.122 Y31.7937 I1.4236 J-1.4047
G1 X0.6092 Y32.5165
G2 X0.6199 Y32.527 I1.406 J-1.4224
G2 X1.354 Y33.1312 I3.979 J-4.0864
G2 X2.0781 Y33.5742 I4.1658 J-5.995
G2 X3.5744 Y34.1972 I3.9372 J-7.3484
G2 X4.6866 Y34.4463 I2.1163 J-6.8404
G2 X4.7039 Y34.4487 I0.2804 J-1.9802
G2 X5.4138 Y34.4999 I0.7809 J-5.8824
G2 X5.4377 Y34.5 I0.0239 J-1.9999
G1 X26.0943
G3 X26.4606 Y34.5403 I-0.0071 J1.748
G2 X26.4686 Y34.5421 I0.4272 J-1.9538
G3 X26.6241 Y34.5795 I-0.672 J3.1348
G3 X27.1721 Y34.8 I-0.6739 J2.4666
G2 X27.1758 Y34.8019 I0.9558 J-1.7568
G3 X27.3667 Y34.9328 I-0.5278 J0.9749
G2 X27.7791 Y35.4113 I3.0147 J-2.1811
G2 X27.7928 Y35.4245 I1.3988 J-1.4295
G2 X28.1722 Y35.7543 I3.5192 J-3.6658
G2 X28.1911 Y35.769 I1.2357 J-1.5726
G2 X29.013 Y36.287 I3.2287 J-4.2116
G2 X30.6367 Y36.8659 I3.0063 J-5.8662
G2 X31.8546 Y37.0001 I1.2383 J-5.6435
G2 X31.8616 I0.0071 J-2.0
G1 X50.8236
G1 F50.0 Z-8.0
G2 F120.0 X52.0234 Y36.8582 I0.0145 J-5.0217
G2 X53.2716 Y36.3459 I-1.0099 J-4.2375
G2 X53.2769 Y36.3427 I-1.0367 J-1.7103
G2 X54.1338 Y35.6097 I-1.8487 J-3.0287
G2 X54.1402 Y35.6023 I-1.525 J-1.294
G2 X54.5928 Y34.8704 I-2.283 J-1.9179
G2 X54.8267 Y33.7616 I-2.5884 J-1.1251
G2 Y33.7501 I-2.0 J-0.0115
G1 Y32.125
G1 Y30.4999
G1 Y4.5002
G1 Y1.2501
G2 X54.8266 Y1.2292 I-2.0 J0.0
G2 X54.3558 Y-0.3103 I-2.8491 J0.0297
G2 X53.5244 Y-1.1767 I-2.7629 J1.8192
G2 X52.9935 Y-1.5016 I-2.3024 J3.1656
G2 X52.6443 Y-1.6597 I-1.6394 J3.1555
G2 X51.8665 Y-1.8937 I-1.7671 J4.4651
G2 X51.862 Y-1.8946 I-0.412 J1.9571
G2 X50.8236 Y-2.0 I-1.0237 J4.9179
G1 X31.8616
G2 X31.856 I0.0 J2.0
G2 X30.6483 Y-1.8682 I0.0161 J5.748
G2 X30.2953 Y-1.783 I1.5144 J7.0451
G2 X30.2889 Y-1.7813 I0.5183 J1.9317
G2 X28.8772 Y-1.2146 I1.7202 J6.3273
G2 X27.9288 Y-0.5516 I2.4341 J4.4914
G2 X27.3685 Y0.0648 I2.4844 J2.8212
G3 X27.3247 Y0.102 I-0.7212 J-0.8061
G3 X27.1311 Y0.2226 I-0.7852 J-1.0446
G2 X27.1234 Y0.2265 I0.9056 J1.7832
G3 X26.4809 Y0.4554 I-1.1835 J-2.3057
G2 X26.4674 Y0.4584 I0.4175 J1.9559
G3 X26.0934 Y0.5001 I-0.3831 J-1.736
G1 X5.4377
G2 X5.4269 I0.0 J2.0
G2 X4.3952 Y0.6002 I0.0307 J5.6864
G2 X3.5361 Y0.8121 I1.3076 J7.1482
G2 X3.4509 Y0.8384 I0.6464 J2.2407
G2 X3.3626 Y0.8678 I0.698 J2.248
G2 X1.6708 Y1.649 I2.5893 J7.8302
G2 X1.1807 Y1.9779 I3.2658 J5.3949
G2 X0.6087 Y2.4607 I3.0908 J4.2433
G1 X-0.0983 Y3.1478
G2 X-0.106 Y3.1553 I1.394 J1.4341
G2 X-0.7944 Y3.9771 I3.8826 J3.9519
G2 X-1.2842 Y4.7932 I5.6929 J3.9716
G2 X-1.9375 Y6.504 I7.1352 J3.7049
G2 X0.0 Y9.0001 I1.9375 J0.4961
G1 X27.8616
G1 Y26.0
G1 X0.015
G2 X-1.9179 Y28.5138 I0.0 J2.0
G2 X-1.4699 Y29.7757 I7.9626 J-2.1165
G2 X-0.8001 Y30.9755 I6.9739 J-3.1066
G2 X-0.7973 Y30.9794 I1.6515 J-1.1281
G2 X-0.1396 Y31.776 I4.8168 J-3.3074
G2 X-0.122 Y31.7937 I1.4236 J-1.4047
G1 X0.6092 Y32.5165
G2 X0.6199 Y32.527 I1.406 J-1.4224
G2 X1.354 Y33.1312 I3.979 J-4.0864
G2 X2.0781 Y33.5742 I4.1658 J-5.995
G2 X3.5744 Y34.1972 I3.9372 J-7.3484
G2 X4.6866 Y34.4463 I2.1163 J-6.8404
G2 X4.7039 Y34.4487 I0.2804 J-1.9802
G2 X5.4138 Y34.4999 I0.7809 J-5.8824
G2 X5.4377 Y34.5 I0.0239 J-1.9999
G1 X26.0943
G3 X26.4606 Y34.5403 I-0.0071 J1.748
G2 X26.4686 Y34.5421 I0.4272 J-1.9538
G3 X26.6241 Y34.5795 I-0.672 J3.1348
G3 X27.1721 Y34.8 I-0.6739 J2.4666
G2 X27.1758 Y34.8019 I0.9558 J-1.7568
G3 X27.3667 Y34.9328 I-0.5278 J0.9749
G2 X27.7791 Y35.4113 I3.0147 J-2.1811
G2 X27.7928 Y35.4245 I1.3988 J-1.4295
G2 X28.1722 Y35.7543 I3.5192 J-3.6658
G2 X28.1911 Y35.769 I1.2357 J-1.5726
G2 X29.013 Y36.287 I3.2287 J-4.2116
G2 X30.6367 Y36.8659 I3.0063 J-5.8662
G2 X31.8546 Y37.0001 I1.2383 J-5.6435
G2 X31.8616 I0.0071 J-2.0
G1 X50.8236
G1 F50.0 Z-9.0
G2 F120.0 X52.0234 Y36.8582 I0.0145 J-5.0217
G2 X53.2716 Y36.3459 I-1.0099 J-4.2375
G2 X53.2769 Y36.3427 I-1.0367 J-1.7103
G2 X54.1338 Y35.6097 I-1.8487 J-3.0287
G2 X54.1402 Y35.6023 I-1.525 J-1.294
G2 X54.5928 Y34.8704 I-2.283 J-1.9179
G2 X54.8267 Y33.7616 I-2.5884 J-1.1251
G2 Y33.7501 I-2.0 J-0.0115
G1 Y32.125
G1 Y30.4999
G1 Y4.5002
G1 Y1.2501
G2 X54.8266 Y1.2292 I-2.0 J0.0
G2 X54.3558 Y-0.3103 I-2.8491 J0.0297
G2 X53.5244 Y-1.1767 I-2.7629 J1.8192
G2 X52.9935 Y-1.5016 I-2.3024 J3.1656
G2 X52.6443 Y-1.6597 I-1.6394 J3.1555
G2 X51.8665 Y-1.8937 I-1.7671 J4.4651
G2 X51.862 Y-1.8946 I-0.412 J1.9571
G2 X50.8236 Y-2.0 I-1.0237 J4.9179
G1 X31.8616
G2 X31.856 I0.0 J2.0
G2 X30.6483 Y-1.8682 I0.0161 J5.748
G2 X30.2953 Y-1.783 I1.5144 J7.0451
G2 X30.2889 Y-1.7813 I0.5183 J1.9317
G2 X28.8772 Y-1.2146 I1.7202 J6.3273
G2 X27.9288 Y-0.5516 I2.4341 J4.4914
G2 X27.3685 Y0.0648 I2.4844 J2.8212
G3 X27.3247 Y0.102 I-0.7212 J-0.8061
G3 X27.1311 Y0.2226 I-0.7852 J-1.0446
G2 X27.1234 Y0.2265 I0.9056 J1.7832
G3 X26.4809 Y0.4554 I-1.1835 J-2.3057
G2 X26.4674 Y0.4584 I0.4175 J1.9559
G3 X26.0934 Y0.5001 I-0.3831 J-1.736
G1 X5.4377
G2 X5.4269 I0.0 J2.0
G2 X4.3952 Y0.6002 I0.0307 J5.6864
G2 X3.5361 Y0.8121 I1.3076 J7.1482
G2 X3.4509 Y0.8384 I0.6464 J2.2407
G2 X3.3626 Y0.8678 I0.698 J2.248
G2 X1.6708 Y1.649 I2.5893 J7.8302
G2 X1.1807 Y1.9779 I3.2658 J5.3949
G2 X0.6087 Y2.4607 I3.0908 J4.2433
G1 X-0.0983 Y3.1478
G2 X-0.106 Y3.1553 I1.394 J1.4341
G2 X-0.7944 Y3.9771 I3.8826 J3.9519
G2 X-1.2842 Y4.7932 I5.6929 J3.9716
G2 X-1.9375 Y6.504 I7.1352 J3.7049
G2 X0.0 Y9.0001 I1.9375 J0.4961
G1 X27.8616
G1 Y26.0
G1 X0.015
G2 X-1.9179 Y28.5138 I0.0 J2.0
G2 X-1.4699 Y29.7757 I7.9626 J-2.1165
G2 X-0.8001 Y30.9755 I6.9739 J-3.1066
G2 X-0.7973 Y30.9794 I1.6515 J-1.1281
G2 X-0.1396 Y31.776 I4.8168 J-3.3074
G2 X-0.122 Y31.7937 I1.4236 J-1.4047
G1 X0.6092 Y32.5165
G2 X0.6199 Y32.527 I1.406 J-1.4224
G2 X1.354 Y33.1312 I3.979 J-4.0864
G2 X2.0781 Y33.5742 I4.1658 J-5.995
G2 X3.5744 Y34.1972 I3.9372 J-7.3484
G2 X4.6866 Y34.4463 I2.1163 J-6.8404
G2 X4.7039 Y34.4487 I0.2804 J-1.9802
G2 X5.4138 Y34.4999 I0.7809 J-5.8824
G2 X5.4377 Y34.5 I0.0239 J-1.9999
G1 X26.0943
G3 X26.4606 Y34.5403 I-0.0071 J1.748
G2 X26.4686 Y34.5421 I0.4272 J-1.9538
G3 X26.6241 Y34.5795 I-0.672 J3.1348
G3 X27.1721 Y34.8 I-0.6739 J2.4666
G2 X27.1758 Y34.8019 I0.9558 J-1.7568
G3 X27.3667 Y34.9328 I-0.5278 J0.9749
G2 X27.7791 Y35.4113 I3.0147 J-2.1811
G2 X27.7928 Y35.4245 I1.3988 J-1.4295
G2 X28.1722 Y35.7543 I3.5192 J-3.6658
G2 X28.1911 Y35.769 I1.2357 J-1.5726
G2 X29.013 Y36.287 I3.2287 J-4.2116
G2 X30.6367 Y36.8659 I3.0063 J-5.8662
G2 X31.8546 Y37.0001 I1.2383 J-5.6435
G2 X31.8616 I0.0071 J-2.0
G1 X50.8236
G1 F50.0 Z-10.0
G2 F120.0 X52.0234 Y36.8582 I0.0145 J-5.0217
G2 X53.2716 Y36.3459 I-1.0099 J-4.2375
G2 X53.2769 Y36.3427 I-1.0367 J-1.7103
G2 X54.1338 Y35.6097 I-1.8487 J-3.0287
G2 X54.1402 Y35.6023 I-1.525 J-1.294
G2 X54.5928 Y34.8704 I-2.283 J-1.9179
G2 X54.8267 Y33.7616 I-2.5884 J-1.1251
G2 Y33.7501 I-2.0 J-0.0115
G1 Y32.125
G1 Y30.4999
G1 Y4.5002
G1 Y1.2501
G2 X54.8266 Y1.2292 I-2.0 J0.0
G2 X54.3558 Y-0.3103 I-2.8491 J0.0297
G2 X53.5244 Y-1.1767 I-2.7629 J1.8192
G2 X52.9935 Y-1.5016 I-2.3024 J3.1656
G2 X52.6443 Y-1.6597 I-1.6394 J3.1555
G2 X51.8665 Y-1.8937 I-1.7671 J4.4651
G2 X51.862 Y-1.8946 I-0.412 J1.9571
G2 X50.8236 Y-2.0 I-1.0237 J4.9179
G1 X31.8616
G2 X31.856 I0.0 J2.0
G2 X30.6483 Y-1.8682 I0.0161 J5.748
G2 X30.2953 Y-1.783 I1.5144 J7.0451
G2 X30.2889 Y-1.7813 I0.5183 J1.9317
G2 X28.8772 Y-1.2146 I1.7202 J6.3273
G2 X27.9288 Y-0.5516 I2.4341 J4.4914
G2 X27.3685 Y0.0648 I2.4844 J2.8212
G3 X27.3247 Y0.102 I-0.7212 J-0.8061
G3 X27.1311 Y0.2226 I-0.7852 J-1.0446
G2 X27.1234 Y0.2265 I0.9056 J1.7832
G3 X26.4809 Y0.4554 I-1.1835 J-2.3057
G2 X26.4674 Y0.4584 I0.4175 J1.9559
G3 X26.0934 Y0.5001 I-0.3831 J-1.736
G1 X5.4377
G2 X5.4269 I0.0 J2.0
G2 X4.3952 Y0.6002 I0.0307 J5.6864
G2 X3.5361 Y0.8121 I1.3076 J7.1482
G2 X3.4509 Y0.8384 I0.6464 J2.2407
G2 X3.3626 Y0.8678 I0.698 J2.248
G2 X1.6708 Y1.649 I2.5893 J7.8302
G2 X1.1807 Y1.9779 I3.2658 J5.3949
G2 X0.6087 Y2.4607 I3.0908 J4.2433
G1 X-0.0983 Y3.1478
G2 X-0.106 Y3.1553 I1.394 J1.4341
G2 X-0.7944 Y3.9771 I3.8826 J3.9519
G2 X-1.2842 Y4.7932 I5.6929 J3.9716
G2 X-1.9375 Y6.504 I7.1352 J3.7049
G2 X0.0 Y9.0001 I1.9375 J0.4961
G1 X27.8616
G1 Y26.0
G1 X0.015
G2 X-1.9179 Y28.5138 I0.0 J2.0
G2 X-1.4699 Y29.7757 I7.9626 J-2.1165
G2 X-0.8001 Y30.9755 I6.9739 J-3.1066
G2 X-0.7973 Y30.9794 I1.6515 J-1.1281
G2 X-0.1396 Y31.776 I4.8168 J-3.3074
G2 X-0.122 Y31.7937 I1.4236 J-1.4047
G1 X0.6092 Y32.5165
G2 X0.6199 Y32.527 I1.406 J-1.4224
G2 X1.354 Y33.1312 I3.979 J-4.0864
G2 X2.0781 Y33.5742 I4.1658 J-5.995
G2 X3.5744 Y34.1972 I3.9372 J-7.3484
G2 X4.6866 Y34.4463 I2.1163 J-6.8404
G2 X4.7039 Y34.4487 I0.2804 J-1.9802
G2 X5.4138 Y34.4999 I0.7809 J-5.8824
G2 X5.4377 Y34.5 I0.0239 J-1.9999
G1 X26.0943
G3 X26.4606 Y34.5403 I-0.0071 J1.748
G2 X26.4686 Y34.5421 I0.4272 J-1.9538
G3 X26.6241 Y34.5795 I-0.672 J3.1348
G3 X27.1721 Y34.8 I-0.6739 J2.4666
G2 X27.1758 Y34.8019 I0.9558 J-1.7568
G3 X27.3667 Y34.9328 I-0.5278 J0.9749
G2 X27.7791 Y35.4113 I3.0147 J-2.1811
G2 X27.7928 Y35.4245 I1.3988 J-1.4295
G2 X28.1722 Y35.7543 I3.5192 J-3.6658
G2 X28.1911 Y35.769 I1.2357 J-1.5726
G2 X29.013 Y36.287 I3.2287 J-4.2116
G2 X30.6367 Y36.8659 I3.0063 J-5.8662
G2 X31.8546 Y37.0001 I1.2383 J-5.6435
G2 X31.8616 I0.0071 J-2.0
G1 X50.8236
G1 F50.0 Z-11.0
G2 F120.0 X52.0234 Y36.8582 I0.0145 J-5.0217
G2 X53.2716 Y36.3459 I-1.0099 J-4.2375
G2 X53.2769 Y36.3427 I-1.0367 J-1.7103
G2 X54.1338 Y35.6097 I-1.8487 J-3.0287
G2 X54.1402 Y35.6023 I-1.525 J-1.294
G2 X54.5928 Y34.8704 I-2.283 J-1.9179
G2 X54.8267 Y33.7616 I-2.5884 J-1.1251
G2 Y33.7501 I-2.0 J-0.0115
G1 Y32.125
G1 Y30.4999
G1 Y4.5002
G1 Y1.2501
G2 X54.8266 Y1.2292 I-2.0 J0.0
G2 X54.3558 Y-0.3103 I-2.8491 J0.0297
G2 X53.5244 Y-1.1767 I-2.7629 J1.8192
G2 X52.9935 Y-1.5016 I-2.3024 J3.1656
G2 X52.6443 Y-1.6597 I-1.6394 J3.1555
G2 X51.8665 Y-1.8937 I-1.7671 J4.4651
G2 X51.862 Y-1.8946 I-0.412 J1.9571
G2 X50.8236 Y-2.0 I-1.0237 J4.9179
G1 X31.8616
G2 X31.856 I0.0 J2.0
G2 X30.6483 Y-1.8682 I0.0161 J5.748
G2 X30.2953 Y-1.783 I1.5144 J7.0451
G2 X30.2889 Y-1.7813 I0.5183 J1.9317
G2 X28.8772 Y-1.2146 I1.7202 J6.3273
G2 X27.9288 Y-0.5516 I2.4341 J4.4914
G2 X27.3685 Y0.0648 I2.4844 J2.8212
G3 X27.3247 Y0.102 I-0.7212 J-0.8061
G3 X27.1311 Y0.2226 I-0.7852 J-1.0446
G2 X27.1234 Y0.2265 I0.9056 J1.7832
G3 X26.4809 Y0.4554 I-1.1835 J-2.3057
G2 X26.4674 Y0.4584 I0.4175 J1.9559
G3 X26.0934 Y0.5001 I-0.3831 J-1.736
G1 X5.4377
G2 X5.4269 I0.0 J2.0
G2 X4.3952 Y0.6002 I0.0307 J5.6864
G2 X3.5361 Y0.8121 I1.3076 J7.1482
G2 X3.4509 Y0.8384 I0.6464 J2.2407
G2 X3.3626 Y0.8678 I0.698 J2.248
G2 X1.6708 Y1.649 I2.5893 J7.8302
G2 X1.1807 Y1.9779 I3.2658 J5.3949
G2 X0.6087 Y2.4607 I3.0908 J4.2433
G1 X-0.0983 Y3.1478
G2 X-0.106 Y3.1553 I1.394 J1.4341
G2 X-0.7944 Y3.9771 I3.8826 J3.9519
G2 X-1.2842 Y4.7932 I5.6929 J3.9716
G2 X-1.9375 Y6.504 I7.1352 J3.7049
G2 X0.0 Y9.0001 I1.9375 J0.4961
G1 X27.8616
G1 Y26.0
G1 X0.015
G2 X-1.9179 Y28.5138 I0.0 J2.0
G2 X-1.4699 Y29.7757 I7.9626 J-2.1165
G2 X-0.8001 Y30.9755 I6.9739 J-3.1066
G2 X-0.7973 Y30.9794 I1.6515 J-1.1281
G2 X-0.1396 Y31.776 I4.8168 J-3.3074
G2 X-0.122 Y31.7937 I1.4236 J-1.4047
G1 X0.6092 Y32.5165
G2 X0.6199 Y32.527 I1.406 J-1.4224
G2 X1.354 Y33.1312 I3.979 J-4.0864
G2 X2.0781 Y33.5742 I4.1658 J-5.995
G2 X3.5744 Y34.1972 I3.9372 J-7.3484
G2 X4.6866 Y34.4463 I2.1163 J-6.8404
G2 X4.7039 Y34.4487 I0.2804 J-1.9802
G2 X5.4138 Y34.4999 I0.7809 J-5.8824
G2 X5.4377 Y34.5 I0.0239 J-1.9999
G1 X26.0943
G3 X26.4606 Y34.5403 I-0.0071 J1.748
G2 X26.4686 Y34.5421 I0.4272 J-1.9538
G3 X26.6241 Y34.5795 I-0.672 J3.1348
G3 X27.1721 Y34.8 I-0.6739 J2.4666
G2 X27.1758 Y34.8019 I0.9558 J-1.7568
G3 X27.3667 Y34.9328 I-0.5278 J0.9749
G2 X27.7791 Y35.4113 I3.0147 J-2.1811
G2 X27.7928 Y35.4245 I1.3988 J-1.4295
G2 X28.1722 Y35.7543 I3.5192 J-3.6658
G2 X28.1911 Y35.769 I1.2357 J-1.5726
G2 X29.013 Y36.287 I3.2287 J-4.2116
G2 X30.6367 Y36.8659 I3.0063 J-5.8662
G2 X31.8546 Y37.0001 I1.2383 J-5.6435
G2 X31.8616 I0.0071 J-2.0
G1 X50.8236
G0 Z3.0
M5
M30
