( Made using CamBam - http://www.cambam.co.uk )
( belt mount notches 9/29/2013 2:54:55 PM )
( T0 : 0.0 )
G21 G90 G64 G40
G0 Z3.0
( T0 : 0.0 )
T0 M6
( Ball nose cutter )
G17
M3 S1000
G0 X0.4804 Y-3.9522
G0 Z1.0
G1 F50.0 Z-0.5
G1 X14.0624
G0 Z3.0
G0 X0.4804
G0 Z0.5
G1 Z-1.0
G1 X14.0624
G0 Z3.0
G0 X0.4804
G0 Z0.0
G1 Z-1.5
G1 X14.0624
G0 Z3.0
G0 X0.4804 Y-0.9522
G0 Z1.0
G1 Z-0.5
G1 X14.0624
G0 Z3.0
G0 X0.4804
G0 Z0.5
G1 Z-1.0
G1 X14.0624
G0 Z3.0
G0 X0.4804
G0 Z0.0
G1 Z-1.5
G1 X14.0624
G0 Z3.0
G0 X0.4804 Y2.0478
G0 Z1.0
G1 Z-0.5
G1 X14.0624
G0 Z3.0
G0 X0.4804
G0 Z0.5
G1 Z-1.0
G1 X14.0624
G0 Z3.0
G0 X0.4804
G0 Z0.0
G1 Z-1.5
G1 X14.0624
G0 Z3.0
G0 X0.4804 Y5.0478
G0 Z1.0
G1 Z-0.5
G1 X14.0624
G0 Z3.0
G0 X0.4804
G0 Z0.5
G1 Z-1.0
G1 X14.0624
G0 Z3.0
G0 X0.4804
G0 Z0.0
G1 Z-1.5
G1 X14.0624
G0 Z3.0
G0 X0.4804 Y8.0477
G0 Z1.0
G1 Z-0.5
G1 X14.0624
G0 Z3.0
G0 X0.4804
G0 Z0.5
G1 Z-1.0
G1 X14.0624
G0 Z3.0
G0 X0.4804
G0 Z0.0
G1 Z-1.5
G1 X14.0624
G0 Z3.0
G0 X0.4804 Y11.0477
G0 Z1.0
G1 Z-0.5
G1 X14.0624
G0 Z3.0
G0 X0.4804
G0 Z0.5
G1 Z-1.0
G1 X14.0624
G0 Z3.0
G0 X0.4804
G0 Z0.0
G1 Z-1.5
G1 X14.0624
G0 Z3.0
G0 X0.4804 Y14.0477
G0 Z1.0
G1 Z-0.5
G1 X14.0624
G0 Z3.0
G0 X0.4804
G0 Z0.5
G1 Z-1.0
G1 X14.0624
G0 Z3.0
G0 X0.4804
G0 Z0.0
G1 Z-1.5
G1 X14.0624
G0 Z3.0
G0 X0.4804 Y17.0477
G0 Z1.0
G1 Z-0.5
G1 X14.0624
G0 Z3.0
G0 X0.4804
G0 Z0.5
G1 Z-1.0
G1 X14.0624
G0 Z3.0
G0 X0.4804
G0 Z0.0
G1 Z-1.5
G1 X14.0624
G0 Z3.0
G0 X0.4804 Y20.0477
G0 Z1.0
G1 Z-0.5
G1 X14.0624
G0 Z3.0
G0 X0.4804
G0 Z0.5
G1 Z-1.0
G1 X14.0624
G0 Z3.0
G0 X0.4804
G0 Z0.0
G1 Z-1.5
G1 X14.0624
G0 Z3.0
G0 X0.4804 Y23.0477
G0 Z1.0
G1 Z-0.5
G1 X14.0624
G0 Z3.0
G0 X0.4804
G0 Z0.5
G1 Z-1.0
G1 X14.0624
G0 Z3.0
G0 X0.4804
G0 Z0.0
G1 Z-1.5
G1 X14.0624
G0 Z3.0
G0 X0.4804 Y26.0477
G0 Z1.0
G1 Z-0.5
G1 X14.0624
G0 Z3.0
G0 X0.4804
G0 Z0.5
G1 Z-1.0
G1 X14.0624
G0 Z3.0
G0 X0.4804
G0 Z0.0
G1 Z-1.5
G1 X14.0624
G0 Z3.0
G0 X0.4804 Y29.0477
G0 Z1.0
G1 Z-0.5
G1 X14.0624
G0 Z3.0
G0 X0.4804
G0 Z0.5
G1 Z-1.0
G1 X14.0624
G0 Z3.0
G0 X0.4804
G0 Z0.0
G1 Z-1.5
G1 X14.0624
G0 Z3.0
M5
M30
