( Made using CamBam - http://www.cambam.co.uk )
( vibration motor mount 10/27/2013 3:48:24 PM )
( T3 : 3.0 )
G21 G90 G91.1 G64 G40
G0 Z3.0
( T3 : 3.0 )
T3 M6
( Pocket1 )
G17
M3 S1000
G0 X12.5 Y9.5
G0 Z1.0
G1 F50.0 Z-2.0
G1 F100.0 X8.0001
G1 Y8.0001
G1 X12.5
G1 Y9.5
G1 F50.0 Y11.0
G1 F100.0 X6.9439
G3 X6.5001 Y10.142 I3.3111 J-2.2566
G1 Y7.3581
G3 X6.9439 Y6.5001 I3.7548 J1.3983
G1 X13.5565
G3 X14.0 Y7.3579 I-3.3048 J2.252
G1 Y10.1419
G3 X13.5564 Y11.0 I-3.7509 J-1.3955
G1 X12.5
G1 F50.0 Y12.5
G1 F100.0 X6.2283
G3 X5.0001 Y10.3902 I4.0268 J-3.7566
G1 Y7.1099
G3 X6.2283 Y5.0001 I5.2548 J1.6465
G1 X14.2721
G3 X15.5 Y7.11 I-4.0204 J3.752
G1 Y10.3899
G3 X14.272 Y12.5 I-5.2509 J-1.6435
G1 X12.5
G1 F50.0 Y14.0
G1 F100.0 X5.6219
G3 X3.5001 Y10.6057 I4.6331 J-5.2566
G1 Y6.8945
G3 X5.6219 Y3.5001 I6.7548 J1.8619
G1 X14.8782
G3 X17.0 Y6.8949 I-4.6265 J5.252
G1 Y10.6051
G3 X14.8783 Y14.0 I-6.7509 J-1.8586
G1 X12.5
G0 Z3.0
G0 Y9.5
G0 Z-1.0
G1 F50.0 Z-4.0
G1 F100.0 X8.0001
G1 Y8.0001
G1 X12.5
G1 Y9.5
G1 F50.0 Y11.0
G1 F100.0 X6.9439
G3 X6.5001 Y10.142 I3.3111 J-2.2566
G1 Y7.3581
G3 X6.9439 Y6.5001 I3.7548 J1.3983
G1 X13.5565
G3 X14.0 Y7.3579 I-3.3048 J2.252
G1 Y10.1419
G3 X13.5564 Y11.0 I-3.7509 J-1.3955
G1 X12.5
G1 F50.0 Y12.5
G1 F100.0 X6.2283
G3 X5.0001 Y10.3902 I4.0268 J-3.7566
G1 Y7.1099
G3 X6.2283 Y5.0001 I5.2548 J1.6465
G1 X14.2721
G3 X15.5 Y7.11 I-4.0204 J3.752
G1 Y10.3899
G3 X14.272 Y12.5 I-5.2509 J-1.6435
G1 X12.5
G1 F50.0 Y14.0
G1 F100.0 X5.6219
G3 X3.5001 Y10.6057 I4.6331 J-5.2566
G1 Y6.8945
G3 X5.6219 Y3.5001 I6.7548 J1.8619
G1 X14.8782
G3 X17.0 Y6.8949 I-4.6265 J5.252
G1 Y10.6051
G3 X14.8783 Y14.0 I-6.7509 J-1.8586
G1 X12.5
G0 Z3.0
G0 Y9.5
G0 Z-3.0
G1 F50.0 Z-6.0
G1 F100.0 X8.0001
G1 Y8.0001
G1 X12.5
G1 Y9.5
G1 F50.0 Y11.0
G1 F100.0 X6.9439
G3 X6.5001 Y10.142 I3.3111 J-2.2566
G1 Y7.3581
G3 X6.9439 Y6.5001 I3.7548 J1.3983
G1 X13.5565
G3 X14.0 Y7.3579 I-3.3048 J2.252
G1 Y10.1419
G3 X13.5564 Y11.0 I-3.7509 J-1.3955
G1 X12.5
G1 F50.0 Y12.5
G1 F100.0 X6.2283
G3 X5.0001 Y10.3902 I4.0268 J-3.7566
G1 Y7.1099
G3 X6.2283 Y5.0001 I5.2548 J1.6465
G1 X14.2721
G3 X15.5 Y7.11 I-4.0204 J3.752
G1 Y10.3899
G3 X14.272 Y12.5 I-5.2509 J-1.6435
G1 X12.5
G1 F50.0 Y14.0
G1 F100.0 X5.6219
G3 X3.5001 Y10.6057 I4.6331 J-5.2566
G1 Y6.8945
G3 X5.6219 Y3.5001 I6.7548 J1.8619
G1 X14.8782
G3 X17.0 Y6.8949 I-4.6265 J5.252
G1 Y10.6051
G3 X14.8783 Y14.0 I-6.7509 J-1.8586
G1 X12.5
G0 Z3.0
G0 Y9.5
G0 Z-5.0
G1 F50.0 Z-8.0
G1 F100.0 X8.0001
G1 Y8.0001
G1 X12.5
G1 Y9.5
G1 F50.0 Y11.0
G1 F100.0 X6.9439
G3 X6.5001 Y10.142 I3.3111 J-2.2566
G1 Y7.3581
G3 X6.9439 Y6.5001 I3.7548 J1.3983
G1 X13.5565
G3 X14.0 Y7.3579 I-3.3048 J2.252
G1 Y10.1419
G3 X13.5564 Y11.0 I-3.7509 J-1.3955
G1 X12.5
G1 F50.0 Y12.5
G1 F100.0 X6.2283
G3 X5.0001 Y10.3902 I4.0268 J-3.7566
G1 Y7.1099
G3 X6.2283 Y5.0001 I5.2548 J1.6465
G1 X14.2721
G3 X15.5 Y7.11 I-4.0204 J3.752
G1 Y10.3899
G3 X14.272 Y12.5 I-5.2509 J-1.6435
G1 X12.5
G1 F50.0 Y14.0
G1 F100.0 X5.6219
G3 X3.5001 Y10.6057 I4.6331 J-5.2566
G1 Y6.8945
G3 X5.6219 Y3.5001 I6.7548 J1.8619
G1 X14.8782
G3 X17.0 Y6.8949 I-4.6265 J5.252
G1 Y10.6051
G3 X14.8783 Y14.0 I-6.7509 J-1.8586
G1 X12.5
G0 Z3.0
G0 Y9.5
G0 Z-7.0
G1 F50.0 Z-10.0
G1 F100.0 X8.0001
G1 Y8.0001
G1 X12.5
G1 Y9.5
G1 F50.0 Y11.0
G1 F100.0 X6.9439
G3 X6.5001 Y10.142 I3.3111 J-2.2566
G1 Y7.3581
G3 X6.9439 Y6.5001 I3.7548 J1.3983
G1 X13.5565
G3 X14.0 Y7.3579 I-3.3048 J2.252
G1 Y10.1419
G3 X13.5564 Y11.0 I-3.7509 J-1.3955
G1 X12.5
G1 F50.0 Y12.5
G1 F100.0 X6.2283
G3 X5.0001 Y10.3902 I4.0268 J-3.7566
G1 Y7.1099
G3 X6.2283 Y5.0001 I5.2548 J1.6465
G1 X14.2721
G3 X15.5 Y7.11 I-4.0204 J3.752
G1 Y10.3899
G3 X14.272 Y12.5 I-5.2509 J-1.6435
G1 X12.5
G1 F50.0 Y14.0
G1 F100.0 X5.6219
G3 X3.5001 Y10.6057 I4.6331 J-5.2566
G1 Y6.8945
G3 X5.6219 Y3.5001 I6.7548 J1.8619
G1 X14.8782
G3 X17.0 Y6.8949 I-4.6265 J5.252
G1 Y10.6051
G3 X14.8783 Y14.0 I-6.7509 J-1.8586
G1 X12.5
G0 Z3.0
G0 Y9.5
G0 Z-9.0
G1 F50.0 Z-12.0
G1 F100.0 X8.0001
G1 Y8.0001
G1 X12.5
G1 Y9.5
G1 F50.0 Y11.0
G1 F100.0 X6.9439
G3 X6.5001 Y10.142 I3.3111 J-2.2566
G1 Y7.3581
G3 X6.9439 Y6.5001 I3.7548 J1.3983
G1 X13.5565
G3 X14.0 Y7.3579 I-3.3048 J2.252
G1 Y10.1419
G3 X13.5564 Y11.0 I-3.7509 J-1.3955
G1 X12.5
G1 F50.0 Y12.5
G1 F100.0 X6.2283
G3 X5.0001 Y10.3902 I4.0268 J-3.7566
G1 Y7.1099
G3 X6.2283 Y5.0001 I5.2548 J1.6465
G1 X14.2721
G3 X15.5 Y7.11 I-4.0204 J3.752
G1 Y10.3899
G3 X14.272 Y12.5 I-5.2509 J-1.6435
G1 X12.5
G1 F50.0 Y14.0
G1 F100.0 X5.6219
G3 X3.5001 Y10.6057 I4.6331 J-5.2566
G1 Y6.8945
G3 X5.6219 Y3.5001 I6.7548 J1.8619
G1 X14.8782
G3 X17.0 Y6.8949 I-4.6265 J5.252
G1 Y10.6051
G3 X14.8783 Y14.0 I-6.7509 J-1.8586
G1 X12.5
G0 Z3.0
G0 Y9.5
G0 Z-11.0
G1 F50.0 Z-14.0
G1 F100.0 X8.0001
G1 Y8.0001
G1 X12.5
G1 Y9.5
G1 F50.0 Y11.0
G1 F100.0 X6.9439
G3 X6.5001 Y10.142 I3.3111 J-2.2566
G1 Y7.3581
G3 X6.9439 Y6.5001 I3.7548 J1.3983
G1 X13.5565
G3 X14.0 Y7.3579 I-3.3048 J2.252
G1 Y10.1419
G3 X13.5564 Y11.0 I-3.7509 J-1.3955
G1 X12.5
G1 F50.0 Y12.5
G1 F100.0 X6.2283
G3 X5.0001 Y10.3902 I4.0268 J-3.7566
G1 Y7.1099
G3 X6.2283 Y5.0001 I5.2548 J1.6465
G1 X14.2721
G3 X15.5 Y7.11 I-4.0204 J3.752
G1 Y10.3899
G3 X14.272 Y12.5 I-5.2509 J-1.6435
G1 X12.5
G1 F50.0 Y14.0
G1 F100.0 X5.6219
G3 X3.5001 Y10.6057 I4.6331 J-5.2566
G1 Y6.8945
G3 X5.6219 Y3.5001 I6.7548 J1.8619
G1 X14.8782
G3 X17.0 Y6.8949 I-4.6265 J5.252
G1 Y10.6051
G3 X14.8783 Y14.0 I-6.7509 J-1.8586
G1 X12.5
G0 Z3.0
G0 Y9.5
G0 Z-13.0
G1 F50.0 Z-16.0
G1 F100.0 X8.0001
G1 Y8.0001
G1 X12.5
G1 Y9.5
G1 F50.0 Y11.0
G1 F100.0 X6.9439
G3 X6.5001 Y10.142 I3.3111 J-2.2566
G1 Y7.3581
G3 X6.9439 Y6.5001 I3.7548 J1.3983
G1 X13.5565
G3 X14.0 Y7.3579 I-3.3048 J2.252
G1 Y10.1419
G3 X13.5564 Y11.0 I-3.7509 J-1.3955
G1 X12.5
G1 F50.0 Y12.5
G1 F100.0 X6.2283
G3 X5.0001 Y10.3902 I4.0268 J-3.7566
G1 Y7.1099
G3 X6.2283 Y5.0001 I5.2548 J1.6465
G1 X14.2721
G3 X15.5 Y7.11 I-4.0204 J3.752
G1 Y10.3899
G3 X14.272 Y12.5 I-5.2509 J-1.6435
G1 X12.5
G1 F50.0 Y14.0
G1 F100.0 X5.6219
G3 X3.5001 Y10.6057 I4.6331 J-5.2566
G1 Y6.8945
G3 X5.6219 Y3.5001 I6.7548 J1.8619
G1 X14.8782
G3 X17.0 Y6.8949 I-4.6265 J5.252
G1 Y10.6051
G3 X14.8783 Y14.0 I-6.7509 J-1.8586
G1 X12.5
G0 Z3.0
G0 Y9.5
G0 Z-15.0
G1 F50.0 Z-18.0
G1 F100.0 X8.0001
G1 Y8.0001
G1 X12.5
G1 Y9.5
G1 F50.0 Y11.0
G1 F100.0 X6.9439
G3 X6.5001 Y10.142 I3.3111 J-2.2566
G1 Y7.3581
G3 X6.9439 Y6.5001 I3.7548 J1.3983
G1 X13.5565
G3 X14.0 Y7.3579 I-3.3048 J2.252
G1 Y10.1419
G3 X13.5564 Y11.0 I-3.7509 J-1.3955
G1 X12.5
G1 F50.0 Y12.5
G1 F100.0 X6.2283
G3 X5.0001 Y10.3902 I4.0268 J-3.7566
G1 Y7.1099
G3 X6.2283 Y5.0001 I5.2548 J1.6465
G1 X14.2721
G3 X15.5 Y7.11 I-4.0204 J3.752
G1 Y10.3899
G3 X14.272 Y12.5 I-5.2509 J-1.6435
G1 X12.5
G1 F50.0 Y14.0
G1 F100.0 X5.6219
G3 X3.5001 Y10.6057 I4.6331 J-5.2566
G1 Y6.8945
G3 X5.6219 Y3.5001 I6.7548 J1.8619
G1 X14.8782
G3 X17.0 Y6.8949 I-4.6265 J5.252
G1 Y10.6051
G3 X14.8783 Y14.0 I-6.7509 J-1.8586
G1 X12.5
G0 Z3.0
G0 Y9.5
G0 Z-17.0
G1 F50.0 Z-20.0
G1 F100.0 X8.0001
G1 Y8.0001
G1 X12.5
G1 Y9.5
G1 F50.0 Y11.0
G1 F100.0 X6.9439
G3 X6.5001 Y10.142 I3.3111 J-2.2566
G1 Y7.3581
G3 X6.9439 Y6.5001 I3.7548 J1.3983
G1 X13.5565
G3 X14.0 Y7.3579 I-3.3048 J2.252
G1 Y10.1419
G3 X13.5564 Y11.0 I-3.7509 J-1.3955
G1 X12.5
G1 F50.0 Y12.5
G1 F100.0 X6.2283
G3 X5.0001 Y10.3902 I4.0268 J-3.7566
G1 Y7.1099
G3 X6.2283 Y5.0001 I5.2548 J1.6465
G1 X14.2721
G3 X15.5 Y7.11 I-4.0204 J3.752
G1 Y10.3899
G3 X14.272 Y12.5 I-5.2509 J-1.6435
G1 X12.5
G1 F50.0 Y14.0
G1 F100.0 X5.6219
G3 X3.5001 Y10.6057 I4.6331 J-5.2566
G1 Y6.8945
G3 X5.6219 Y3.5001 I6.7548 J1.8619
G1 X14.8782
G3 X17.0 Y6.8949 I-4.6265 J5.252
G1 Y10.6051
G3 X14.8783 Y14.0 I-6.7509 J-1.8586
G1 X12.5
G0 Z3.0
G0 Y9.5
G0 Z-19.0
G1 F50.0 Z-22.0
G1 F100.0 X8.0001
G1 Y8.0001
G1 X12.5
G1 Y9.5
G1 F50.0 Y11.0
G1 F100.0 X6.9439
G3 X6.5001 Y10.142 I3.3111 J-2.2566
G1 Y7.3581
G3 X6.9439 Y6.5001 I3.7548 J1.3983
G1 X13.5565
G3 X14.0 Y7.3579 I-3.3048 J2.252
G1 Y10.1419
G3 X13.5564 Y11.0 I-3.7509 J-1.3955
G1 X12.5
G1 F50.0 Y12.5
G1 F100.0 X6.2283
G3 X5.0001 Y10.3902 I4.0268 J-3.7566
G1 Y7.1099
G3 X6.2283 Y5.0001 I5.2548 J1.6465
G1 X14.2721
G3 X15.5 Y7.11 I-4.0204 J3.752
G1 Y10.3899
G3 X14.272 Y12.5 I-5.2509 J-1.6435
G1 X12.5
G1 F50.0 Y14.0
G1 F100.0 X5.6219
G3 X3.5001 Y10.6057 I4.6331 J-5.2566
G1 Y6.8945
G3 X5.6219 Y3.5001 I6.7548 J1.8619
G1 X14.8782
G3 X17.0 Y6.8949 I-4.6265 J5.252
G1 Y10.6051
G3 X14.8783 Y14.0 I-6.7509 J-1.8586
G1 X12.5
( Profile1 )
S1000
G0 Z3.0
G0 X20.5 Y19.0001
G0 Z1.0
G1 F50.0 Z-2.0
G1 F100.0 X24.5
G2 X26.0 Y17.5001 I0.0 J-1.5
G1 Y13.5001
G1 Y3.9999
G1 Y0.0
G2 X24.5 Y-1.5 I-1.5 J0.0
G1 X20.5
G1 X12.2499
G1 X3.9999
G2 X3.9993 I0.0 J1.5
G2 X0.1144 Y0.1143 I0.0024 J5.4874
G2 X-1.5 Y3.9993 I3.8728 J3.8872
G2 Y3.9999 I1.5 J0.0006
G1 Y13.5001
G2 Y13.5008 I1.5 J0.0
G2 X0.1143 Y17.3857 I5.4874 J-0.0024
G2 X3.9993 Y19.0001 I3.8872 J-3.8728
G2 X3.9999 I0.0006 J-1.5
G1 X12.2499
G1 X20.5
G1 F50.0 Z-4.0
G1 F100.0 X24.5
G2 X26.0 Y17.5001 I0.0 J-1.5
G1 Y13.5001
G1 Y3.9999
G1 Y0.0
G2 X24.5 Y-1.5 I-1.5 J0.0
G1 X20.5
G1 X12.2499
G1 X3.9999
G2 X3.9993 I0.0 J1.5
G2 X0.1144 Y0.1143 I0.0024 J5.4874
G2 X-1.5 Y3.9993 I3.8728 J3.8872
G2 Y3.9999 I1.5 J0.0006
G1 Y13.5001
G2 Y13.5008 I1.5 J0.0
G2 X0.1143 Y17.3857 I5.4874 J-0.0024
G2 X3.9993 Y19.0001 I3.8872 J-3.8728
G2 X3.9999 I0.0006 J-1.5
G1 X12.2499
G1 X20.5
G1 F50.0 Z-6.0
G1 F100.0 X24.5
G2 X26.0 Y17.5001 I0.0 J-1.5
G1 Y13.5001
G1 Y3.9999
G1 Y0.0
G2 X24.5 Y-1.5 I-1.5 J0.0
G1 X20.5
G1 X12.2499
G1 X3.9999
G2 X3.9993 I0.0 J1.5
G2 X0.1144 Y0.1143 I0.0024 J5.4874
G2 X-1.5 Y3.9993 I3.8728 J3.8872
G2 Y3.9999 I1.5 J0.0006
G1 Y13.5001
G2 Y13.5008 I1.5 J0.0
G2 X0.1143 Y17.3857 I5.4874 J-0.0024
G2 X3.9993 Y19.0001 I3.8872 J-3.8728
G2 X3.9999 I0.0006 J-1.5
G1 X12.2499
G1 X20.5
G1 F50.0 Z-8.0
G1 F100.0 X24.5
G2 X26.0 Y17.5001 I0.0 J-1.5
G1 Y13.5001
G1 Y3.9999
G1 Y0.0
G2 X24.5 Y-1.5 I-1.5 J0.0
G1 X20.5
G1 X12.2499
G1 X3.9999
G2 X3.9993 I0.0 J1.5
G2 X0.1144 Y0.1143 I0.0024 J5.4874
G2 X-1.5 Y3.9993 I3.8728 J3.8872
G2 Y3.9999 I1.5 J0.0006
G1 Y13.5001
G2 Y13.5008 I1.5 J0.0
G2 X0.1143 Y17.3857 I5.4874 J-0.0024
G2 X3.9993 Y19.0001 I3.8872 J-3.8728
G2 X3.9999 I0.0006 J-1.5
G1 X12.2499
G1 X20.5
G1 F50.0 Z-10.0
G1 F100.0 X24.5
G2 X26.0 Y17.5001 I0.0 J-1.5
G1 Y13.5001
G1 Y3.9999
G1 Y0.0
G2 X24.5 Y-1.5 I-1.5 J0.0
G1 X20.5
G1 X12.2499
G1 X3.9999
G2 X3.9993 I0.0 J1.5
G2 X0.1144 Y0.1143 I0.0024 J5.4874
G2 X-1.5 Y3.9993 I3.8728 J3.8872
G2 Y3.9999 I1.5 J0.0006
G1 Y13.5001
G2 Y13.5008 I1.5 J0.0
G2 X0.1143 Y17.3857 I5.4874 J-0.0024
G2 X3.9993 Y19.0001 I3.8872 J-3.8728
G2 X3.9999 I0.0006 J-1.5
G1 X12.2499
G1 X20.5
G1 F50.0 Z-12.0
G1 F100.0 X24.5
G2 X26.0 Y17.5001 I0.0 J-1.5
G1 Y13.5001
G1 Y3.9999
G1 Y0.0
G2 X24.5 Y-1.5 I-1.5 J0.0
G1 X20.5
G1 X12.2499
G1 X3.9999
G2 X3.9993 I0.0 J1.5
G2 X0.1144 Y0.1143 I0.0024 J5.4874
G2 X-1.5 Y3.9993 I3.8728 J3.8872
G2 Y3.9999 I1.5 J0.0006
G1 Y13.5001
G2 Y13.5008 I1.5 J0.0
G2 X0.1143 Y17.3857 I5.4874 J-0.0024
G2 X3.9993 Y19.0001 I3.8872 J-3.8728
G2 X3.9999 I0.0006 J-1.5
G1 X12.2499
G1 X20.5
G1 F50.0 Z-14.0
G1 F100.0 X24.5
G2 X26.0 Y17.5001 I0.0 J-1.5
G1 Y13.5001
G1 Y3.9999
G1 Y0.0
G2 X24.5 Y-1.5 I-1.5 J0.0
G1 X20.5
G1 X12.2499
G1 X3.9999
G2 X3.9993 I0.0 J1.5
G2 X0.1144 Y0.1143 I0.0024 J5.4874
G2 X-1.5 Y3.9993 I3.8728 J3.8872
G2 Y3.9999 I1.5 J0.0006
G1 Y13.5001
G2 Y13.5008 I1.5 J0.0
G2 X0.1143 Y17.3857 I5.4874 J-0.0024
G2 X3.9993 Y19.0001 I3.8872 J-3.8728
G2 X3.9999 I0.0006 J-1.5
G1 X12.2499
G1 X20.5
G1 F50.0 Z-16.0
G1 F100.0 X24.5
G2 X26.0 Y17.5001 I0.0 J-1.5
G1 Y13.5001
G1 Y3.9999
G1 Y0.0
G2 X24.5 Y-1.5 I-1.5 J0.0
G1 X20.5
G1 X12.2499
G1 X3.9999
G2 X3.9993 I0.0 J1.5
G2 X0.1144 Y0.1143 I0.0024 J5.4874
G2 X-1.5 Y3.9993 I3.8728 J3.8872
G2 Y3.9999 I1.5 J0.0006
G1 Y13.5001
G2 Y13.5008 I1.5 J0.0
G2 X0.1143 Y17.3857 I5.4874 J-0.0024
G2 X3.9993 Y19.0001 I3.8872 J-3.8728
G2 X3.9999 I0.0006 J-1.5
G1 X12.2499
G1 X20.5
G1 F50.0 Z-18.0
G1 F100.0 X24.5
G2 X26.0 Y17.5001 I0.0 J-1.5
G1 Y13.5001
G1 Y3.9999
G1 Y0.0
G2 X24.5 Y-1.5 I-1.5 J0.0
G1 X20.5
G1 X12.2499
G1 X3.9999
G2 X3.9993 I0.0 J1.5
G2 X0.1144 Y0.1143 I0.0024 J5.4874
G2 X-1.5 Y3.9993 I3.8728 J3.8872
G2 Y3.9999 I1.5 J0.0006
G1 Y13.5001
G2 Y13.5008 I1.5 J0.0
G2 X0.1143 Y17.3857 I5.4874 J-0.0024
G2 X3.9993 Y19.0001 I3.8872 J-3.8728
G2 X3.9999 I0.0006 J-1.5
G1 X12.2499
G1 X20.5
G1 F50.0 Z-20.0
G1 F100.0 X24.5
G2 X26.0 Y17.5001 I0.0 J-1.5
G1 Y13.5001
G1 Y3.9999
G1 Y0.0
G2 X24.5 Y-1.5 I-1.5 J0.0
G1 X20.5
G1 X12.2499
G1 X3.9999
G2 X3.9993 I0.0 J1.5
G2 X0.1144 Y0.1143 I0.0024 J5.4874
G2 X-1.5 Y3.9993 I3.8728 J3.8872
G2 Y3.9999 I1.5 J0.0006
G1 Y13.5001
G2 Y13.5008 I1.5 J0.0
G2 X0.1143 Y17.3857 I5.4874 J-0.0024
G2 X3.9993 Y19.0001 I3.8872 J-3.8728
G2 X3.9999 I0.0006 J-1.5
G1 X12.2499
G1 X20.5
G1 F50.0 Z-22.0
G1 F100.0 X24.5
G2 X26.0 Y17.5001 I0.0 J-1.5
G1 Y13.5001
G1 Y3.9999
G1 Y0.0
G2 X24.5 Y-1.5 I-1.5 J0.0
G1 X20.5
G1 X12.2499
G1 X3.9999
G2 X3.9993 I0.0 J1.5
G2 X0.1144 Y0.1143 I0.0024 J5.4874
G2 X-1.5 Y3.9993 I3.8728 J3.8872
G2 Y3.9999 I1.5 J0.0006
G1 Y13.5001
G2 Y13.5008 I1.5 J0.0
G2 X0.1143 Y17.3857 I5.4874 J-0.0024
G2 X3.9993 Y19.0001 I3.8872 J-3.8728
G2 X3.9999 I0.0006 J-1.5
G1 X12.2499
G1 X20.5
G0 Z3.0
M5
M30
