( Made using CamBam - http://www.cambam.co.uk )
( chip plate SOIC8 and 6 11/28/2013 6:44:09 PM )
( T12 : 2.0 )
G21 G90 G64 G40
G0 Z3.0
( T12 : 2.0 )
T12 M6
( Drill1 )
G17
M3 S1000
G0 X9.3047 Y9.9001
G98
G83 X9.3047 Y9.9001 Z-3.0 Q1.0 R2.0 F25.0
G80
( Drill2 )
S1000
G0 Z3.0
G0 X15.6809
G98
G83 X15.6809 Y9.9001 Z-3.0 Q1.0 R2.0 F25.0
G80
( Drill3 )
S1000
G0 Z3.0
G0 X40.5434 Y10.4001
G98
G83 X40.5434 Y10.4001 Z-3.0 Q1.0 R2.0 F25.0
G80
( Drill4 )
S1000
G0 Z3.0
G0 X44.9947 Y10.5
G98
G83 X44.9947 Y10.5 Z-3.0 Q1.0 R2.0 F25.0
G80
G0 Z3.0
M5
M30
