( Made using CamBam - http://www.cambam.co.uk )
( chip plate SOIC8 and 6 11/28/2013 6:44:17 PM )
( T2 : 1.5 )
G21 G90 G64 G40
G0 Z3.0
( T2 : 1.5 )
T2 M6
( Profile1 )
G17
M3 S1000
G0 X13.0 Y30.25
G0 Z1.0
G1 F50.0 Z-3.0
G1 X9.2501
G1 Y25.0305
G1 X9.254 Y24.9824
G2 Y24.9821 I-0.7475 J-0.0608
G1 X10.0476 Y15.1604
G2 X10.05 Y15.1 I-0.7476 J-0.0604
G1 Y10.65
G1 X14.95
G1 Y15.1
G2 X14.9524 Y15.1604 I0.75 J0.0
G1 X15.7501 Y25.0303
G1 Y30.25
G1 X13.0
( Profile2 )
S1000
G0 Z3.0
G0 X43.0
G0 Z1.0
G1 Z-3.0
G1 X40.4215
G1 Y24.5892
G1 X41.2852 Y18.853
G2 X41.2936 Y18.7413 I-0.7416 J-0.1117
G1 Y11.1501
G1 X44.2436
G1 Y18.7413
G2 X44.2521 Y18.8537 I0.75 J0.0
G1 X45.1214 Y24.5896
G1 Y30.25
G1 X43.0
G0 Z3.0
M5
M30
