( Made using CamBam - http://www.cambam.co.uk )
( chip plate SOIC8 and 6 11/28/2013 6:44:49 PM )
( T4 : 4.0 )
G21 G90 G64 G40
G0 Z3.0
( T4 : 4.0 )
T4 M6
( Profile1 )
G17
M3 S1000
G0 X23.0 Y30.0
G0 Z1.0
G1 F25.0 Z-1.0
G1 F150.0 X23.5
G2 X23.506 I0.0 J-2.0
G2 X27.0 Y26.506 I-0.0105 J-3.5045
G2 Y26.5 I-2.0 J-0.006
G1 Y1.5
G2 Y1.494 I-2.0 J0.0
G2 X23.506 Y-2.0 I-3.5045 J0.0105
G2 X23.5 I-0.006 J2.0
G1 X1.5
G2 X1.494 I0.0 J2.0
G2 X-2.0 Y1.494 I0.0105 J3.5045
G2 Y1.5 I2.0 J0.006
G1 Y26.5
G2 Y26.506 I2.0 J0.0
G2 X1.494 Y30.0 I3.5045 J-0.0105
G2 X1.5 I0.006 J-2.0
G1 X23.0
G1 F25.0 Z-2.0
G1 F150.0 X23.5
G2 X23.506 I0.0 J-2.0
G2 X27.0 Y26.506 I-0.0105 J-3.5045
G2 Y26.5 I-2.0 J-0.006
G1 Y1.5
G2 Y1.494 I-2.0 J0.0
G2 X23.506 Y-2.0 I-3.5045 J0.0105
G2 X23.5 I-0.006 J2.0
G1 X1.5
G2 X1.494 I0.0 J2.0
G2 X-2.0 Y1.494 I0.0105 J3.5045
G2 Y1.5 I2.0 J0.006
G1 Y26.5
G2 Y26.506 I2.0 J0.0
G2 X1.494 Y30.0 I3.5045 J-0.0105
G2 X1.5 I0.006 J-2.0
G1 X23.0
G1 F25.0 Z-3.0
G1 F150.0 X23.5
G2 X23.506 I0.0 J-2.0
G2 X27.0 Y26.506 I-0.0105 J-3.5045
G2 Y26.5 I-2.0 J-0.006
G1 Y1.5
G2 Y1.494 I-2.0 J0.0
G2 X23.506 Y-2.0 I-3.5045 J0.0105
G2 X23.5 I-0.006 J2.0
G1 X1.5
G2 X1.494 I0.0 J2.0
G2 X-2.0 Y1.494 I0.0105 J3.5045
G2 Y1.5 I2.0 J0.006
G1 Y26.5
G2 Y26.506 I2.0 J0.0
G2 X1.494 Y30.0 I3.5045 J-0.0105
G2 X1.5 I0.006 J-2.0
G1 X23.0
G1 F25.0 Z-4.0
G1 F150.0 X23.5
G2 X23.506 I0.0 J-2.0
G2 X27.0 Y26.506 I-0.0105 J-3.5045
G2 Y26.5 I-2.0 J-0.006
G1 Y1.5
G2 Y1.494 I-2.0 J0.0
G2 X23.506 Y-2.0 I-3.5045 J0.0105
G2 X23.5 I-0.006 J2.0
G1 X1.5
G2 X1.494 I0.0 J2.0
G2 X-2.0 Y1.494 I0.0105 J3.5045
G2 Y1.5 I2.0 J0.006
G1 Y26.5
G2 Y26.506 I2.0 J0.0
G2 X1.494 Y30.0 I3.5045 J-0.0105
G2 X1.5 I0.006 J-2.0
G1 X23.0
G1 F25.0 Z-4.5
G1 F150.0 X23.5
G2 X23.506 I0.0 J-2.0
G2 X27.0 Y26.506 I-0.0105 J-3.5045
G2 Y26.5 I-2.0 J-0.006
G1 Y1.5
G2 Y1.494 I-2.0 J0.0
G2 X23.506 Y-2.0 I-3.5045 J0.0105
G2 X23.5 I-0.006 J2.0
G1 X1.5
G2 X1.494 I0.0 J2.0
G2 X-2.0 Y1.494 I0.0105 J3.5045
G2 Y1.5 I2.0 J0.006
G1 Y26.5
G2 Y26.506 I2.0 J0.0
G2 X1.494 Y30.0 I3.5045 J-0.0105
G2 X1.5 I0.006 J-2.0
G1 X23.0
( Profile2 )
S1000
G0 Z3.0
G0 X54.3069 Y29.9577
G0 Z1.0
G1 F25.0 Z-1.0
G2 F150.0 X57.2686 Y26.506 I-0.5428 J-3.4622
G2 Y26.5 I-2.0 J-0.006
G1 Y1.5
G2 Y1.494 I-2.0 J0.0
G2 X53.7746 Y-2.0 I-3.5045 J0.0105
G2 X53.7686 I-0.006 J2.0
G1 X31.7686
G2 X31.7626 I0.0 J2.0
G2 X28.2686 Y1.494 I0.0105 J3.5045
G2 Y1.5 I2.0 J0.006
G1 Y26.5
G2 Y26.506 I2.0 J0.0
G2 X31.7626 Y30.0 I3.5045 J-0.0105
G2 X31.7686 I0.006 J-2.0
G1 X53.7686
G2 X53.7746 I0.0 J-2.0
G2 X54.3069 Y29.9577 I-0.0105 J-3.5045
G1 F25.0 Z-2.0
G2 F150.0 X57.2686 Y26.506 I-0.5428 J-3.4622
G2 Y26.5 I-2.0 J-0.006
G1 Y1.5
G2 Y1.494 I-2.0 J0.0
G2 X53.7746 Y-2.0 I-3.5045 J0.0105
G2 X53.7686 I-0.006 J2.0
G1 X31.7686
G2 X31.7626 I0.0 J2.0
G2 X28.2686 Y1.494 I0.0105 J3.5045
G2 Y1.5 I2.0 J0.006
G1 Y26.5
G2 Y26.506 I2.0 J0.0
G2 X31.7626 Y30.0 I3.5045 J-0.0105
G2 X31.7686 I0.006 J-2.0
G1 X53.7686
G2 X53.7746 I0.0 J-2.0
G2 X54.3069 Y29.9577 I-0.0105 J-3.5045
G1 F25.0 Z-3.0
G2 F150.0 X57.2686 Y26.506 I-0.5428 J-3.4622
G2 Y26.5 I-2.0 J-0.006
G1 Y1.5
G2 Y1.494 I-2.0 J0.0
G2 X53.7746 Y-2.0 I-3.5045 J0.0105
G2 X53.7686 I-0.006 J2.0
G1 X31.7686
G2 X31.7626 I0.0 J2.0
G2 X28.2686 Y1.494 I0.0105 J3.5045
G2 Y1.5 I2.0 J0.006
G1 Y26.5
G2 Y26.506 I2.0 J0.0
G2 X31.7626 Y30.0 I3.5045 J-0.0105
G2 X31.7686 I0.006 J-2.0
G1 X53.7686
G2 X53.7746 I0.0 J-2.0
G2 X54.3069 Y29.9577 I-0.0105 J-3.5045
G1 F25.0 Z-4.0
G2 F150.0 X57.2686 Y26.506 I-0.5428 J-3.4622
G2 Y26.5 I-2.0 J-0.006
G1 Y1.5
G2 Y1.494 I-2.0 J0.0
G2 X53.7746 Y-2.0 I-3.5045 J0.0105
G2 X53.7686 I-0.006 J2.0
G1 X31.7686
G2 X31.7626 I0.0 J2.0
G2 X28.2686 Y1.494 I0.0105 J3.5045
G2 Y1.5 I2.0 J0.006
G1 Y26.5
G2 Y26.506 I2.0 J0.0
G2 X31.7626 Y30.0 I3.5045 J-0.0105
G2 X31.7686 I0.006 J-2.0
G1 X53.7686
G2 X53.7746 I0.0 J-2.0
G2 X54.3069 Y29.9577 I-0.0105 J-3.5045
G1 F25.0 Z-4.5
G2 F150.0 X57.2686 Y26.506 I-0.5428 J-3.4622
G2 Y26.5 I-2.0 J-0.006
G1 Y1.5
G2 Y1.494 I-2.0 J0.0
G2 X53.7746 Y-2.0 I-3.5045 J0.0105
G2 X53.7686 I-0.006 J2.0
G1 X31.7686
G2 X31.7626 I0.0 J2.0
G2 X28.2686 Y1.494 I0.0105 J3.5045
G2 Y1.5 I2.0 J0.006
G1 Y26.5
G2 Y26.506 I2.0 J0.0
G2 X31.7626 Y30.0 I3.5045 J-0.0105
G2 X31.7686 I0.006 J-2.0
G1 X53.7686
G2 X53.7746 I0.0 J-2.0
G2 X54.3069 Y29.9577 I-0.0105 J-3.5045
G0 Z3.0
M5
M30
