( Made using CamBam - http://www.cambam.co.uk )
( DipTrace PCB - Bluetooth Adapter 3/18/2013 11:59:32 AM )
( T2 : 2.0 )
G21 G90 G64 G40
G0 Z3.0
( T2 : 2.0 )
T2 M6
( Profile1 )
G17
M3 S1000
G0 X29.9984 Y0.0
G1 F80.0 Z-0.8
G1 Y44.069
G3 X28.9984 Y45.069 I-1.0 J0.0
G1 X0.0
G3 X-1.0 Y44.069 I0.0 J-1.0
G1 Y0.0
G3 X0.0 Y-1.0 I1.0 J0.0
G1 X28.9984
G3 X29.9984 Y0.0 I0.0 J1.0
G1 Z-1.6
G1 Y44.069
G3 X28.9984 Y45.069 I-1.0 J0.0
G1 X0.0
G3 X-1.0 Y44.069 I0.0 J-1.0
G1 Y0.0
G3 X0.0 Y-1.0 I1.0 J0.0
G1 X28.9984
G3 X29.9984 Y0.0 I0.0 J1.0
G0 Z3.0
G0 X33.8828
G1 Z-0.8
G3 X34.8828 Y-1.0 I1.0 J0.0
G1 X63.9232
G3 X64.9232 Y0.0 I0.0 J1.0
G1 Y44.069
G3 X63.9232 Y45.069 I-1.0 J0.0
G1 X34.8828
G3 X33.8828 Y44.069 I0.0 J-1.0
G1 Y0.0
G1 Z-1.6
G3 X34.8828 Y-1.0 I1.0 J0.0
G1 X63.9232
G3 X64.9232 Y0.0 I0.0 J1.0
G1 Y44.069
G3 X63.9232 Y45.069 I-1.0 J0.0
G1 X34.8828
G3 X33.8828 Y44.069 I0.0 J-1.0
G1 Y0.0
G0 Z3.0
M5
M30
