( Made using CamBam - http://www.cambam.co.uk )
( DipTrace PCB - Bluetooth Adapter 3/18/2013 11:59:26 AM )
( T11 : 1.0 )
G21 G90 G64 G40
G0 Z2.0
( T11 : 1.0 )
T11 M6
( Drill1 )
G17
M3 S1000
G0 X1.6934 Y42.3757
G98
G81 X1.6934 Y42.3757 Z-2.5 R2.0 F100.0
G81 Y39.8356 Z-2.5
G81 Y37.2956 Z-2.5
G81 Y34.7557 Z-2.5
G81 Y32.2156 Z-2.5
G81 Y29.6757 Z-2.5
G81 Y27.1356 Z-2.5
G81 Y24.5956 Z-2.5
G81 Y22.0557 Z-2.5
G81 Y19.5156 Z-2.5
G81 Y16.9757 Z-2.5
G81 Y14.4356 Z-2.5
G81 Y11.8956 Z-2.5
G81 Y9.3557 Z-2.5
G81 Y6.8156 Z-2.5
G81 Y4.2757 Z-2.5
G81 Y1.7356 Z-2.5
G81 X27.0934 Z-2.5
G81 Y4.2757 Z-2.5
G81 Y6.8156 Z-2.5
G81 Y9.3557 Z-2.5
G81 Y11.8956 Z-2.5
G81 Y14.4356 Z-2.5
G81 Y16.9757 Z-2.5
G81 Y19.5156 Z-2.5
G81 Y22.0557 Z-2.5
G81 Y24.5956 Z-2.5
G81 Y27.1356 Z-2.5
G81 Y29.6757 Z-2.5
G81 Y32.2156 Z-2.5
G81 Y34.7557 Z-2.5
G81 Y37.2956 Z-2.5
G81 Y39.8356 Z-2.5
G81 Y42.3757 Z-2.5
G81 X36.6184 Z-2.5
G81 Y39.8356 Z-2.5
G81 Y37.2956 Z-2.5
G81 Y34.7557 Z-2.5
G81 Y32.2156 Z-2.5
G81 Y29.6757 Z-2.5
G81 Y27.1356 Z-2.5
G81 Y24.5956 Z-2.5
G81 Y22.0557 Z-2.5
G81 Y19.5156 Z-2.5
G81 Y16.9757 Z-2.5
G81 Y14.4356 Z-2.5
G81 Y11.8956 Z-2.5
G81 Y9.3557 Z-2.5
G81 Y6.8156 Z-2.5
G81 Y4.2757 Z-2.5
G81 Y1.7356 Z-2.5
G81 X61.9972 Z-2.5
G81 Y4.2757 Z-2.5
G81 Y6.8156 Z-2.5
G81 Y9.3557 Z-2.5
G81 Y11.8956 Z-2.5
G81 Y14.4356 Z-2.5
G81 Y16.9757 Z-2.5
G81 Y19.5156 Z-2.5
G81 Y22.0557 Z-2.5
G81 Y24.5956 Z-2.5
G81 Y27.1356 Z-2.5
G81 Y29.6757 Z-2.5
G81 Y32.2156 Z-2.5
G81 Y34.7557 Z-2.5
G81 Y37.2956 Z-2.5
G81 Y39.8356 Z-2.5
G81 Y42.3757 Z-2.5
G80
M5
M30
