( Made using CamBam - http://www.cambam.co.uk )
( belt bearing housing 9/12/2013 4:13:35 PM )
( T6 : 6.0 )
G21 G90 G64 G40
G0 Z3.0
( T6 : 6.0 )
T6 M6
( 1 - 6mm pocket )
G17
M3 S1000
G0 X26.0264 Y18.6
G0 Z1.0
G1 F50.0 Z-0.35
G1 F100.0 X18.6
G1 Y20.8818
G1 X26.0264
G1 Y18.6
G1 F50.0 Y17.4
G1 F100.0 X17.4
G1 Y22.0818
G1 X27.2264
G1 Y17.4
G1 X26.0264
G1 F50.0 Y15.0
G1 F100.0 X15.0
G1 Y24.4818
G1 X29.6264
G1 Y15.0
G1 X26.0264
G1 F50.0 Y12.6
G1 F100.0 X12.6
G1 Y26.8818
G1 X32.0264
G1 Y12.6
G1 X26.0264
G1 F50.0 Y10.2
G1 F100.0 X10.2
G1 Y29.2818
G1 X34.4264
G1 Y10.2
G1 X26.0264
G1 F50.0 Y7.8
G1 F100.0 X7.8
G1 Y31.6818
G1 X36.8264
G1 Y7.8
G1 X26.0264
G1 F50.0 Y5.4
G1 F100.0 X5.4
G1 Y34.0818
G1 X39.2264
G1 Y5.4
G1 X26.0264
G1 F50.0 Y3.0
G1 F100.0 X3.0
G1 Y36.4818
G1 X41.6264
G1 Y3.0
G1 X26.0264
G0 Z3.0
M5
M30
