( Made using CamBam - http://www.cambam.co.uk )
( belt bearing housing 9/12/2013 4:13:43 PM )
( T6 : 6.0 )
G21 G90 G64 G40
G0 Z3.0
( T6 : 6.0 )
T6 M6
( 2 - 6mm pocket )
G17
M3 S1000
G0 X22.354 Y17.3705
G0 Z1.0
G1 F50.0 Z-1.0
G3 F100.0 X22.3301 Y17.4283 I-0.0815 J0.0001
G2 X22.3191 Y17.4393 I3.8132 J3.8236
G3 X22.2627 Y17.4627 I-0.0563 J-0.0561
G2 X22.2477 I-0.0081 J5.4
G3 X22.1878 Y17.4379 I-0.0001 J-0.0845
G2 X22.1787 Y17.4288 I-3.8224 J3.8143
G3 X22.1542 Y17.3696 I0.059 J-0.0591
G2 Y17.3563 I-5.4 J-0.0063
G3 X22.178 Y17.2989 I0.081 J-0.0001
G2 X22.1883 Y17.2886 I-3.8125 J-3.8243
G3 X22.2472 Y17.2642 I0.0588 J0.0586
G2 X22.2603 I0.0075 J-5.4
G3 X22.3207 Y17.2892 I0.0001 J0.0852
G2 X22.3307 Y17.2992 I3.8224 J-3.8144
G3 X22.354 Y17.3555 I-0.056 J0.0562
G2 Y17.3705 I5.4 J0.0078
G1 F50.0 X24.754 Y17.3673
G3 F100.0 X24.0248 Y19.1277 I-2.4815 J0.0033
G2 X24.0187 Y19.1338 I2.1184 J2.1242
G3 X22.2591 Y19.8627 I-1.7559 J-1.7506
G2 X22.2508 I-0.0045 J3.0
G3 X20.489 Y19.1331 I-0.0032 J-2.4844
G2 X20.4839 Y19.1281 I-2.1236 J2.1191
G3 X19.7542 Y17.3668 I1.7538 J-1.7584
G2 Y17.3594 I-3.0 J-0.0035
G3 X20.4836 Y15.5992 I2.481 J-0.0032
G2 X20.4893 Y15.5935 I-2.118 J-2.1246
G3 X22.2505 Y14.8642 I1.7578 J1.7537
G2 X22.2578 I0.0041 J-3.0
G3 X24.0196 Y15.594 I0.0026 J2.4852
G2 X24.0251 Y15.5995 I2.1236 J-2.1191
G3 X24.754 Y17.359 I-1.7504 J1.7559
G2 Y17.3673 I3.0 J0.0043
G1 F50.0 X22.354 Y17.3705
G1 Z-2.0
G3 F100.0 X22.3301 Y17.4283 I-0.0815 J0.0001
G2 X22.3191 Y17.4393 I3.8132 J3.8236
G3 X22.2627 Y17.4627 I-0.0563 J-0.0561
G2 X22.2477 I-0.0081 J5.4
G3 X22.1878 Y17.4379 I-0.0001 J-0.0845
G2 X22.1787 Y17.4288 I-3.8224 J3.8143
G3 X22.1542 Y17.3696 I0.059 J-0.0591
G2 Y17.3563 I-5.4 J-0.0063
G3 X22.178 Y17.2989 I0.081 J-0.0001
G2 X22.1883 Y17.2886 I-3.8125 J-3.8243
G3 X22.2472 Y17.2642 I0.0588 J0.0586
G2 X22.2603 I0.0075 J-5.4
G3 X22.3207 Y17.2892 I0.0001 J0.0852
G2 X22.3307 Y17.2992 I3.8224 J-3.8144
G3 X22.354 Y17.3555 I-0.056 J0.0562
G2 Y17.3705 I5.4 J0.0078
G1 F50.0 X24.754 Y17.3673
G3 F100.0 X24.0248 Y19.1277 I-2.4815 J0.0033
G2 X24.0187 Y19.1338 I2.1184 J2.1242
G3 X22.2591 Y19.8627 I-1.7559 J-1.7506
G2 X22.2508 I-0.0045 J3.0
G3 X20.489 Y19.1331 I-0.0032 J-2.4844
G2 X20.4839 Y19.1281 I-2.1236 J2.1191
G3 X19.7542 Y17.3668 I1.7538 J-1.7584
G2 Y17.3594 I-3.0 J-0.0035
G3 X20.4836 Y15.5992 I2.481 J-0.0032
G2 X20.4893 Y15.5935 I-2.118 J-2.1246
G3 X22.2505 Y14.8642 I1.7578 J1.7537
G2 X22.2578 I0.0041 J-3.0
G3 X24.0196 Y15.594 I0.0026 J2.4852
G2 X24.0251 Y15.5995 I2.1236 J-2.1191
G3 X24.754 Y17.359 I-1.7504 J1.7559
G2 Y17.3673 I3.0 J0.0043
G1 F50.0 X22.354 Y17.3705
G1 Z-3.0
G3 F100.0 X22.3301 Y17.4283 I-0.0815 J0.0001
G2 X22.3191 Y17.4393 I3.8132 J3.8236
G3 X22.2627 Y17.4627 I-0.0563 J-0.0561
G2 X22.2477 I-0.0081 J5.4
G3 X22.1878 Y17.4379 I-0.0001 J-0.0845
G2 X22.1787 Y17.4288 I-3.8224 J3.8143
G3 X22.1542 Y17.3696 I0.059 J-0.0591
G2 Y17.3563 I-5.4 J-0.0063
G3 X22.178 Y17.2989 I0.081 J-0.0001
G2 X22.1883 Y17.2886 I-3.8125 J-3.8243
G3 X22.2472 Y17.2642 I0.0588 J0.0586
G2 X22.2603 I0.0075 J-5.4
G3 X22.3207 Y17.2892 I0.0001 J0.0852
G2 X22.3307 Y17.2992 I3.8224 J-3.8144
G3 X22.354 Y17.3555 I-0.056 J0.0562
G2 Y17.3705 I5.4 J0.0078
G1 F50.0 X24.754 Y17.3673
G3 F100.0 X24.0248 Y19.1277 I-2.4815 J0.0033
G2 X24.0187 Y19.1338 I2.1184 J2.1242
G3 X22.2591 Y19.8627 I-1.7559 J-1.7506
G2 X22.2508 I-0.0045 J3.0
G3 X20.489 Y19.1331 I-0.0032 J-2.4844
G2 X20.4839 Y19.1281 I-2.1236 J2.1191
G3 X19.7542 Y17.3668 I1.7538 J-1.7584
G2 Y17.3594 I-3.0 J-0.0035
G3 X20.4836 Y15.5992 I2.481 J-0.0032
G2 X20.4893 Y15.5935 I-2.118 J-2.1246
G3 X22.2505 Y14.8642 I1.7578 J1.7537
G2 X22.2578 I0.0041 J-3.0
G3 X24.0196 Y15.594 I0.0026 J2.4852
G2 X24.0251 Y15.5995 I2.1236 J-2.1191
G3 X24.754 Y17.359 I-1.7504 J1.7559
G2 Y17.3673 I3.0 J0.0043
G1 F50.0 X22.354 Y17.3705
G1 Z-4.0
G3 F100.0 X22.3301 Y17.4283 I-0.0815 J0.0001
G2 X22.3191 Y17.4393 I3.8132 J3.8236
G3 X22.2627 Y17.4627 I-0.0563 J-0.0561
G2 X22.2477 I-0.0081 J5.4
G3 X22.1878 Y17.4379 I-0.0001 J-0.0845
G2 X22.1787 Y17.4288 I-3.8224 J3.8143
G3 X22.1542 Y17.3696 I0.059 J-0.0591
G2 Y17.3563 I-5.4 J-0.0063
G3 X22.178 Y17.2989 I0.081 J-0.0001
G2 X22.1883 Y17.2886 I-3.8125 J-3.8243
G3 X22.2472 Y17.2642 I0.0588 J0.0586
G2 X22.2603 I0.0075 J-5.4
G3 X22.3207 Y17.2892 I0.0001 J0.0852
G2 X22.3307 Y17.2992 I3.8224 J-3.8144
G3 X22.354 Y17.3555 I-0.056 J0.0562
G2 Y17.3705 I5.4 J0.0078
G1 F50.0 X24.754 Y17.3673
G3 F100.0 X24.0248 Y19.1277 I-2.4815 J0.0033
G2 X24.0187 Y19.1338 I2.1184 J2.1242
G3 X22.2591 Y19.8627 I-1.7559 J-1.7506
G2 X22.2508 I-0.0045 J3.0
G3 X20.489 Y19.1331 I-0.0032 J-2.4844
G2 X20.4839 Y19.1281 I-2.1236 J2.1191
G3 X19.7542 Y17.3668 I1.7538 J-1.7584
G2 Y17.3594 I-3.0 J-0.0035
G3 X20.4836 Y15.5992 I2.481 J-0.0032
G2 X20.4893 Y15.5935 I-2.118 J-2.1246
G3 X22.2505 Y14.8642 I1.7578 J1.7537
G2 X22.2578 I0.0041 J-3.0
G3 X24.0196 Y15.594 I0.0026 J2.4852
G2 X24.0251 Y15.5995 I2.1236 J-2.1191
G3 X24.754 Y17.359 I-1.7504 J1.7559
G2 Y17.3673 I3.0 J0.0043
G1 F50.0 X22.354 Y17.3705
G1 Z-5.0
G3 F100.0 X22.3301 Y17.4283 I-0.0815 J0.0001
G2 X22.3191 Y17.4393 I3.8132 J3.8236
G3 X22.2627 Y17.4627 I-0.0563 J-0.0561
G2 X22.2477 I-0.0081 J5.4
G3 X22.1878 Y17.4379 I-0.0001 J-0.0845
G2 X22.1787 Y17.4288 I-3.8224 J3.8143
G3 X22.1542 Y17.3696 I0.059 J-0.0591
G2 Y17.3563 I-5.4 J-0.0063
G3 X22.178 Y17.2989 I0.081 J-0.0001
G2 X22.1883 Y17.2886 I-3.8125 J-3.8243
G3 X22.2472 Y17.2642 I0.0588 J0.0586
G2 X22.2603 I0.0075 J-5.4
G3 X22.3207 Y17.2892 I0.0001 J0.0852
G2 X22.3307 Y17.2992 I3.8224 J-3.8144
G3 X22.354 Y17.3555 I-0.056 J0.0562
G2 Y17.3705 I5.4 J0.0078
G1 F50.0 X24.754 Y17.3673
G3 F100.0 X24.0248 Y19.1277 I-2.4815 J0.0033
G2 X24.0187 Y19.1338 I2.1184 J2.1242
G3 X22.2591 Y19.8627 I-1.7559 J-1.7506
G2 X22.2508 I-0.0045 J3.0
G3 X20.489 Y19.1331 I-0.0032 J-2.4844
G2 X20.4839 Y19.1281 I-2.1236 J2.1191
G3 X19.7542 Y17.3668 I1.7538 J-1.7584
G2 Y17.3594 I-3.0 J-0.0035
G3 X20.4836 Y15.5992 I2.481 J-0.0032
G2 X20.4893 Y15.5935 I-2.118 J-2.1246
G3 X22.2505 Y14.8642 I1.7578 J1.7537
G2 X22.2578 I0.0041 J-3.0
G3 X24.0196 Y15.594 I0.0026 J2.4852
G2 X24.0251 Y15.5995 I2.1236 J-2.1191
G3 X24.754 Y17.359 I-1.7504 J1.7559
G2 Y17.3673 I3.0 J0.0043
G1 F50.0 X22.354 Y17.3705
G1 Z-6.0
G3 F100.0 X22.3301 Y17.4283 I-0.0815 J0.0001
G2 X22.3191 Y17.4393 I3.8132 J3.8236
G3 X22.2627 Y17.4627 I-0.0563 J-0.0561
G2 X22.2477 I-0.0081 J5.4
G3 X22.1878 Y17.4379 I-0.0001 J-0.0845
G2 X22.1787 Y17.4288 I-3.8224 J3.8143
G3 X22.1542 Y17.3696 I0.059 J-0.0591
G2 Y17.3563 I-5.4 J-0.0063
G3 X22.178 Y17.2989 I0.081 J-0.0001
G2 X22.1883 Y17.2886 I-3.8125 J-3.8243
G3 X22.2472 Y17.2642 I0.0588 J0.0586
G2 X22.2603 I0.0075 J-5.4
G3 X22.3207 Y17.2892 I0.0001 J0.0852
G2 X22.3307 Y17.2992 I3.8224 J-3.8144
G3 X22.354 Y17.3555 I-0.056 J0.0562
G2 Y17.3705 I5.4 J0.0078
G1 F50.0 X24.754 Y17.3673
G3 F100.0 X24.0248 Y19.1277 I-2.4815 J0.0033
G2 X24.0187 Y19.1338 I2.1184 J2.1242
G3 X22.2591 Y19.8627 I-1.7559 J-1.7506
G2 X22.2508 I-0.0045 J3.0
G3 X20.489 Y19.1331 I-0.0032 J-2.4844
G2 X20.4839 Y19.1281 I-2.1236 J2.1191
G3 X19.7542 Y17.3668 I1.7538 J-1.7584
G2 Y17.3594 I-3.0 J-0.0035
G3 X20.4836 Y15.5992 I2.481 J-0.0032
G2 X20.4893 Y15.5935 I-2.118 J-2.1246
G3 X22.2505 Y14.8642 I1.7578 J1.7537
G2 X22.2578 I0.0041 J-3.0
G3 X24.0196 Y15.594 I0.0026 J2.4852
G2 X24.0251 Y15.5995 I2.1236 J-2.1191
G3 X24.754 Y17.359 I-1.7504 J1.7559
G2 Y17.3673 I3.0 J0.0043
G1 F50.0 X22.354 Y17.3705
G1 Z-6.5
G3 F100.0 X22.3301 Y17.4283 I-0.0815 J0.0001
G2 X22.3191 Y17.4393 I3.8132 J3.8236
G3 X22.2627 Y17.4627 I-0.0563 J-0.0561
G2 X22.2477 I-0.0081 J5.4
G3 X22.1878 Y17.4379 I-0.0001 J-0.0845
G2 X22.1787 Y17.4288 I-3.8224 J3.8143
G3 X22.1542 Y17.3696 I0.059 J-0.0591
G2 Y17.3563 I-5.4 J-0.0063
G3 X22.178 Y17.2989 I0.081 J-0.0001
G2 X22.1883 Y17.2886 I-3.8125 J-3.8243
G3 X22.2472 Y17.2642 I0.0588 J0.0586
G2 X22.2603 I0.0075 J-5.4
G3 X22.3207 Y17.2892 I0.0001 J0.0852
G2 X22.3307 Y17.2992 I3.8224 J-3.8144
G3 X22.354 Y17.3555 I-0.056 J0.0562
G2 Y17.3705 I5.4 J0.0078
G1 F50.0 X24.754 Y17.3673
G3 F100.0 X24.0248 Y19.1277 I-2.4815 J0.0033
G2 X24.0187 Y19.1338 I2.1184 J2.1242
G3 X22.2591 Y19.8627 I-1.7559 J-1.7506
G2 X22.2508 I-0.0045 J3.0
G3 X20.489 Y19.1331 I-0.0032 J-2.4844
G2 X20.4839 Y19.1281 I-2.1236 J2.1191
G3 X19.7542 Y17.3668 I1.7538 J-1.7584
G2 Y17.3594 I-3.0 J-0.0035
G3 X20.4836 Y15.5992 I2.481 J-0.0032
G2 X20.4893 Y15.5935 I-2.118 J-2.1246
G3 X22.2505 Y14.8642 I1.7578 J1.7537
G2 X22.2578 I0.0041 J-3.0
G3 X24.0196 Y15.594 I0.0026 J2.4852
G2 X24.0251 Y15.5995 I2.1236 J-2.1191
G3 X24.754 Y17.359 I-1.7504 J1.7559
G2 Y17.3673 I3.0 J0.0043
G0 Z3.0
M5
M30
