( Made using CamBam - http://www.cambam.co.uk )
( belt bearing housing 9/12/2013 4:13:53 PM )
( T6 : 6.0 )
G21 G90 G64 G40
G0 Z3.0
( T6 : 6.0 )
T6 M6
( 3 - 6mm pocket )
G17
M3 S1000
G0 X23.2042 Y17.3708
G0 Z1.0
G1 F50.0 Z-1.0
G3 F100.0 X22.9314 Y18.0295 I-0.9289 J0.0011
G2 X22.919 Y18.0419 I4.6615 J4.6723
G3 X22.2639 Y18.3132 I-0.6537 J-0.6518
G2 X22.2467 I-0.0097 J6.6
G3 X21.5881 Y18.0404 I-0.0011 J-0.9289
G2 X21.5757 Y18.028 I-4.6723 J4.6615
G3 X21.3043 Y17.3729 I0.6518 J-0.6537
G2 X21.3044 Y17.3551 I-6.6 J-0.0097
G3 X21.5765 Y16.6982 I0.9261 J-0.0011
G2 X21.5885 Y16.6862 I-4.6606 J-4.6732
G3 X22.2457 Y16.414 I0.656 J0.6544
G2 X22.263 I0.0086 J-6.6
G3 X22.92 Y16.6861 I0.0012 J0.9262
G2 X22.9327 Y16.6988 I4.6727 J-4.6611
G3 X23.2042 Y17.3543 I-0.6523 J0.6543
G2 Y17.3708 I6.6 J0.009
G1 F50.0 X24.4042 Y17.3695
G3 F100.0 X23.7789 Y18.879 I-2.1289 J0.0024
G2 X23.7688 Y18.8891 I3.8139 J3.8228
G3 X22.2622 Y19.5132 I-1.5035 J-1.4991
G2 X22.2481 I-0.0079 J5.4
G3 X20.7385 Y18.8879 I-0.0024 J-2.1289
G2 X20.7284 Y18.8778 I-3.8228 J3.8139
G3 X20.1044 Y17.3712 I1.4991 J-1.5035
G2 Y17.3566 I-5.4 J-0.0079
G3 X20.7291 Y15.8486 I2.1261 J-0.0026
G2 X20.7389 Y15.8387 I-3.8132 J-3.8235
G3 X22.2472 Y15.214 I1.5056 J1.5019
G2 X22.2614 I0.007 J-5.4
G3 X23.7696 Y15.8387 I0.0028 J2.1262
G2 X23.7799 Y15.849 I3.8231 J-3.8136
G3 X24.4042 Y17.3559 I-1.4996 J1.504
G2 Y17.3695 I5.4 J0.0073
G1 F50.0 X26.8042 Y17.3667
G3 F100.0 X25.474 Y20.5781 I-4.5289 J0.0052
G2 X25.4684 Y20.5837 I2.1188 J2.1238
G3 X22.2587 Y21.9132 I-3.2031 J-3.1936
G2 X22.2508 I-0.0044 J3.0
G3 X19.0395 Y20.583 I-0.0052 J-4.5289
G2 X19.0339 Y20.5774 I-2.1238 J2.1188
G3 X17.7044 Y17.3677 I3.1936 J-3.2031
G2 Y17.3596 I-3.0 J-0.0044
G3 X19.0343 Y14.1492 I4.5261 J-0.0056
G2 X19.0398 Y14.1438 I-2.1185 J-2.1242
G3 X22.2504 Y12.814 I3.2047 J3.1968
G2 X22.2583 I0.0039 J-3.0
G3 X25.4688 Y14.1437 I0.006 J4.5262
G2 X25.4745 Y14.1495 I2.124 J-2.1187
G3 X26.8042 Y17.3592 I-3.1942 J3.2036
G2 Y17.3667 I3.0 J0.0041
G1 F50.0 X23.2042 Y17.3708
G1 Z-2.0
G3 F100.0 X22.9314 Y18.0295 I-0.9289 J0.0011
G2 X22.919 Y18.0419 I4.6615 J4.6723
G3 X22.2639 Y18.3132 I-0.6537 J-0.6518
G2 X22.2467 I-0.0097 J6.6
G3 X21.5881 Y18.0404 I-0.0011 J-0.9289
G2 X21.5757 Y18.028 I-4.6723 J4.6615
G3 X21.3043 Y17.3729 I0.6518 J-0.6537
G2 X21.3044 Y17.3551 I-6.6 J-0.0097
G3 X21.5765 Y16.6982 I0.9261 J-0.0011
G2 X21.5885 Y16.6862 I-4.6606 J-4.6732
G3 X22.2457 Y16.414 I0.656 J0.6544
G2 X22.263 I0.0086 J-6.6
G3 X22.92 Y16.6861 I0.0012 J0.9262
G2 X22.9327 Y16.6988 I4.6727 J-4.6611
G3 X23.2042 Y17.3543 I-0.6523 J0.6543
G2 Y17.3708 I6.6 J0.009
G1 F50.0 X24.4042 Y17.3695
G3 F100.0 X23.7789 Y18.879 I-2.1289 J0.0024
G2 X23.7688 Y18.8891 I3.8139 J3.8228
G3 X22.2622 Y19.5132 I-1.5035 J-1.4991
G2 X22.2481 I-0.0079 J5.4
G3 X20.7385 Y18.8879 I-0.0024 J-2.1289
G2 X20.7284 Y18.8778 I-3.8228 J3.8139
G3 X20.1044 Y17.3712 I1.4991 J-1.5035
G2 Y17.3566 I-5.4 J-0.0079
G3 X20.7291 Y15.8486 I2.1261 J-0.0026
G2 X20.7389 Y15.8387 I-3.8132 J-3.8235
G3 X22.2472 Y15.214 I1.5056 J1.5019
G2 X22.2614 I0.007 J-5.4
G3 X23.7696 Y15.8387 I0.0028 J2.1262
G2 X23.7799 Y15.849 I3.8231 J-3.8136
G3 X24.4042 Y17.3559 I-1.4996 J1.504
G2 Y17.3695 I5.4 J0.0073
G1 F50.0 X26.8042 Y17.3667
G3 F100.0 X25.474 Y20.5781 I-4.5289 J0.0052
G2 X25.4684 Y20.5837 I2.1188 J2.1238
G3 X22.2587 Y21.9132 I-3.2031 J-3.1936
G2 X22.2508 I-0.0044 J3.0
G3 X19.0395 Y20.583 I-0.0052 J-4.5289
G2 X19.0339 Y20.5774 I-2.1238 J2.1188
G3 X17.7044 Y17.3677 I3.1936 J-3.2031
G2 Y17.3596 I-3.0 J-0.0044
G3 X19.0343 Y14.1492 I4.5261 J-0.0056
G2 X19.0398 Y14.1438 I-2.1185 J-2.1242
G3 X22.2504 Y12.814 I3.2047 J3.1968
G2 X22.2583 I0.0039 J-3.0
G3 X25.4688 Y14.1437 I0.006 J4.5262
G2 X25.4745 Y14.1495 I2.124 J-2.1187
G3 X26.8042 Y17.3592 I-3.1942 J3.2036
G2 Y17.3667 I3.0 J0.0041
G1 F50.0 X23.2042 Y17.3708
G1 Z-3.0
G3 F100.0 X22.9314 Y18.0295 I-0.9289 J0.0011
G2 X22.919 Y18.0419 I4.6615 J4.6723
G3 X22.2639 Y18.3132 I-0.6537 J-0.6518
G2 X22.2467 I-0.0097 J6.6
G3 X21.5881 Y18.0404 I-0.0011 J-0.9289
G2 X21.5757 Y18.028 I-4.6723 J4.6615
G3 X21.3043 Y17.3729 I0.6518 J-0.6537
G2 X21.3044 Y17.3551 I-6.6 J-0.0097
G3 X21.5765 Y16.6982 I0.9261 J-0.0011
G2 X21.5885 Y16.6862 I-4.6606 J-4.6732
G3 X22.2457 Y16.414 I0.656 J0.6544
G2 X22.263 I0.0086 J-6.6
G3 X22.92 Y16.6861 I0.0012 J0.9262
G2 X22.9327 Y16.6988 I4.6727 J-4.6611
G3 X23.2042 Y17.3543 I-0.6523 J0.6543
G2 Y17.3708 I6.6 J0.009
G1 F50.0 X24.4042 Y17.3695
G3 F100.0 X23.7789 Y18.879 I-2.1289 J0.0024
G2 X23.7688 Y18.8891 I3.8139 J3.8228
G3 X22.2622 Y19.5132 I-1.5035 J-1.4991
G2 X22.2481 I-0.0079 J5.4
G3 X20.7385 Y18.8879 I-0.0024 J-2.1289
G2 X20.7284 Y18.8778 I-3.8228 J3.8139
G3 X20.1044 Y17.3712 I1.4991 J-1.5035
G2 Y17.3566 I-5.4 J-0.0079
G3 X20.7291 Y15.8486 I2.1261 J-0.0026
G2 X20.7389 Y15.8387 I-3.8132 J-3.8235
G3 X22.2472 Y15.214 I1.5056 J1.5019
G2 X22.2614 I0.007 J-5.4
G3 X23.7696 Y15.8387 I0.0028 J2.1262
G2 X23.7799 Y15.849 I3.8231 J-3.8136
G3 X24.4042 Y17.3559 I-1.4996 J1.504
G2 Y17.3695 I5.4 J0.0073
G1 F50.0 X26.8042 Y17.3667
G3 F100.0 X25.474 Y20.5781 I-4.5289 J0.0052
G2 X25.4684 Y20.5837 I2.1188 J2.1238
G3 X22.2587 Y21.9132 I-3.2031 J-3.1936
G2 X22.2508 I-0.0044 J3.0
G3 X19.0395 Y20.583 I-0.0052 J-4.5289
G2 X19.0339 Y20.5774 I-2.1238 J2.1188
G3 X17.7044 Y17.3677 I3.1936 J-3.2031
G2 Y17.3596 I-3.0 J-0.0044
G3 X19.0343 Y14.1492 I4.5261 J-0.0056
G2 X19.0398 Y14.1438 I-2.1185 J-2.1242
G3 X22.2504 Y12.814 I3.2047 J3.1968
G2 X22.2583 I0.0039 J-3.0
G3 X25.4688 Y14.1437 I0.006 J4.5262
G2 X25.4745 Y14.1495 I2.124 J-2.1187
G3 X26.8042 Y17.3592 I-3.1942 J3.2036
G2 Y17.3667 I3.0 J0.0041
G1 F50.0 X23.2042 Y17.3708
G1 Z-4.0
G3 F100.0 X22.9314 Y18.0295 I-0.9289 J0.0011
G2 X22.919 Y18.0419 I4.6615 J4.6723
G3 X22.2639 Y18.3132 I-0.6537 J-0.6518
G2 X22.2467 I-0.0097 J6.6
G3 X21.5881 Y18.0404 I-0.0011 J-0.9289
G2 X21.5757 Y18.028 I-4.6723 J4.6615
G3 X21.3043 Y17.3729 I0.6518 J-0.6537
G2 X21.3044 Y17.3551 I-6.6 J-0.0097
G3 X21.5765 Y16.6982 I0.9261 J-0.0011
G2 X21.5885 Y16.6862 I-4.6606 J-4.6732
G3 X22.2457 Y16.414 I0.656 J0.6544
G2 X22.263 I0.0086 J-6.6
G3 X22.92 Y16.6861 I0.0012 J0.9262
G2 X22.9327 Y16.6988 I4.6727 J-4.6611
G3 X23.2042 Y17.3543 I-0.6523 J0.6543
G2 Y17.3708 I6.6 J0.009
G1 F50.0 X24.4042 Y17.3695
G3 F100.0 X23.7789 Y18.879 I-2.1289 J0.0024
G2 X23.7688 Y18.8891 I3.8139 J3.8228
G3 X22.2622 Y19.5132 I-1.5035 J-1.4991
G2 X22.2481 I-0.0079 J5.4
G3 X20.7385 Y18.8879 I-0.0024 J-2.1289
G2 X20.7284 Y18.8778 I-3.8228 J3.8139
G3 X20.1044 Y17.3712 I1.4991 J-1.5035
G2 Y17.3566 I-5.4 J-0.0079
G3 X20.7291 Y15.8486 I2.1261 J-0.0026
G2 X20.7389 Y15.8387 I-3.8132 J-3.8235
G3 X22.2472 Y15.214 I1.5056 J1.5019
G2 X22.2614 I0.007 J-5.4
G3 X23.7696 Y15.8387 I0.0028 J2.1262
G2 X23.7799 Y15.849 I3.8231 J-3.8136
G3 X24.4042 Y17.3559 I-1.4996 J1.504
G2 Y17.3695 I5.4 J0.0073
G1 F50.0 X26.8042 Y17.3667
G3 F100.0 X25.474 Y20.5781 I-4.5289 J0.0052
G2 X25.4684 Y20.5837 I2.1188 J2.1238
G3 X22.2587 Y21.9132 I-3.2031 J-3.1936
G2 X22.2508 I-0.0044 J3.0
G3 X19.0395 Y20.583 I-0.0052 J-4.5289
G2 X19.0339 Y20.5774 I-2.1238 J2.1188
G3 X17.7044 Y17.3677 I3.1936 J-3.2031
G2 Y17.3596 I-3.0 J-0.0044
G3 X19.0343 Y14.1492 I4.5261 J-0.0056
G2 X19.0398 Y14.1438 I-2.1185 J-2.1242
G3 X22.2504 Y12.814 I3.2047 J3.1968
G2 X22.2583 I0.0039 J-3.0
G3 X25.4688 Y14.1437 I0.006 J4.5262
G2 X25.4745 Y14.1495 I2.124 J-2.1187
G3 X26.8042 Y17.3592 I-3.1942 J3.2036
G2 Y17.3667 I3.0 J0.0041
G1 F50.0 X23.2042 Y17.3708
G1 Z-5.0
G3 F100.0 X22.9314 Y18.0295 I-0.9289 J0.0011
G2 X22.919 Y18.0419 I4.6615 J4.6723
G3 X22.2639 Y18.3132 I-0.6537 J-0.6518
G2 X22.2467 I-0.0097 J6.6
G3 X21.5881 Y18.0404 I-0.0011 J-0.9289
G2 X21.5757 Y18.028 I-4.6723 J4.6615
G3 X21.3043 Y17.3729 I0.6518 J-0.6537
G2 X21.3044 Y17.3551 I-6.6 J-0.0097
G3 X21.5765 Y16.6982 I0.9261 J-0.0011
G2 X21.5885 Y16.6862 I-4.6606 J-4.6732
G3 X22.2457 Y16.414 I0.656 J0.6544
G2 X22.263 I0.0086 J-6.6
G3 X22.92 Y16.6861 I0.0012 J0.9262
G2 X22.9327 Y16.6988 I4.6727 J-4.6611
G3 X23.2042 Y17.3543 I-0.6523 J0.6543
G2 Y17.3708 I6.6 J0.009
G1 F50.0 X24.4042 Y17.3695
G3 F100.0 X23.7789 Y18.879 I-2.1289 J0.0024
G2 X23.7688 Y18.8891 I3.8139 J3.8228
G3 X22.2622 Y19.5132 I-1.5035 J-1.4991
G2 X22.2481 I-0.0079 J5.4
G3 X20.7385 Y18.8879 I-0.0024 J-2.1289
G2 X20.7284 Y18.8778 I-3.8228 J3.8139
G3 X20.1044 Y17.3712 I1.4991 J-1.5035
G2 Y17.3566 I-5.4 J-0.0079
G3 X20.7291 Y15.8486 I2.1261 J-0.0026
G2 X20.7389 Y15.8387 I-3.8132 J-3.8235
G3 X22.2472 Y15.214 I1.5056 J1.5019
G2 X22.2614 I0.007 J-5.4
G3 X23.7696 Y15.8387 I0.0028 J2.1262
G2 X23.7799 Y15.849 I3.8231 J-3.8136
G3 X24.4042 Y17.3559 I-1.4996 J1.504
G2 Y17.3695 I5.4 J0.0073
G1 F50.0 X26.8042 Y17.3667
G3 F100.0 X25.474 Y20.5781 I-4.5289 J0.0052
G2 X25.4684 Y20.5837 I2.1188 J2.1238
G3 X22.2587 Y21.9132 I-3.2031 J-3.1936
G2 X22.2508 I-0.0044 J3.0
G3 X19.0395 Y20.583 I-0.0052 J-4.5289
G2 X19.0339 Y20.5774 I-2.1238 J2.1188
G3 X17.7044 Y17.3677 I3.1936 J-3.2031
G2 Y17.3596 I-3.0 J-0.0044
G3 X19.0343 Y14.1492 I4.5261 J-0.0056
G2 X19.0398 Y14.1438 I-2.1185 J-2.1242
G3 X22.2504 Y12.814 I3.2047 J3.1968
G2 X22.2583 I0.0039 J-3.0
G3 X25.4688 Y14.1437 I0.006 J4.5262
G2 X25.4745 Y14.1495 I2.124 J-2.1187
G3 X26.8042 Y17.3592 I-3.1942 J3.2036
G2 Y17.3667 I3.0 J0.0041
G1 F50.0 X23.2042 Y17.3708
G1 Z-5.35
G3 F100.0 X22.9314 Y18.0295 I-0.9289 J0.0011
G2 X22.919 Y18.0419 I4.6615 J4.6723
G3 X22.2639 Y18.3132 I-0.6537 J-0.6518
G2 X22.2467 I-0.0097 J6.6
G3 X21.5881 Y18.0404 I-0.0011 J-0.9289
G2 X21.5757 Y18.028 I-4.6723 J4.6615
G3 X21.3043 Y17.3729 I0.6518 J-0.6537
G2 X21.3044 Y17.3551 I-6.6 J-0.0097
G3 X21.5765 Y16.6982 I0.9261 J-0.0011
G2 X21.5885 Y16.6862 I-4.6606 J-4.6732
G3 X22.2457 Y16.414 I0.656 J0.6544
G2 X22.263 I0.0086 J-6.6
G3 X22.92 Y16.6861 I0.0012 J0.9262
G2 X22.9327 Y16.6988 I4.6727 J-4.6611
G3 X23.2042 Y17.3543 I-0.6523 J0.6543
G2 Y17.3708 I6.6 J0.009
G1 F50.0 X24.4042 Y17.3695
G3 F100.0 X23.7789 Y18.879 I-2.1289 J0.0024
G2 X23.7688 Y18.8891 I3.8139 J3.8228
G3 X22.2622 Y19.5132 I-1.5035 J-1.4991
G2 X22.2481 I-0.0079 J5.4
G3 X20.7385 Y18.8879 I-0.0024 J-2.1289
G2 X20.7284 Y18.8778 I-3.8228 J3.8139
G3 X20.1044 Y17.3712 I1.4991 J-1.5035
G2 Y17.3566 I-5.4 J-0.0079
G3 X20.7291 Y15.8486 I2.1261 J-0.0026
G2 X20.7389 Y15.8387 I-3.8132 J-3.8235
G3 X22.2472 Y15.214 I1.5056 J1.5019
G2 X22.2614 I0.007 J-5.4
G3 X23.7696 Y15.8387 I0.0028 J2.1262
G2 X23.7799 Y15.849 I3.8231 J-3.8136
G3 X24.4042 Y17.3559 I-1.4996 J1.504
G2 Y17.3695 I5.4 J0.0073
G1 F50.0 X26.8042 Y17.3667
G3 F100.0 X25.474 Y20.5781 I-4.5289 J0.0052
G2 X25.4684 Y20.5837 I2.1188 J2.1238
G3 X22.2587 Y21.9132 I-3.2031 J-3.1936
G2 X22.2508 I-0.0044 J3.0
G3 X19.0395 Y20.583 I-0.0052 J-4.5289
G2 X19.0339 Y20.5774 I-2.1238 J2.1188
G3 X17.7044 Y17.3677 I3.1936 J-3.2031
G2 Y17.3596 I-3.0 J-0.0044
G3 X19.0343 Y14.1492 I4.5261 J-0.0056
G2 X19.0398 Y14.1438 I-2.1185 J-2.1242
G3 X22.2504 Y12.814 I3.2047 J3.1968
G2 X22.2583 I0.0039 J-3.0
G3 X25.4688 Y14.1437 I0.006 J4.5262
G2 X25.4745 Y14.1495 I2.124 J-2.1187
G3 X26.8042 Y17.3592 I-3.1942 J3.2036
G2 Y17.3667 I3.0 J0.0041
G0 Z3.0
M5
M30
