( Made using CamBam - http://www.cambam.co.uk )
( belt bearing housing 9/12/2013 4:14:02 PM )
( T6 : 6.0 )
G21 G90 G64 G40
G0 Z3.0
( T6 : 6.0 )
T6 M6
( 4 - 6mm pocket )
G17
M3 S1000
G0 X33.1029 Y9.3256
G0 Z1.0
G1 F50.0 Z-1.0
G2 F100.0 X31.7996 Y7.8171 I-10.8104 J8.0227
G2 X22.2544 Y3.864 I-9.5325 J9.5167
G2 X12.7088 Y7.8174 I-0.0136 J13.4678
G2 X8.7543 Y17.363 I9.5112 J9.5322
G2 X12.7102 Y26.9098 I13.4661 J0.0131
G2 X17.0837 Y29.8356 I9.569 J-9.5721
G2 X17.0874 Y29.8372 I1.1516 J-2.7702
G2 X22.2543 Y30.8622 I5.154 J-12.4447
G2 X31.7998 Y26.9085 I0.0127 J-13.4692
G2 X35.7546 Y17.3632 I-9.5123 J-9.533
G2 X33.1029 Y9.3256 I-13.4621 J-0.015
G0 Z3.0
G0 X36.8264 Y28.4269
G0 Z1.0
G1 F50.0 Z-1.0
G1 F100.0 Y31.6818
G1 X33.6432
G2 X35.1902 Y30.2996 I-11.3762 J-14.2888
G2 X36.8264 Y28.4269 I-12.9027 J-12.9241
G0 Z3.0
G0 X10.8671 Y31.6818
G0 Z1.0
G1 F50.0 Z-1.0
G1 F100.0 X7.8
G1 Y28.58
G2 X9.3219 Y30.3029 I14.4204 J-11.2039
G2 X10.8671 Y31.6818 I12.9574 J-12.9652
G1 F50.0 Y34.0818
G1 F100.0 X5.4
G1 Y5.4
G1 X11.7877
G2 X11.0153 Y6.1236 I10.4531 J11.9318
G2 X6.3591 Y17.363 I11.2047 J11.226
G2 X11.0177 Y28.6047 I15.8613 J0.0131
G2 X16.1643 Y32.0473 I11.2615 J-11.2669
G2 X16.1709 Y32.0501 I2.071 J-4.9819
G2 X22.2543 Y33.2574 I6.0704 J-14.6576
G2 X33.4933 Y28.6024 I0.0127 J-15.8644
G2 X38.1498 Y17.3635 I-11.2058 J-11.2268
G2 X33.4929 Y6.1231 I-15.8573 J-0.0152
G2 X32.721 Y5.4 I-11.2258 J11.2108
G1 X39.2264
G1 Y34.0818
G1 X10.8671
G1 F50.0 Y36.4818
G1 F100.0 X3.0
G1 Y3.0
G1 X41.6264
G1 Y36.4818
G1 X10.8671
G0 Z3.0
G0 Y31.6818
G0 Z0.0
G1 F50.0 Z-2.0
G1 F100.0 X7.8
G1 Y28.58
G2 X9.3219 Y30.3029 I14.4204 J-11.2039
G2 X10.8671 Y31.6818 I12.9574 J-12.9652
G0 Z3.0
G0 X33.6432
G0 Z0.0
G1 F50.0 Z-2.0
G2 F100.0 X35.1902 Y30.2996 I-11.3762 J-14.2888
G2 X36.8264 Y28.4269 I-12.9027 J-12.9241
G1 Y31.6818
G1 X33.6432
G1 F50.0 Y34.0818
G1 F100.0 X5.4
G1 Y5.4
G1 X11.7877
G2 X11.0153 Y6.1236 I10.4531 J11.9318
G2 X6.3591 Y17.363 I11.2047 J11.226
G2 X11.0177 Y28.6047 I15.8613 J0.0131
G2 X16.1643 Y32.0473 I11.2615 J-11.2669
G2 X16.1709 Y32.0501 I2.071 J-4.9819
G2 X22.2543 Y33.2574 I6.0704 J-14.6576
G2 X33.4933 Y28.6024 I0.0127 J-15.8644
G2 X38.1498 Y17.3635 I-11.2058 J-11.2268
G2 X33.4929 Y6.1231 I-15.8573 J-0.0152
G2 X32.721 Y5.4 I-11.2258 J11.2108
G1 X39.2264
G1 Y34.0818
G1 X33.6432
G1 F50.0 Y36.4818
G1 F100.0 X3.0
G1 Y3.0
G1 X41.6264
G1 Y36.4818
G1 X33.6432
G0 Z3.0
G0 X29.1625 Y28.9633
G0 Z0.0
G1 F50.0 Z-2.0
G2 F100.0 X31.7998 Y26.9085 I-6.8955 J-11.5703
G2 X35.7546 Y17.3632 I-9.5123 J-9.533
G2 X31.7996 Y7.8171 I-13.4621 J-0.015
G2 X22.2544 Y3.864 I-9.5325 J9.5167
G2 X12.7088 Y7.8174 I-0.0136 J13.4678
G2 X8.7543 Y17.363 I9.5112 J9.5322
G2 X12.7102 Y26.9098 I13.4661 J0.0131
G2 X17.0837 Y29.8356 I9.569 J-9.5721
G2 X17.0874 Y29.8372 I1.1516 J-2.7702
G2 X22.2543 Y30.8622 I5.154 J-12.4447
G2 X29.1625 Y28.9633 I0.0127 J-13.4692
G1 F50.0 Z-3.0
G2 F100.0 X31.7998 Y26.9085 I-6.8955 J-11.5703
G2 X35.7546 Y17.3632 I-9.5123 J-9.533
G2 X31.7996 Y7.8171 I-13.4621 J-0.015
G2 X22.2544 Y3.864 I-9.5325 J9.5167
G2 X12.7088 Y7.8174 I-0.0136 J13.4678
G2 X8.7543 Y17.363 I9.5112 J9.5322
G2 X12.7102 Y26.9098 I13.4661 J0.0131
G2 X17.0837 Y29.8356 I9.569 J-9.5721
G2 X17.0874 Y29.8372 I1.1516 J-2.7702
G2 X22.2543 Y30.8622 I5.154 J-12.4447
G2 X29.1625 Y28.9633 I0.0127 J-13.4692
G0 Z3.0
G0 X33.6432 Y31.6818
G0 Z-1.0
G1 F50.0 Z-3.0
G2 F100.0 X35.1902 Y30.2996 I-11.3762 J-14.2888
G2 X36.8264 Y28.4269 I-12.9027 J-12.9241
G1 Y31.6818
G1 X33.6432
G0 Z3.0
G0 X10.8671
G0 Z-1.0
G1 F50.0 Z-3.0
G1 F100.0 X7.8
G1 Y28.58
G2 X9.3219 Y30.3029 I14.4204 J-11.2039
G2 X10.8671 Y31.6818 I12.9574 J-12.9652
G1 F50.0 Y34.0818
G1 F100.0 X5.4
G1 Y5.4
G1 X11.7877
G2 X11.0153 Y6.1236 I10.4531 J11.9318
G2 X6.3591 Y17.363 I11.2047 J11.226
G2 X11.0177 Y28.6047 I15.8613 J0.0131
G2 X16.1643 Y32.0473 I11.2615 J-11.2669
G2 X16.1709 Y32.0501 I2.071 J-4.9819
G2 X22.2543 Y33.2574 I6.0704 J-14.6576
G2 X33.4933 Y28.6024 I0.0127 J-15.8644
G2 X38.1498 Y17.3635 I-11.2058 J-11.2268
G2 X33.4929 Y6.1231 I-15.8573 J-0.0152
G2 X32.721 Y5.4 I-11.2258 J11.2108
G1 X39.2264
G1 Y34.0818
G1 X10.8671
G1 F50.0 Y36.4818
G1 F100.0 X3.0
G1 Y3.0
G1 X41.6264
G1 Y36.4818
G1 X10.8671
G0 Z3.0
G0 Y31.6818
G0 Z-2.0
G1 F50.0 Z-3.35
G1 F100.0 X7.8
G1 Y28.58
G2 X9.3219 Y30.3029 I14.4204 J-11.2039
G2 X10.8671 Y31.6818 I12.9574 J-12.9652
G0 Z3.0
G0 X33.6432
G0 Z-2.0
G1 F50.0 Z-3.35
G2 F100.0 X35.1902 Y30.2996 I-11.3762 J-14.2888
G2 X36.8264 Y28.4269 I-12.9027 J-12.9241
G1 Y31.6818
G1 X33.6432
G1 F50.0 Y34.0818
G1 F100.0 X5.4
G1 Y5.4
G1 X11.7877
G2 X11.0153 Y6.1236 I10.4531 J11.9318
G2 X6.3591 Y17.363 I11.2047 J11.226
G2 X11.0177 Y28.6047 I15.8613 J0.0131
G2 X16.1643 Y32.0473 I11.2615 J-11.2669
G2 X16.1709 Y32.0501 I2.071 J-4.9819
G2 X22.2543 Y33.2574 I6.0704 J-14.6576
G2 X33.4933 Y28.6024 I0.0127 J-15.8644
G2 X38.1498 Y17.3635 I-11.2058 J-11.2268
G2 X33.4929 Y6.1231 I-15.8573 J-0.0152
G2 X32.721 Y5.4 I-11.2258 J11.2108
G1 X39.2264
G1 Y34.0818
G1 X33.6432
G1 F50.0 Y36.4818
G1 F100.0 X3.0
G1 Y3.0
G1 X41.6264
G1 Y36.4818
G1 X33.6432
G0 Z3.0
G0 X29.1625 Y28.9633
G0 Z-2.0
G1 F50.0 Z-3.35
G2 F100.0 X31.7998 Y26.9085 I-6.8955 J-11.5703
G2 X35.7546 Y17.3632 I-9.5123 J-9.533
G2 X31.7996 Y7.8171 I-13.4621 J-0.015
G2 X22.2544 Y3.864 I-9.5325 J9.5167
G2 X12.7088 Y7.8174 I-0.0136 J13.4678
G2 X8.7543 Y17.363 I9.5112 J9.5322
G2 X12.7102 Y26.9098 I13.4661 J0.0131
G2 X17.0837 Y29.8356 I9.569 J-9.5721
G2 X17.0874 Y29.8372 I1.1516 J-2.7702
G2 X22.2543 Y30.8622 I5.154 J-12.4447
G2 X29.1625 Y28.9633 I0.0127 J-13.4692
G0 Z3.0
M5
M30
