( Made using CamBam - http://www.cambam.co.uk )
( belt bearing housing 9/12/2013 4:14:21 PM )
( T6 : 6.0 )
G21 G90 G64 G40
G0 Z3.0
( T6 : 6.0 )
T6 M6
( 5 - 6mm Profile )
G17
M3 S1000
G0 X45.9252 Y10.0238
G0 Z1.0
G1 F50.0 Z-1.0
G2 F100.0 X44.0102 Y5.4122 I-6.5169 J0.0028
G2 X39.3985 Y3.4971 I-4.6144 J4.6017
G2 X39.3973 I-0.0012 J3.0
G1 X5.1358
G2 X5.1345 I0.0 J3.0
G2 X0.5229 Y5.4121 I0.0028 J6.5169
G2 X-1.3922 Y10.0238 I4.6017 J4.6144
G2 Y10.0251 I3.0 J0.0012
G1 Y14.2503
G2 X-1.3851 Y14.7544 I15.1462 J0.0382
G2 X-1.3791 Y14.9339 I4.7338 J-0.0663
G2 X-1.3598 Y15.3582 I27.388 J-1.0365
G2 X-1.3592 Y15.368 I2.9957 J-0.1599
G2 X-1.2199 Y17.0343 I31.1126 J-1.7629
G2 X-0.8738 Y19.4723 I36.8596 J-3.9884
G2 X-0.8164 Y19.791 I21.4017 J-3.6921
G2 X-0.8158 Y19.7941 I2.9484 J-0.554
G1 X-0.7697 Y20.0383
G2 X-0.7628 Y20.0736 I2.9478 J-0.5571
G1 X-0.6769 Y20.5001
G2 X-0.6699 Y20.5336 I2.9409 J-0.5924
G1 X-0.6359 Y20.6932
G2 X-0.6298 Y20.721 I2.934 J-0.6259
G1 X-0.5676 Y20.9996
G2 X-0.5651 Y21.0109 I2.9279 J-0.6536
G2 X-0.3157 Y21.9906 I19.1512 J-4.3533
G2 X-0.3143 Y21.9956 I2.8873 J-0.8146
G1 X3.1946 Y34.35
G2 X3.1984 Y34.3636 I2.8859 J-0.8196
G2 X3.674 Y35.5762 I6.788 J-1.9623
G2 X3.681 Y35.5902 I2.6801 J-1.348
G2 X4.9042 Y37.3398 I6.8701 J-3.5005
G2 X7.3597 Y39.1612 I6.0872 J-5.6405
G2 X7.3678 Y39.1651 I1.3129 J-2.6975
G2 X8.8544 Y39.7077 I3.4468 J-7.1361
G2 X8.86 Y39.7091 I0.742 J-2.9068
G2 X10.5621 Y39.9242 I1.7256 J-6.8139
G2 X10.5721 I0.01 J-3.0
G1 X33.9609
G2 X33.9757 I0.0 J-3.0
G2 X35.2709 Y39.7981 I-0.035 J-7.075
G2 X35.2871 Y39.7949 I-0.564 J-2.9465
G2 X37.3039 Y39.0964 I-1.492 J-7.5683
G2 X39.7269 Y37.2319 I-3.7634 J-7.3972
G2 X39.7331 Y37.2249 I-2.2362 J-1.9999
G2 X40.6609 Y35.9434 I-5.9267 J-5.2675
G2 X40.6641 Y35.9378 I-2.5934 J-1.5081
G2 X41.3356 Y34.36 I-6.0891 J-3.5232
G2 X41.3385 Y34.35 I-2.883 J-0.8296
G1 X44.8473 Y21.9956
G2 X44.853 Y21.9753 I-2.8859 J-0.8196
G2 X45.3047 Y20.0282 I-23.0649 J-6.3763
G2 X45.7323 Y17.2191 I-37.8388 J-7.1972
G2 X45.8077 Y16.4943 I-29.031 J-3.3859
G2 X45.8082 Y16.4888 I-2.9875 J-0.2731
G1 X45.8301 Y16.2435
G2 X45.8331 Y16.2078 I-2.988 J-0.2676
G1 X45.8664 Y15.7781
G2 X45.8689 Y15.7442 I-2.991 J-0.232
G1 X45.8796 Y15.5829
G2 X45.8813 Y15.5547 I-2.9935 J-0.198
G1 X45.8973 Y15.2723
G2 X45.8991 Y15.2379 I-2.9952 J-0.1698
G1 X45.9086 Y15.0259
G2 X45.9098 Y14.9974 I-2.9969 J-0.1354
G1 X45.9155 Y14.8383
G2 X45.9158 Y14.8266 I-2.9981 J-0.1068
G2 X45.9252 Y14.2578 I-18.6336 J-0.5909
G2 Y14.2543 I-3.0 J-0.0036
G1 Y10.0251
G2 Y10.0238 I-3.0 J0.0
G1 F50.0 Z-2.0
G2 F100.0 X44.0102 Y5.4122 I-6.5169 J0.0028
G2 X39.3985 Y3.4971 I-4.6144 J4.6017
G2 X39.3973 I-0.0012 J3.0
G1 X5.1358
G2 X5.1345 I0.0 J3.0
G2 X0.5229 Y5.4121 I0.0028 J6.5169
G2 X-1.3922 Y10.0238 I4.6017 J4.6144
G2 Y10.0251 I3.0 J0.0012
G1 Y14.2503
G2 X-1.3851 Y14.7544 I15.1462 J0.0382
G2 X-1.3791 Y14.9339 I4.7338 J-0.0663
G2 X-1.3598 Y15.3582 I27.388 J-1.0365
G2 X-1.3592 Y15.368 I2.9957 J-0.1599
G2 X-1.2199 Y17.0343 I31.1126 J-1.7629
G2 X-0.8738 Y19.4723 I36.8596 J-3.9884
G2 X-0.8164 Y19.791 I21.4017 J-3.6921
G2 X-0.8158 Y19.7941 I2.9484 J-0.554
G1 X-0.7697 Y20.0383
G2 X-0.7628 Y20.0736 I2.9478 J-0.5571
G1 X-0.6769 Y20.5001
G2 X-0.6699 Y20.5336 I2.9409 J-0.5924
G1 X-0.6359 Y20.6932
G2 X-0.6298 Y20.721 I2.934 J-0.6259
G1 X-0.5676 Y20.9996
G2 X-0.5651 Y21.0109 I2.9279 J-0.6536
G2 X-0.3157 Y21.9906 I19.1512 J-4.3533
G2 X-0.3143 Y21.9956 I2.8873 J-0.8146
G1 X3.1946 Y34.35
G2 X3.1984 Y34.3636 I2.8859 J-0.8196
G2 X3.674 Y35.5762 I6.788 J-1.9623
G2 X3.681 Y35.5902 I2.6801 J-1.348
G2 X4.9042 Y37.3398 I6.8701 J-3.5005
G2 X7.3597 Y39.1612 I6.0872 J-5.6405
G2 X7.3678 Y39.1651 I1.3129 J-2.6975
G2 X8.8544 Y39.7077 I3.4468 J-7.1361
G2 X8.86 Y39.7091 I0.742 J-2.9068
G2 X10.5621 Y39.9242 I1.7256 J-6.8139
G2 X10.5721 I0.01 J-3.0
G1 X33.9609
G2 X33.9757 I0.0 J-3.0
G2 X35.2709 Y39.7981 I-0.035 J-7.075
G2 X35.2871 Y39.7949 I-0.564 J-2.9465
G2 X37.3039 Y39.0964 I-1.492 J-7.5683
G2 X39.7269 Y37.2319 I-3.7634 J-7.3972
G2 X39.7331 Y37.2249 I-2.2362 J-1.9999
G2 X40.6609 Y35.9434 I-5.9267 J-5.2675
G2 X40.6641 Y35.9378 I-2.5934 J-1.5081
G2 X41.3356 Y34.36 I-6.0891 J-3.5232
G2 X41.3385 Y34.35 I-2.883 J-0.8296
G1 X44.8473 Y21.9956
G2 X44.853 Y21.9753 I-2.8859 J-0.8196
G2 X45.3047 Y20.0282 I-23.0649 J-6.3763
G2 X45.7323 Y17.2191 I-37.8388 J-7.1972
G2 X45.8077 Y16.4943 I-29.031 J-3.3859
G2 X45.8082 Y16.4888 I-2.9875 J-0.2731
G1 X45.8301 Y16.2435
G2 X45.8331 Y16.2078 I-2.988 J-0.2676
G1 X45.8664 Y15.7781
G2 X45.8689 Y15.7442 I-2.991 J-0.232
G1 X45.8796 Y15.5829
G2 X45.8813 Y15.5547 I-2.9935 J-0.198
G1 X45.8973 Y15.2723
G2 X45.8991 Y15.2379 I-2.9952 J-0.1698
G1 X45.9086 Y15.0259
G2 X45.9098 Y14.9974 I-2.9969 J-0.1354
G1 X45.9155 Y14.8383
G2 X45.9158 Y14.8266 I-2.9981 J-0.1068
G2 X45.9252 Y14.2578 I-18.6336 J-0.5909
G2 Y14.2543 I-3.0 J-0.0036
G1 Y10.0251
G2 Y10.0238 I-3.0 J0.0
G1 F50.0 Z-3.0
G2 F100.0 X44.0102 Y5.4122 I-6.5169 J0.0028
G2 X39.3985 Y3.4971 I-4.6144 J4.6017
G2 X39.3973 I-0.0012 J3.0
G1 X5.1358
G2 X5.1345 I0.0 J3.0
G2 X0.5229 Y5.4121 I0.0028 J6.5169
G2 X-1.3922 Y10.0238 I4.6017 J4.6144
G2 Y10.0251 I3.0 J0.0012
G1 Y14.2503
G2 X-1.3851 Y14.7544 I15.1462 J0.0382
G2 X-1.3791 Y14.9339 I4.7338 J-0.0663
G2 X-1.3598 Y15.3582 I27.388 J-1.0365
G2 X-1.3592 Y15.368 I2.9957 J-0.1599
G2 X-1.2199 Y17.0343 I31.1126 J-1.7629
G2 X-0.8738 Y19.4723 I36.8596 J-3.9884
G2 X-0.8164 Y19.791 I21.4017 J-3.6921
G2 X-0.8158 Y19.7941 I2.9484 J-0.554
G1 X-0.7697 Y20.0383
G2 X-0.7628 Y20.0736 I2.9478 J-0.5571
G1 X-0.6769 Y20.5001
G2 X-0.6699 Y20.5336 I2.9409 J-0.5924
G1 X-0.6359 Y20.6932
G2 X-0.6298 Y20.721 I2.934 J-0.6259
G1 X-0.5676 Y20.9996
G2 X-0.5651 Y21.0109 I2.9279 J-0.6536
G2 X-0.3157 Y21.9906 I19.1512 J-4.3533
G2 X-0.3143 Y21.9956 I2.8873 J-0.8146
G1 X3.1946 Y34.35
G2 X3.1984 Y34.3636 I2.8859 J-0.8196
G2 X3.674 Y35.5762 I6.788 J-1.9623
G2 X3.681 Y35.5902 I2.6801 J-1.348
G2 X4.9042 Y37.3398 I6.8701 J-3.5005
G2 X7.3597 Y39.1612 I6.0872 J-5.6405
G2 X7.3678 Y39.1651 I1.3129 J-2.6975
G2 X8.8544 Y39.7077 I3.4468 J-7.1361
G2 X8.86 Y39.7091 I0.742 J-2.9068
G2 X10.5621 Y39.9242 I1.7256 J-6.8139
G2 X10.5721 I0.01 J-3.0
G1 X33.9609
G2 X33.9757 I0.0 J-3.0
G2 X35.2709 Y39.7981 I-0.035 J-7.075
G2 X35.2871 Y39.7949 I-0.564 J-2.9465
G2 X37.3039 Y39.0964 I-1.492 J-7.5683
G2 X39.7269 Y37.2319 I-3.7634 J-7.3972
G2 X39.7331 Y37.2249 I-2.2362 J-1.9999
G2 X40.6609 Y35.9434 I-5.9267 J-5.2675
G2 X40.6641 Y35.9378 I-2.5934 J-1.5081
G2 X41.3356 Y34.36 I-6.0891 J-3.5232
G2 X41.3385 Y34.35 I-2.883 J-0.8296
G1 X44.8473 Y21.9956
G2 X44.853 Y21.9753 I-2.8859 J-0.8196
G2 X45.3047 Y20.0282 I-23.0649 J-6.3763
G2 X45.7323 Y17.2191 I-37.8388 J-7.1972
G2 X45.8077 Y16.4943 I-29.031 J-3.3859
G2 X45.8082 Y16.4888 I-2.9875 J-0.2731
G1 X45.8301 Y16.2435
G2 X45.8331 Y16.2078 I-2.988 J-0.2676
G1 X45.8664 Y15.7781
G2 X45.8689 Y15.7442 I-2.991 J-0.232
G1 X45.8796 Y15.5829
G2 X45.8813 Y15.5547 I-2.9935 J-0.198
G1 X45.8973 Y15.2723
G2 X45.8991 Y15.2379 I-2.9952 J-0.1698
G1 X45.9086 Y15.0259
G2 X45.9098 Y14.9974 I-2.9969 J-0.1354
G1 X45.9155 Y14.8383
G2 X45.9158 Y14.8266 I-2.9981 J-0.1068
G2 X45.9252 Y14.2578 I-18.6336 J-0.5909
G2 Y14.2543 I-3.0 J-0.0036
G1 Y10.0251
G2 Y10.0238 I-3.0 J0.0
G1 F50.0 Z-4.0
G2 F100.0 X44.0102 Y5.4122 I-6.5169 J0.0028
G2 X39.3985 Y3.4971 I-4.6144 J4.6017
G2 X39.3973 I-0.0012 J3.0
G1 X5.1358
G2 X5.1345 I0.0 J3.0
G2 X0.5229 Y5.4121 I0.0028 J6.5169
G2 X-1.3922 Y10.0238 I4.6017 J4.6144
G2 Y10.0251 I3.0 J0.0012
G1 Y14.2503
G2 X-1.3851 Y14.7544 I15.1462 J0.0382
G2 X-1.3791 Y14.9339 I4.7338 J-0.0663
G2 X-1.3598 Y15.3582 I27.388 J-1.0365
G2 X-1.3592 Y15.368 I2.9957 J-0.1599
G2 X-1.2199 Y17.0343 I31.1126 J-1.7629
G2 X-0.8738 Y19.4723 I36.8596 J-3.9884
G2 X-0.8164 Y19.791 I21.4017 J-3.6921
G2 X-0.8158 Y19.7941 I2.9484 J-0.554
G1 X-0.7697 Y20.0383
G2 X-0.7628 Y20.0736 I2.9478 J-0.5571
G1 X-0.6769 Y20.5001
G2 X-0.6699 Y20.5336 I2.9409 J-0.5924
G1 X-0.6359 Y20.6932
G2 X-0.6298 Y20.721 I2.934 J-0.6259
G1 X-0.5676 Y20.9996
G2 X-0.5651 Y21.0109 I2.9279 J-0.6536
G2 X-0.3157 Y21.9906 I19.1512 J-4.3533
G2 X-0.3143 Y21.9956 I2.8873 J-0.8146
G1 X3.1946 Y34.35
G2 X3.1984 Y34.3636 I2.8859 J-0.8196
G2 X3.674 Y35.5762 I6.788 J-1.9623
G2 X3.681 Y35.5902 I2.6801 J-1.348
G2 X4.9042 Y37.3398 I6.8701 J-3.5005
G2 X7.3597 Y39.1612 I6.0872 J-5.6405
G2 X7.3678 Y39.1651 I1.3129 J-2.6975
G2 X8.8544 Y39.7077 I3.4468 J-7.1361
G2 X8.86 Y39.7091 I0.742 J-2.9068
G2 X10.5621 Y39.9242 I1.7256 J-6.8139
G2 X10.5721 I0.01 J-3.0
G1 X33.9609
G2 X33.9757 I0.0 J-3.0
G2 X35.2709 Y39.7981 I-0.035 J-7.075
G2 X35.2871 Y39.7949 I-0.564 J-2.9465
G2 X37.3039 Y39.0964 I-1.492 J-7.5683
G2 X39.7269 Y37.2319 I-3.7634 J-7.3972
G2 X39.7331 Y37.2249 I-2.2362 J-1.9999
G2 X40.6609 Y35.9434 I-5.9267 J-5.2675
G2 X40.6641 Y35.9378 I-2.5934 J-1.5081
G2 X41.3356 Y34.36 I-6.0891 J-3.5232
G2 X41.3385 Y34.35 I-2.883 J-0.8296
G1 X44.8473 Y21.9956
G2 X44.853 Y21.9753 I-2.8859 J-0.8196
G2 X45.3047 Y20.0282 I-23.0649 J-6.3763
G2 X45.7323 Y17.2191 I-37.8388 J-7.1972
G2 X45.8077 Y16.4943 I-29.031 J-3.3859
G2 X45.8082 Y16.4888 I-2.9875 J-0.2731
G1 X45.8301 Y16.2435
G2 X45.8331 Y16.2078 I-2.988 J-0.2676
G1 X45.8664 Y15.7781
G2 X45.8689 Y15.7442 I-2.991 J-0.232
G1 X45.8796 Y15.5829
G2 X45.8813 Y15.5547 I-2.9935 J-0.198
G1 X45.8973 Y15.2723
G2 X45.8991 Y15.2379 I-2.9952 J-0.1698
G1 X45.9086 Y15.0259
G2 X45.9098 Y14.9974 I-2.9969 J-0.1354
G1 X45.9155 Y14.8383
G2 X45.9158 Y14.8266 I-2.9981 J-0.1068
G2 X45.9252 Y14.2578 I-18.6336 J-0.5909
G2 Y14.2543 I-3.0 J-0.0036
G1 Y10.0251
G2 Y10.0238 I-3.0 J0.0
G1 F50.0 Z-5.0
G2 F100.0 X44.0102 Y5.4122 I-6.5169 J0.0028
G2 X39.3985 Y3.4971 I-4.6144 J4.6017
G2 X39.3973 I-0.0012 J3.0
G1 X5.1358
G2 X5.1345 I0.0 J3.0
G2 X0.5229 Y5.4121 I0.0028 J6.5169
G2 X-1.3922 Y10.0238 I4.6017 J4.6144
G2 Y10.0251 I3.0 J0.0012
G1 Y14.2503
G2 X-1.3851 Y14.7544 I15.1462 J0.0382
G2 X-1.3791 Y14.9339 I4.7338 J-0.0663
G2 X-1.3598 Y15.3582 I27.388 J-1.0365
G2 X-1.3592 Y15.368 I2.9957 J-0.1599
G2 X-1.2199 Y17.0343 I31.1126 J-1.7629
G2 X-0.8738 Y19.4723 I36.8596 J-3.9884
G2 X-0.8164 Y19.791 I21.4017 J-3.6921
G2 X-0.8158 Y19.7941 I2.9484 J-0.554
G1 X-0.7697 Y20.0383
G2 X-0.7628 Y20.0736 I2.9478 J-0.5571
G1 X-0.6769 Y20.5001
G2 X-0.6699 Y20.5336 I2.9409 J-0.5924
G1 X-0.6359 Y20.6932
G2 X-0.6298 Y20.721 I2.934 J-0.6259
G1 X-0.5676 Y20.9996
G2 X-0.5651 Y21.0109 I2.9279 J-0.6536
G2 X-0.3157 Y21.9906 I19.1512 J-4.3533
G2 X-0.3143 Y21.9956 I2.8873 J-0.8146
G1 X3.1946 Y34.35
G2 X3.1984 Y34.3636 I2.8859 J-0.8196
G2 X3.674 Y35.5762 I6.788 J-1.9623
G2 X3.681 Y35.5902 I2.6801 J-1.348
G2 X4.9042 Y37.3398 I6.8701 J-3.5005
G2 X7.3597 Y39.1612 I6.0872 J-5.6405
G2 X7.3678 Y39.1651 I1.3129 J-2.6975
G2 X8.8544 Y39.7077 I3.4468 J-7.1361
G2 X8.86 Y39.7091 I0.742 J-2.9068
G2 X10.5621 Y39.9242 I1.7256 J-6.8139
G2 X10.5721 I0.01 J-3.0
G1 X33.9609
G2 X33.9757 I0.0 J-3.0
G2 X35.2709 Y39.7981 I-0.035 J-7.075
G2 X35.2871 Y39.7949 I-0.564 J-2.9465
G2 X37.3039 Y39.0964 I-1.492 J-7.5683
G2 X39.7269 Y37.2319 I-3.7634 J-7.3972
G2 X39.7331 Y37.2249 I-2.2362 J-1.9999
G2 X40.6609 Y35.9434 I-5.9267 J-5.2675
G2 X40.6641 Y35.9378 I-2.5934 J-1.5081
G2 X41.3356 Y34.36 I-6.0891 J-3.5232
G2 X41.3385 Y34.35 I-2.883 J-0.8296
G1 X44.8473 Y21.9956
G2 X44.853 Y21.9753 I-2.8859 J-0.8196
G2 X45.3047 Y20.0282 I-23.0649 J-6.3763
G2 X45.7323 Y17.2191 I-37.8388 J-7.1972
G2 X45.8077 Y16.4943 I-29.031 J-3.3859
G2 X45.8082 Y16.4888 I-2.9875 J-0.2731
G1 X45.8301 Y16.2435
G2 X45.8331 Y16.2078 I-2.988 J-0.2676
G1 X45.8664 Y15.7781
G2 X45.8689 Y15.7442 I-2.991 J-0.232
G1 X45.8796 Y15.5829
G2 X45.8813 Y15.5547 I-2.9935 J-0.198
G1 X45.8973 Y15.2723
G2 X45.8991 Y15.2379 I-2.9952 J-0.1698
G1 X45.9086 Y15.0259
G2 X45.9098 Y14.9974 I-2.9969 J-0.1354
G1 X45.9155 Y14.8383
G2 X45.9158 Y14.8266 I-2.9981 J-0.1068
G2 X45.9252 Y14.2578 I-18.6336 J-0.5909
G2 Y14.2543 I-3.0 J-0.0036
G1 Y10.0251
G2 Y10.0238 I-3.0 J0.0
G1 F50.0 Z-6.0
G2 F100.0 X44.0102 Y5.4122 I-6.5169 J0.0028
G2 X39.3985 Y3.4971 I-4.6144 J4.6017
G2 X39.3973 I-0.0012 J3.0
G1 X5.1358
G2 X5.1345 I0.0 J3.0
G2 X0.5229 Y5.4121 I0.0028 J6.5169
G2 X-1.3922 Y10.0238 I4.6017 J4.6144
G2 Y10.0251 I3.0 J0.0012
G1 Y14.2503
G2 X-1.3851 Y14.7544 I15.1462 J0.0382
G2 X-1.3791 Y14.9339 I4.7338 J-0.0663
G2 X-1.3598 Y15.3582 I27.388 J-1.0365
G2 X-1.3592 Y15.368 I2.9957 J-0.1599
G2 X-1.2199 Y17.0343 I31.1126 J-1.7629
G2 X-0.8738 Y19.4723 I36.8596 J-3.9884
G2 X-0.8164 Y19.791 I21.4017 J-3.6921
G2 X-0.8158 Y19.7941 I2.9484 J-0.554
G1 X-0.7697 Y20.0383
G2 X-0.7628 Y20.0736 I2.9478 J-0.5571
G1 X-0.6769 Y20.5001
G2 X-0.6699 Y20.5336 I2.9409 J-0.5924
G1 X-0.6359 Y20.6932
G2 X-0.6298 Y20.721 I2.934 J-0.6259
G1 X-0.5676 Y20.9996
G2 X-0.5651 Y21.0109 I2.9279 J-0.6536
G2 X-0.3157 Y21.9906 I19.1512 J-4.3533
G2 X-0.3143 Y21.9956 I2.8873 J-0.8146
G1 X3.1946 Y34.35
G2 X3.1984 Y34.3636 I2.8859 J-0.8196
G2 X3.674 Y35.5762 I6.788 J-1.9623
G2 X3.681 Y35.5902 I2.6801 J-1.348
G2 X4.9042 Y37.3398 I6.8701 J-3.5005
G2 X7.3597 Y39.1612 I6.0872 J-5.6405
G2 X7.3678 Y39.1651 I1.3129 J-2.6975
G2 X8.8544 Y39.7077 I3.4468 J-7.1361
G2 X8.86 Y39.7091 I0.742 J-2.9068
G2 X10.5621 Y39.9242 I1.7256 J-6.8139
G2 X10.5721 I0.01 J-3.0
G1 X33.9609
G2 X33.9757 I0.0 J-3.0
G2 X35.2709 Y39.7981 I-0.035 J-7.075
G2 X35.2871 Y39.7949 I-0.564 J-2.9465
G2 X37.3039 Y39.0964 I-1.492 J-7.5683
G2 X39.7269 Y37.2319 I-3.7634 J-7.3972
G2 X39.7331 Y37.2249 I-2.2362 J-1.9999
G2 X40.6609 Y35.9434 I-5.9267 J-5.2675
G2 X40.6641 Y35.9378 I-2.5934 J-1.5081
G2 X41.3356 Y34.36 I-6.0891 J-3.5232
G2 X41.3385 Y34.35 I-2.883 J-0.8296
G1 X44.8473 Y21.9956
G2 X44.853 Y21.9753 I-2.8859 J-0.8196
G2 X45.3047 Y20.0282 I-23.0649 J-6.3763
G2 X45.7323 Y17.2191 I-37.8388 J-7.1972
G2 X45.8077 Y16.4943 I-29.031 J-3.3859
G2 X45.8082 Y16.4888 I-2.9875 J-0.2731
G1 X45.8301 Y16.2435
G2 X45.8331 Y16.2078 I-2.988 J-0.2676
G1 X45.8664 Y15.7781
G2 X45.8689 Y15.7442 I-2.991 J-0.232
G1 X45.8796 Y15.5829
G2 X45.8813 Y15.5547 I-2.9935 J-0.198
G1 X45.8973 Y15.2723
G2 X45.8991 Y15.2379 I-2.9952 J-0.1698
G1 X45.9086 Y15.0259
G2 X45.9098 Y14.9974 I-2.9969 J-0.1354
G1 X45.9155 Y14.8383
G2 X45.9158 Y14.8266 I-2.9981 J-0.1068
G2 X45.9252 Y14.2578 I-18.6336 J-0.5909
G2 Y14.2543 I-3.0 J-0.0036
G1 Y10.0251
G2 Y10.0238 I-3.0 J0.0
G1 F50.0 Z-6.5
G2 F100.0 X44.0102 Y5.4122 I-6.5169 J0.0028
G2 X39.3985 Y3.4971 I-4.6144 J4.6017
G2 X39.3973 I-0.0012 J3.0
G1 X5.1358
G2 X5.1345 I0.0 J3.0
G2 X0.5229 Y5.4121 I0.0028 J6.5169
G2 X-1.3922 Y10.0238 I4.6017 J4.6144
G2 Y10.0251 I3.0 J0.0012
G1 Y14.2503
G2 X-1.3851 Y14.7544 I15.1462 J0.0382
G2 X-1.3791 Y14.9339 I4.7338 J-0.0663
G2 X-1.3598 Y15.3582 I27.388 J-1.0365
G2 X-1.3592 Y15.368 I2.9957 J-0.1599
G2 X-1.2199 Y17.0343 I31.1126 J-1.7629
G2 X-0.8738 Y19.4723 I36.8596 J-3.9884
G2 X-0.8164 Y19.791 I21.4017 J-3.6921
G2 X-0.8158 Y19.7941 I2.9484 J-0.554
G1 X-0.7697 Y20.0383
G2 X-0.7628 Y20.0736 I2.9478 J-0.5571
G1 X-0.6769 Y20.5001
G2 X-0.6699 Y20.5336 I2.9409 J-0.5924
G1 X-0.6359 Y20.6932
G2 X-0.6298 Y20.721 I2.934 J-0.6259
G1 X-0.5676 Y20.9996
G2 X-0.5651 Y21.0109 I2.9279 J-0.6536
G2 X-0.3157 Y21.9906 I19.1512 J-4.3533
G2 X-0.3143 Y21.9956 I2.8873 J-0.8146
G1 X3.1946 Y34.35
G2 X3.1984 Y34.3636 I2.8859 J-0.8196
G2 X3.674 Y35.5762 I6.788 J-1.9623
G2 X3.681 Y35.5902 I2.6801 J-1.348
G2 X4.9042 Y37.3398 I6.8701 J-3.5005
G2 X7.3597 Y39.1612 I6.0872 J-5.6405
G2 X7.3678 Y39.1651 I1.3129 J-2.6975
G2 X8.8544 Y39.7077 I3.4468 J-7.1361
G2 X8.86 Y39.7091 I0.742 J-2.9068
G2 X10.5621 Y39.9242 I1.7256 J-6.8139
G2 X10.5721 I0.01 J-3.0
G1 X33.9609
G2 X33.9757 I0.0 J-3.0
G2 X35.2709 Y39.7981 I-0.035 J-7.075
G2 X35.2871 Y39.7949 I-0.564 J-2.9465
G2 X37.3039 Y39.0964 I-1.492 J-7.5683
G2 X39.7269 Y37.2319 I-3.7634 J-7.3972
G2 X39.7331 Y37.2249 I-2.2362 J-1.9999
G2 X40.6609 Y35.9434 I-5.9267 J-5.2675
G2 X40.6641 Y35.9378 I-2.5934 J-1.5081
G2 X41.3356 Y34.36 I-6.0891 J-3.5232
G2 X41.3385 Y34.35 I-2.883 J-0.8296
G1 X44.8473 Y21.9956
G2 X44.853 Y21.9753 I-2.8859 J-0.8196
G2 X45.3047 Y20.0282 I-23.0649 J-6.3763
G2 X45.7323 Y17.2191 I-37.8388 J-7.1972
G2 X45.8077 Y16.4943 I-29.031 J-3.3859
G2 X45.8082 Y16.4888 I-2.9875 J-0.2731
G1 X45.8301 Y16.2435
G2 X45.8331 Y16.2078 I-2.988 J-0.2676
G1 X45.8664 Y15.7781
G2 X45.8689 Y15.7442 I-2.991 J-0.232
G1 X45.8796 Y15.5829
G2 X45.8813 Y15.5547 I-2.9935 J-0.198
G1 X45.8973 Y15.2723
G2 X45.8991 Y15.2379 I-2.9952 J-0.1698
G1 X45.9086 Y15.0259
G2 X45.9098 Y14.9974 I-2.9969 J-0.1354
G1 X45.9155 Y14.8383
G2 X45.9158 Y14.8266 I-2.9981 J-0.1068
G2 X45.9252 Y14.2578 I-18.6336 J-0.5909
G2 Y14.2543 I-3.0 J-0.0036
G1 Y10.0251
G2 Y10.0238 I-3.0 J0.0
G0 Z3.0
M5
M30
