( Made using CamBam - http://www.cambam.co.uk )
( belt bearing housing 9/12/2013 4:45:40 PM )
( T0 : 5.9 )
G21 G90 G64 G40
G0 Z3.0
( T0 : 5.9 )
T0 M6
( Profile1 )
G17
M3 S1000
G0 X26.8542 Y17.3667
G1 F50.0 Z-5.35
G3 F100.0 X25.5093 Y20.6135 I-4.5789 J0.0052
G2 X25.5038 Y20.619 I2.0835 J2.0884
G3 X22.2586 Y21.9632 I-3.2385 J-3.2289
G2 X22.2509 I-0.0043 J2.95
G3 X19.0041 Y20.6183 I-0.0052 J-4.5789
G2 X18.9986 Y20.6128 I-2.0884 J2.0835
G3 X17.6544 Y17.3676 I3.2289 J-3.2385
G2 Y17.3596 I-2.95 J-0.0043
G3 X18.999 Y14.1138 I4.5761 J-0.0057
G2 X19.0044 Y14.1085 I-2.0832 J-2.0888
G3 X22.2504 Y12.764 I3.2401 J3.2321
G2 X22.2582 I0.0038 J-2.95
G3 X25.5042 Y14.1084 I0.0061 J4.5762
G2 X25.5098 Y14.1141 I2.0886 J-2.0834
G3 X26.8542 Y17.3593 I-3.2295 J3.239
G2 Y17.3667 I2.95 J0.004
G0 Z3.0
M5
M30
