( Made using CamBam - http://www.cambam.co.uk )
( valve end plate 9/18/2013 11:41:21 AM )
( T3 : 3.0 )
G21 G90 G64 G40
G0 Z3.0
( T3 : 3.0 )
T3 M6
( Pocket1 )
G17
M3 S1000
G0 X9.9 Y21.5
G0 Z1.0
G1 F40.0 Z-0.5
G3 F60.0 X9.4997 Y21.9001 I-0.4005 J-0.0004
G3 X9.0999 Y21.4999 I0.0003 J-0.4002
G3 X9.4997 Y21.1 I0.3999 J0.0
G3 X9.4998 I0.0002 J0.3999
G1 X9.4995
G3 X9.4997 I0.0 J0.4004
G3 X9.9 Y21.5 I-0.0002 J0.4004
G1 F40.0 X10.5 Y21.5006
G3 F60.0 X9.4997 Y22.5001 I-1.0005 J-0.0011
G3 X8.4999 Y21.4999 I0.0004 J-1.0002
G3 X9.4997 Y20.5 I0.9999 J0.0001
G1 X9.4998
G1 X9.4996
G1 X9.4997
G3 X10.5 Y21.4999 I-0.0002 J1.0004
G3 Y21.5006 I-1.0005 J-0.0004
G1 F40.0 X9.9 Y21.5
G1 Z-1.0
G3 F60.0 X9.4997 Y21.9001 I-0.4005 J-0.0004
G3 X9.0999 Y21.4999 I0.0003 J-0.4002
G3 X9.4997 Y21.1 I0.3999 J0.0
G3 X9.4998 I0.0002 J0.3999
G1 X9.4995
G3 X9.4997 I0.0 J0.4004
G3 X9.9 Y21.5 I-0.0002 J0.4004
G1 F40.0 X10.5 Y21.5006
G3 F60.0 X9.4997 Y22.5001 I-1.0005 J-0.0011
G3 X8.4999 Y21.4999 I0.0004 J-1.0002
G3 X9.4997 Y20.5 I0.9999 J0.0001
G1 X9.4998
G1 X9.4996
G1 X9.4997
G3 X10.5 Y21.4999 I-0.0002 J1.0004
G3 Y21.5006 I-1.0005 J-0.0004
G1 F40.0 X9.9 Y21.5
G1 Z-1.5
G3 F60.0 X9.4997 Y21.9001 I-0.4005 J-0.0004
G3 X9.0999 Y21.4999 I0.0003 J-0.4002
G3 X9.4997 Y21.1 I0.3999 J0.0
G3 X9.4998 I0.0002 J0.3999
G1 X9.4995
G3 X9.4997 I0.0 J0.4004
G3 X9.9 Y21.5 I-0.0002 J0.4004
G1 F40.0 X10.5 Y21.5006
G3 F60.0 X9.4997 Y22.5001 I-1.0005 J-0.0011
G3 X8.4999 Y21.4999 I0.0004 J-1.0002
G3 X9.4997 Y20.5 I0.9999 J0.0001
G1 X9.4998
G1 X9.4996
G1 X9.4997
G3 X10.5 Y21.4999 I-0.0002 J1.0004
G3 Y21.5006 I-1.0005 J-0.0004
G0 Z3.0
G0 X24.2545 Y3.8157
G0 Z1.0
G1 F40.0 Z-0.5
G3 F60.0 X24.1 Y3.4998 I0.2457 J-0.3159
G3 X24.4998 Y3.0999 I0.3999 J0.0
G3 X24.4999 I0.0002 J0.3999
G1 X24.4997
G3 X24.4998 I0.0 J0.4004
G3 X24.9001 Y3.4999 I-0.0002 J0.4004
G3 X24.4999 Y3.9 I-0.4005 J-0.0004
G3 X24.2545 Y3.8157 I0.0003 J-0.4002
G1 F40.0 X23.8862 Y4.2893
G3 F60.0 X23.5 Y3.4998 I0.614 J-0.7895
G3 X24.4998 Y2.4999 I0.9999 J0.0001
G1 X24.4999
G1 X24.4997
G1 X24.4998
G3 X25.5001 Y3.4998 I-0.0002 J1.0004
G3 X24.4998 Y4.5 I-1.0005 J-0.0004
G3 X23.8862 Y4.2893 I0.0004 J-1.0002
G1 F40.0 X24.2545 Y3.8157
G1 Z-1.0
G3 F60.0 X24.1 Y3.4998 I0.2457 J-0.3159
G3 X24.4998 Y3.0999 I0.3999 J0.0
G3 X24.4999 I0.0002 J0.3999
G1 X24.4997
G3 X24.4998 I0.0 J0.4004
G3 X24.9001 Y3.4999 I-0.0002 J0.4004
G3 X24.4999 Y3.9 I-0.4005 J-0.0004
G3 X24.2545 Y3.8157 I0.0003 J-0.4002
G1 F40.0 X23.8862 Y4.2893
G3 F60.0 X23.5 Y3.4998 I0.614 J-0.7895
G3 X24.4998 Y2.4999 I0.9999 J0.0001
G1 X24.4999
G1 X24.4997
G1 X24.4998
G3 X25.5001 Y3.4998 I-0.0002 J1.0004
G3 X24.4998 Y4.5 I-1.0005 J-0.0004
G3 X23.8862 Y4.2893 I0.0004 J-1.0002
G1 F40.0 X24.2545 Y3.8157
G1 Z-1.5
G3 F60.0 X24.1 Y3.4998 I0.2457 J-0.3159
G3 X24.4998 Y3.0999 I0.3999 J0.0
G3 X24.4999 I0.0002 J0.3999
G1 X24.4997
G3 X24.4998 I0.0 J0.4004
G3 X24.9001 Y3.4999 I-0.0002 J0.4004
G3 X24.4999 Y3.9 I-0.4005 J-0.0004
G3 X24.2545 Y3.8157 I0.0003 J-0.4002
G1 F40.0 X23.8862 Y4.2893
G3 F60.0 X23.5 Y3.4998 I0.614 J-0.7895
G3 X24.4998 Y2.4999 I0.9999 J0.0001
G1 X24.4999
G1 X24.4997
G1 X24.4998
G3 X25.5001 Y3.4998 I-0.0002 J1.0004
G3 X24.4998 Y4.5 I-1.0005 J-0.0004
G3 X23.8862 Y4.2893 I0.0004 J-1.0002
( Profile1 )
S1000
G0 Z3.0
G0 X30.0001 Y-1.5
G0 Z1.0
G1 F40.0 Z-0.5
G1 F60.0 X0.0
G2 X-1.5 Y0.0 I0.0 J1.5
G1 Y25.0
G2 X0.0 Y26.5 I1.5 J0.0
G1 X30.0001
G2 X31.5001 Y25.0 I0.0 J-1.5
G1 Y0.0
G2 X30.0001 Y-1.5 I-1.5 J0.0
G1 F40.0 Z-1.0
G1 F60.0 X0.0
G2 X-1.5 Y0.0 I0.0 J1.5
G1 Y25.0
G2 X0.0 Y26.5 I1.5 J0.0
G1 X30.0001
G2 X31.5001 Y25.0 I0.0 J-1.5
G1 Y0.0
G2 X30.0001 Y-1.5 I-1.5 J0.0
G1 F40.0 Z-1.5
G1 F60.0 X0.0
G2 X-1.5 Y0.0 I0.0 J1.5
G1 Y25.0
G2 X0.0 Y26.5 I1.5 J0.0
G1 X30.0001
G2 X31.5001 Y25.0 I0.0 J-1.5
G1 Y0.0
G2 X30.0001 Y-1.5 I-1.5 J0.0
G0 Z3.0
M5
M30
