( Made using CamBam - http://www.cambam.co.uk )
( picker back plate 2 10/3/2013 3:57:11 PM )
( T16 : 1.0 )
G21 G90 G64 G40
G0 Z3.0
( T16 : 1.0 )
T16 M6
( Spot Drill )
G17
M3 S1000
G0 X3.1352 Y5.4991
G98
G81 X3.1352 Y5.4991 Z-1.0 R3.0 F80.0
G81 Y14.4994 Z-1.0
G81 Y35.499 Z-1.0
G81 Y44.4993 Z-1.0
G81 X43.001 Z-1.0
G81 Y35.499 Z-1.0
G81 Y14.4994 Z-1.0
G81 Y5.4991 Z-1.0
G81 X107.065 Z-1.0
G81 Y14.4994 Z-1.0
G81 Y35.499 Z-1.0
G81 Y44.4993 Z-1.0
G81 X136.0 Z-1.0
G81 Y35.499 Z-1.0
G81 Y14.4994 Z-1.0
G81 Y5.4991 Z-1.0
G80
G0 Z3.0
M5
M30
