( Made using CamBam - http://www.cambam.co.uk )
( picker back plate 2 10/3/2013 3:57:18 PM )
( T9 : 3.0 )
G21 G90 G64 G40
G0 Z3.0
( T9 : 3.0 )
T9 M6
( 3mm Drill )
G17
M3 S1000
G0 X3.1352 Y5.4991
G98
G83 X3.1352 Y5.4991 Z-6.0 Q2.0 R3.0 F50.0
G83 Y14.4994 Z-6.0
G83 Y35.499 Z-6.0
G83 Y44.4993 Z-6.0
G83 X43.001 Z-6.0
G83 Y35.499 Z-6.0
G83 Y14.4994 Z-6.0
G83 Y5.4991 Z-6.0
G83 X107.065 Z-6.0
G83 Y14.4994 Z-6.0
G83 Y35.499 Z-6.0
G83 Y44.4993 Z-6.0
G83 X136.0 Z-6.0
G83 Y35.499 Z-6.0
G83 Y14.4994 Z-6.0
G83 Y5.4991 Z-6.0
G80
G0 Z3.0
M5
M30
