( Made using CamBam - http://www.cambam.co.uk )
( picker back plate 2 10/3/2013 3:57:28 PM )
( T4 : 4.0 )
G21 G90 G64 G40
G0 Z3.0
( T4 : 4.0 )
T4 M6
( Profile1 )
G17
M3 S1000
G0 X8.2925 Y34.7311
G0 Z1.0
G1 F50.0 Z-1.0
G1 F140.0 Y15.1856
G1 X17.1261 Y24.9583
G1 X8.2925 Y34.7311
G1 F50.0 Z-2.0
G1 F140.0 Y15.1856
G1 X17.1261 Y24.9583
G1 X8.2925 Y34.7311
G1 F50.0 Z-3.0
G1 F140.0 Y15.1856
G1 X17.1261 Y24.9583
G1 X8.2925 Y34.7311
G1 F50.0 Z-4.0
G1 F140.0 Y15.1856
G1 X17.1261 Y24.9583
G1 X8.2925 Y34.7311
G1 F50.0 Z-4.5
G1 F140.0 Y15.1856
G1 X17.1261 Y24.9583
G1 X8.2925 Y34.7311
( Profile2 )
S1000
G0 Z3.0
G0 X32.0966 Y41.5205
G0 Z1.0
G1 F50.0 Z-1.0
G1 F140.0 X14.2269
G1 X23.1617 Y31.6358
G1 X32.0966 Y41.5205
G1 F50.0 Z-2.0
G1 F140.0 X14.2269
G1 X23.1617 Y31.6358
G1 X32.0966 Y41.5205
G1 F50.0 Z-3.0
G1 F140.0 X14.2269
G1 X23.1617 Y31.6358
G1 X32.0966 Y41.5205
G1 F50.0 Z-4.0
G1 F140.0 X14.2269
G1 X23.1617 Y31.6358
G1 X32.0966 Y41.5205
G1 F50.0 Z-4.5
G1 F140.0 X14.2269
G1 X23.1617 Y31.6358
G1 X32.0966 Y41.5205
( Profile3 )
S1000
G0 Z3.0
G0 X36.0904 Y32.5845
G0 Z1.0
G1 F50.0 Z-1.0
G1 F140.0 X29.1972 Y24.9583
G1 X36.0666 Y17.3586
G2 X36.4094 Y18.0769 I6.8983 J-2.8513
G2 X36.4104 Y18.0788 I1.7565 J-0.9564
G2 X38.0017 Y20.0859 I6.6185 J-3.6129
G1 Y29.913
G2 X36.4109 Y31.9201 I5.0291 J5.6198
G2 X36.4101 Y31.9216 I1.7556 J0.9581
G2 X36.0904 Y32.5845 I6.5536 J3.5696
G1 F50.0 Z-2.0
G1 F140.0 X29.1972 Y24.9583
G1 X36.0666 Y17.3586
G2 X36.4094 Y18.0769 I6.8983 J-2.8513
G2 X36.4104 Y18.0788 I1.7565 J-0.9564
G2 X38.0017 Y20.0859 I6.6185 J-3.6129
G1 Y29.913
G2 X36.4109 Y31.9201 I5.0291 J5.6198
G2 X36.4101 Y31.9216 I1.7556 J0.9581
G2 X36.0904 Y32.5845 I6.5536 J3.5696
G1 F50.0 Z-3.0
G1 F140.0 X29.1972 Y24.9583
G1 X36.0666 Y17.3586
G2 X36.4094 Y18.0769 I6.8983 J-2.8513
G2 X36.4104 Y18.0788 I1.7565 J-0.9564
G2 X38.0017 Y20.0859 I6.6185 J-3.6129
G1 Y29.913
G2 X36.4109 Y31.9201 I5.0291 J5.6198
G2 X36.4101 Y31.9216 I1.7556 J0.9581
G2 X36.0904 Y32.5845 I6.5536 J3.5696
G1 F50.0 Z-4.0
G1 F140.0 X29.1972 Y24.9583
G1 X36.0666 Y17.3586
G2 X36.4094 Y18.0769 I6.8983 J-2.8513
G2 X36.4104 Y18.0788 I1.7565 J-0.9564
G2 X38.0017 Y20.0859 I6.6185 J-3.6129
G1 Y29.913
G2 X36.4109 Y31.9201 I5.0291 J5.6198
G2 X36.4101 Y31.9216 I1.7556 J0.9581
G2 X36.0904 Y32.5845 I6.5536 J3.5696
G1 F50.0 Z-4.5
G1 F140.0 X29.1972 Y24.9583
G1 X36.0666 Y17.3586
G2 X36.4094 Y18.0769 I6.8983 J-2.8513
G2 X36.4104 Y18.0788 I1.7565 J-0.9564
G2 X38.0017 Y20.0859 I6.6185 J-3.6129
G1 Y29.913
G2 X36.4109 Y31.9201 I5.0291 J5.6198
G2 X36.4101 Y31.9216 I1.7556 J0.9581
G2 X36.0904 Y32.5845 I6.5536 J3.5696
( Profile4 )
S1000
G0 Z3.0
G0 X14.3393 Y8.5205
G0 Z1.0
G1 F50.0 Z-1.0
G1 F140.0 X31.984
G1 X23.1617 Y18.2809
G1 X14.3393 Y8.5205
G1 F50.0 Z-2.0
G1 F140.0 X31.984
G1 X23.1617 Y18.2809
G1 X14.3393 Y8.5205
G1 F50.0 Z-3.0
G1 F140.0 X31.984
G1 X23.1617 Y18.2809
G1 X14.3393 Y8.5205
G1 F50.0 Z-4.0
G1 F140.0 X31.984
G1 X23.1617 Y18.2809
G1 X14.3393 Y8.5205
G1 F50.0 Z-4.5
G1 F140.0 X31.984
G1 X23.1617 Y18.2809
G1 X14.3393 Y8.5205
( Profile5 )
S1000
G0 Z3.0
G0 X101.0682 Y10.0003
G0 Z1.0
G1 F50.0 Z-1.0
G2 F140.0 X100.4146 Y11.034 I6.0303 J4.5365
G2 X100.4132 Y11.0367 I1.7715 J0.9284
G2 X99.5649 Y14.4988 I6.6232 J3.4578
G2 X100.4733 Y18.0763 I7.465 J0.0084
G2 X100.4742 Y18.0779 I1.7566 J-0.9562
G2 X102.065 Y20.0853 I6.6184 J-3.6107
G1 Y29.913
G2 X100.474 Y31.9215 I5.0184 J5.6095
G2 X99.5649 Y35.4998 I6.5455 J3.5677
G2 X100.4125 Y38.9615 I7.4743 J0.0043
G2 X100.4139 Y38.9641 I1.7732 J-0.9251
G2 X101.0685 Y39.9995 I6.6761 J-3.4958
G2 X100.1839 Y41.5205 I6.001 J4.5081
G1 X49.8814
G2 X48.9959 Y39.9994 I-6.8797 J2.9867
G2 X49.6811 Y38.9056 I-6.0154 J-4.5301
G2 X49.682 Y38.9038 I-1.7796 J-0.9127
G2 X50.5009 Y35.4994 I-6.6444 J-3.3989
G2 X49.681 Y32.093 I-7.4492 J-0.0089
G2 X49.6801 Y32.0913 I-1.7799 J0.9122
G2 X48.2335 Y30.1341 I-6.7135 J3.4488
G1 Y19.8652
G2 X49.6807 Y17.9076 I-5.2653 J-5.4061
G2 X49.6817 Y17.9055 I-1.779 J-0.9139
G2 X50.5014 Y14.4993 I-6.6326 J-3.3979
G2 X49.6812 Y11.0931 I-7.4498 J-0.0079
G2 X49.6805 Y11.0917 I-1.7798 J0.9123
G2 X48.9963 Y10.0003 I-6.7119 J3.4472
G2 X49.8644 Y8.5205 I-5.9936 J-4.5107
G1 X100.2011
G2 X101.0682 Y10.0003 I6.8613 J-3.0265
G1 F50.0 Z-2.0
G2 F140.0 X100.4146 Y11.034 I6.0303 J4.5365
G2 X100.4132 Y11.0367 I1.7715 J0.9284
G2 X99.5649 Y14.4988 I6.6232 J3.4578
G2 X100.4733 Y18.0763 I7.465 J0.0084
G2 X100.4742 Y18.0779 I1.7566 J-0.9562
G2 X102.065 Y20.0853 I6.6184 J-3.6107
G1 Y29.913
G2 X100.474 Y31.9215 I5.0184 J5.6095
G2 X99.5649 Y35.4998 I6.5455 J3.5677
G2 X100.4125 Y38.9615 I7.4743 J0.0043
G2 X100.4139 Y38.9641 I1.7732 J-0.9251
G2 X101.0685 Y39.9995 I6.6761 J-3.4958
G2 X100.1839 Y41.5205 I6.001 J4.5081
G1 X49.8814
G2 X48.9959 Y39.9994 I-6.8797 J2.9867
G2 X49.6811 Y38.9056 I-6.0154 J-4.5301
G2 X49.682 Y38.9038 I-1.7796 J-0.9127
G2 X50.5009 Y35.4994 I-6.6444 J-3.3989
G2 X49.681 Y32.093 I-7.4492 J-0.0089
G2 X49.6801 Y32.0913 I-1.7799 J0.9122
G2 X48.2335 Y30.1341 I-6.7135 J3.4488
G1 Y19.8652
G2 X49.6807 Y17.9076 I-5.2653 J-5.4061
G2 X49.6817 Y17.9055 I-1.779 J-0.9139
G2 X50.5014 Y14.4993 I-6.6326 J-3.3979
G2 X49.6812 Y11.0931 I-7.4498 J-0.0079
G2 X49.6805 Y11.0917 I-1.7798 J0.9123
G2 X48.9963 Y10.0003 I-6.7119 J3.4472
G2 X49.8644 Y8.5205 I-5.9936 J-4.5107
G1 X100.2011
G2 X101.0682 Y10.0003 I6.8613 J-3.0265
G1 F50.0 Z-3.0
G2 F140.0 X100.4146 Y11.034 I6.0303 J4.5365
G2 X100.4132 Y11.0367 I1.7715 J0.9284
G2 X99.5649 Y14.4988 I6.6232 J3.4578
G2 X100.4733 Y18.0763 I7.465 J0.0084
G2 X100.4742 Y18.0779 I1.7566 J-0.9562
G2 X102.065 Y20.0853 I6.6184 J-3.6107
G1 Y29.913
G2 X100.474 Y31.9215 I5.0184 J5.6095
G2 X99.5649 Y35.4998 I6.5455 J3.5677
G2 X100.4125 Y38.9615 I7.4743 J0.0043
G2 X100.4139 Y38.9641 I1.7732 J-0.9251
G2 X101.0685 Y39.9995 I6.6761 J-3.4958
G2 X100.1839 Y41.5205 I6.001 J4.5081
G1 X49.8814
G2 X48.9959 Y39.9994 I-6.8797 J2.9867
G2 X49.6811 Y38.9056 I-6.0154 J-4.5301
G2 X49.682 Y38.9038 I-1.7796 J-0.9127
G2 X50.5009 Y35.4994 I-6.6444 J-3.3989
G2 X49.681 Y32.093 I-7.4492 J-0.0089
G2 X49.6801 Y32.0913 I-1.7799 J0.9122
G2 X48.2335 Y30.1341 I-6.7135 J3.4488
G1 Y19.8652
G2 X49.6807 Y17.9076 I-5.2653 J-5.4061
G2 X49.6817 Y17.9055 I-1.779 J-0.9139
G2 X50.5014 Y14.4993 I-6.6326 J-3.3979
G2 X49.6812 Y11.0931 I-7.4498 J-0.0079
G2 X49.6805 Y11.0917 I-1.7798 J0.9123
G2 X48.9963 Y10.0003 I-6.7119 J3.4472
G2 X49.8644 Y8.5205 I-5.9936 J-4.5107
G1 X100.2011
G2 X101.0682 Y10.0003 I6.8613 J-3.0265
G1 F50.0 Z-4.0
G2 F140.0 X100.4146 Y11.034 I6.0303 J4.5365
G2 X100.4132 Y11.0367 I1.7715 J0.9284
G2 X99.5649 Y14.4988 I6.6232 J3.4578
G2 X100.4733 Y18.0763 I7.465 J0.0084
G2 X100.4742 Y18.0779 I1.7566 J-0.9562
G2 X102.065 Y20.0853 I6.6184 J-3.6107
G1 Y29.913
G2 X100.474 Y31.9215 I5.0184 J5.6095
G2 X99.5649 Y35.4998 I6.5455 J3.5677
G2 X100.4125 Y38.9615 I7.4743 J0.0043
G2 X100.4139 Y38.9641 I1.7732 J-0.9251
G2 X101.0685 Y39.9995 I6.6761 J-3.4958
G2 X100.1839 Y41.5205 I6.001 J4.5081
G1 X49.8814
G2 X48.9959 Y39.9994 I-6.8797 J2.9867
G2 X49.6811 Y38.9056 I-6.0154 J-4.5301
G2 X49.682 Y38.9038 I-1.7796 J-0.9127
G2 X50.5009 Y35.4994 I-6.6444 J-3.3989
G2 X49.681 Y32.093 I-7.4492 J-0.0089
G2 X49.6801 Y32.0913 I-1.7799 J0.9122
G2 X48.2335 Y30.1341 I-6.7135 J3.4488
G1 Y19.8652
G2 X49.6807 Y17.9076 I-5.2653 J-5.4061
G2 X49.6817 Y17.9055 I-1.779 J-0.9139
G2 X50.5014 Y14.4993 I-6.6326 J-3.3979
G2 X49.6812 Y11.0931 I-7.4498 J-0.0079
G2 X49.6805 Y11.0917 I-1.7798 J0.9123
G2 X48.9963 Y10.0003 I-6.7119 J3.4472
G2 X49.8644 Y8.5205 I-5.9936 J-4.5107
G1 X100.2011
G2 X101.0682 Y10.0003 I6.8613 J-3.0265
G1 F50.0 Z-4.5
G2 F140.0 X100.4146 Y11.034 I6.0303 J4.5365
G2 X100.4132 Y11.0367 I1.7715 J0.9284
G2 X99.5649 Y14.4988 I6.6232 J3.4578
G2 X100.4733 Y18.0763 I7.465 J0.0084
G2 X100.4742 Y18.0779 I1.7566 J-0.9562
G2 X102.065 Y20.0853 I6.6184 J-3.6107
G1 Y29.913
G2 X100.474 Y31.9215 I5.0184 J5.6095
G2 X99.5649 Y35.4998 I6.5455 J3.5677
G2 X100.4125 Y38.9615 I7.4743 J0.0043
G2 X100.4139 Y38.9641 I1.7732 J-0.9251
G2 X101.0685 Y39.9995 I6.6761 J-3.4958
G2 X100.1839 Y41.5205 I6.001 J4.5081
G1 X49.8814
G2 X48.9959 Y39.9994 I-6.8797 J2.9867
G2 X49.6811 Y38.9056 I-6.0154 J-4.5301
G2 X49.682 Y38.9038 I-1.7796 J-0.9127
G2 X50.5009 Y35.4994 I-6.6444 J-3.3989
G2 X49.681 Y32.093 I-7.4492 J-0.0089
G2 X49.6801 Y32.0913 I-1.7799 J0.9122
G2 X48.2335 Y30.1341 I-6.7135 J3.4488
G1 Y19.8652
G2 X49.6807 Y17.9076 I-5.2653 J-5.4061
G2 X49.6817 Y17.9055 I-1.779 J-0.9139
G2 X50.5014 Y14.4993 I-6.6326 J-3.3979
G2 X49.6812 Y11.0931 I-7.4498 J-0.0079
G2 X49.6805 Y11.0917 I-1.7798 J0.9123
G2 X48.9963 Y10.0003 I-6.7119 J3.4472
G2 X49.8644 Y8.5205 I-5.9936 J-4.5107
G1 X100.2011
G2 X101.0682 Y10.0003 I6.8613 J-3.0265
( Profile6 )
S1000
G0 Z3.0
G0 X113.0616 Y39.9994
G0 Z1.0
G1 F50.0 Z-1.0
G2 F140.0 X113.7161 Y38.9638 I-6.0188 J-4.5285
G2 X113.7163 Y38.9635 I-1.772 J-0.9275
G2 X114.5651 Y35.498 I-6.6008 J-3.4533
G2 X113.6564 Y31.9225 I-7.4688 J-0.0053
G2 X113.6549 Y31.9197 I-1.7567 J0.9561
G2 X112.0649 Y29.9139 I-6.6272 J3.6201
G1 Y20.0855
G2 X113.6559 Y18.0775 I-5.0235 J-5.6145
G2 X113.6564 Y18.0766 I-1.756 J-0.9574
G2 X114.5651 Y14.4997 I-6.5523 J-3.5684
G2 X113.7157 Y11.0348 I-7.4473 J-0.011
G1 Y11.0347
G2 X113.0617 Y9.9999 I-6.6769 J3.4957
G2 X113.9285 Y8.5205 I-5.9975 J-4.5079
G1 X129.1357
G2 X129.6682 Y9.5144 I6.8093 J-3.0084
G2 X129.6687 Y9.5153 I1.6864 J-1.0753
G2 X130.0052 Y9.9996 I6.3765 J-4.0703
G2 X129.3207 Y11.0917 I6.0234 J4.5358
G2 X129.3198 Y11.0935 I1.7792 J0.9134
G2 X128.4999 Y14.4985 I6.6398 J3.4001
G2 X129.32 Y17.9065 I7.4435 J0.0115
G2 X129.3206 Y17.9077 I1.7797 J-0.9126
G2 X130.7681 Y19.8657 I6.7103 J-3.4467
G1 Y30.1333
G2 X129.321 Y32.0905 I5.2684 J5.4089
G2 X129.3198 Y32.0929 I1.7788 J0.9143
G2 X128.4999 Y35.4985 I6.6352 J3.3989
G2 X129.3197 Y38.9057 I7.4487 J0.0099
G1 X129.3198 Y38.9058
G2 X130.0048 Y39.9995 I6.6954 J-3.432
G2 X129.1193 Y41.5205 I5.9952 J4.5085
G1 X113.9463
G2 X113.0616 Y39.9994 I-6.8829 J2.9852
G1 F50.0 Z-2.0
G2 F140.0 X113.7161 Y38.9638 I-6.0188 J-4.5285
G2 X113.7163 Y38.9635 I-1.772 J-0.9275
G2 X114.5651 Y35.498 I-6.6008 J-3.4533
G2 X113.6564 Y31.9225 I-7.4688 J-0.0053
G2 X113.6549 Y31.9197 I-1.7567 J0.9561
G2 X112.0649 Y29.9139 I-6.6272 J3.6201
G1 Y20.0855
G2 X113.6559 Y18.0775 I-5.0235 J-5.6145
G2 X113.6564 Y18.0766 I-1.756 J-0.9574
G2 X114.5651 Y14.4997 I-6.5523 J-3.5684
G2 X113.7157 Y11.0348 I-7.4473 J-0.011
G1 Y11.0347
G2 X113.0617 Y9.9999 I-6.6769 J3.4957
G2 X113.9285 Y8.5205 I-5.9975 J-4.5079
G1 X129.1357
G2 X129.6682 Y9.5144 I6.8093 J-3.0084
G2 X129.6687 Y9.5153 I1.6864 J-1.0753
G2 X130.0052 Y9.9996 I6.3765 J-4.0703
G2 X129.3207 Y11.0917 I6.0234 J4.5358
G2 X129.3198 Y11.0935 I1.7792 J0.9134
G2 X128.4999 Y14.4985 I6.6398 J3.4001
G2 X129.32 Y17.9065 I7.4435 J0.0115
G2 X129.3206 Y17.9077 I1.7797 J-0.9126
G2 X130.7681 Y19.8657 I6.7103 J-3.4467
G1 Y30.1333
G2 X129.321 Y32.0905 I5.2684 J5.4089
G2 X129.3198 Y32.0929 I1.7788 J0.9143
G2 X128.4999 Y35.4985 I6.6352 J3.3989
G2 X129.3197 Y38.9057 I7.4487 J0.0099
G1 X129.3198 Y38.9058
G2 X130.0048 Y39.9995 I6.6954 J-3.432
G2 X129.1193 Y41.5205 I5.9952 J4.5085
G1 X113.9463
G2 X113.0616 Y39.9994 I-6.8829 J2.9852
G1 F50.0 Z-3.0
G2 F140.0 X113.7161 Y38.9638 I-6.0188 J-4.5285
G2 X113.7163 Y38.9635 I-1.772 J-0.9275
G2 X114.5651 Y35.498 I-6.6008 J-3.4533
G2 X113.6564 Y31.9225 I-7.4688 J-0.0053
G2 X113.6549 Y31.9197 I-1.7567 J0.9561
G2 X112.0649 Y29.9139 I-6.6272 J3.6201
G1 Y20.0855
G2 X113.6559 Y18.0775 I-5.0235 J-5.6145
G2 X113.6564 Y18.0766 I-1.756 J-0.9574
G2 X114.5651 Y14.4997 I-6.5523 J-3.5684
G2 X113.7157 Y11.0348 I-7.4473 J-0.011
G1 Y11.0347
G2 X113.0617 Y9.9999 I-6.6769 J3.4957
G2 X113.9285 Y8.5205 I-5.9975 J-4.5079
G1 X129.1357
G2 X129.6682 Y9.5144 I6.8093 J-3.0084
G2 X129.6687 Y9.5153 I1.6864 J-1.0753
G2 X130.0052 Y9.9996 I6.3765 J-4.0703
G2 X129.3207 Y11.0917 I6.0234 J4.5358
G2 X129.3198 Y11.0935 I1.7792 J0.9134
G2 X128.4999 Y14.4985 I6.6398 J3.4001
G2 X129.32 Y17.9065 I7.4435 J0.0115
G2 X129.3206 Y17.9077 I1.7797 J-0.9126
G2 X130.7681 Y19.8657 I6.7103 J-3.4467
G1 Y30.1333
G2 X129.321 Y32.0905 I5.2684 J5.4089
G2 X129.3198 Y32.0929 I1.7788 J0.9143
G2 X128.4999 Y35.4985 I6.6352 J3.3989
G2 X129.3197 Y38.9057 I7.4487 J0.0099
G1 X129.3198 Y38.9058
G2 X130.0048 Y39.9995 I6.6954 J-3.432
G2 X129.1193 Y41.5205 I5.9952 J4.5085
G1 X113.9463
G2 X113.0616 Y39.9994 I-6.8829 J2.9852
G1 F50.0 Z-4.0
G2 F140.0 X113.7161 Y38.9638 I-6.0188 J-4.5285
G2 X113.7163 Y38.9635 I-1.772 J-0.9275
G2 X114.5651 Y35.498 I-6.6008 J-3.4533
G2 X113.6564 Y31.9225 I-7.4688 J-0.0053
G2 X113.6549 Y31.9197 I-1.7567 J0.9561
G2 X112.0649 Y29.9139 I-6.6272 J3.6201
G1 Y20.0855
G2 X113.6559 Y18.0775 I-5.0235 J-5.6145
G2 X113.6564 Y18.0766 I-1.756 J-0.9574
G2 X114.5651 Y14.4997 I-6.5523 J-3.5684
G2 X113.7157 Y11.0348 I-7.4473 J-0.011
G1 Y11.0347
G2 X113.0617 Y9.9999 I-6.6769 J3.4957
G2 X113.9285 Y8.5205 I-5.9975 J-4.5079
G1 X129.1357
G2 X129.6682 Y9.5144 I6.8093 J-3.0084
G2 X129.6687 Y9.5153 I1.6864 J-1.0753
G2 X130.0052 Y9.9996 I6.3765 J-4.0703
G2 X129.3207 Y11.0917 I6.0234 J4.5358
G2 X129.3198 Y11.0935 I1.7792 J0.9134
G2 X128.4999 Y14.4985 I6.6398 J3.4001
G2 X129.32 Y17.9065 I7.4435 J0.0115
G2 X129.3206 Y17.9077 I1.7797 J-0.9126
G2 X130.7681 Y19.8657 I6.7103 J-3.4467
G1 Y30.1333
G2 X129.321 Y32.0905 I5.2684 J5.4089
G2 X129.3198 Y32.0929 I1.7788 J0.9143
G2 X128.4999 Y35.4985 I6.6352 J3.3989
G2 X129.3197 Y38.9057 I7.4487 J0.0099
G1 X129.3198 Y38.9058
G2 X130.0048 Y39.9995 I6.6954 J-3.432
G2 X129.1193 Y41.5205 I5.9952 J4.5085
G1 X113.9463
G2 X113.0616 Y39.9994 I-6.8829 J2.9852
G1 F50.0 Z-4.5
G2 F140.0 X113.7161 Y38.9638 I-6.0188 J-4.5285
G2 X113.7163 Y38.9635 I-1.772 J-0.9275
G2 X114.5651 Y35.498 I-6.6008 J-3.4533
G2 X113.6564 Y31.9225 I-7.4688 J-0.0053
G2 X113.6549 Y31.9197 I-1.7567 J0.9561
G2 X112.0649 Y29.9139 I-6.6272 J3.6201
G1 Y20.0855
G2 X113.6559 Y18.0775 I-5.0235 J-5.6145
G2 X113.6564 Y18.0766 I-1.756 J-0.9574
G2 X114.5651 Y14.4997 I-6.5523 J-3.5684
G2 X113.7157 Y11.0348 I-7.4473 J-0.011
G1 Y11.0347
G2 X113.0617 Y9.9999 I-6.6769 J3.4957
G2 X113.9285 Y8.5205 I-5.9975 J-4.5079
G1 X129.1357
G2 X129.6682 Y9.5144 I6.8093 J-3.0084
G2 X129.6687 Y9.5153 I1.6864 J-1.0753
G2 X130.0052 Y9.9996 I6.3765 J-4.0703
G2 X129.3207 Y11.0917 I6.0234 J4.5358
G2 X129.3198 Y11.0935 I1.7792 J0.9134
G2 X128.4999 Y14.4985 I6.6398 J3.4001
G2 X129.32 Y17.9065 I7.4435 J0.0115
G2 X129.3206 Y17.9077 I1.7797 J-0.9126
G2 X130.7681 Y19.8657 I6.7103 J-3.4467
G1 Y30.1333
G2 X129.321 Y32.0905 I5.2684 J5.4089
G2 X129.3198 Y32.0929 I1.7788 J0.9143
G2 X128.4999 Y35.4985 I6.6352 J3.3989
G2 X129.3197 Y38.9057 I7.4487 J0.0099
G1 X129.3198 Y38.9058
G2 X130.0048 Y39.9995 I6.6954 J-3.432
G2 X129.1193 Y41.5205 I5.9952 J4.5085
G1 X113.9463
G2 X113.0616 Y39.9994 I-6.8829 J2.9852
G0 Z3.0
M5
M30
