( Made using CamBam - http://www.cambam.co.uk )
( picker back plate 2 10/3/2013 4:44:51 PM )
( T4 : 4.0 )
G21 G90 G64 G40
G0 Z3.0
( T4 : 4.0 )
T4 M6
( Cutout )
G17
M3 S1000
G0 X141.0 Y49.998
G0 Z1.0
G1 F25.0 Z-1.0
G1 F140.0 Y0.0
G2 X139.0 Y-2.0 I-2.0 J0.0
G1 X0.0
G2 X-2.0 Y0.0 I0.0 J2.0
G1 Y49.998
G2 X0.0 Y51.998 I2.0 J0.0
G1 X139.0
G2 X141.0 Y49.998 I0.0 J-2.0
G1 F25.0 Z-2.0
G1 F140.0 Y0.0
G2 X139.0 Y-2.0 I-2.0 J0.0
G1 X0.0
G2 X-2.0 Y0.0 I0.0 J2.0
G1 Y49.998
G2 X0.0 Y51.998 I2.0 J0.0
G1 X139.0
G2 X141.0 Y49.998 I0.0 J-2.0
G1 F25.0 Z-3.0
G1 F140.0 Y0.0
G2 X139.0 Y-2.0 I-2.0 J0.0
G1 X0.0
G2 X-2.0 Y0.0 I0.0 J2.0
G1 Y49.998
G2 X0.0 Y51.998 I2.0 J0.0
G1 X139.0
G2 X141.0 Y49.998 I0.0 J-2.0
G1 F25.0 Z-4.0
G1 F140.0 Y0.0
G2 X139.0 Y-2.0 I-2.0 J0.0
G1 X0.0
G2 X-2.0 Y0.0 I0.0 J2.0
G1 Y49.998
G2 X0.0 Y51.998 I2.0 J0.0
G1 X139.0
G2 X141.0 Y49.998 I0.0 J-2.0
G1 F25.0 Z-4.5
G1 F140.0 Y0.0
G2 X139.0 Y-2.0 I-2.0 J0.0
G1 X0.0
G2 X-2.0 Y0.0 I0.0 J2.0
G1 Y49.998
G2 X0.0 Y51.998 I2.0 J0.0
G1 X139.0
G2 X141.0 Y49.998 I0.0 J-2.0
G0 Z3.0
M5
M30
