( Made using CamBam - http://www.cambam.co.uk )
( picker back plate 2 10/3/2013 4:45:16 PM )
( T4 : 4.0 )
G21 G90 G64 G40
G0 Z3.0
( T4 : 4.0 )
T4 M6
( Profile6 )
G17
M3 S1000
G0 X113.0616 Y39.9994
G0 Z1.0
G1 F25.0 Z-1.0
G2 F140.0 X113.7161 Y38.9638 I-6.0188 J-4.5285
G2 X113.7163 Y38.9635 I-1.772 J-0.9275
G2 X114.5651 Y35.498 I-6.6008 J-3.4533
G2 X113.6564 Y31.9225 I-7.4688 J-0.0053
G2 X113.6549 Y31.9197 I-1.7567 J0.9561
G2 X112.0649 Y29.9139 I-6.6272 J3.6201
G1 Y20.0855
G2 X113.6559 Y18.0775 I-5.0235 J-5.6145
G2 X113.6564 Y18.0766 I-1.756 J-0.9574
G2 X114.5651 Y14.4997 I-6.5523 J-3.5684
G2 X113.7157 Y11.0348 I-7.4473 J-0.011
G1 Y11.0347
G2 X113.0617 Y9.9999 I-6.6769 J3.4957
G2 X113.9285 Y8.5205 I-5.9975 J-4.5079
G1 X129.1357
G2 X129.6682 Y9.5144 I6.8093 J-3.0084
G2 X129.6687 Y9.5153 I1.6864 J-1.0753
G2 X130.0052 Y9.9996 I6.3765 J-4.0703
G2 X129.3207 Y11.0917 I6.0234 J4.5358
G2 X129.3198 Y11.0935 I1.7792 J0.9134
G2 X128.4999 Y14.4985 I6.6398 J3.4001
G2 X129.32 Y17.9065 I7.4435 J0.0115
G2 X129.3206 Y17.9077 I1.7797 J-0.9126
G2 X130.7681 Y19.8657 I6.7103 J-3.4467
G1 Y30.1333
G2 X129.321 Y32.0905 I5.2684 J5.4089
G2 X129.3198 Y32.0929 I1.7788 J0.9143
G2 X128.4999 Y35.4985 I6.6352 J3.3989
G2 X129.3197 Y38.9057 I7.4487 J0.0099
G1 X129.3198 Y38.9058
G2 X130.0048 Y39.9995 I6.6954 J-3.432
G2 X129.1193 Y41.5205 I5.9952 J4.5085
G1 X113.9463
G2 X113.0616 Y39.9994 I-6.8829 J2.9852
G1 F25.0 Z-2.0
G2 F140.0 X113.7161 Y38.9638 I-6.0188 J-4.5285
G2 X113.7163 Y38.9635 I-1.772 J-0.9275
G2 X114.5651 Y35.498 I-6.6008 J-3.4533
G2 X113.6564 Y31.9225 I-7.4688 J-0.0053
G2 X113.6549 Y31.9197 I-1.7567 J0.9561
G2 X112.0649 Y29.9139 I-6.6272 J3.6201
G1 Y20.0855
G2 X113.6559 Y18.0775 I-5.0235 J-5.6145
G2 X113.6564 Y18.0766 I-1.756 J-0.9574
G2 X114.5651 Y14.4997 I-6.5523 J-3.5684
G2 X113.7157 Y11.0348 I-7.4473 J-0.011
G1 Y11.0347
G2 X113.0617 Y9.9999 I-6.6769 J3.4957
G2 X113.9285 Y8.5205 I-5.9975 J-4.5079
G1 X129.1357
G2 X129.6682 Y9.5144 I6.8093 J-3.0084
G2 X129.6687 Y9.5153 I1.6864 J-1.0753
G2 X130.0052 Y9.9996 I6.3765 J-4.0703
G2 X129.3207 Y11.0917 I6.0234 J4.5358
G2 X129.3198 Y11.0935 I1.7792 J0.9134
G2 X128.4999 Y14.4985 I6.6398 J3.4001
G2 X129.32 Y17.9065 I7.4435 J0.0115
G2 X129.3206 Y17.9077 I1.7797 J-0.9126
G2 X130.7681 Y19.8657 I6.7103 J-3.4467
G1 Y30.1333
G2 X129.321 Y32.0905 I5.2684 J5.4089
G2 X129.3198 Y32.0929 I1.7788 J0.9143
G2 X128.4999 Y35.4985 I6.6352 J3.3989
G2 X129.3197 Y38.9057 I7.4487 J0.0099
G1 X129.3198 Y38.9058
G2 X130.0048 Y39.9995 I6.6954 J-3.432
G2 X129.1193 Y41.5205 I5.9952 J4.5085
G1 X113.9463
G2 X113.0616 Y39.9994 I-6.8829 J2.9852
G1 F25.0 Z-3.0
G2 F140.0 X113.7161 Y38.9638 I-6.0188 J-4.5285
G2 X113.7163 Y38.9635 I-1.772 J-0.9275
G2 X114.5651 Y35.498 I-6.6008 J-3.4533
G2 X113.6564 Y31.9225 I-7.4688 J-0.0053
G2 X113.6549 Y31.9197 I-1.7567 J0.9561
G2 X112.0649 Y29.9139 I-6.6272 J3.6201
G1 Y20.0855
G2 X113.6559 Y18.0775 I-5.0235 J-5.6145
G2 X113.6564 Y18.0766 I-1.756 J-0.9574
G2 X114.5651 Y14.4997 I-6.5523 J-3.5684
G2 X113.7157 Y11.0348 I-7.4473 J-0.011
G1 Y11.0347
G2 X113.0617 Y9.9999 I-6.6769 J3.4957
G2 X113.9285 Y8.5205 I-5.9975 J-4.5079
G1 X129.1357
G2 X129.6682 Y9.5144 I6.8093 J-3.0084
G2 X129.6687 Y9.5153 I1.6864 J-1.0753
G2 X130.0052 Y9.9996 I6.3765 J-4.0703
G2 X129.3207 Y11.0917 I6.0234 J4.5358
G2 X129.3198 Y11.0935 I1.7792 J0.9134
G2 X128.4999 Y14.4985 I6.6398 J3.4001
G2 X129.32 Y17.9065 I7.4435 J0.0115
G2 X129.3206 Y17.9077 I1.7797 J-0.9126
G2 X130.7681 Y19.8657 I6.7103 J-3.4467
G1 Y30.1333
G2 X129.321 Y32.0905 I5.2684 J5.4089
G2 X129.3198 Y32.0929 I1.7788 J0.9143
G2 X128.4999 Y35.4985 I6.6352 J3.3989
G2 X129.3197 Y38.9057 I7.4487 J0.0099
G1 X129.3198 Y38.9058
G2 X130.0048 Y39.9995 I6.6954 J-3.432
G2 X129.1193 Y41.5205 I5.9952 J4.5085
G1 X113.9463
G2 X113.0616 Y39.9994 I-6.8829 J2.9852
G1 F25.0 Z-4.0
G2 F140.0 X113.7161 Y38.9638 I-6.0188 J-4.5285
G2 X113.7163 Y38.9635 I-1.772 J-0.9275
G2 X114.5651 Y35.498 I-6.6008 J-3.4533
G2 X113.6564 Y31.9225 I-7.4688 J-0.0053
G2 X113.6549 Y31.9197 I-1.7567 J0.9561
G2 X112.0649 Y29.9139 I-6.6272 J3.6201
G1 Y20.0855
G2 X113.6559 Y18.0775 I-5.0235 J-5.6145
G2 X113.6564 Y18.0766 I-1.756 J-0.9574
G2 X114.5651 Y14.4997 I-6.5523 J-3.5684
G2 X113.7157 Y11.0348 I-7.4473 J-0.011
G1 Y11.0347
G2 X113.0617 Y9.9999 I-6.6769 J3.4957
G2 X113.9285 Y8.5205 I-5.9975 J-4.5079
G1 X129.1357
G2 X129.6682 Y9.5144 I6.8093 J-3.0084
G2 X129.6687 Y9.5153 I1.6864 J-1.0753
G2 X130.0052 Y9.9996 I6.3765 J-4.0703
G2 X129.3207 Y11.0917 I6.0234 J4.5358
G2 X129.3198 Y11.0935 I1.7792 J0.9134
G2 X128.4999 Y14.4985 I6.6398 J3.4001
G2 X129.32 Y17.9065 I7.4435 J0.0115
G2 X129.3206 Y17.9077 I1.7797 J-0.9126
G2 X130.7681 Y19.8657 I6.7103 J-3.4467
G1 Y30.1333
G2 X129.321 Y32.0905 I5.2684 J5.4089
G2 X129.3198 Y32.0929 I1.7788 J0.9143
G2 X128.4999 Y35.4985 I6.6352 J3.3989
G2 X129.3197 Y38.9057 I7.4487 J0.0099
G1 X129.3198 Y38.9058
G2 X130.0048 Y39.9995 I6.6954 J-3.432
G2 X129.1193 Y41.5205 I5.9952 J4.5085
G1 X113.9463
G2 X113.0616 Y39.9994 I-6.8829 J2.9852
G1 F25.0 Z-4.5
G2 F140.0 X113.7161 Y38.9638 I-6.0188 J-4.5285
G2 X113.7163 Y38.9635 I-1.772 J-0.9275
G2 X114.5651 Y35.498 I-6.6008 J-3.4533
G2 X113.6564 Y31.9225 I-7.4688 J-0.0053
G2 X113.6549 Y31.9197 I-1.7567 J0.9561
G2 X112.0649 Y29.9139 I-6.6272 J3.6201
G1 Y20.0855
G2 X113.6559 Y18.0775 I-5.0235 J-5.6145
G2 X113.6564 Y18.0766 I-1.756 J-0.9574
G2 X114.5651 Y14.4997 I-6.5523 J-3.5684
G2 X113.7157 Y11.0348 I-7.4473 J-0.011
G1 Y11.0347
G2 X113.0617 Y9.9999 I-6.6769 J3.4957
G2 X113.9285 Y8.5205 I-5.9975 J-4.5079
G1 X129.1357
G2 X129.6682 Y9.5144 I6.8093 J-3.0084
G2 X129.6687 Y9.5153 I1.6864 J-1.0753
G2 X130.0052 Y9.9996 I6.3765 J-4.0703
G2 X129.3207 Y11.0917 I6.0234 J4.5358
G2 X129.3198 Y11.0935 I1.7792 J0.9134
G2 X128.4999 Y14.4985 I6.6398 J3.4001
G2 X129.32 Y17.9065 I7.4435 J0.0115
G2 X129.3206 Y17.9077 I1.7797 J-0.9126
G2 X130.7681 Y19.8657 I6.7103 J-3.4467
G1 Y30.1333
G2 X129.321 Y32.0905 I5.2684 J5.4089
G2 X129.3198 Y32.0929 I1.7788 J0.9143
G2 X128.4999 Y35.4985 I6.6352 J3.3989
G2 X129.3197 Y38.9057 I7.4487 J0.0099
G1 X129.3198 Y38.9058
G2 X130.0048 Y39.9995 I6.6954 J-3.432
G2 X129.1193 Y41.5205 I5.9952 J4.5085
G1 X113.9463
G2 X113.0616 Y39.9994 I-6.8829 J2.9852
G0 Z3.0
M5
M30
