( Made using CamBam - http://www.cambam.co.uk )
( head face plate 9/27/2013 4:34:29 PM )
( T16 : 1.0 )
G21 G90 G64 G40
G0 Z3.0
( T16 : 1.0 )
T16 M6
( Spot Drill )
G17
M3 S1000
G0 X6.5738 Y12.6561
G98
G81 X6.5738 Y12.6561 Z-1.0 R3.0 F50.0
G81 X26.129 Y5.036 Z-1.0
G81 X26.1293 Y20.2761 Z-1.0
G81 X39.9373 Y29.16 Z-1.0
G81 X47.5575 Y29.1596 Z-1.0
G81 X55.1773 Z-1.0
G81 X66.5737 Y12.6562 Z-1.0
G80
G0 Z3.0
M5
M30
