( Made using CamBam - http://www.cambam.co.uk )
( head face plate 9/27/2013 4:34:53 PM )
( T4 : 4.0 )
G21 G90 G64 G40
G0 Z3.0
( T4 : 4.0 )
T4 M6
( Pocket1 )
G17
M3 S1000
G0 X46.8074 Y29.1534
G0 Z1.0
G1 F50.0 Z-1.0
G3 F120.0 X47.0228 Y28.6334 I0.7329 J-0.001
G2 X47.031 Y28.6252 I-3.1068 J-3.1158
G3 X47.5518 Y28.4096 I0.5198 J0.5186
G2 X47.5643 I0.006 J-4.4
G3 X48.0836 Y28.6247 I0.0011 J0.7319
G2 X48.0917 Y28.6327 I3.1157 J-3.1068
G3 X48.3076 Y29.1539 I-0.5191 J0.5203
G2 Y29.1656 I4.4 J0.0053
G3 X48.0922 Y29.6855 I-0.7327 J0.0011
G2 X48.0831 Y29.6946 I3.107 J3.1155
G3 X47.5639 Y29.9097 I-0.5182 J-0.5166
G2 X47.5532 I-0.0061 J4.4
G3 X47.0307 Y29.6933 I-0.0008 J-0.737
G2 X47.0233 Y29.6858 I-3.1147 J3.1078
G3 X46.8074 Y29.1647 I0.5189 J-0.5203
G2 Y29.1534 I-4.4 J-0.0054
G1 F50.0 X46.0074 Y29.1545
G3 F120.0 X46.4579 Y28.0669 I1.5329 J-0.0021
G2 X46.4647 Y28.0602 I-2.5419 J-2.5493
G3 X47.5529 Y27.6096 I1.0862 J1.0836
G2 X47.5631 I0.0049 J-3.6
G3 X48.6501 Y28.0598 I0.0022 J1.5319
G2 X48.6567 Y28.0664 I2.5492 J-2.542
G3 X49.1076 Y29.1549 I-1.0841 J1.0867
G2 Y29.1645 I3.6 J0.0044
G3 X48.6572 Y30.2519 I-1.5327 J0.0022
G2 X48.6497 Y30.2594 I2.5421 J2.549
G3 X47.5628 Y30.7097 I-1.0848 J-1.0814
G2 X47.554 I-0.005 J3.6
G3 X46.4644 Y30.2583 I-0.0016 J-1.537
G2 X46.4583 Y30.2523 I-2.5484 J2.5428
G3 X46.0074 Y29.1637 I1.0839 J-1.0867
G2 Y29.1545 I-3.6 J-0.0044
G1 F50.0 X44.4074 Y29.1566
G3 F120.0 X45.3282 Y26.9339 I3.1329 J-0.0042
G2 X45.3319 Y26.9302 I-1.4122 J-1.4163
G3 X47.5551 Y26.0096 I2.2189 J2.2136
G2 X47.5607 I0.0027 J-2.0
G3 X49.7831 Y26.93 I0.0046 J3.1319
G2 X49.7867 Y26.9337 I1.4162 J-1.4122
G3 X50.7076 Y29.1569 I-2.2141 J2.2194
G2 Y29.1622 I2.0 J0.0024
G3 X49.787 Y31.3848 I-3.1327 J0.0045
G2 X49.7829 Y31.389 I1.4123 J1.4161
G3 X47.5606 Y32.3097 I-2.2179 J-2.211
G2 X47.5557 I-0.0028 J2.0
G3 X45.3318 Y31.3884 I-0.0033 J-3.137
G2 X45.3284 Y31.3851 I-1.4158 J1.4126
G3 X44.4074 Y29.1617 I2.2138 J-2.2195
G2 Y29.1566 I-2.0 J-0.0024
G1 F50.0 X46.8074 Y29.1534
G1 Z-2.0
G3 F120.0 X47.0228 Y28.6334 I0.7329 J-0.001
G2 X47.031 Y28.6252 I-3.1068 J-3.1158
G3 X47.5518 Y28.4096 I0.5198 J0.5186
G2 X47.5643 I0.006 J-4.4
G3 X48.0836 Y28.6247 I0.0011 J0.7319
G2 X48.0917 Y28.6327 I3.1157 J-3.1068
G3 X48.3076 Y29.1539 I-0.5191 J0.5203
G2 Y29.1656 I4.4 J0.0053
G3 X48.0922 Y29.6855 I-0.7327 J0.0011
G2 X48.0831 Y29.6946 I3.107 J3.1155
G3 X47.5639 Y29.9097 I-0.5182 J-0.5166
G2 X47.5532 I-0.0061 J4.4
G3 X47.0307 Y29.6933 I-0.0008 J-0.737
G2 X47.0233 Y29.6858 I-3.1147 J3.1078
G3 X46.8074 Y29.1647 I0.5189 J-0.5203
G2 Y29.1534 I-4.4 J-0.0054
G1 F50.0 X46.0074 Y29.1545
G3 F120.0 X46.4579 Y28.0669 I1.5329 J-0.0021
G2 X46.4647 Y28.0602 I-2.5419 J-2.5493
G3 X47.5529 Y27.6096 I1.0862 J1.0836
G2 X47.5631 I0.0049 J-3.6
G3 X48.6501 Y28.0598 I0.0022 J1.5319
G2 X48.6567 Y28.0664 I2.5492 J-2.542
G3 X49.1076 Y29.1549 I-1.0841 J1.0867
G2 Y29.1645 I3.6 J0.0044
G3 X48.6572 Y30.2519 I-1.5327 J0.0022
G2 X48.6497 Y30.2594 I2.5421 J2.549
G3 X47.5628 Y30.7097 I-1.0848 J-1.0814
G2 X47.554 I-0.005 J3.6
G3 X46.4644 Y30.2583 I-0.0016 J-1.537
G2 X46.4583 Y30.2523 I-2.5484 J2.5428
G3 X46.0074 Y29.1637 I1.0839 J-1.0867
G2 Y29.1545 I-3.6 J-0.0044
G1 F50.0 X44.4074 Y29.1566
G3 F120.0 X45.3282 Y26.9339 I3.1329 J-0.0042
G2 X45.3319 Y26.9302 I-1.4122 J-1.4163
G3 X47.5551 Y26.0096 I2.2189 J2.2136
G2 X47.5607 I0.0027 J-2.0
G3 X49.7831 Y26.93 I0.0046 J3.1319
G2 X49.7867 Y26.9337 I1.4162 J-1.4122
G3 X50.7076 Y29.1569 I-2.2141 J2.2194
G2 Y29.1622 I2.0 J0.0024
G3 X49.787 Y31.3848 I-3.1327 J0.0045
G2 X49.7829 Y31.389 I1.4123 J1.4161
G3 X47.5606 Y32.3097 I-2.2179 J-2.211
G2 X47.5557 I-0.0028 J2.0
G3 X45.3318 Y31.3884 I-0.0033 J-3.137
G2 X45.3284 Y31.3851 I-1.4158 J1.4126
G3 X44.4074 Y29.1617 I2.2138 J-2.2195
G2 Y29.1566 I-2.0 J-0.0024
G1 F50.0 X46.8074 Y29.1534
G1 Z-3.0
G3 F120.0 X47.0228 Y28.6334 I0.7329 J-0.001
G2 X47.031 Y28.6252 I-3.1068 J-3.1158
G3 X47.5518 Y28.4096 I0.5198 J0.5186
G2 X47.5643 I0.006 J-4.4
G3 X48.0836 Y28.6247 I0.0011 J0.7319
G2 X48.0917 Y28.6327 I3.1157 J-3.1068
G3 X48.3076 Y29.1539 I-0.5191 J0.5203
G2 Y29.1656 I4.4 J0.0053
G3 X48.0922 Y29.6855 I-0.7327 J0.0011
G2 X48.0831 Y29.6946 I3.107 J3.1155
G3 X47.5639 Y29.9097 I-0.5182 J-0.5166
G2 X47.5532 I-0.0061 J4.4
G3 X47.0307 Y29.6933 I-0.0008 J-0.737
G2 X47.0233 Y29.6858 I-3.1147 J3.1078
G3 X46.8074 Y29.1647 I0.5189 J-0.5203
G2 Y29.1534 I-4.4 J-0.0054
G1 F50.0 X46.0074 Y29.1545
G3 F120.0 X46.4579 Y28.0669 I1.5329 J-0.0021
G2 X46.4647 Y28.0602 I-2.5419 J-2.5493
G3 X47.5529 Y27.6096 I1.0862 J1.0836
G2 X47.5631 I0.0049 J-3.6
G3 X48.6501 Y28.0598 I0.0022 J1.5319
G2 X48.6567 Y28.0664 I2.5492 J-2.542
G3 X49.1076 Y29.1549 I-1.0841 J1.0867
G2 Y29.1645 I3.6 J0.0044
G3 X48.6572 Y30.2519 I-1.5327 J0.0022
G2 X48.6497 Y30.2594 I2.5421 J2.549
G3 X47.5628 Y30.7097 I-1.0848 J-1.0814
G2 X47.554 I-0.005 J3.6
G3 X46.4644 Y30.2583 I-0.0016 J-1.537
G2 X46.4583 Y30.2523 I-2.5484 J2.5428
G3 X46.0074 Y29.1637 I1.0839 J-1.0867
G2 Y29.1545 I-3.6 J-0.0044
G1 F50.0 X44.4074 Y29.1566
G3 F120.0 X45.3282 Y26.9339 I3.1329 J-0.0042
G2 X45.3319 Y26.9302 I-1.4122 J-1.4163
G3 X47.5551 Y26.0096 I2.2189 J2.2136
G2 X47.5607 I0.0027 J-2.0
G3 X49.7831 Y26.93 I0.0046 J3.1319
G2 X49.7867 Y26.9337 I1.4162 J-1.4122
G3 X50.7076 Y29.1569 I-2.2141 J2.2194
G2 Y29.1622 I2.0 J0.0024
G3 X49.787 Y31.3848 I-3.1327 J0.0045
G2 X49.7829 Y31.389 I1.4123 J1.4161
G3 X47.5606 Y32.3097 I-2.2179 J-2.211
G2 X47.5557 I-0.0028 J2.0
G3 X45.3318 Y31.3884 I-0.0033 J-3.137
G2 X45.3284 Y31.3851 I-1.4158 J1.4126
G3 X44.4074 Y29.1617 I2.2138 J-2.2195
G2 Y29.1566 I-2.0 J-0.0024
G1 F50.0 X46.8074 Y29.1534
G1 Z-4.0
G3 F120.0 X47.0228 Y28.6334 I0.7329 J-0.001
G2 X47.031 Y28.6252 I-3.1068 J-3.1158
G3 X47.5518 Y28.4096 I0.5198 J0.5186
G2 X47.5643 I0.006 J-4.4
G3 X48.0836 Y28.6247 I0.0011 J0.7319
G2 X48.0917 Y28.6327 I3.1157 J-3.1068
G3 X48.3076 Y29.1539 I-0.5191 J0.5203
G2 Y29.1656 I4.4 J0.0053
G3 X48.0922 Y29.6855 I-0.7327 J0.0011
G2 X48.0831 Y29.6946 I3.107 J3.1155
G3 X47.5639 Y29.9097 I-0.5182 J-0.5166
G2 X47.5532 I-0.0061 J4.4
G3 X47.0307 Y29.6933 I-0.0008 J-0.737
G2 X47.0233 Y29.6858 I-3.1147 J3.1078
G3 X46.8074 Y29.1647 I0.5189 J-0.5203
G2 Y29.1534 I-4.4 J-0.0054
G1 F50.0 X46.0074 Y29.1545
G3 F120.0 X46.4579 Y28.0669 I1.5329 J-0.0021
G2 X46.4647 Y28.0602 I-2.5419 J-2.5493
G3 X47.5529 Y27.6096 I1.0862 J1.0836
G2 X47.5631 I0.0049 J-3.6
G3 X48.6501 Y28.0598 I0.0022 J1.5319
G2 X48.6567 Y28.0664 I2.5492 J-2.542
G3 X49.1076 Y29.1549 I-1.0841 J1.0867
G2 Y29.1645 I3.6 J0.0044
G3 X48.6572 Y30.2519 I-1.5327 J0.0022
G2 X48.6497 Y30.2594 I2.5421 J2.549
G3 X47.5628 Y30.7097 I-1.0848 J-1.0814
G2 X47.554 I-0.005 J3.6
G3 X46.4644 Y30.2583 I-0.0016 J-1.537
G2 X46.4583 Y30.2523 I-2.5484 J2.5428
G3 X46.0074 Y29.1637 I1.0839 J-1.0867
G2 Y29.1545 I-3.6 J-0.0044
G1 F50.0 X44.4074 Y29.1566
G3 F120.0 X45.3282 Y26.9339 I3.1329 J-0.0042
G2 X45.3319 Y26.9302 I-1.4122 J-1.4163
G3 X47.5551 Y26.0096 I2.2189 J2.2136
G2 X47.5607 I0.0027 J-2.0
G3 X49.7831 Y26.93 I0.0046 J3.1319
G2 X49.7867 Y26.9337 I1.4162 J-1.4122
G3 X50.7076 Y29.1569 I-2.2141 J2.2194
G2 Y29.1622 I2.0 J0.0024
G3 X49.787 Y31.3848 I-3.1327 J0.0045
G2 X49.7829 Y31.389 I1.4123 J1.4161
G3 X47.5606 Y32.3097 I-2.2179 J-2.211
G2 X47.5557 I-0.0028 J2.0
G3 X45.3318 Y31.3884 I-0.0033 J-3.137
G2 X45.3284 Y31.3851 I-1.4158 J1.4126
G3 X44.4074 Y29.1617 I2.2138 J-2.2195
G2 Y29.1566 I-2.0 J-0.0024
G1 F50.0 X46.8074 Y29.1534
G1 Z-5.0
G3 F120.0 X47.0228 Y28.6334 I0.7329 J-0.001
G2 X47.031 Y28.6252 I-3.1068 J-3.1158
G3 X47.5518 Y28.4096 I0.5198 J0.5186
G2 X47.5643 I0.006 J-4.4
G3 X48.0836 Y28.6247 I0.0011 J0.7319
G2 X48.0917 Y28.6327 I3.1157 J-3.1068
G3 X48.3076 Y29.1539 I-0.5191 J0.5203
G2 Y29.1656 I4.4 J0.0053
G3 X48.0922 Y29.6855 I-0.7327 J0.0011
G2 X48.0831 Y29.6946 I3.107 J3.1155
G3 X47.5639 Y29.9097 I-0.5182 J-0.5166
G2 X47.5532 I-0.0061 J4.4
G3 X47.0307 Y29.6933 I-0.0008 J-0.737
G2 X47.0233 Y29.6858 I-3.1147 J3.1078
G3 X46.8074 Y29.1647 I0.5189 J-0.5203
G2 Y29.1534 I-4.4 J-0.0054
G1 F50.0 X46.0074 Y29.1545
G3 F120.0 X46.4579 Y28.0669 I1.5329 J-0.0021
G2 X46.4647 Y28.0602 I-2.5419 J-2.5493
G3 X47.5529 Y27.6096 I1.0862 J1.0836
G2 X47.5631 I0.0049 J-3.6
G3 X48.6501 Y28.0598 I0.0022 J1.5319
G2 X48.6567 Y28.0664 I2.5492 J-2.542
G3 X49.1076 Y29.1549 I-1.0841 J1.0867
G2 Y29.1645 I3.6 J0.0044
G3 X48.6572 Y30.2519 I-1.5327 J0.0022
G2 X48.6497 Y30.2594 I2.5421 J2.549
G3 X47.5628 Y30.7097 I-1.0848 J-1.0814
G2 X47.554 I-0.005 J3.6
G3 X46.4644 Y30.2583 I-0.0016 J-1.537
G2 X46.4583 Y30.2523 I-2.5484 J2.5428
G3 X46.0074 Y29.1637 I1.0839 J-1.0867
G2 Y29.1545 I-3.6 J-0.0044
G1 F50.0 X44.4074 Y29.1566
G3 F120.0 X45.3282 Y26.9339 I3.1329 J-0.0042
G2 X45.3319 Y26.9302 I-1.4122 J-1.4163
G3 X47.5551 Y26.0096 I2.2189 J2.2136
G2 X47.5607 I0.0027 J-2.0
G3 X49.7831 Y26.93 I0.0046 J3.1319
G2 X49.7867 Y26.9337 I1.4162 J-1.4122
G3 X50.7076 Y29.1569 I-2.2141 J2.2194
G2 Y29.1622 I2.0 J0.0024
G3 X49.787 Y31.3848 I-3.1327 J0.0045
G2 X49.7829 Y31.389 I1.4123 J1.4161
G3 X47.5606 Y32.3097 I-2.2179 J-2.211
G2 X47.5557 I-0.0028 J2.0
G3 X45.3318 Y31.3884 I-0.0033 J-3.137
G2 X45.3284 Y31.3851 I-1.4158 J1.4126
G3 X44.4074 Y29.1617 I2.2138 J-2.2195
G2 Y29.1566 I-2.0 J-0.0024
G1 F50.0 X46.8074 Y29.1534
G1 Z-6.0
G3 F120.0 X47.0228 Y28.6334 I0.7329 J-0.001
G2 X47.031 Y28.6252 I-3.1068 J-3.1158
G3 X47.5518 Y28.4096 I0.5198 J0.5186
G2 X47.5643 I0.006 J-4.4
G3 X48.0836 Y28.6247 I0.0011 J0.7319
G2 X48.0917 Y28.6327 I3.1157 J-3.1068
G3 X48.3076 Y29.1539 I-0.5191 J0.5203
G2 Y29.1656 I4.4 J0.0053
G3 X48.0922 Y29.6855 I-0.7327 J0.0011
G2 X48.0831 Y29.6946 I3.107 J3.1155
G3 X47.5639 Y29.9097 I-0.5182 J-0.5166
G2 X47.5532 I-0.0061 J4.4
G3 X47.0307 Y29.6933 I-0.0008 J-0.737
G2 X47.0233 Y29.6858 I-3.1147 J3.1078
G3 X46.8074 Y29.1647 I0.5189 J-0.5203
G2 Y29.1534 I-4.4 J-0.0054
G1 F50.0 X46.0074 Y29.1545
G3 F120.0 X46.4579 Y28.0669 I1.5329 J-0.0021
G2 X46.4647 Y28.0602 I-2.5419 J-2.5493
G3 X47.5529 Y27.6096 I1.0862 J1.0836
G2 X47.5631 I0.0049 J-3.6
G3 X48.6501 Y28.0598 I0.0022 J1.5319
G2 X48.6567 Y28.0664 I2.5492 J-2.542
G3 X49.1076 Y29.1549 I-1.0841 J1.0867
G2 Y29.1645 I3.6 J0.0044
G3 X48.6572 Y30.2519 I-1.5327 J0.0022
G2 X48.6497 Y30.2594 I2.5421 J2.549
G3 X47.5628 Y30.7097 I-1.0848 J-1.0814
G2 X47.554 I-0.005 J3.6
G3 X46.4644 Y30.2583 I-0.0016 J-1.537
G2 X46.4583 Y30.2523 I-2.5484 J2.5428
G3 X46.0074 Y29.1637 I1.0839 J-1.0867
G2 Y29.1545 I-3.6 J-0.0044
G1 F50.0 X44.4074 Y29.1566
G3 F120.0 X45.3282 Y26.9339 I3.1329 J-0.0042
G2 X45.3319 Y26.9302 I-1.4122 J-1.4163
G3 X47.5551 Y26.0096 I2.2189 J2.2136
G2 X47.5607 I0.0027 J-2.0
G3 X49.7831 Y26.93 I0.0046 J3.1319
G2 X49.7867 Y26.9337 I1.4162 J-1.4122
G3 X50.7076 Y29.1569 I-2.2141 J2.2194
G2 Y29.1622 I2.0 J0.0024
G3 X49.787 Y31.3848 I-3.1327 J0.0045
G2 X49.7829 Y31.389 I1.4123 J1.4161
G3 X47.5606 Y32.3097 I-2.2179 J-2.211
G2 X47.5557 I-0.0028 J2.0
G3 X45.3318 Y31.3884 I-0.0033 J-3.137
G2 X45.3284 Y31.3851 I-1.4158 J1.4126
G3 X44.4074 Y29.1617 I2.2138 J-2.2195
G2 Y29.1566 I-2.0 J-0.0024
G1 F50.0 X46.8074 Y29.1534
G1 Z-7.0
G3 F120.0 X47.0228 Y28.6334 I0.7329 J-0.001
G2 X47.031 Y28.6252 I-3.1068 J-3.1158
G3 X47.5518 Y28.4096 I0.5198 J0.5186
G2 X47.5643 I0.006 J-4.4
G3 X48.0836 Y28.6247 I0.0011 J0.7319
G2 X48.0917 Y28.6327 I3.1157 J-3.1068
G3 X48.3076 Y29.1539 I-0.5191 J0.5203
G2 Y29.1656 I4.4 J0.0053
G3 X48.0922 Y29.6855 I-0.7327 J0.0011
G2 X48.0831 Y29.6946 I3.107 J3.1155
G3 X47.5639 Y29.9097 I-0.5182 J-0.5166
G2 X47.5532 I-0.0061 J4.4
G3 X47.0307 Y29.6933 I-0.0008 J-0.737
G2 X47.0233 Y29.6858 I-3.1147 J3.1078
G3 X46.8074 Y29.1647 I0.5189 J-0.5203
G2 Y29.1534 I-4.4 J-0.0054
G1 F50.0 X46.0074 Y29.1545
G3 F120.0 X46.4579 Y28.0669 I1.5329 J-0.0021
G2 X46.4647 Y28.0602 I-2.5419 J-2.5493
G3 X47.5529 Y27.6096 I1.0862 J1.0836
G2 X47.5631 I0.0049 J-3.6
G3 X48.6501 Y28.0598 I0.0022 J1.5319
G2 X48.6567 Y28.0664 I2.5492 J-2.542
G3 X49.1076 Y29.1549 I-1.0841 J1.0867
G2 Y29.1645 I3.6 J0.0044
G3 X48.6572 Y30.2519 I-1.5327 J0.0022
G2 X48.6497 Y30.2594 I2.5421 J2.549
G3 X47.5628 Y30.7097 I-1.0848 J-1.0814
G2 X47.554 I-0.005 J3.6
G3 X46.4644 Y30.2583 I-0.0016 J-1.537
G2 X46.4583 Y30.2523 I-2.5484 J2.5428
G3 X46.0074 Y29.1637 I1.0839 J-1.0867
G2 Y29.1545 I-3.6 J-0.0044
G1 F50.0 X44.4074 Y29.1566
G3 F120.0 X45.3282 Y26.9339 I3.1329 J-0.0042
G2 X45.3319 Y26.9302 I-1.4122 J-1.4163
G3 X47.5551 Y26.0096 I2.2189 J2.2136
G2 X47.5607 I0.0027 J-2.0
G3 X49.7831 Y26.93 I0.0046 J3.1319
G2 X49.7867 Y26.9337 I1.4162 J-1.4122
G3 X50.7076 Y29.1569 I-2.2141 J2.2194
G2 Y29.1622 I2.0 J0.0024
G3 X49.787 Y31.3848 I-3.1327 J0.0045
G2 X49.7829 Y31.389 I1.4123 J1.4161
G3 X47.5606 Y32.3097 I-2.2179 J-2.211
G2 X47.5557 I-0.0028 J2.0
G3 X45.3318 Y31.3884 I-0.0033 J-3.137
G2 X45.3284 Y31.3851 I-1.4158 J1.4126
G3 X44.4074 Y29.1617 I2.2138 J-2.2195
G2 Y29.1566 I-2.0 J-0.0024
G1 F50.0 X46.8074 Y29.1534
G1 Z-8.0
G3 F120.0 X47.0228 Y28.6334 I0.7329 J-0.001
G2 X47.031 Y28.6252 I-3.1068 J-3.1158
G3 X47.5518 Y28.4096 I0.5198 J0.5186
G2 X47.5643 I0.006 J-4.4
G3 X48.0836 Y28.6247 I0.0011 J0.7319
G2 X48.0917 Y28.6327 I3.1157 J-3.1068
G3 X48.3076 Y29.1539 I-0.5191 J0.5203
G2 Y29.1656 I4.4 J0.0053
G3 X48.0922 Y29.6855 I-0.7327 J0.0011
G2 X48.0831 Y29.6946 I3.107 J3.1155
G3 X47.5639 Y29.9097 I-0.5182 J-0.5166
G2 X47.5532 I-0.0061 J4.4
G3 X47.0307 Y29.6933 I-0.0008 J-0.737
G2 X47.0233 Y29.6858 I-3.1147 J3.1078
G3 X46.8074 Y29.1647 I0.5189 J-0.5203
G2 Y29.1534 I-4.4 J-0.0054
G1 F50.0 X46.0074 Y29.1545
G3 F120.0 X46.4579 Y28.0669 I1.5329 J-0.0021
G2 X46.4647 Y28.0602 I-2.5419 J-2.5493
G3 X47.5529 Y27.6096 I1.0862 J1.0836
G2 X47.5631 I0.0049 J-3.6
G3 X48.6501 Y28.0598 I0.0022 J1.5319
G2 X48.6567 Y28.0664 I2.5492 J-2.542
G3 X49.1076 Y29.1549 I-1.0841 J1.0867
G2 Y29.1645 I3.6 J0.0044
G3 X48.6572 Y30.2519 I-1.5327 J0.0022
G2 X48.6497 Y30.2594 I2.5421 J2.549
G3 X47.5628 Y30.7097 I-1.0848 J-1.0814
G2 X47.554 I-0.005 J3.6
G3 X46.4644 Y30.2583 I-0.0016 J-1.537
G2 X46.4583 Y30.2523 I-2.5484 J2.5428
G3 X46.0074 Y29.1637 I1.0839 J-1.0867
G2 Y29.1545 I-3.6 J-0.0044
G1 F50.0 X44.4074 Y29.1566
G3 F120.0 X45.3282 Y26.9339 I3.1329 J-0.0042
G2 X45.3319 Y26.9302 I-1.4122 J-1.4163
G3 X47.5551 Y26.0096 I2.2189 J2.2136
G2 X47.5607 I0.0027 J-2.0
G3 X49.7831 Y26.93 I0.0046 J3.1319
G2 X49.7867 Y26.9337 I1.4162 J-1.4122
G3 X50.7076 Y29.1569 I-2.2141 J2.2194
G2 Y29.1622 I2.0 J0.0024
G3 X49.787 Y31.3848 I-3.1327 J0.0045
G2 X49.7829 Y31.389 I1.4123 J1.4161
G3 X47.5606 Y32.3097 I-2.2179 J-2.211
G2 X47.5557 I-0.0028 J2.0
G3 X45.3318 Y31.3884 I-0.0033 J-3.137
G2 X45.3284 Y31.3851 I-1.4158 J1.4126
G3 X44.4074 Y29.1617 I2.2138 J-2.2195
G2 Y29.1566 I-2.0 J-0.0024
G1 F50.0 X46.8074 Y29.1534
G1 Z-9.0
G3 F120.0 X47.0228 Y28.6334 I0.7329 J-0.001
G2 X47.031 Y28.6252 I-3.1068 J-3.1158
G3 X47.5518 Y28.4096 I0.5198 J0.5186
G2 X47.5643 I0.006 J-4.4
G3 X48.0836 Y28.6247 I0.0011 J0.7319
G2 X48.0917 Y28.6327 I3.1157 J-3.1068
G3 X48.3076 Y29.1539 I-0.5191 J0.5203
G2 Y29.1656 I4.4 J0.0053
G3 X48.0922 Y29.6855 I-0.7327 J0.0011
G2 X48.0831 Y29.6946 I3.107 J3.1155
G3 X47.5639 Y29.9097 I-0.5182 J-0.5166
G2 X47.5532 I-0.0061 J4.4
G3 X47.0307 Y29.6933 I-0.0008 J-0.737
G2 X47.0233 Y29.6858 I-3.1147 J3.1078
G3 X46.8074 Y29.1647 I0.5189 J-0.5203
G2 Y29.1534 I-4.4 J-0.0054
G1 F50.0 X46.0074 Y29.1545
G3 F120.0 X46.4579 Y28.0669 I1.5329 J-0.0021
G2 X46.4647 Y28.0602 I-2.5419 J-2.5493
G3 X47.5529 Y27.6096 I1.0862 J1.0836
G2 X47.5631 I0.0049 J-3.6
G3 X48.6501 Y28.0598 I0.0022 J1.5319
G2 X48.6567 Y28.0664 I2.5492 J-2.542
G3 X49.1076 Y29.1549 I-1.0841 J1.0867
G2 Y29.1645 I3.6 J0.0044
G3 X48.6572 Y30.2519 I-1.5327 J0.0022
G2 X48.6497 Y30.2594 I2.5421 J2.549
G3 X47.5628 Y30.7097 I-1.0848 J-1.0814
G2 X47.554 I-0.005 J3.6
G3 X46.4644 Y30.2583 I-0.0016 J-1.537
G2 X46.4583 Y30.2523 I-2.5484 J2.5428
G3 X46.0074 Y29.1637 I1.0839 J-1.0867
G2 Y29.1545 I-3.6 J-0.0044
G1 F50.0 X44.4074 Y29.1566
G3 F120.0 X45.3282 Y26.9339 I3.1329 J-0.0042
G2 X45.3319 Y26.9302 I-1.4122 J-1.4163
G3 X47.5551 Y26.0096 I2.2189 J2.2136
G2 X47.5607 I0.0027 J-2.0
G3 X49.7831 Y26.93 I0.0046 J3.1319
G2 X49.7867 Y26.9337 I1.4162 J-1.4122
G3 X50.7076 Y29.1569 I-2.2141 J2.2194
G2 Y29.1622 I2.0 J0.0024
G3 X49.787 Y31.3848 I-3.1327 J0.0045
G2 X49.7829 Y31.389 I1.4123 J1.4161
G3 X47.5606 Y32.3097 I-2.2179 J-2.211
G2 X47.5557 I-0.0028 J2.0
G3 X45.3318 Y31.3884 I-0.0033 J-3.137
G2 X45.3284 Y31.3851 I-1.4158 J1.4126
G3 X44.4074 Y29.1617 I2.2138 J-2.2195
G2 Y29.1566 I-2.0 J-0.0024
G1 F50.0 X46.8074 Y29.1534
G1 Z-10.0
G3 F120.0 X47.0228 Y28.6334 I0.7329 J-0.001
G2 X47.031 Y28.6252 I-3.1068 J-3.1158
G3 X47.5518 Y28.4096 I0.5198 J0.5186
G2 X47.5643 I0.006 J-4.4
G3 X48.0836 Y28.6247 I0.0011 J0.7319
G2 X48.0917 Y28.6327 I3.1157 J-3.1068
G3 X48.3076 Y29.1539 I-0.5191 J0.5203
G2 Y29.1656 I4.4 J0.0053
G3 X48.0922 Y29.6855 I-0.7327 J0.0011
G2 X48.0831 Y29.6946 I3.107 J3.1155
G3 X47.5639 Y29.9097 I-0.5182 J-0.5166
G2 X47.5532 I-0.0061 J4.4
G3 X47.0307 Y29.6933 I-0.0008 J-0.737
G2 X47.0233 Y29.6858 I-3.1147 J3.1078
G3 X46.8074 Y29.1647 I0.5189 J-0.5203
G2 Y29.1534 I-4.4 J-0.0054
G1 F50.0 X46.0074 Y29.1545
G3 F120.0 X46.4579 Y28.0669 I1.5329 J-0.0021
G2 X46.4647 Y28.0602 I-2.5419 J-2.5493
G3 X47.5529 Y27.6096 I1.0862 J1.0836
G2 X47.5631 I0.0049 J-3.6
G3 X48.6501 Y28.0598 I0.0022 J1.5319
G2 X48.6567 Y28.0664 I2.5492 J-2.542
G3 X49.1076 Y29.1549 I-1.0841 J1.0867
G2 Y29.1645 I3.6 J0.0044
G3 X48.6572 Y30.2519 I-1.5327 J0.0022
G2 X48.6497 Y30.2594 I2.5421 J2.549
G3 X47.5628 Y30.7097 I-1.0848 J-1.0814
G2 X47.554 I-0.005 J3.6
G3 X46.4644 Y30.2583 I-0.0016 J-1.537
G2 X46.4583 Y30.2523 I-2.5484 J2.5428
G3 X46.0074 Y29.1637 I1.0839 J-1.0867
G2 Y29.1545 I-3.6 J-0.0044
G1 F50.0 X44.4074 Y29.1566
G3 F120.0 X45.3282 Y26.9339 I3.1329 J-0.0042
G2 X45.3319 Y26.9302 I-1.4122 J-1.4163
G3 X47.5551 Y26.0096 I2.2189 J2.2136
G2 X47.5607 I0.0027 J-2.0
G3 X49.7831 Y26.93 I0.0046 J3.1319
G2 X49.7867 Y26.9337 I1.4162 J-1.4122
G3 X50.7076 Y29.1569 I-2.2141 J2.2194
G2 Y29.1622 I2.0 J0.0024
G3 X49.787 Y31.3848 I-3.1327 J0.0045
G2 X49.7829 Y31.389 I1.4123 J1.4161
G3 X47.5606 Y32.3097 I-2.2179 J-2.211
G2 X47.5557 I-0.0028 J2.0
G3 X45.3318 Y31.3884 I-0.0033 J-3.137
G2 X45.3284 Y31.3851 I-1.4158 J1.4126
G3 X44.4074 Y29.1617 I2.2138 J-2.2195
G2 Y29.1566 I-2.0 J-0.0024
G1 F50.0 X46.8074 Y29.1534
G1 Z-10.5
G3 F120.0 X47.0228 Y28.6334 I0.7329 J-0.001
G2 X47.031 Y28.6252 I-3.1068 J-3.1158
G3 X47.5518 Y28.4096 I0.5198 J0.5186
G2 X47.5643 I0.006 J-4.4
G3 X48.0836 Y28.6247 I0.0011 J0.7319
G2 X48.0917 Y28.6327 I3.1157 J-3.1068
G3 X48.3076 Y29.1539 I-0.5191 J0.5203
G2 Y29.1656 I4.4 J0.0053
G3 X48.0922 Y29.6855 I-0.7327 J0.0011
G2 X48.0831 Y29.6946 I3.107 J3.1155
G3 X47.5639 Y29.9097 I-0.5182 J-0.5166
G2 X47.5532 I-0.0061 J4.4
G3 X47.0307 Y29.6933 I-0.0008 J-0.737
G2 X47.0233 Y29.6858 I-3.1147 J3.1078
G3 X46.8074 Y29.1647 I0.5189 J-0.5203
G2 Y29.1534 I-4.4 J-0.0054
G1 F50.0 X46.0074 Y29.1545
G3 F120.0 X46.4579 Y28.0669 I1.5329 J-0.0021
G2 X46.4647 Y28.0602 I-2.5419 J-2.5493
G3 X47.5529 Y27.6096 I1.0862 J1.0836
G2 X47.5631 I0.0049 J-3.6
G3 X48.6501 Y28.0598 I0.0022 J1.5319
G2 X48.6567 Y28.0664 I2.5492 J-2.542
G3 X49.1076 Y29.1549 I-1.0841 J1.0867
G2 Y29.1645 I3.6 J0.0044
G3 X48.6572 Y30.2519 I-1.5327 J0.0022
G2 X48.6497 Y30.2594 I2.5421 J2.549
G3 X47.5628 Y30.7097 I-1.0848 J-1.0814
G2 X47.554 I-0.005 J3.6
G3 X46.4644 Y30.2583 I-0.0016 J-1.537
G2 X46.4583 Y30.2523 I-2.5484 J2.5428
G3 X46.0074 Y29.1637 I1.0839 J-1.0867
G2 Y29.1545 I-3.6 J-0.0044
G1 F50.0 X44.4074 Y29.1566
G3 F120.0 X45.3282 Y26.9339 I3.1329 J-0.0042
G2 X45.3319 Y26.9302 I-1.4122 J-1.4163
G3 X47.5551 Y26.0096 I2.2189 J2.2136
G2 X47.5607 I0.0027 J-2.0
G3 X49.7831 Y26.93 I0.0046 J3.1319
G2 X49.7867 Y26.9337 I1.4162 J-1.4122
G3 X50.7076 Y29.1569 I-2.2141 J2.2194
G2 Y29.1622 I2.0 J0.0024
G3 X49.787 Y31.3848 I-3.1327 J0.0045
G2 X49.7829 Y31.389 I1.4123 J1.4161
G3 X47.5606 Y32.3097 I-2.2179 J-2.211
G2 X47.5557 I-0.0028 J2.0
G3 X45.3318 Y31.3884 I-0.0033 J-3.137
G2 X45.3284 Y31.3851 I-1.4158 J1.4126
G3 X44.4074 Y29.1617 I2.2138 J-2.2195
G2 Y29.1566 I-2.0 J-0.0024
( Pocket2 )
S1000
G0 Z3.0
G0 X12.4 Y12.912
G0 Z1.0
G1 F50.0 Z-1.0
G1 F120.0 Y12.4002
G1 X24.0028 Y12.4001
G2 X24.0526 Y12.6557 I12.1952 J-2.2443
G2 X24.0027 Y12.9119 I12.1454 J2.4999
G1 X12.4 Y12.912
G1 F50.0 X11.6
G1 F120.0 Y11.6002
G1 X24.6882 Y11.6001
G2 X24.8705 Y12.6557 I11.5097 J-1.4443
G2 X24.6882 Y13.7119 I11.3274 J2.4999
G1 X11.6 Y13.712
G1 Y12.912
G1 F50.0 X10.0
G1 F120.0 Y10.0002
G1 X26.198 Y10.0001
G1 Y10.1558
G2 X26.5155 Y12.6557 I10.0 J0.0
G2 X26.198 Y15.1557 I9.6825 J2.4999
G1 Y15.3119
G1 X10.0 Y15.3121
G1 Y12.912
G1 F50.0 X8.4
G1 F120.0 Y8.4003
G1 X27.798 Y8.4001
G1 Y10.1558
G2 X28.1786 Y12.6557 I8.4 J0.0
G2 X27.798 Y15.1557 I8.0194 J2.4999
G1 Y16.9119
G1 X8.4 Y16.9121
G1 Y12.912
G1 F50.0 X6.8
G1 F120.0 Y6.8003
G1 X29.398 Y6.8001
G1 Y10.1558
G2 X29.8742 Y12.6557 I6.8 J0.0
G2 X29.398 Y15.1557 I6.3238 J2.4999
G1 Y18.5119
G1 X6.8 Y18.5121
G1 Y12.912
G1 F50.0 X5.2
G1 F120.0 Y5.2003
G1 X30.998 Y5.2
G1 Y10.1558
G2 X31.6383 Y12.6557 I5.2 J0.0
G2 X30.998 Y15.1557 I4.5596 J2.4999
G1 Y20.1119
G1 X5.2 Y20.1121
G1 Y12.912
G1 F50.0 X3.6
G1 F120.0 Y3.6003
G1 X32.598 Y3.6
G1 Y10.1558
G2 X33.6075 Y12.6557 I3.6 J0.0
G2 X32.598 Y15.1557 I2.5904 J2.4999
G1 Y21.7118
G1 X3.6 Y21.7121
G1 Y12.912
G1 F50.0 X2.0
G1 F120.0 Y2.0003
G1 X34.198 Y2.0
G1 Y10.1558
G2 X36.1979 Y12.1558 I2.0 J0.0
G1 X59.6772 Y12.1561
G1 Y13.156
G1 X36.198 Y13.1557
G2 X34.198 Y15.1557 I0.0 J2.0
G1 Y23.3118
G1 X2.0 Y23.3121
G1 Y12.912
G0 Z3.0
G0 X12.4
G0 Z0.0
G1 F50.0 Z-2.0
G1 F120.0 Y12.4002
G1 X24.0028 Y12.4001
G2 X24.0526 Y12.6557 I12.1952 J-2.2443
G2 X24.0027 Y12.9119 I12.1454 J2.4999
G1 X12.4 Y12.912
G1 F50.0 X11.6
G1 F120.0 Y11.6002
G1 X24.6882 Y11.6001
G2 X24.8705 Y12.6557 I11.5097 J-1.4443
G2 X24.6882 Y13.7119 I11.3274 J2.4999
G1 X11.6 Y13.712
G1 Y12.912
G1 F50.0 X10.0
G1 F120.0 Y10.0002
G1 X26.198 Y10.0001
G1 Y10.1558
G2 X26.5155 Y12.6557 I10.0 J0.0
G2 X26.198 Y15.1557 I9.6825 J2.4999
G1 Y15.3119
G1 X10.0 Y15.3121
G1 Y12.912
G1 F50.0 X8.4
G1 F120.0 Y8.4003
G1 X27.798 Y8.4001
G1 Y10.1558
G2 X28.1786 Y12.6557 I8.4 J0.0
G2 X27.798 Y15.1557 I8.0194 J2.4999
G1 Y16.9119
G1 X8.4 Y16.9121
G1 Y12.912
G1 F50.0 X6.8
G1 F120.0 Y6.8003
G1 X29.398 Y6.8001
G1 Y10.1558
G2 X29.8742 Y12.6557 I6.8 J0.0
G2 X29.398 Y15.1557 I6.3238 J2.4999
G1 Y18.5119
G1 X6.8 Y18.5121
G1 Y12.912
G1 F50.0 X5.2
G1 F120.0 Y5.2003
G1 X30.998 Y5.2
G1 Y10.1558
G2 X31.6383 Y12.6557 I5.2 J0.0
G2 X30.998 Y15.1557 I4.5596 J2.4999
G1 Y20.1119
G1 X5.2 Y20.1121
G1 Y12.912
G1 F50.0 X3.6
G1 F120.0 Y3.6003
G1 X32.598 Y3.6
G1 Y10.1558
G2 X33.6075 Y12.6557 I3.6 J0.0
G2 X32.598 Y15.1557 I2.5904 J2.4999
G1 Y21.7118
G1 X3.6 Y21.7121
G1 Y12.912
G1 F50.0 X2.0
G1 F120.0 Y2.0003
G1 X34.198 Y2.0
G1 Y10.1558
G2 X36.1979 Y12.1558 I2.0 J0.0
G1 X59.6772 Y12.1561
G1 Y13.156
G1 X36.198 Y13.1557
G2 X34.198 Y15.1557 I0.0 J2.0
G1 Y23.3118
G1 X2.0 Y23.3121
G1 Y12.912
G0 Z3.0
G0 X12.4
G0 Z-1.0
G1 F50.0 Z-3.0
G1 F120.0 Y12.4002
G1 X24.0028 Y12.4001
G2 X24.0526 Y12.6557 I12.1952 J-2.2443
G2 X24.0027 Y12.9119 I12.1454 J2.4999
G1 X12.4 Y12.912
G1 F50.0 X11.6
G1 F120.0 Y11.6002
G1 X24.6882 Y11.6001
G2 X24.8705 Y12.6557 I11.5097 J-1.4443
G2 X24.6882 Y13.7119 I11.3274 J2.4999
G1 X11.6 Y13.712
G1 Y12.912
G1 F50.0 X10.0
G1 F120.0 Y10.0002
G1 X26.198 Y10.0001
G1 Y10.1558
G2 X26.5155 Y12.6557 I10.0 J0.0
G2 X26.198 Y15.1557 I9.6825 J2.4999
G1 Y15.3119
G1 X10.0 Y15.3121
G1 Y12.912
G1 F50.0 X8.4
G1 F120.0 Y8.4003
G1 X27.798 Y8.4001
G1 Y10.1558
G2 X28.1786 Y12.6557 I8.4 J0.0
G2 X27.798 Y15.1557 I8.0194 J2.4999
G1 Y16.9119
G1 X8.4 Y16.9121
G1 Y12.912
G1 F50.0 X6.8
G1 F120.0 Y6.8003
G1 X29.398 Y6.8001
G1 Y10.1558
G2 X29.8742 Y12.6557 I6.8 J0.0
G2 X29.398 Y15.1557 I6.3238 J2.4999
G1 Y18.5119
G1 X6.8 Y18.5121
G1 Y12.912
G1 F50.0 X5.2
G1 F120.0 Y5.2003
G1 X30.998 Y5.2
G1 Y10.1558
G2 X31.6383 Y12.6557 I5.2 J0.0
G2 X30.998 Y15.1557 I4.5596 J2.4999
G1 Y20.1119
G1 X5.2 Y20.1121
G1 Y12.912
G1 F50.0 X3.6
G1 F120.0 Y3.6003
G1 X32.598 Y3.6
G1 Y10.1558
G2 X33.6075 Y12.6557 I3.6 J0.0
G2 X32.598 Y15.1557 I2.5904 J2.4999
G1 Y21.7118
G1 X3.6 Y21.7121
G1 Y12.912
G1 F50.0 X2.0
G1 F120.0 Y2.0003
G1 X34.198 Y2.0
G1 Y10.1558
G2 X36.1979 Y12.1558 I2.0 J0.0
G1 X59.6772 Y12.1561
G1 Y13.156
G1 X36.198 Y13.1557
G2 X34.198 Y15.1557 I0.0 J2.0
G1 Y23.3118
G1 X2.0 Y23.3121
G1 Y12.912
G0 Z3.0
G0 X12.4
G0 Z-2.0
G1 F50.0 Z-4.0
G1 F120.0 Y12.4002
G1 X24.0028 Y12.4001
G2 X24.0526 Y12.6557 I12.1952 J-2.2443
G2 X24.0027 Y12.9119 I12.1454 J2.4999
G1 X12.4 Y12.912
G1 F50.0 X11.6
G1 F120.0 Y11.6002
G1 X24.6882 Y11.6001
G2 X24.8705 Y12.6557 I11.5097 J-1.4443
G2 X24.6882 Y13.7119 I11.3274 J2.4999
G1 X11.6 Y13.712
G1 Y12.912
G1 F50.0 X10.0
G1 F120.0 Y10.0002
G1 X26.198 Y10.0001
G1 Y10.1558
G2 X26.5155 Y12.6557 I10.0 J0.0
G2 X26.198 Y15.1557 I9.6825 J2.4999
G1 Y15.3119
G1 X10.0 Y15.3121
G1 Y12.912
G1 F50.0 X8.4
G1 F120.0 Y8.4003
G1 X27.798 Y8.4001
G1 Y10.1558
G2 X28.1786 Y12.6557 I8.4 J0.0
G2 X27.798 Y15.1557 I8.0194 J2.4999
G1 Y16.9119
G1 X8.4 Y16.9121
G1 Y12.912
G1 F50.0 X6.8
G1 F120.0 Y6.8003
G1 X29.398 Y6.8001
G1 Y10.1558
G2 X29.8742 Y12.6557 I6.8 J0.0
G2 X29.398 Y15.1557 I6.3238 J2.4999
G1 Y18.5119
G1 X6.8 Y18.5121
G1 Y12.912
G1 F50.0 X5.2
G1 F120.0 Y5.2003
G1 X30.998 Y5.2
G1 Y10.1558
G2 X31.6383 Y12.6557 I5.2 J0.0
G2 X30.998 Y15.1557 I4.5596 J2.4999
G1 Y20.1119
G1 X5.2 Y20.1121
G1 Y12.912
G1 F50.0 X3.6
G1 F120.0 Y3.6003
G1 X32.598 Y3.6
G1 Y10.1558
G2 X33.6075 Y12.6557 I3.6 J0.0
G2 X32.598 Y15.1557 I2.5904 J2.4999
G1 Y21.7118
G1 X3.6 Y21.7121
G1 Y12.912
G1 F50.0 X2.0
G1 F120.0 Y2.0003
G1 X34.198 Y2.0
G1 Y10.1558
G2 X36.1979 Y12.1558 I2.0 J0.0
G1 X59.6772 Y12.1561
G1 Y13.156
G1 X36.198 Y13.1557
G2 X34.198 Y15.1557 I0.0 J2.0
G1 Y23.3118
G1 X2.0 Y23.3121
G1 Y12.912
G0 Z3.0
G0 X12.4
G0 Z-3.0
G1 F50.0 Z-5.0
G1 F120.0 Y12.4002
G1 X24.0028 Y12.4001
G2 X24.0526 Y12.6557 I12.1952 J-2.2443
G2 X24.0027 Y12.9119 I12.1454 J2.4999
G1 X12.4 Y12.912
G1 F50.0 X11.6
G1 F120.0 Y11.6002
G1 X24.6882 Y11.6001
G2 X24.8705 Y12.6557 I11.5097 J-1.4443
G2 X24.6882 Y13.7119 I11.3274 J2.4999
G1 X11.6 Y13.712
G1 Y12.912
G1 F50.0 X10.0
G1 F120.0 Y10.0002
G1 X26.198 Y10.0001
G1 Y10.1558
G2 X26.5155 Y12.6557 I10.0 J0.0
G2 X26.198 Y15.1557 I9.6825 J2.4999
G1 Y15.3119
G1 X10.0 Y15.3121
G1 Y12.912
G1 F50.0 X8.4
G1 F120.0 Y8.4003
G1 X27.798 Y8.4001
G1 Y10.1558
G2 X28.1786 Y12.6557 I8.4 J0.0
G2 X27.798 Y15.1557 I8.0194 J2.4999
G1 Y16.9119
G1 X8.4 Y16.9121
G1 Y12.912
G1 F50.0 X6.8
G1 F120.0 Y6.8003
G1 X29.398 Y6.8001
G1 Y10.1558
G2 X29.8742 Y12.6557 I6.8 J0.0
G2 X29.398 Y15.1557 I6.3238 J2.4999
G1 Y18.5119
G1 X6.8 Y18.5121
G1 Y12.912
G1 F50.0 X5.2
G1 F120.0 Y5.2003
G1 X30.998 Y5.2
G1 Y10.1558
G2 X31.6383 Y12.6557 I5.2 J0.0
G2 X30.998 Y15.1557 I4.5596 J2.4999
G1 Y20.1119
G1 X5.2 Y20.1121
G1 Y12.912
G1 F50.0 X3.6
G1 F120.0 Y3.6003
G1 X32.598 Y3.6
G1 Y10.1558
G2 X33.6075 Y12.6557 I3.6 J0.0
G2 X32.598 Y15.1557 I2.5904 J2.4999
G1 Y21.7118
G1 X3.6 Y21.7121
G1 Y12.912
G1 F50.0 X2.0
G1 F120.0 Y2.0003
G1 X34.198 Y2.0
G1 Y10.1558
G2 X36.1979 Y12.1558 I2.0 J0.0
G1 X59.6772 Y12.1561
G1 Y13.156
G1 X36.198 Y13.1557
G2 X34.198 Y15.1557 I0.0 J2.0
G1 Y23.3118
G1 X2.0 Y23.3121
G1 Y12.912
G0 Z3.0
M5
M30
