( Made using CamBam - http://www.cambam.co.uk )
( head face plate 9/27/2013 6:11:20 PM )
( T4 : 4.0 )
G21 G90 G64 G40
G0 Z3.0
( T4 : 4.0 )
T4 M6
( Profile1 )
G17
M3 S1000
G0 X57.5576 Y21.0591
G0 Z1.0
G1 F50.0 Z-1.0
G1 F120.0 X37.5577
G2 X35.5577 Y23.0591 I0.0 J2.0
G1 Y30.4099
G2 X35.5578 Y30.4217 I2.0 J0.0
G2 X35.9586 Y32.5671 I6.137 J-0.0364
G2 X35.9593 Y32.5691 I1.8694 J-0.711
G2 X36.9623 Y34.3583 I6.5693 J-2.5069
G2 X37.8215 Y35.3161 I6.6066 J-5.0619
G2 X37.8299 Y35.3241 I1.3811 J-1.4466
G1 X37.922 Y35.411
G2 X37.9482 Y35.4353 I1.3727 J-1.4545
G1 X38.0448 Y35.5233
G2 X38.0636 Y35.5401 I1.3465 J-1.4788
G2 X38.6321 Y36.01 I6.9342 J-7.8113
G2 X38.638 Y36.0145 I1.2189 J-1.5857
G2 X40.2658 Y37.0454 I6.7178 J-8.807
G1 X40.3544 Y37.0913
G2 X40.3719 Y37.1003 I0.9201 J-1.7758
G2 X41.3349 Y37.5438 I6.5402 J-12.9325
G2 X41.3483 Y37.5493 I0.7697 J-1.846
G2 X44.0016 Y38.3591 I5.7348 J-14.0393
G2 X47.5583 Y38.7213 I3.5272 J-16.993
G2 X50.0312 Y38.5487 I0.0155 J-17.5871
G2 X52.4825 Y38.008 I-2.2395 J-15.9786
G2 X54.083 Y37.4144 I-4.0795 J-13.4541
G2 X56.1281 Y36.2701 I-4.813 J-11.0013
G2 X56.3945 Y36.0772 I-4.4651 J-6.4453
G2 X57.4902 Y35.1218 I-5.7464 J-7.6962
G2 X58.5926 Y33.7174 I-5.5715 J-5.5086
G2 X58.5952 Y33.7132 I-1.7036 J-1.0477
G2 X59.0554 Y32.8203 I-5.8743 J-3.5924
G2 X59.5568 Y30.426 I-5.7047 J-2.4443
G2 X59.5569 Y30.41 I-1.9999 J-0.0161
G1 X59.5576 Y23.0592
G2 X57.5576 Y21.0591 I-2.0 J-0.0002
G1 F50.0 Z-2.0
G1 F120.0 X37.5577
G2 X35.5577 Y23.0591 I0.0 J2.0
G1 Y30.4099
G2 X35.5578 Y30.4217 I2.0 J0.0
G2 X35.9586 Y32.5671 I6.137 J-0.0364
G2 X35.9593 Y32.5691 I1.8694 J-0.711
G2 X36.9623 Y34.3583 I6.5693 J-2.5069
G2 X37.8215 Y35.3161 I6.6066 J-5.0619
G2 X37.8299 Y35.3241 I1.3811 J-1.4466
G1 X37.922 Y35.411
G2 X37.9482 Y35.4353 I1.3727 J-1.4545
G1 X38.0448 Y35.5233
G2 X38.0636 Y35.5401 I1.3465 J-1.4788
G2 X38.6321 Y36.01 I6.9342 J-7.8113
G2 X38.638 Y36.0145 I1.2189 J-1.5857
G2 X40.2658 Y37.0454 I6.7178 J-8.807
G1 X40.3544 Y37.0913
G2 X40.3719 Y37.1003 I0.9201 J-1.7758
G2 X41.3349 Y37.5438 I6.5402 J-12.9325
G2 X41.3483 Y37.5493 I0.7697 J-1.846
G2 X44.0016 Y38.3591 I5.7348 J-14.0393
G2 X47.5583 Y38.7213 I3.5272 J-16.993
G2 X50.0312 Y38.5487 I0.0155 J-17.5871
G2 X52.4825 Y38.008 I-2.2395 J-15.9786
G2 X54.083 Y37.4144 I-4.0795 J-13.4541
G2 X56.1281 Y36.2701 I-4.813 J-11.0013
G2 X56.3945 Y36.0772 I-4.4651 J-6.4453
G2 X57.4902 Y35.1218 I-5.7464 J-7.6962
G2 X58.5926 Y33.7174 I-5.5715 J-5.5086
G2 X58.5952 Y33.7132 I-1.7036 J-1.0477
G2 X59.0554 Y32.8203 I-5.8743 J-3.5924
G2 X59.5568 Y30.426 I-5.7047 J-2.4443
G2 X59.5569 Y30.41 I-1.9999 J-0.0161
G1 X59.5576 Y23.0592
G2 X57.5576 Y21.0591 I-2.0 J-0.0002
G1 F50.0 Z-3.0
G1 F120.0 X37.5577
G2 X35.5577 Y23.0591 I0.0 J2.0
G1 Y30.4099
G2 X35.5578 Y30.4217 I2.0 J0.0
G2 X35.9586 Y32.5671 I6.137 J-0.0364
G2 X35.9593 Y32.5691 I1.8694 J-0.711
G2 X36.9623 Y34.3583 I6.5693 J-2.5069
G2 X37.8215 Y35.3161 I6.6066 J-5.0619
G2 X37.8299 Y35.3241 I1.3811 J-1.4466
G1 X37.922 Y35.411
G2 X37.9482 Y35.4353 I1.3727 J-1.4545
G1 X38.0448 Y35.5233
G2 X38.0636 Y35.5401 I1.3465 J-1.4788
G2 X38.6321 Y36.01 I6.9342 J-7.8113
G2 X38.638 Y36.0145 I1.2189 J-1.5857
G2 X40.2658 Y37.0454 I6.7178 J-8.807
G1 X40.3544 Y37.0913
G2 X40.3719 Y37.1003 I0.9201 J-1.7758
G2 X41.3349 Y37.5438 I6.5402 J-12.9325
G2 X41.3483 Y37.5493 I0.7697 J-1.846
G2 X44.0016 Y38.3591 I5.7348 J-14.0393
G2 X47.5583 Y38.7213 I3.5272 J-16.993
G2 X50.0312 Y38.5487 I0.0155 J-17.5871
G2 X52.4825 Y38.008 I-2.2395 J-15.9786
G2 X54.083 Y37.4144 I-4.0795 J-13.4541
G2 X56.1281 Y36.2701 I-4.813 J-11.0013
G2 X56.3945 Y36.0772 I-4.4651 J-6.4453
G2 X57.4902 Y35.1218 I-5.7464 J-7.6962
G2 X58.5926 Y33.7174 I-5.5715 J-5.5086
G2 X58.5952 Y33.7132 I-1.7036 J-1.0477
G2 X59.0554 Y32.8203 I-5.8743 J-3.5924
G2 X59.5568 Y30.426 I-5.7047 J-2.4443
G2 X59.5569 Y30.41 I-1.9999 J-0.0161
G1 X59.5576 Y23.0592
G2 X57.5576 Y21.0591 I-2.0 J-0.0002
G1 F50.0 Z-4.0
G1 F120.0 X37.5577
G2 X35.5577 Y23.0591 I0.0 J2.0
G1 Y30.4099
G2 X35.5578 Y30.4217 I2.0 J0.0
G2 X35.9586 Y32.5671 I6.137 J-0.0364
G2 X35.9593 Y32.5691 I1.8694 J-0.711
G2 X36.9623 Y34.3583 I6.5693 J-2.5069
G2 X37.8215 Y35.3161 I6.6066 J-5.0619
G2 X37.8299 Y35.3241 I1.3811 J-1.4466
G1 X37.922 Y35.411
G2 X37.9482 Y35.4353 I1.3727 J-1.4545
G1 X38.0448 Y35.5233
G2 X38.0636 Y35.5401 I1.3465 J-1.4788
G2 X38.6321 Y36.01 I6.9342 J-7.8113
G2 X38.638 Y36.0145 I1.2189 J-1.5857
G2 X40.2658 Y37.0454 I6.7178 J-8.807
G1 X40.3544 Y37.0913
G2 X40.3719 Y37.1003 I0.9201 J-1.7758
G2 X41.3349 Y37.5438 I6.5402 J-12.9325
G2 X41.3483 Y37.5493 I0.7697 J-1.846
G2 X44.0016 Y38.3591 I5.7348 J-14.0393
G2 X47.5583 Y38.7213 I3.5272 J-16.993
G2 X50.0312 Y38.5487 I0.0155 J-17.5871
G2 X52.4825 Y38.008 I-2.2395 J-15.9786
G2 X54.083 Y37.4144 I-4.0795 J-13.4541
G2 X56.1281 Y36.2701 I-4.813 J-11.0013
G2 X56.3945 Y36.0772 I-4.4651 J-6.4453
G2 X57.4902 Y35.1218 I-5.7464 J-7.6962
G2 X58.5926 Y33.7174 I-5.5715 J-5.5086
G2 X58.5952 Y33.7132 I-1.7036 J-1.0477
G2 X59.0554 Y32.8203 I-5.8743 J-3.5924
G2 X59.5568 Y30.426 I-5.7047 J-2.4443
G2 X59.5569 Y30.41 I-1.9999 J-0.0161
G1 X59.5576 Y23.0592
G2 X57.5576 Y21.0591 I-2.0 J-0.0002
G1 F50.0 Z-5.0
G1 F120.0 X37.5577
G2 X35.5577 Y23.0591 I0.0 J2.0
G1 Y30.4099
G2 X35.5578 Y30.4217 I2.0 J0.0
G2 X35.9586 Y32.5671 I6.137 J-0.0364
G2 X35.9593 Y32.5691 I1.8694 J-0.711
G2 X36.9623 Y34.3583 I6.5693 J-2.5069
G2 X37.8215 Y35.3161 I6.6066 J-5.0619
G2 X37.8299 Y35.3241 I1.3811 J-1.4466
G1 X37.922 Y35.411
G2 X37.9482 Y35.4353 I1.3727 J-1.4545
G1 X38.0448 Y35.5233
G2 X38.0636 Y35.5401 I1.3465 J-1.4788
G2 X38.6321 Y36.01 I6.9342 J-7.8113
G2 X38.638 Y36.0145 I1.2189 J-1.5857
G2 X40.2658 Y37.0454 I6.7178 J-8.807
G1 X40.3544 Y37.0913
G2 X40.3719 Y37.1003 I0.9201 J-1.7758
G2 X41.3349 Y37.5438 I6.5402 J-12.9325
G2 X41.3483 Y37.5493 I0.7697 J-1.846
G2 X44.0016 Y38.3591 I5.7348 J-14.0393
G2 X47.5583 Y38.7213 I3.5272 J-16.993
G2 X50.0312 Y38.5487 I0.0155 J-17.5871
G2 X52.4825 Y38.008 I-2.2395 J-15.9786
G2 X54.083 Y37.4144 I-4.0795 J-13.4541
G2 X56.1281 Y36.2701 I-4.813 J-11.0013
G2 X56.3945 Y36.0772 I-4.4651 J-6.4453
G2 X57.4902 Y35.1218 I-5.7464 J-7.6962
G2 X58.5926 Y33.7174 I-5.5715 J-5.5086
G2 X58.5952 Y33.7132 I-1.7036 J-1.0477
G2 X59.0554 Y32.8203 I-5.8743 J-3.5924
G2 X59.5568 Y30.426 I-5.7047 J-2.4443
G2 X59.5569 Y30.41 I-1.9999 J-0.0161
G1 X59.5576 Y23.0592
G2 X57.5576 Y21.0591 I-2.0 J-0.0002
G1 F50.0 Z-6.0
G1 F120.0 X37.5577
G2 X35.5577 Y23.0591 I0.0 J2.0
G1 Y30.4099
G2 X35.5578 Y30.4217 I2.0 J0.0
G2 X35.9586 Y32.5671 I6.137 J-0.0364
G2 X35.9593 Y32.5691 I1.8694 J-0.711
G2 X36.9623 Y34.3583 I6.5693 J-2.5069
G2 X37.8215 Y35.3161 I6.6066 J-5.0619
G2 X37.8299 Y35.3241 I1.3811 J-1.4466
G1 X37.922 Y35.411
G2 X37.9482 Y35.4353 I1.3727 J-1.4545
G1 X38.0448 Y35.5233
G2 X38.0636 Y35.5401 I1.3465 J-1.4788
G2 X38.6321 Y36.01 I6.9342 J-7.8113
G2 X38.638 Y36.0145 I1.2189 J-1.5857
G2 X40.2658 Y37.0454 I6.7178 J-8.807
G1 X40.3544 Y37.0913
G2 X40.3719 Y37.1003 I0.9201 J-1.7758
G2 X41.3349 Y37.5438 I6.5402 J-12.9325
G2 X41.3483 Y37.5493 I0.7697 J-1.846
G2 X44.0016 Y38.3591 I5.7348 J-14.0393
G2 X47.5583 Y38.7213 I3.5272 J-16.993
G2 X50.0312 Y38.5487 I0.0155 J-17.5871
G2 X52.4825 Y38.008 I-2.2395 J-15.9786
G2 X54.083 Y37.4144 I-4.0795 J-13.4541
G2 X56.1281 Y36.2701 I-4.813 J-11.0013
G2 X56.3945 Y36.0772 I-4.4651 J-6.4453
G2 X57.4902 Y35.1218 I-5.7464 J-7.6962
G2 X58.5926 Y33.7174 I-5.5715 J-5.5086
G2 X58.5952 Y33.7132 I-1.7036 J-1.0477
G2 X59.0554 Y32.8203 I-5.8743 J-3.5924
G2 X59.5568 Y30.426 I-5.7047 J-2.4443
G2 X59.5569 Y30.41 I-1.9999 J-0.0161
G1 X59.5576 Y23.0592
G2 X57.5576 Y21.0591 I-2.0 J-0.0002
G1 F50.0 Z-7.0
G1 F120.0 X37.5577
G2 X35.5577 Y23.0591 I0.0 J2.0
G1 Y30.4099
G2 X35.5578 Y30.4217 I2.0 J0.0
G2 X35.9586 Y32.5671 I6.137 J-0.0364
G2 X35.9593 Y32.5691 I1.8694 J-0.711
G2 X36.9623 Y34.3583 I6.5693 J-2.5069
G2 X37.8215 Y35.3161 I6.6066 J-5.0619
G2 X37.8299 Y35.3241 I1.3811 J-1.4466
G1 X37.922 Y35.411
G2 X37.9482 Y35.4353 I1.3727 J-1.4545
G1 X38.0448 Y35.5233
G2 X38.0636 Y35.5401 I1.3465 J-1.4788
G2 X38.6321 Y36.01 I6.9342 J-7.8113
G2 X38.638 Y36.0145 I1.2189 J-1.5857
G2 X40.2658 Y37.0454 I6.7178 J-8.807
G1 X40.3544 Y37.0913
G2 X40.3719 Y37.1003 I0.9201 J-1.7758
G2 X41.3349 Y37.5438 I6.5402 J-12.9325
G2 X41.3483 Y37.5493 I0.7697 J-1.846
G2 X44.0016 Y38.3591 I5.7348 J-14.0393
G2 X47.5583 Y38.7213 I3.5272 J-16.993
G2 X50.0312 Y38.5487 I0.0155 J-17.5871
G2 X52.4825 Y38.008 I-2.2395 J-15.9786
G2 X54.083 Y37.4144 I-4.0795 J-13.4541
G2 X56.1281 Y36.2701 I-4.813 J-11.0013
G2 X56.3945 Y36.0772 I-4.4651 J-6.4453
G2 X57.4902 Y35.1218 I-5.7464 J-7.6962
G2 X58.5926 Y33.7174 I-5.5715 J-5.5086
G2 X58.5952 Y33.7132 I-1.7036 J-1.0477
G2 X59.0554 Y32.8203 I-5.8743 J-3.5924
G2 X59.5568 Y30.426 I-5.7047 J-2.4443
G2 X59.5569 Y30.41 I-1.9999 J-0.0161
G1 X59.5576 Y23.0592
G2 X57.5576 Y21.0591 I-2.0 J-0.0002
G1 F50.0 Z-8.0
G1 F120.0 X37.5577
G2 X35.5577 Y23.0591 I0.0 J2.0
G1 Y30.4099
G2 X35.5578 Y30.4217 I2.0 J0.0
G2 X35.9586 Y32.5671 I6.137 J-0.0364
G2 X35.9593 Y32.5691 I1.8694 J-0.711
G2 X36.9623 Y34.3583 I6.5693 J-2.5069
G2 X37.8215 Y35.3161 I6.6066 J-5.0619
G2 X37.8299 Y35.3241 I1.3811 J-1.4466
G1 X37.922 Y35.411
G2 X37.9482 Y35.4353 I1.3727 J-1.4545
G1 X38.0448 Y35.5233
G2 X38.0636 Y35.5401 I1.3465 J-1.4788
G2 X38.6321 Y36.01 I6.9342 J-7.8113
G2 X38.638 Y36.0145 I1.2189 J-1.5857
G2 X40.2658 Y37.0454 I6.7178 J-8.807
G1 X40.3544 Y37.0913
G2 X40.3719 Y37.1003 I0.9201 J-1.7758
G2 X41.3349 Y37.5438 I6.5402 J-12.9325
G2 X41.3483 Y37.5493 I0.7697 J-1.846
G2 X44.0016 Y38.3591 I5.7348 J-14.0393
G2 X47.5583 Y38.7213 I3.5272 J-16.993
G2 X50.0312 Y38.5487 I0.0155 J-17.5871
G2 X52.4825 Y38.008 I-2.2395 J-15.9786
G2 X54.083 Y37.4144 I-4.0795 J-13.4541
G2 X56.1281 Y36.2701 I-4.813 J-11.0013
G2 X56.3945 Y36.0772 I-4.4651 J-6.4453
G2 X57.4902 Y35.1218 I-5.7464 J-7.6962
G2 X58.5926 Y33.7174 I-5.5715 J-5.5086
G2 X58.5952 Y33.7132 I-1.7036 J-1.0477
G2 X59.0554 Y32.8203 I-5.8743 J-3.5924
G2 X59.5568 Y30.426 I-5.7047 J-2.4443
G2 X59.5569 Y30.41 I-1.9999 J-0.0161
G1 X59.5576 Y23.0592
G2 X57.5576 Y21.0591 I-2.0 J-0.0002
G1 F50.0 Z-9.0
G1 F120.0 X37.5577
G2 X35.5577 Y23.0591 I0.0 J2.0
G1 Y30.4099
G2 X35.5578 Y30.4217 I2.0 J0.0
G2 X35.9586 Y32.5671 I6.137 J-0.0364
G2 X35.9593 Y32.5691 I1.8694 J-0.711
G2 X36.9623 Y34.3583 I6.5693 J-2.5069
G2 X37.8215 Y35.3161 I6.6066 J-5.0619
G2 X37.8299 Y35.3241 I1.3811 J-1.4466
G1 X37.922 Y35.411
G2 X37.9482 Y35.4353 I1.3727 J-1.4545
G1 X38.0448 Y35.5233
G2 X38.0636 Y35.5401 I1.3465 J-1.4788
G2 X38.6321 Y36.01 I6.9342 J-7.8113
G2 X38.638 Y36.0145 I1.2189 J-1.5857
G2 X40.2658 Y37.0454 I6.7178 J-8.807
G1 X40.3544 Y37.0913
G2 X40.3719 Y37.1003 I0.9201 J-1.7758
G2 X41.3349 Y37.5438 I6.5402 J-12.9325
G2 X41.3483 Y37.5493 I0.7697 J-1.846
G2 X44.0016 Y38.3591 I5.7348 J-14.0393
G2 X47.5583 Y38.7213 I3.5272 J-16.993
G2 X50.0312 Y38.5487 I0.0155 J-17.5871
G2 X52.4825 Y38.008 I-2.2395 J-15.9786
G2 X54.083 Y37.4144 I-4.0795 J-13.4541
G2 X56.1281 Y36.2701 I-4.813 J-11.0013
G2 X56.3945 Y36.0772 I-4.4651 J-6.4453
G2 X57.4902 Y35.1218 I-5.7464 J-7.6962
G2 X58.5926 Y33.7174 I-5.5715 J-5.5086
G2 X58.5952 Y33.7132 I-1.7036 J-1.0477
G2 X59.0554 Y32.8203 I-5.8743 J-3.5924
G2 X59.5568 Y30.426 I-5.7047 J-2.4443
G2 X59.5569 Y30.41 I-1.9999 J-0.0161
G1 X59.5576 Y23.0592
G2 X57.5576 Y21.0591 I-2.0 J-0.0002
G1 F50.0 Z-10.0
G1 F120.0 X37.5577
G2 X35.5577 Y23.0591 I0.0 J2.0
G1 Y30.4099
G2 X35.5578 Y30.4217 I2.0 J0.0
G2 X35.9586 Y32.5671 I6.137 J-0.0364
G2 X35.9593 Y32.5691 I1.8694 J-0.711
G2 X36.9623 Y34.3583 I6.5693 J-2.5069
G2 X37.8215 Y35.3161 I6.6066 J-5.0619
G2 X37.8299 Y35.3241 I1.3811 J-1.4466
G1 X37.922 Y35.411
G2 X37.9482 Y35.4353 I1.3727 J-1.4545
G1 X38.0448 Y35.5233
G2 X38.0636 Y35.5401 I1.3465 J-1.4788
G2 X38.6321 Y36.01 I6.9342 J-7.8113
G2 X38.638 Y36.0145 I1.2189 J-1.5857
G2 X40.2658 Y37.0454 I6.7178 J-8.807
G1 X40.3544 Y37.0913
G2 X40.3719 Y37.1003 I0.9201 J-1.7758
G2 X41.3349 Y37.5438 I6.5402 J-12.9325
G2 X41.3483 Y37.5493 I0.7697 J-1.846
G2 X44.0016 Y38.3591 I5.7348 J-14.0393
G2 X47.5583 Y38.7213 I3.5272 J-16.993
G2 X50.0312 Y38.5487 I0.0155 J-17.5871
G2 X52.4825 Y38.008 I-2.2395 J-15.9786
G2 X54.083 Y37.4144 I-4.0795 J-13.4541
G2 X56.1281 Y36.2701 I-4.813 J-11.0013
G2 X56.3945 Y36.0772 I-4.4651 J-6.4453
G2 X57.4902 Y35.1218 I-5.7464 J-7.6962
G2 X58.5926 Y33.7174 I-5.5715 J-5.5086
G2 X58.5952 Y33.7132 I-1.7036 J-1.0477
G2 X59.0554 Y32.8203 I-5.8743 J-3.5924
G2 X59.5568 Y30.426 I-5.7047 J-2.4443
G2 X59.5569 Y30.41 I-1.9999 J-0.0161
G1 X59.5576 Y23.0592
G2 X57.5576 Y21.0591 I-2.0 J-0.0002
G1 F50.0 Z-11.0
G1 F120.0 X37.5577
G2 X35.5577 Y23.0591 I0.0 J2.0
G1 Y30.4099
G2 X35.5578 Y30.4217 I2.0 J0.0
G2 X35.9586 Y32.5671 I6.137 J-0.0364
G2 X35.9593 Y32.5691 I1.8694 J-0.711
G2 X36.9623 Y34.3583 I6.5693 J-2.5069
G2 X37.8215 Y35.3161 I6.6066 J-5.0619
G2 X37.8299 Y35.3241 I1.3811 J-1.4466
G1 X37.922 Y35.411
G2 X37.9482 Y35.4353 I1.3727 J-1.4545
G1 X38.0448 Y35.5233
G2 X38.0636 Y35.5401 I1.3465 J-1.4788
G2 X38.6321 Y36.01 I6.9342 J-7.8113
G2 X38.638 Y36.0145 I1.2189 J-1.5857
G2 X40.2658 Y37.0454 I6.7178 J-8.807
G1 X40.3544 Y37.0913
G2 X40.3719 Y37.1003 I0.9201 J-1.7758
G2 X41.3349 Y37.5438 I6.5402 J-12.9325
G2 X41.3483 Y37.5493 I0.7697 J-1.846
G2 X44.0016 Y38.3591 I5.7348 J-14.0393
G2 X47.5583 Y38.7213 I3.5272 J-16.993
G2 X50.0312 Y38.5487 I0.0155 J-17.5871
G2 X52.4825 Y38.008 I-2.2395 J-15.9786
G2 X54.083 Y37.4144 I-4.0795 J-13.4541
G2 X56.1281 Y36.2701 I-4.813 J-11.0013
G2 X56.3945 Y36.0772 I-4.4651 J-6.4453
G2 X57.4902 Y35.1218 I-5.7464 J-7.6962
G2 X58.5926 Y33.7174 I-5.5715 J-5.5086
G2 X58.5952 Y33.7132 I-1.7036 J-1.0477
G2 X59.0554 Y32.8203 I-5.8743 J-3.5924
G2 X59.5568 Y30.426 I-5.7047 J-2.4443
G2 X59.5569 Y30.41 I-1.9999 J-0.0161
G1 X59.5576 Y23.0592
G2 X57.5576 Y21.0591 I-2.0 J-0.0002
( Profile2 )
S1000
G0 Z3.0
G0 X33.0868 Y22.6556
G0 Z1.0
G1 F50.0 Z-1.0
G1 F120.0 Y19.6536
G1 X60.8956 Y19.6136
G1 X66.215 Y25.0549
G2 X67.6451 Y25.6568 I1.4301 J-1.3981
G1 X91.4239
G2 X93.4239 Y23.6568 I0.0 J-2.0
G1 Y19.7566
G2 X91.4239 Y17.7566 I-2.0 J0.0
G1 X77.7399
G1 X74.8486 Y14.9257
G1 Y10.4268
G1 X77.7467 Y7.5559
G1 X91.4239
G2 X93.4239 Y5.5559 I0.0 J-2.0
G1 Y1.6557
G2 X91.4239 Y-0.3443 I-2.0 J0.0
G1 X67.6451
G2 X66.2253 Y0.2471 I0.0 J2.0
G1 X60.9018 Y5.6131
G1 X33.0865 Y5.6532
G1 Y2.6558
G2 X31.0865 Y0.6558 I-2.0 J0.0
G1 X21.0864
G2 X19.0864 Y2.6558 I0.0 J2.0
G1 Y5.656
G1 X6.5751 Y5.6557
G2 X1.6236 Y7.7064 I-0.0088 J6.982
G2 X-0.4263 Y12.6561 I4.9349 J4.9431
G2 X1.6239 Y17.6062 I6.9827 J0.0076
G2 X6.575 Y19.6565 I4.9432 J-4.9339
G1 X19.0864
G1 Y22.6556
G2 X21.0864 Y24.6556 I2.0 J0.0
G1 X31.0868
G2 X33.0868 Y22.6556 I0.0 J-2.0
G1 F50.0 Z-2.0
G1 F120.0 Y19.6536
G1 X60.8956 Y19.6136
G1 X66.215 Y25.0549
G2 X67.6451 Y25.6568 I1.4301 J-1.3981
G1 X91.4239
G2 X93.4239 Y23.6568 I0.0 J-2.0
G1 Y19.7566
G2 X91.4239 Y17.7566 I-2.0 J0.0
G1 X77.7399
G1 X74.8486 Y14.9257
G1 Y10.4268
G1 X77.7467 Y7.5559
G1 X91.4239
G2 X93.4239 Y5.5559 I0.0 J-2.0
G1 Y1.6557
G2 X91.4239 Y-0.3443 I-2.0 J0.0
G1 X67.6451
G2 X66.2253 Y0.2471 I0.0 J2.0
G1 X60.9018 Y5.6131
G1 X33.0865 Y5.6532
G1 Y2.6558
G2 X31.0865 Y0.6558 I-2.0 J0.0
G1 X21.0864
G2 X19.0864 Y2.6558 I0.0 J2.0
G1 Y5.656
G1 X6.5751 Y5.6557
G2 X1.6236 Y7.7064 I-0.0088 J6.982
G2 X-0.4263 Y12.6561 I4.9349 J4.9431
G2 X1.6239 Y17.6062 I6.9827 J0.0076
G2 X6.575 Y19.6565 I4.9432 J-4.9339
G1 X19.0864
G1 Y22.6556
G2 X21.0864 Y24.6556 I2.0 J0.0
G1 X31.0868
G2 X33.0868 Y22.6556 I0.0 J-2.0
G1 F50.0 Z-3.0
G1 F120.0 Y19.6536
G1 X60.8956 Y19.6136
G1 X66.215 Y25.0549
G2 X67.6451 Y25.6568 I1.4301 J-1.3981
G1 X91.4239
G2 X93.4239 Y23.6568 I0.0 J-2.0
G1 Y19.7566
G2 X91.4239 Y17.7566 I-2.0 J0.0
G1 X77.7399
G1 X74.8486 Y14.9257
G1 Y10.4268
G1 X77.7467 Y7.5559
G1 X91.4239
G2 X93.4239 Y5.5559 I0.0 J-2.0
G1 Y1.6557
G2 X91.4239 Y-0.3443 I-2.0 J0.0
G1 X67.6451
G2 X66.2253 Y0.2471 I0.0 J2.0
G1 X60.9018 Y5.6131
G1 X33.0865 Y5.6532
G1 Y2.6558
G2 X31.0865 Y0.6558 I-2.0 J0.0
G1 X21.0864
G2 X19.0864 Y2.6558 I0.0 J2.0
G1 Y5.656
G1 X6.5751 Y5.6557
G2 X1.6236 Y7.7064 I-0.0088 J6.982
G2 X-0.4263 Y12.6561 I4.9349 J4.9431
G2 X1.6239 Y17.6062 I6.9827 J0.0076
G2 X6.575 Y19.6565 I4.9432 J-4.9339
G1 X19.0864
G1 Y22.6556
G2 X21.0864 Y24.6556 I2.0 J0.0
G1 X31.0868
G2 X33.0868 Y22.6556 I0.0 J-2.0
G1 F50.0 Z-4.0
G1 F120.0 Y19.6536
G1 X60.8956 Y19.6136
G1 X66.215 Y25.0549
G2 X67.6451 Y25.6568 I1.4301 J-1.3981
G1 X91.4239
G2 X93.4239 Y23.6568 I0.0 J-2.0
G1 Y19.7566
G2 X91.4239 Y17.7566 I-2.0 J0.0
G1 X77.7399
G1 X74.8486 Y14.9257
G1 Y10.4268
G1 X77.7467 Y7.5559
G1 X91.4239
G2 X93.4239 Y5.5559 I0.0 J-2.0
G1 Y1.6557
G2 X91.4239 Y-0.3443 I-2.0 J0.0
G1 X67.6451
G2 X66.2253 Y0.2471 I0.0 J2.0
G1 X60.9018 Y5.6131
G1 X33.0865 Y5.6532
G1 Y2.6558
G2 X31.0865 Y0.6558 I-2.0 J0.0
G1 X21.0864
G2 X19.0864 Y2.6558 I0.0 J2.0
G1 Y5.656
G1 X6.5751 Y5.6557
G2 X1.6236 Y7.7064 I-0.0088 J6.982
G2 X-0.4263 Y12.6561 I4.9349 J4.9431
G2 X1.6239 Y17.6062 I6.9827 J0.0076
G2 X6.575 Y19.6565 I4.9432 J-4.9339
G1 X19.0864
G1 Y22.6556
G2 X21.0864 Y24.6556 I2.0 J0.0
G1 X31.0868
G2 X33.0868 Y22.6556 I0.0 J-2.0
G1 F50.0 Z-5.0
G1 F120.0 Y19.6536
G1 X60.8956 Y19.6136
G1 X66.215 Y25.0549
G2 X67.6451 Y25.6568 I1.4301 J-1.3981
G1 X91.4239
G2 X93.4239 Y23.6568 I0.0 J-2.0
G1 Y19.7566
G2 X91.4239 Y17.7566 I-2.0 J0.0
G1 X77.7399
G1 X74.8486 Y14.9257
G1 Y10.4268
G1 X77.7467 Y7.5559
G1 X91.4239
G2 X93.4239 Y5.5559 I0.0 J-2.0
G1 Y1.6557
G2 X91.4239 Y-0.3443 I-2.0 J0.0
G1 X67.6451
G2 X66.2253 Y0.2471 I0.0 J2.0
G1 X60.9018 Y5.6131
G1 X33.0865 Y5.6532
G1 Y2.6558
G2 X31.0865 Y0.6558 I-2.0 J0.0
G1 X21.0864
G2 X19.0864 Y2.6558 I0.0 J2.0
G1 Y5.656
G1 X6.5751 Y5.6557
G2 X1.6236 Y7.7064 I-0.0088 J6.982
G2 X-0.4263 Y12.6561 I4.9349 J4.9431
G2 X1.6239 Y17.6062 I6.9827 J0.0076
G2 X6.575 Y19.6565 I4.9432 J-4.9339
G1 X19.0864
G1 Y22.6556
G2 X21.0864 Y24.6556 I2.0 J0.0
G1 X31.0868
G2 X33.0868 Y22.6556 I0.0 J-2.0
G1 F50.0 Z-6.0
G1 F120.0 Y19.6536
G1 X60.8956 Y19.6136
G1 X66.215 Y25.0549
G2 X67.6451 Y25.6568 I1.4301 J-1.3981
G1 X91.4239
G2 X93.4239 Y23.6568 I0.0 J-2.0
G1 Y19.7566
G2 X91.4239 Y17.7566 I-2.0 J0.0
G1 X77.7399
G1 X74.8486 Y14.9257
G1 Y10.4268
G1 X77.7467 Y7.5559
G1 X91.4239
G2 X93.4239 Y5.5559 I0.0 J-2.0
G1 Y1.6557
G2 X91.4239 Y-0.3443 I-2.0 J0.0
G1 X67.6451
G2 X66.2253 Y0.2471 I0.0 J2.0
G1 X60.9018 Y5.6131
G1 X33.0865 Y5.6532
G1 Y2.6558
G2 X31.0865 Y0.6558 I-2.0 J0.0
G1 X21.0864
G2 X19.0864 Y2.6558 I0.0 J2.0
G1 Y5.656
G1 X6.5751 Y5.6557
G2 X1.6236 Y7.7064 I-0.0088 J6.982
G2 X-0.4263 Y12.6561 I4.9349 J4.9431
G2 X1.6239 Y17.6062 I6.9827 J0.0076
G2 X6.575 Y19.6565 I4.9432 J-4.9339
G1 X19.0864
G1 Y22.6556
G2 X21.0864 Y24.6556 I2.0 J0.0
G1 X31.0868
G2 X33.0868 Y22.6556 I0.0 J-2.0
G1 F50.0 Z-7.0
G1 F120.0 Y19.6536
G1 X60.8956 Y19.6136
G1 X66.215 Y25.0549
G2 X67.6451 Y25.6568 I1.4301 J-1.3981
G1 X91.4239
G2 X93.4239 Y23.6568 I0.0 J-2.0
G1 Y19.7566
G2 X91.4239 Y17.7566 I-2.0 J0.0
G1 X77.7399
G1 X74.8486 Y14.9257
G1 Y10.4268
G1 X77.7467 Y7.5559
G1 X91.4239
G2 X93.4239 Y5.5559 I0.0 J-2.0
G1 Y1.6557
G2 X91.4239 Y-0.3443 I-2.0 J0.0
G1 X67.6451
G2 X66.2253 Y0.2471 I0.0 J2.0
G1 X60.9018 Y5.6131
G1 X33.0865 Y5.6532
G1 Y2.6558
G2 X31.0865 Y0.6558 I-2.0 J0.0
G1 X21.0864
G2 X19.0864 Y2.6558 I0.0 J2.0
G1 Y5.656
G1 X6.5751 Y5.6557
G2 X1.6236 Y7.7064 I-0.0088 J6.982
G2 X-0.4263 Y12.6561 I4.9349 J4.9431
G2 X1.6239 Y17.6062 I6.9827 J0.0076
G2 X6.575 Y19.6565 I4.9432 J-4.9339
G1 X19.0864
G1 Y22.6556
G2 X21.0864 Y24.6556 I2.0 J0.0
G1 X31.0868
G2 X33.0868 Y22.6556 I0.0 J-2.0
G1 F50.0 Z-8.0
G1 F120.0 Y19.6536
G1 X60.8956 Y19.6136
G1 X66.215 Y25.0549
G2 X67.6451 Y25.6568 I1.4301 J-1.3981
G1 X91.4239
G2 X93.4239 Y23.6568 I0.0 J-2.0
G1 Y19.7566
G2 X91.4239 Y17.7566 I-2.0 J0.0
G1 X77.7399
G1 X74.8486 Y14.9257
G1 Y10.4268
G1 X77.7467 Y7.5559
G1 X91.4239
G2 X93.4239 Y5.5559 I0.0 J-2.0
G1 Y1.6557
G2 X91.4239 Y-0.3443 I-2.0 J0.0
G1 X67.6451
G2 X66.2253 Y0.2471 I0.0 J2.0
G1 X60.9018 Y5.6131
G1 X33.0865 Y5.6532
G1 Y2.6558
G2 X31.0865 Y0.6558 I-2.0 J0.0
G1 X21.0864
G2 X19.0864 Y2.6558 I0.0 J2.0
G1 Y5.656
G1 X6.5751 Y5.6557
G2 X1.6236 Y7.7064 I-0.0088 J6.982
G2 X-0.4263 Y12.6561 I4.9349 J4.9431
G2 X1.6239 Y17.6062 I6.9827 J0.0076
G2 X6.575 Y19.6565 I4.9432 J-4.9339
G1 X19.0864
G1 Y22.6556
G2 X21.0864 Y24.6556 I2.0 J0.0
G1 X31.0868
G2 X33.0868 Y22.6556 I0.0 J-2.0
G1 F50.0 Z-9.0
G1 F120.0 Y19.6536
G1 X60.8956 Y19.6136
G1 X66.215 Y25.0549
G2 X67.6451 Y25.6568 I1.4301 J-1.3981
G1 X91.4239
G2 X93.4239 Y23.6568 I0.0 J-2.0
G1 Y19.7566
G2 X91.4239 Y17.7566 I-2.0 J0.0
G1 X77.7399
G1 X74.8486 Y14.9257
G1 Y10.4268
G1 X77.7467 Y7.5559
G1 X91.4239
G2 X93.4239 Y5.5559 I0.0 J-2.0
G1 Y1.6557
G2 X91.4239 Y-0.3443 I-2.0 J0.0
G1 X67.6451
G2 X66.2253 Y0.2471 I0.0 J2.0
G1 X60.9018 Y5.6131
G1 X33.0865 Y5.6532
G1 Y2.6558
G2 X31.0865 Y0.6558 I-2.0 J0.0
G1 X21.0864
G2 X19.0864 Y2.6558 I0.0 J2.0
G1 Y5.656
G1 X6.5751 Y5.6557
G2 X1.6236 Y7.7064 I-0.0088 J6.982
G2 X-0.4263 Y12.6561 I4.9349 J4.9431
G2 X1.6239 Y17.6062 I6.9827 J0.0076
G2 X6.575 Y19.6565 I4.9432 J-4.9339
G1 X19.0864
G1 Y22.6556
G2 X21.0864 Y24.6556 I2.0 J0.0
G1 X31.0868
G2 X33.0868 Y22.6556 I0.0 J-2.0
G1 F50.0 Z-10.0
G1 F120.0 Y19.6536
G1 X60.8956 Y19.6136
G1 X66.215 Y25.0549
G2 X67.6451 Y25.6568 I1.4301 J-1.3981
G1 X91.4239
G2 X93.4239 Y23.6568 I0.0 J-2.0
G1 Y19.7566
G2 X91.4239 Y17.7566 I-2.0 J0.0
G1 X77.7399
G1 X74.8486 Y14.9257
G1 Y10.4268
G1 X77.7467 Y7.5559
G1 X91.4239
G2 X93.4239 Y5.5559 I0.0 J-2.0
G1 Y1.6557
G2 X91.4239 Y-0.3443 I-2.0 J0.0
G1 X67.6451
G2 X66.2253 Y0.2471 I0.0 J2.0
G1 X60.9018 Y5.6131
G1 X33.0865 Y5.6532
G1 Y2.6558
G2 X31.0865 Y0.6558 I-2.0 J0.0
G1 X21.0864
G2 X19.0864 Y2.6558 I0.0 J2.0
G1 Y5.656
G1 X6.5751 Y5.6557
G2 X1.6236 Y7.7064 I-0.0088 J6.982
G2 X-0.4263 Y12.6561 I4.9349 J4.9431
G2 X1.6239 Y17.6062 I6.9827 J0.0076
G2 X6.575 Y19.6565 I4.9432 J-4.9339
G1 X19.0864
G1 Y22.6556
G2 X21.0864 Y24.6556 I2.0 J0.0
G1 X31.0868
G2 X33.0868 Y22.6556 I0.0 J-2.0
G1 F50.0 Z-11.0
G1 F120.0 Y19.6536
G1 X60.8956 Y19.6136
G1 X66.215 Y25.0549
G2 X67.6451 Y25.6568 I1.4301 J-1.3981
G1 X91.4239
G2 X93.4239 Y23.6568 I0.0 J-2.0
G1 Y19.7566
G2 X91.4239 Y17.7566 I-2.0 J0.0
G1 X77.7399
G1 X74.8486 Y14.9257
G1 Y10.4268
G1 X77.7467 Y7.5559
G1 X91.4239
G2 X93.4239 Y5.5559 I0.0 J-2.0
G1 Y1.6557
G2 X91.4239 Y-0.3443 I-2.0 J0.0
G1 X67.6451
G2 X66.2253 Y0.2471 I0.0 J2.0
G1 X60.9018 Y5.6131
G1 X33.0865 Y5.6532
G1 Y2.6558
G2 X31.0865 Y0.6558 I-2.0 J0.0
G1 X21.0864
G2 X19.0864 Y2.6558 I0.0 J2.0
G1 Y5.656
G1 X6.5751 Y5.6557
G2 X1.6236 Y7.7064 I-0.0088 J6.982
G2 X-0.4263 Y12.6561 I4.9349 J4.9431
G2 X1.6239 Y17.6062 I6.9827 J0.0076
G2 X6.575 Y19.6565 I4.9432 J-4.9339
G1 X19.0864
G1 Y22.6556
G2 X21.0864 Y24.6556 I2.0 J0.0
G1 X31.0868
G2 X33.0868 Y22.6556 I0.0 J-2.0
G0 Z3.0
M5
M30
