( Made using CamBam - http://www.cambam.co.uk )
( chip plate SOIC8 10/26/2013 1:55:16 PM )
( T0 : 0.0 )
G21 G90 G91.1 G64 G40
G0 Z3.0
( T0 : 0.0 )
T0 M6
( Engrave )
G17
M3 S1000
G0 X22.1006 Y9.8197
G0 Z1.3
G1 F50.0 Z-0.1
G3 X21.8285 Y9.7561 I0.02 J-0.699
G3 X21.5497 Y9.4542 I0.2488 J-0.5094
G3 X21.4774 Y9.0496 I0.9757 J-0.3831
G3 X21.5057 Y8.8136 I0.942 J-0.0066
G3 X21.5694 Y8.6441 I0.727 J0.1764
G3 X21.7513 Y8.4427 I0.4554 J0.2283
G3 X22.0135 Y8.3726 I0.2512 J0.4144
G3 X22.2496 Y8.4321 I0.0112 J0.4542
G3 X22.3787 Y8.5564 I-0.2166 J0.3541
G3 X22.4873 Y8.7994 I-0.7594 J0.4853
G3 X22.521 Y8.9281 I-1.3265 J0.4158
G1 X22.5492 Y9.0582
G1 X22.5714 Y9.1804
G1 X22.5758 Y9.2076
G2 X22.6129 Y9.4179 I4.566 J-0.6959
G2 X22.6551 Y9.5768 I1.5809 J-0.3348
G2 X22.7062 Y9.6915 I0.4887 J-0.1489
G2 X23.0201 Y9.8705 I0.2975 J-0.1569
G2 X23.4559 Y9.6385 I0.0132 J-0.5003
G2 X23.5555 Y9.4099 I-0.6223 J-0.4072
G2 X23.5872 Y9.1626 I-0.9702 J-0.25
G2 X23.5545 Y8.854 I-1.2994 J-0.0183
G2 X23.4715 Y8.6321 I-0.8523 J0.1921
G2 X23.2194 Y8.385 I-0.5206 J0.279
G2 X22.8737 Y8.3135 I-0.3208 J0.6803
G0 Z3.0
G0 X22.661 Y10.6384
G0 Z1.3
G1 Z-0.1
G2 X22.5323 Y10.6335 I-0.1113 J1.217
G2 X22.1407 Y10.6913 I-0.0122 J1.2725
G2 X21.8702 Y10.8204 I0.3123 J1.0016
G2 X21.5745 Y11.1559 I0.4785 J0.72
G2 X21.4774 Y11.5924 I0.8925 J0.4275
G2 X21.5544 Y11.9841 I0.9649 J0.0137
G2 X21.9578 Y12.4145 I0.8069 J-0.3521
G2 X22.5323 Y12.5486 I0.5576 J-1.0914
G2 X22.9232 Y12.491 I0.0114 J-1.2787
G2 X23.1935 Y12.3624 I-0.302 J-0.9829
G2 X23.4897 Y12.0282 I-0.4911 J-0.7335
G2 X23.5872 Y11.5924 I-0.8695 J-0.4234
G2 X23.5106 Y11.2001 I-0.9808 J-0.0121
G2 X23.1075 Y10.7681 I-0.8126 J0.3542
G2 X22.661 Y10.6384 I-0.5579 J1.0873
G0 Z3.0
G0 X23.5393 Y13.5034
G0 Z1.3
G1 Z-0.1
G1 X21.5253
G0 Z3.0
G0 X22.1261 Y16.116
G0 Z1.3
G1 Z-0.1
G3 X21.7431 Y15.9405 I0.1329 J-0.7959
G3 X21.5149 Y15.5864 I0.4621 J-0.5485
G3 X21.4774 Y15.3064 I0.9252 J-0.2664
G3 X21.5745 Y14.8699 I0.9896 J-0.009
G3 X21.8702 Y14.5344 I0.7742 J0.3845
G3 X22.1407 Y14.4053 I0.5827 J0.8724
G3 X22.5323 Y14.3474 I0.3794 J1.2147
G3 X23.1075 Y14.4821 I0.0173 J1.222
G3 X23.5106 Y14.9141 I-0.4096 J0.7862
G3 X23.5872 Y15.3064 I-0.9042 J0.3802
G3 X23.3368 Y15.8913 I-0.8067 J0.0007
G3 X22.7552 Y16.1497 I-0.659 J-0.6994
G0 Z3.0
G0 X22.9758 Y18.2586
G0 Z1.3
G1 Z-0.1
G2 X22.7902 Y18.3193 I0.0483 J0.4616
G2 X22.5515 Y18.5831 I0.317 J0.5269
G2 X22.473 Y18.9301 I0.7026 J0.3412
G2 X22.6121 Y19.3782 I0.7611 J0.0094
G2 X22.7902 Y19.5411 I0.462 J-0.3263
G2 X23.0231 Y19.6043 I0.2345 J-0.4032
G2 X23.2559 Y19.5411 I-0.001 J-0.4642
G2 X23.4947 Y19.2772 I-0.3182 J-0.5279
G2 X23.5731 Y18.9301 I-0.7066 J-0.342
G2 X23.434 Y18.4822 I-0.7634 J-0.0086
G2 X23.2559 Y18.3193 I-0.4629 J0.3274
G2 X23.0231 Y18.2561 I-0.2345 J0.4033
G2 X22.9758 Y18.2586 I0.001 J0.4641
G0 Z3.0
G0 X22.3876 Y18.5809
G0 Z1.3
G1 Z-0.1
G2 X22.3618 Y18.5375 I-0.6093 J0.3339
G2 X22.2147 Y18.3919 I-0.4096 J0.2667
G2 X22.0161 Y18.3334 I-0.202 J0.3195
G2 X21.8174 Y18.3919 I0.0005 J0.3681
G2 X21.6216 Y18.6251 I0.2904 J0.4425
G2 X21.5591 Y18.9232 I0.6685 J0.296
G2 X21.6703 Y19.3089 I0.6947 J0.0085
G2 X21.8174 Y19.4545 I0.4096 J-0.2667
G2 X22.0161 Y19.513 I0.202 J-0.3195
G2 X22.2147 Y19.4545 I-0.0005 J-0.3681
G2 X22.4105 Y19.2213 I-0.2904 J-0.4425
G2 X22.473 Y18.9232 I-0.6685 J-0.296
G2 X22.3876 Y18.5809 I-0.6947 J-0.0085
G0 Z3.0
M5
M30
