( Made using CamBam - http://www.cambam.co.uk )
( chip plate SOIC8-2 10/26/2013 3:45:53 PM )
( T8 : 2.0 )
G21 G90 G91.1 G64 G40
G0 Z3.0
( T8 : 2.0 )
T8 M6
( Pocket1 )
G17
M3 S1000
G0 X9.6368 Y10.2302
G0 Z1.0
G1 F25.0 Z-0.5
G2 F80.0 X9.4812 Y10.1883 I-0.3368 J0.9416
G3 X9.4 Y10.0914 I0.018 J-0.0975
G3 X9.4995 Y9.9919 I0.1 J0.0005
G3 X9.5959 Y10.0733 I-0.0006 J0.0984
G2 X9.6368 Y10.2302 I0.9849 J-0.1733
G1 F25.0 X10.244 Y10.8416
G3 F80.0 X10.3 Y11.1718 I-0.9439 J0.3302
G1 Y11.5
G1 X14.7
G1 Y11.1723
G3 X14.7555 Y10.8437 I1.0 J0.0
G3 X14.4248 Y10.9 I-0.3307 J-0.9437
G1 X10.5807
G3 X10.244 Y10.8416 I0.0 J-1.0
G1 F25.0 X9.6368 Y10.2302
G1 Z-1.0
G2 F80.0 X9.4812 Y10.1883 I-0.3368 J0.9416
G3 X9.4 Y10.0914 I0.018 J-0.0975
G3 X9.4995 Y9.9919 I0.1 J0.0005
G3 X9.5959 Y10.0733 I-0.0006 J0.0984
G2 X9.6368 Y10.2302 I0.9849 J-0.1733
G0 Z3.0
G0 X15.3693 Y10.2285
G0 Z1.0
G1 F25.0 Z-0.5
G2 F80.0 X15.4097 Y10.0731 I-0.9445 J-0.3285
G3 X15.506 Y9.9919 I0.0968 J0.017
G3 X15.6055 Y10.0914 I-0.0004 J0.1
G3 X15.5244 Y10.1878 I-0.0984 J-0.0005
G2 X15.3693 Y10.2285 I0.1756 J0.9845
G1 F25.0 Z-1.0
G2 F80.0 X15.4097 Y10.0731 I-0.9445 J-0.3285
G3 X15.506 Y9.9919 I0.0968 J0.017
G3 X15.6055 Y10.0914 I-0.0004 J0.1
G3 X15.5244 Y10.1878 I-0.0984 J-0.0005
G2 X15.3693 Y10.2285 I0.1756 J0.9845
G1 F25.0 X14.7555 Y10.8437
G3 F80.0 X14.4248 Y10.9 I-0.3307 J-0.9437
G1 X10.5807
G3 X10.244 Y10.8416 I0.0 J-1.0
G3 X10.3 Y11.1718 I-0.9439 J0.3302
G1 Y11.5
G1 X14.7
G1 Y11.1723
G3 X14.7555 Y10.8437 I1.0 J0.0
G1 F25.0 Z-1.5
G3 F80.0 X14.4248 Y10.9 I-0.3307 J-0.9437
G1 X10.5807
G3 X10.244 Y10.8416 I0.0 J-1.0
G3 X10.3 Y11.1718 I-0.9439 J0.3302
G1 Y11.5
G1 X14.7
G1 Y11.1723
G3 X14.7555 Y10.8437 I1.0 J0.0
G1 F25.0 X15.3693 Y10.2285
G2 F80.0 X15.4097 Y10.0731 I-0.9445 J-0.3285
G3 X15.506 Y9.9919 I0.0968 J0.017
G3 X15.6055 Y10.0914 I-0.0004 J0.1
G3 X15.5244 Y10.1878 I-0.0984 J-0.0005
G2 X15.3693 Y10.2285 I0.1756 J0.9845
G1 F25.0 Z-2.0
G2 F80.0 X15.4097 Y10.0731 I-0.9445 J-0.3285
G3 X15.506 Y9.9919 I0.0968 J0.017
G3 X15.6055 Y10.0914 I-0.0004 J0.1
G3 X15.5244 Y10.1878 I-0.0984 J-0.0005
G2 X15.3693 Y10.2285 I0.1756 J0.9845
G0 Z3.0
G0 X9.6368 Y10.2302
G0 Z0.0
G1 F25.0 Z-1.5
G2 F80.0 X9.4812 Y10.1883 I-0.3368 J0.9416
G3 X9.4 Y10.0914 I0.018 J-0.0975
G3 X9.4995 Y9.9919 I0.1 J0.0005
G3 X9.5959 Y10.0733 I-0.0006 J0.0984
G2 X9.6368 Y10.2302 I0.9849 J-0.1733
G1 F25.0 Z-2.0
G2 F80.0 X9.4812 Y10.1883 I-0.3368 J0.9416
G3 X9.4 Y10.0914 I0.018 J-0.0975
G3 X9.4995 Y9.9919 I0.1 J0.0005
G3 X9.5959 Y10.0733 I-0.0006 J0.0984
G2 X9.6368 Y10.2302 I0.9849 J-0.1733
G1 F25.0 X10.244 Y10.8416
G3 F80.0 X10.3 Y11.1718 I-0.9439 J0.3302
G1 Y11.5
G1 X14.7
G1 Y11.1723
G3 X14.7555 Y10.8437 I1.0 J0.0
G3 X14.4248 Y10.9 I-0.3307 J-0.9437
G1 X10.5807
G3 X10.244 Y10.8416 I0.0 J-1.0
G1 F25.0 Z-2.5
G3 F80.0 X10.3 Y11.1718 I-0.9439 J0.3302
G1 Y11.5
G1 X14.7
G1 Y11.1723
G3 X14.7555 Y10.8437 I1.0 J0.0
G3 X14.4248 Y10.9 I-0.3307 J-0.9437
G1 X10.5807
G3 X10.244 Y10.8416 I0.0 J-1.0
G1 F25.0 X9.6368 Y10.2302
G2 F80.0 X9.4812 Y10.1883 I-0.3368 J0.9416
G3 X9.4 Y10.0914 I0.018 J-0.0975
G3 X9.4995 Y9.9919 I0.1 J0.0005
G3 X9.5959 Y10.0733 I-0.0006 J0.0984
G2 X9.6368 Y10.2302 I0.9849 J-0.1733
G1 F25.0 Z-3.0
G2 F80.0 X9.4812 Y10.1883 I-0.3368 J0.9416
G3 X9.4 Y10.0914 I0.018 J-0.0975
G3 X9.4995 Y9.9919 I0.1 J0.0005
G3 X9.5959 Y10.0733 I-0.0006 J0.0984
G2 X9.6368 Y10.2302 I0.9849 J-0.1733
G0 Z3.0
G0 X15.3693 Y10.2285
G0 Z-1.0
G1 F25.0 Z-2.5
G2 F80.0 X15.4097 Y10.0731 I-0.9445 J-0.3285
G3 X15.506 Y9.9919 I0.0968 J0.017
G3 X15.6055 Y10.0914 I-0.0004 J0.1
G3 X15.5244 Y10.1878 I-0.0984 J-0.0005
G2 X15.3693 Y10.2285 I0.1756 J0.9845
G1 F25.0 Z-3.0
G2 F80.0 X15.4097 Y10.0731 I-0.9445 J-0.3285
G3 X15.506 Y9.9919 I0.0968 J0.017
G3 X15.6055 Y10.0914 I-0.0004 J0.1
G3 X15.5244 Y10.1878 I-0.0984 J-0.0005
G2 X15.3693 Y10.2285 I0.1756 J0.9845
G1 F25.0 X14.7555 Y10.8437
G3 F80.0 X14.4248 Y10.9 I-0.3307 J-0.9437
G1 X10.5807
G3 X10.244 Y10.8416 I0.0 J-1.0
G3 X10.3 Y11.1718 I-0.9439 J0.3302
G1 Y11.5
G1 X14.7
G1 Y11.1723
G3 X14.7555 Y10.8437 I1.0 J0.0
G0 Z3.0
M5
M30
