( Made using CamBam - http://www.cambam.co.uk )
( chip plate SOIC8 10/26/2013 1:43:31 PM )
( T3 : 3.0 )
G21 G90 G91.1 G64 G40
G0 Z3.0
( T3 : 3.0 )
T3 M6
( 3mm mill pocket )
G17
M3 S1000
G0 X12.4001 Y27.1
G0 Z1.0
G1 F25.0 Z-0.5
G1 F100.0 Y25.1578
G1 X12.5001 Y23.9199
G1 X12.6001 Y25.1574
G1 Y27.1
G1 X12.4001
G1 F25.0 Y28.3
G1 F100.0 X11.2001
G1 Y25.1094
G1 X11.9913 Y15.3175
G2 X12.0 Y15.1 I-2.6912 J-0.2174
G1 Y12.6
G1 X13.0
G1 Y15.1
G2 X13.0088 Y15.3175 I2.7 J0.0
G1 X13.8001 Y25.109
G1 Y28.3
G1 X12.4001
G1 F25.0 Y29.5
G1 F100.0 X10.0001
G1 Y25.0609
G1 X10.0015 Y25.0432
G2 X10.0016 Y25.0425 I-1.4951 J-0.1216
G1 X10.7952 Y15.2208
G2 X10.8 Y15.1 I-1.4951 J-0.1208
G1 Y11.4
G1 X14.2
G1 Y15.1
G2 X14.2049 Y15.2209 I1.5 J0.0
G1 X15.0001 Y25.0605
G1 Y29.5
G1 X12.4001
G0 Z3.0
G0 Y27.1
G0 Z0.5
G1 F25.0 Z-1.0
G1 F100.0 Y25.1578
G1 X12.5001 Y23.9199
G1 X12.6001 Y25.1574
G1 Y27.1
G1 X12.4001
G1 F25.0 Y28.3
G1 F100.0 X11.2001
G1 Y25.1094
G1 X11.9913 Y15.3175
G2 X12.0 Y15.1 I-2.6912 J-0.2174
G1 Y12.6
G1 X13.0
G1 Y15.1
G2 X13.0088 Y15.3175 I2.7 J0.0
G1 X13.8001 Y25.109
G1 Y28.3
G1 X12.4001
G1 F25.0 Y29.5
G1 F100.0 X10.0001
G1 Y25.0609
G1 X10.0015 Y25.0432
G2 X10.0016 Y25.0425 I-1.4951 J-0.1216
G1 X10.7952 Y15.2208
G2 X10.8 Y15.1 I-1.4951 J-0.1208
G1 Y11.4
G1 X14.2
G1 Y15.1
G2 X14.2049 Y15.2209 I1.5 J0.0
G1 X15.0001 Y25.0605
G1 Y29.5
G1 X12.4001
G0 Z3.0
G0 Y27.1
G0 Z0.0
G1 F25.0 Z-1.5
G1 F100.0 Y25.1578
G1 X12.5001 Y23.9199
G1 X12.6001 Y25.1574
G1 Y27.1
G1 X12.4001
G1 F25.0 Y28.3
G1 F100.0 X11.2001
G1 Y25.1094
G1 X11.9913 Y15.3175
G2 X12.0 Y15.1 I-2.6912 J-0.2174
G1 Y12.6
G1 X13.0
G1 Y15.1
G2 X13.0088 Y15.3175 I2.7 J0.0
G1 X13.8001 Y25.109
G1 Y28.3
G1 X12.4001
G1 F25.0 Y29.5
G1 F100.0 X10.0001
G1 Y25.0609
G1 X10.0015 Y25.0432
G2 X10.0016 Y25.0425 I-1.4951 J-0.1216
G1 X10.7952 Y15.2208
G2 X10.8 Y15.1 I-1.4951 J-0.1208
G1 Y11.4
G1 X14.2
G1 Y15.1
G2 X14.2049 Y15.2209 I1.5 J0.0
G1 X15.0001 Y25.0605
G1 Y29.5
G1 X12.4001
G0 Z3.0
G0 Y27.1
G0 Z-0.5
G1 F25.0 Z-2.0
G1 F100.0 Y25.1578
G1 X12.5001 Y23.9199
G1 X12.6001 Y25.1574
G1 Y27.1
G1 X12.4001
G1 F25.0 Y28.3
G1 F100.0 X11.2001
G1 Y25.1094
G1 X11.9913 Y15.3175
G2 X12.0 Y15.1 I-2.6912 J-0.2174
G1 Y12.6
G1 X13.0
G1 Y15.1
G2 X13.0088 Y15.3175 I2.7 J0.0
G1 X13.8001 Y25.109
G1 Y28.3
G1 X12.4001
G1 F25.0 Y29.5
G1 F100.0 X10.0001
G1 Y25.0609
G1 X10.0015 Y25.0432
G2 X10.0016 Y25.0425 I-1.4951 J-0.1216
G1 X10.7952 Y15.2208
G2 X10.8 Y15.1 I-1.4951 J-0.1208
G1 Y11.4
G1 X14.2
G1 Y15.1
G2 X14.2049 Y15.2209 I1.5 J0.0
G1 X15.0001 Y25.0605
G1 Y29.5
G1 X12.4001
G0 Z3.0
G0 Y27.1
G0 Z-1.0
G1 F25.0 Z-2.5
G1 F100.0 Y25.1578
G1 X12.5001 Y23.9199
G1 X12.6001 Y25.1574
G1 Y27.1
G1 X12.4001
G1 F25.0 Y28.3
G1 F100.0 X11.2001
G1 Y25.1094
G1 X11.9913 Y15.3175
G2 X12.0 Y15.1 I-2.6912 J-0.2174
G1 Y12.6
G1 X13.0
G1 Y15.1
G2 X13.0088 Y15.3175 I2.7 J0.0
G1 X13.8001 Y25.109
G1 Y28.3
G1 X12.4001
G1 F25.0 Y29.5
G1 F100.0 X10.0001
G1 Y25.0609
G1 X10.0015 Y25.0432
G2 X10.0016 Y25.0425 I-1.4951 J-0.1216
G1 X10.7952 Y15.2208
G2 X10.8 Y15.1 I-1.4951 J-0.1208
G1 Y11.4
G1 X14.2
G1 Y15.1
G2 X14.2049 Y15.2209 I1.5 J0.0
G1 X15.0001 Y25.0605
G1 Y29.5
G1 X12.4001
G0 Z3.0
G0 Y27.1
G0 Z-1.5
G1 F25.0 Z-3.0
G1 F100.0 Y25.1578
G1 X12.5001 Y23.9199
G1 X12.6001 Y25.1574
G1 Y27.1
G1 X12.4001
G1 F25.0 Y28.3
G1 F100.0 X11.2001
G1 Y25.1094
G1 X11.9913 Y15.3175
G2 X12.0 Y15.1 I-2.6912 J-0.2174
G1 Y12.6
G1 X13.0
G1 Y15.1
G2 X13.0088 Y15.3175 I2.7 J0.0
G1 X13.8001 Y25.109
G1 Y28.3
G1 X12.4001
G1 F25.0 Y29.5
G1 F100.0 X10.0001
G1 Y25.0609
G1 X10.0015 Y25.0432
G2 X10.0016 Y25.0425 I-1.4951 J-0.1216
G1 X10.7952 Y15.2208
G2 X10.8 Y15.1 I-1.4951 J-0.1208
G1 Y11.4
G1 X14.2
G1 Y15.1
G2 X14.2049 Y15.2209 I1.5 J0.0
G1 X15.0001 Y25.0605
G1 Y29.5
G1 X12.4001
G0 Z3.0
M5
M30
