( Made using CamBam - http://www.cambam.co.uk )
( chip plate SOIC8 10/26/2013 3:36:02 PM )
( T1 : 1.5 )
G21 G90 G91.1 G64 G40
G0 Z3.0
( T1 : 1.5 )
T1 M6
( 1mm pocket profile )
G17
M3 S1000
G0 X9.2501 Y30.25
G0 Z1.0
G1 F25.0 Z-0.5
G1 F50.0 Y25.0305
G1 X9.254 Y24.9824
G2 Y24.9821 I-0.7475 J-0.0608
G1 X10.0476 Y15.1604
G2 X10.05 Y15.1 I-0.7476 J-0.0604
G1 Y10.65
G1 X14.95
G1 Y15.1
G2 X14.9524 Y15.1604 I0.75 J0.0
G1 X15.7501 Y25.0303
G1 Y30.25
G1 X9.2501
G1 F25.0 Z-1.0
G1 F50.0 Y25.0305
G1 X9.254 Y24.9824
G2 Y24.9821 I-0.7475 J-0.0608
G1 X10.0476 Y15.1604
G2 X10.05 Y15.1 I-0.7476 J-0.0604
G1 Y10.65
G1 X14.95
G1 Y15.1
G2 X14.9524 Y15.1604 I0.75 J0.0
G1 X15.7501 Y25.0303
G1 Y30.25
G1 X9.2501
G1 F25.0 Z-1.5
G1 F50.0 Y25.0305
G1 X9.254 Y24.9824
G2 Y24.9821 I-0.7475 J-0.0608
G1 X10.0476 Y15.1604
G2 X10.05 Y15.1 I-0.7476 J-0.0604
G1 Y10.65
G1 X14.95
G1 Y15.1
G2 X14.9524 Y15.1604 I0.75 J0.0
G1 X15.7501 Y25.0303
G1 Y30.25
G1 X9.2501
G1 F25.0 Z-2.0
G1 F50.0 Y25.0305
G1 X9.254 Y24.9824
G2 Y24.9821 I-0.7475 J-0.0608
G1 X10.0476 Y15.1604
G2 X10.05 Y15.1 I-0.7476 J-0.0604
G1 Y10.65
G1 X14.95
G1 Y15.1
G2 X14.9524 Y15.1604 I0.75 J0.0
G1 X15.7501 Y25.0303
G1 Y30.25
G1 X9.2501
G1 F25.0 Z-2.5
G1 F50.0 Y25.0305
G1 X9.254 Y24.9824
G2 Y24.9821 I-0.7475 J-0.0608
G1 X10.0476 Y15.1604
G2 X10.05 Y15.1 I-0.7476 J-0.0604
G1 Y10.65
G1 X14.95
G1 Y15.1
G2 X14.9524 Y15.1604 I0.75 J0.0
G1 X15.7501 Y25.0303
G1 Y30.25
G1 X9.2501
G1 F25.0 Z-3.0
G1 F50.0 Y25.0305
G1 X9.254 Y24.9824
G2 Y24.9821 I-0.7475 J-0.0608
G1 X10.0476 Y15.1604
G2 X10.05 Y15.1 I-0.7476 J-0.0604
G1 Y10.65
G1 X14.95
G1 Y15.1
G2 X14.9524 Y15.1604 I0.75 J0.0
G1 X15.7501 Y25.0303
G1 Y30.25
G1 X9.2501
G0 Z3.0
M5
M30
