( Made using CamBam - http://www.cambam.co.uk )
( top plate stops 11/8/2013 5:48:43 PM )
( T4 : 4.0 )
G21 G90 G91.1 G64 G40
G0 Z3.0
( T4 : 4.0 )
T4 M6
( Profile1 )
G17
M3 S1000
G0 X14.0 Y5.9991
G0 Z1.0
G1 F25.0 Z-1.0
G2 F150.0 X11.65 Y0.3466 I-7.9815 J0.0034
G2 X9.0669 Y-1.3862 I-5.6934 J5.6955
G2 X9.0655 Y-1.3868 I-0.7724 J1.8448
G2 X5.9984 Y-2.0 I-3.0585 J7.3209
G2 X0.3466 Y0.3499 I0.0042 J7.9815
G2 X-1.3862 Y2.933 I5.6955 J5.6934
G2 X-1.3868 Y2.9345 I1.8448 J0.7724
G2 X-2.0 Y6.0011 I7.3209 J3.0585
G1 Y36.0
G2 Y36.0009 I2.0 J0.0
G2 X0.3499 Y41.6534 I7.9815 J-0.0034
G2 X2.933 Y43.3862 I5.6934 J-5.6955
G2 X2.9345 Y43.3868 I0.7724 J-1.8448
G2 X6.0016 Y44.0 I3.0585 J-7.3209
G2 X11.6534 Y41.6501 I-0.0042 J-7.9815
G2 X13.3862 Y39.067 I-5.6955 J-5.6934
G2 X13.3868 Y39.0655 I-1.8448 J-0.7724
G2 X14.0 Y35.9989 I-7.3209 J-3.0585
G1 Y6.0
G2 Y5.9991 I-2.0 J0.0
G1 F25.0 Z-2.0
G2 F150.0 X11.65 Y0.3466 I-7.9815 J0.0034
G2 X9.0669 Y-1.3862 I-5.6934 J5.6955
G2 X9.0655 Y-1.3868 I-0.7724 J1.8448
G2 X5.9984 Y-2.0 I-3.0585 J7.3209
G2 X0.3466 Y0.3499 I0.0042 J7.9815
G2 X-1.3862 Y2.933 I5.6955 J5.6934
G2 X-1.3868 Y2.9345 I1.8448 J0.7724
G2 X-2.0 Y6.0011 I7.3209 J3.0585
G1 Y36.0
G2 Y36.0009 I2.0 J0.0
G2 X0.3499 Y41.6534 I7.9815 J-0.0034
G2 X2.933 Y43.3862 I5.6934 J-5.6955
G2 X2.9345 Y43.3868 I0.7724 J-1.8448
G2 X6.0016 Y44.0 I3.0585 J-7.3209
G2 X11.6534 Y41.6501 I-0.0042 J-7.9815
G2 X13.3862 Y39.067 I-5.6955 J-5.6934
G2 X13.3868 Y39.0655 I-1.8448 J-0.7724
G2 X14.0 Y35.9989 I-7.3209 J-3.0585
G1 Y6.0
G2 Y5.9991 I-2.0 J0.0
G1 F25.0 Z-3.0
G2 F150.0 X11.65 Y0.3466 I-7.9815 J0.0034
G2 X9.0669 Y-1.3862 I-5.6934 J5.6955
G2 X9.0655 Y-1.3868 I-0.7724 J1.8448
G2 X5.9984 Y-2.0 I-3.0585 J7.3209
G2 X0.3466 Y0.3499 I0.0042 J7.9815
G2 X-1.3862 Y2.933 I5.6955 J5.6934
G2 X-1.3868 Y2.9345 I1.8448 J0.7724
G2 X-2.0 Y6.0011 I7.3209 J3.0585
G1 Y36.0
G2 Y36.0009 I2.0 J0.0
G2 X0.3499 Y41.6534 I7.9815 J-0.0034
G2 X2.933 Y43.3862 I5.6934 J-5.6955
G2 X2.9345 Y43.3868 I0.7724 J-1.8448
G2 X6.0016 Y44.0 I3.0585 J-7.3209
G2 X11.6534 Y41.6501 I-0.0042 J-7.9815
G2 X13.3862 Y39.067 I-5.6955 J-5.6934
G2 X13.3868 Y39.0655 I-1.8448 J-0.7724
G2 X14.0 Y35.9989 I-7.3209 J-3.0585
G1 Y6.0
G2 Y5.9991 I-2.0 J0.0
G1 F25.0 Z-4.0
G2 F150.0 X11.65 Y0.3466 I-7.9815 J0.0034
G2 X9.0669 Y-1.3862 I-5.6934 J5.6955
G2 X9.0655 Y-1.3868 I-0.7724 J1.8448
G2 X5.9984 Y-2.0 I-3.0585 J7.3209
G2 X0.3466 Y0.3499 I0.0042 J7.9815
G2 X-1.3862 Y2.933 I5.6955 J5.6934
G2 X-1.3868 Y2.9345 I1.8448 J0.7724
G2 X-2.0 Y6.0011 I7.3209 J3.0585
G1 Y36.0
G2 Y36.0009 I2.0 J0.0
G2 X0.3499 Y41.6534 I7.9815 J-0.0034
G2 X2.933 Y43.3862 I5.6934 J-5.6955
G2 X2.9345 Y43.3868 I0.7724 J-1.8448
G2 X6.0016 Y44.0 I3.0585 J-7.3209
G2 X11.6534 Y41.6501 I-0.0042 J-7.9815
G2 X13.3862 Y39.067 I-5.6955 J-5.6934
G2 X13.3868 Y39.0655 I-1.8448 J-0.7724
G2 X14.0 Y35.9989 I-7.3209 J-3.0585
G1 Y6.0
G2 Y5.9991 I-2.0 J0.0
G1 F25.0 Z-4.5
G2 F150.0 X11.65 Y0.3466 I-7.9815 J0.0034
G2 X9.0669 Y-1.3862 I-5.6934 J5.6955
G2 X9.0655 Y-1.3868 I-0.7724 J1.8448
G2 X5.9984 Y-2.0 I-3.0585 J7.3209
G2 X0.3466 Y0.3499 I0.0042 J7.9815
G2 X-1.3862 Y2.933 I5.6955 J5.6934
G2 X-1.3868 Y2.9345 I1.8448 J0.7724
G2 X-2.0 Y6.0011 I7.3209 J3.0585
G1 Y36.0
G2 Y36.0009 I2.0 J0.0
G2 X0.3499 Y41.6534 I7.9815 J-0.0034
G2 X2.933 Y43.3862 I5.6934 J-5.6955
G2 X2.9345 Y43.3868 I0.7724 J-1.8448
G2 X6.0016 Y44.0 I3.0585 J-7.3209
G2 X11.6534 Y41.6501 I-0.0042 J-7.9815
G2 X13.3862 Y39.067 I-5.6955 J-5.6934
G2 X13.3868 Y39.0655 I-1.8448 J-0.7724
G2 X14.0 Y35.9989 I-7.3209 J-3.0585
G1 Y6.0
G2 Y5.9991 I-2.0 J0.0
( Profile2 )
S1000
G0 Z3.0
G0 X31.9999
G0 Z1.0
G1 F25.0 Z-1.0
G2 F150.0 X29.65 Y0.3466 I-7.9815 J0.0034
G2 X27.0669 Y-1.3862 I-5.6934 J5.6955
G2 X27.0654 Y-1.3868 I-0.7724 J1.8448
G2 X23.9983 Y-2.0 I-3.0585 J7.3209
G2 X18.3465 Y0.3499 I0.0042 J7.9815
G2 X16.6137 Y2.933 I5.6955 J5.6934
G2 X16.6131 Y2.9345 I1.8448 J0.7724
G2 X15.9999 Y6.0011 I7.3209 J3.0585
G1 Y36.0
G2 Y36.0009 I2.0 J0.0
G2 X18.3498 Y41.6534 I7.9815 J-0.0034
G2 X20.9329 Y43.3862 I5.6934 J-5.6955
G2 X20.9344 Y43.3868 I0.7724 J-1.8448
G2 X24.0015 Y44.0 I3.0585 J-7.3209
G2 X29.6533 Y41.6501 I-0.0042 J-7.9815
G2 X31.3861 Y39.067 I-5.6955 J-5.6934
G2 X31.3867 Y39.0655 I-1.8448 J-0.7724
G2 X31.9999 Y35.9989 I-7.3209 J-3.0585
G1 Y6.0
G2 Y5.9991 I-2.0 J0.0
G1 F25.0 Z-2.0
G2 F150.0 X29.65 Y0.3466 I-7.9815 J0.0034
G2 X27.0669 Y-1.3862 I-5.6934 J5.6955
G2 X27.0654 Y-1.3868 I-0.7724 J1.8448
G2 X23.9983 Y-2.0 I-3.0585 J7.3209
G2 X18.3465 Y0.3499 I0.0042 J7.9815
G2 X16.6137 Y2.933 I5.6955 J5.6934
G2 X16.6131 Y2.9345 I1.8448 J0.7724
G2 X15.9999 Y6.0011 I7.3209 J3.0585
G1 Y36.0
G2 Y36.0009 I2.0 J0.0
G2 X18.3498 Y41.6534 I7.9815 J-0.0034
G2 X20.9329 Y43.3862 I5.6934 J-5.6955
G2 X20.9344 Y43.3868 I0.7724 J-1.8448
G2 X24.0015 Y44.0 I3.0585 J-7.3209
G2 X29.6533 Y41.6501 I-0.0042 J-7.9815
G2 X31.3861 Y39.067 I-5.6955 J-5.6934
G2 X31.3867 Y39.0655 I-1.8448 J-0.7724
G2 X31.9999 Y35.9989 I-7.3209 J-3.0585
G1 Y6.0
G2 Y5.9991 I-2.0 J0.0
G1 F25.0 Z-3.0
G2 F150.0 X29.65 Y0.3466 I-7.9815 J0.0034
G2 X27.0669 Y-1.3862 I-5.6934 J5.6955
G2 X27.0654 Y-1.3868 I-0.7724 J1.8448
G2 X23.9983 Y-2.0 I-3.0585 J7.3209
G2 X18.3465 Y0.3499 I0.0042 J7.9815
G2 X16.6137 Y2.933 I5.6955 J5.6934
G2 X16.6131 Y2.9345 I1.8448 J0.7724
G2 X15.9999 Y6.0011 I7.3209 J3.0585
G1 Y36.0
G2 Y36.0009 I2.0 J0.0
G2 X18.3498 Y41.6534 I7.9815 J-0.0034
G2 X20.9329 Y43.3862 I5.6934 J-5.6955
G2 X20.9344 Y43.3868 I0.7724 J-1.8448
G2 X24.0015 Y44.0 I3.0585 J-7.3209
G2 X29.6533 Y41.6501 I-0.0042 J-7.9815
G2 X31.3861 Y39.067 I-5.6955 J-5.6934
G2 X31.3867 Y39.0655 I-1.8448 J-0.7724
G2 X31.9999 Y35.9989 I-7.3209 J-3.0585
G1 Y6.0
G2 Y5.9991 I-2.0 J0.0
G1 F25.0 Z-4.0
G2 F150.0 X29.65 Y0.3466 I-7.9815 J0.0034
G2 X27.0669 Y-1.3862 I-5.6934 J5.6955
G2 X27.0654 Y-1.3868 I-0.7724 J1.8448
G2 X23.9983 Y-2.0 I-3.0585 J7.3209
G2 X18.3465 Y0.3499 I0.0042 J7.9815
G2 X16.6137 Y2.933 I5.6955 J5.6934
G2 X16.6131 Y2.9345 I1.8448 J0.7724
G2 X15.9999 Y6.0011 I7.3209 J3.0585
G1 Y36.0
G2 Y36.0009 I2.0 J0.0
G2 X18.3498 Y41.6534 I7.9815 J-0.0034
G2 X20.9329 Y43.3862 I5.6934 J-5.6955
G2 X20.9344 Y43.3868 I0.7724 J-1.8448
G2 X24.0015 Y44.0 I3.0585 J-7.3209
G2 X29.6533 Y41.6501 I-0.0042 J-7.9815
G2 X31.3861 Y39.067 I-5.6955 J-5.6934
G2 X31.3867 Y39.0655 I-1.8448 J-0.7724
G2 X31.9999 Y35.9989 I-7.3209 J-3.0585
G1 Y6.0
G2 Y5.9991 I-2.0 J0.0
G1 F25.0 Z-4.5
G2 F150.0 X29.65 Y0.3466 I-7.9815 J0.0034
G2 X27.0669 Y-1.3862 I-5.6934 J5.6955
G2 X27.0654 Y-1.3868 I-0.7724 J1.8448
G2 X23.9983 Y-2.0 I-3.0585 J7.3209
G2 X18.3465 Y0.3499 I0.0042 J7.9815
G2 X16.6137 Y2.933 I5.6955 J5.6934
G2 X16.6131 Y2.9345 I1.8448 J0.7724
G2 X15.9999 Y6.0011 I7.3209 J3.0585
G1 Y36.0
G2 Y36.0009 I2.0 J0.0
G2 X18.3498 Y41.6534 I7.9815 J-0.0034
G2 X20.9329 Y43.3862 I5.6934 J-5.6955
G2 X20.9344 Y43.3868 I0.7724 J-1.8448
G2 X24.0015 Y44.0 I3.0585 J-7.3209
G2 X29.6533 Y41.6501 I-0.0042 J-7.9815
G2 X31.3861 Y39.067 I-5.6955 J-5.6934
G2 X31.3867 Y39.0655 I-1.8448 J-0.7724
G2 X31.9999 Y35.9989 I-7.3209 J-3.0585
G1 Y6.0
G2 Y5.9991 I-2.0 J0.0
G0 Z3.0
M5
M30
