( Made using CamBam - http://www.cambam.co.uk )
( picker back plate 9/26/2013 4:54:01 PM )
( T16 : 1.0 )
G21 G90 G64 G40
G0 Z3.0
( T16 : 1.0 )
T16 M6
( Spot Drill )
G17
M3 S1000
G0 X5.4992 Y95.999
G98
G81 X5.4992 Y95.999 Z-1.0 R3.0 F80.0
G81 X14.4995 Z-1.0
G81 X35.4991 Z-1.0
G81 X44.4994 Z-1.0
G81 X44.4991 Y62.2897 Z-1.0
G81 X35.4988 Z-1.0
G81 X14.4992 Z-1.0
G81 X5.4989 Z-1.0
G81 X5.4992 Y31.935 Z-1.0
G81 X14.4995 Z-1.0
G81 X35.4991 Z-1.0
G81 X44.4994 Z-1.0
G81 X61.285 Y33.9163 Z-1.0
G81 Y49.3084 Z-1.0
G81 Y63.9055 Z-1.0
G81 X77.8669 Z-1.0
G81 Y49.3084 Z-1.0
G81 Y33.9163 Z-1.0
G81 X44.4994 Y3.0 Z-1.0
G81 X35.4991 Z-1.0
G81 X14.4995 Z-1.0
G81 X5.4992 Z-1.0
G80
G0 Z3.0
M5
M30
