( Made using CamBam - http://www.cambam.co.uk )
( picker back plate 9/26/2013 4:54:32 PM )
( T0 : 0.0 )
G21 G90 G64 G40
G0 Z3.0
( T0 : 0.0 )
T0 M6
( 1.5mm ball nose )
G17
M3 S1000
G0 X62.785 Y24.7764
G0 Z1.0
G1 F50.0 Z-0.5
G1 X76.3669
G0 Z3.0
G0 X62.785
G0 Z0.5
G1 Z-1.0
G1 X76.3669
G0 Z3.0
G0 X62.785
G0 Z0.0
G1 Z-1.5
G1 X76.3669
G0 Z3.0
G0 X62.785 Y27.7764
G0 Z1.0
G1 Z-0.5
G1 X76.3669
G0 Z3.0
G0 X62.785
G0 Z0.5
G1 Z-1.0
G1 X76.3669
G0 Z3.0
G0 X62.785
G0 Z0.0
G1 Z-1.5
G1 X76.3669
G0 Z3.0
G0 X62.785 Y30.7764
G0 Z1.0
G1 Z-0.5
G1 X76.3669
G0 Z3.0
G0 X62.785
G0 Z0.5
G1 Z-1.0
G1 X76.3669
G0 Z3.0
G0 X62.785
G0 Z0.0
G1 Z-1.5
G1 X76.3669
G0 Z3.0
G0 X62.785 Y33.7764
G0 Z1.0
G1 Z-0.5
G1 X76.3669
G0 Z3.0
G0 X62.785
G0 Z0.5
G1 Z-1.0
G1 X76.3669
G0 Z3.0
G0 X62.785
G0 Z0.0
G1 Z-1.5
G1 X76.3669
G0 Z3.0
G0 X62.785 Y36.7764
G0 Z1.0
G1 Z-0.5
G1 X76.3669
G0 Z3.0
G0 X62.785
G0 Z0.5
G1 Z-1.0
G1 X76.3669
G0 Z3.0
G0 X62.785
G0 Z0.0
G1 Z-1.5
G1 X76.3669
G0 Z3.0
G0 X62.785 Y39.7764
G0 Z1.0
G1 Z-0.5
G1 X76.3669
G0 Z3.0
G0 X62.785
G0 Z0.5
G1 Z-1.0
G1 X76.3669
G0 Z3.0
G0 X62.785
G0 Z0.0
G1 Z-1.5
G1 X76.3669
G0 Z3.0
G0 X62.785 Y42.7764
G0 Z1.0
G1 Z-0.5
G1 X76.3669
G0 Z3.0
G0 X62.785
G0 Z0.5
G1 Z-1.0
G1 X76.3669
G0 Z3.0
G0 X62.785
G0 Z0.0
G1 Z-1.5
G1 X76.3669
G0 Z3.0
G0 X62.785 Y45.7764
G0 Z1.0
G1 Z-0.5
G1 X76.3669
G0 Z3.0
G0 X62.785
G0 Z0.5
G1 Z-1.0
G1 X76.3669
G0 Z3.0
G0 X62.785
G0 Z0.0
G1 Z-1.5
G1 X76.3669
G0 Z3.0
G0 X62.785 Y48.7764
G0 Z1.0
G1 Z-0.5
G1 X76.3669
G0 Z3.0
G0 X62.785
G0 Z0.5
G1 Z-1.0
G1 X76.3669
G0 Z3.0
G0 X62.785
G0 Z0.0
G1 Z-1.5
G1 X76.3669
G0 Z3.0
G0 X62.785 Y51.7762
G0 Z1.0
G1 Z-0.5
G1 X76.3669
G0 Z3.0
G0 X62.785
G0 Z0.5
G1 Z-1.0
G1 X76.3669
G0 Z3.0
G0 X62.785
G0 Z0.0
G1 Z-1.5
G1 X76.3669
G0 Z3.0
G0 X62.785 Y54.7762
G0 Z1.0
G1 Z-0.5
G1 X76.3669
G0 Z3.0
G0 X62.785
G0 Z0.5
G1 Z-1.0
G1 X76.3669
G0 Z3.0
G0 X62.785
G0 Z0.0
G1 Z-1.5
G1 X76.3669
G0 Z3.0
G0 X62.785 Y57.776
G0 Z1.0
G1 Z-0.5
G1 X76.3669
G0 Z3.0
G0 X62.785
G0 Z0.5
G1 Z-1.0
G1 X76.3669
G0 Z3.0
G0 X62.785
G0 Z0.0
G1 Z-1.5
G1 X76.3669
G0 Z3.0
G0 X62.785 Y60.776
G0 Z1.0
G1 Z-0.5
G1 X76.3669
G0 Z3.0
G0 X62.785
G0 Z0.5
G1 Z-1.0
G1 X76.3669
G0 Z3.0
G0 X62.785
G0 Z0.0
G1 Z-1.5
G1 X76.3669
G0 Z3.0
G0 X62.785 Y63.776
G0 Z1.0
G1 Z-0.5
G1 X76.3669
G0 Z3.0
G0 X62.785
G0 Z0.5
G1 Z-1.0
G1 X76.3669
G0 Z3.0
G0 X62.785
G0 Z0.0
G1 Z-1.5
G1 X76.3669
G0 Z3.0
G0 X62.785 Y66.7759
G0 Z1.0
G1 Z-0.5
G1 X76.3669
G0 Z3.0
G0 X62.785
G0 Z0.5
G1 Z-1.0
G1 X76.3669
G0 Z3.0
G0 X62.785
G0 Z0.0
G1 Z-1.5
G1 X76.3669
G0 Z3.0
G0 X62.785 Y69.7759
G0 Z1.0
G1 Z-0.5
G1 X76.3669
G0 Z3.0
G0 X62.785
G0 Z0.5
G1 Z-1.0
G1 X76.3669
G0 Z3.0
G0 X62.785
G0 Z0.0
G1 Z-1.5
G1 X76.3669
G0 Z3.0
G0 X62.785 Y72.7759
G0 Z1.0
G1 Z-0.5
G1 X76.3669
G0 Z3.0
G0 X62.785
G0 Z0.5
G1 Z-1.0
G1 X76.3669
G0 Z3.0
G0 X62.785
G0 Z0.0
G1 Z-1.5
G1 X76.3669
G0 Z3.0
M5
M30
