( Made using CamBam - http://www.cambam.co.uk )
( picker back plate 9/26/2013 4:54:41 PM )
( T4 : 4.0 )
G21 G90 G64 G40
G0 Z3.0
( T4 : 4.0 )
T4 M6
( 4mm mill pockets )
G17
M3 S1000
G0 X5.6992 Y95.9991
G0 Z1.0
G1 F50.0 Z-1.0
G3 F120.0 Y95.9992 I-0.1999 J0.0
G3 X5.4996 Y96.199 I-0.1999 J-0.0001
G3 X5.2992 Y95.999 I0.0003 J-0.2006
G3 X5.4993 Y95.799 I0.2006 J0.0006
G3 X5.6992 Y95.9992 I-0.0005 J0.2004
G3 Y95.9993 I-0.2004 J0.0001
G1 Y95.9991
G1 F50.0 X6.4992 Y95.998
G3 F120.0 Y95.9991 I-1.0004 J0.0013
G1 Y95.9992
G1 Y95.999
G1 Y95.9991
G3 X5.4995 Y96.999 I-0.9999 J0.0
G3 X4.4992 Y95.999 I0.0003 J-1.0006
G3 X5.4993 Y94.999 I1.0006 J0.0006
G3 X6.4992 Y95.998 I-0.0004 J1.0004
G1 F50.0 X5.6992 Y95.9991
G1 Z-2.0
G3 F120.0 Y95.9992 I-0.1999 J0.0
G3 X5.4996 Y96.199 I-0.1999 J-0.0001
G3 X5.2992 Y95.999 I0.0003 J-0.2006
G3 X5.4993 Y95.799 I0.2006 J0.0006
G3 X5.6992 Y95.9992 I-0.0005 J0.2004
G3 Y95.9993 I-0.2004 J0.0001
G1 Y95.9991
G1 F50.0 X6.4992 Y95.998
G3 F120.0 Y95.9991 I-1.0004 J0.0013
G1 Y95.9992
G1 Y95.999
G1 Y95.9991
G3 X5.4995 Y96.999 I-0.9999 J0.0
G3 X4.4992 Y95.999 I0.0003 J-1.0006
G3 X5.4993 Y94.999 I1.0006 J0.0006
G3 X6.4992 Y95.998 I-0.0004 J1.0004
G0 Z3.0
G0 X14.2996 Y95.999
G0 Z1.0
G1 F50.0 Z-1.0
G3 F120.0 X14.4996 Y95.799 I0.2006 J0.0006
G3 X14.6995 Y95.9992 I-0.0005 J0.2004
G3 Y95.9993 I-0.2004 J0.0001
G1 Y95.9991
G3 Y95.9992 I-0.1999 J0.0
G3 X14.4999 Y96.199 I-0.1999 J-0.0001
G3 X14.2996 Y95.999 I0.0003 J-0.2006
G1 F50.0 X13.4996 Y95.9967
G3 F120.0 X14.4996 Y94.999 I1.0006 J0.0029
G3 X15.4995 Y95.9991 I-0.0004 J1.0004
G1 Y95.9992
G1 Y95.999
G1 Y95.9991
G3 X14.4998 Y96.999 I-0.9999 J0.0
G3 X13.4996 Y95.999 I0.0003 J-1.0006
G3 Y95.9967 I1.0006 J0.0006
G1 F50.0 X14.2996 Y95.999
G1 Z-2.0
G3 F120.0 X14.4996 Y95.799 I0.2006 J0.0006
G3 X14.6995 Y95.9992 I-0.0005 J0.2004
G3 Y95.9993 I-0.2004 J0.0001
G1 Y95.9991
G3 Y95.9992 I-0.1999 J0.0
G3 X14.4999 Y96.199 I-0.1999 J-0.0001
G3 X14.2996 Y95.999 I0.0003 J-0.2006
G1 F50.0 X13.4996 Y95.9967
G3 F120.0 X14.4996 Y94.999 I1.0006 J0.0029
G3 X15.4995 Y95.9991 I-0.0004 J1.0004
G1 Y95.9992
G1 Y95.999
G1 Y95.9991
G3 X14.4998 Y96.999 I-0.9999 J0.0
G3 X13.4996 Y95.999 I0.0003 J-1.0006
G3 Y95.9967 I1.0006 J0.0006
G0 Z3.0
G0 X35.2991 Y95.999
G0 Z1.0
G1 F50.0 Z-1.0
G3 F120.0 X35.4994 Y95.7991 I0.2005 J0.0007
G3 X35.6991 Y95.9988 I-0.0002 J0.1999
G3 X35.4993 Y96.1988 I-0.2002 J-0.0003
G3 X35.2991 Y95.999 I0.0004 J-0.2005
G1 F50.0 X34.4991 Y95.9961
G3 F120.0 X35.4993 Y94.9991 I1.0005 J0.0035
G3 X36.4991 Y95.9989 I-0.0001 J0.9999
G3 X35.4992 Y96.9988 I-1.0002 J-0.0003
G3 X34.4991 Y95.999 I0.0004 J-1.0005
G3 Y95.9961 I1.0005 J0.0007
G1 F50.0 X35.2991 Y95.999
G1 Z-2.0
G3 F120.0 X35.4994 Y95.7991 I0.2005 J0.0007
G3 X35.6991 Y95.9988 I-0.0002 J0.1999
G3 X35.4993 Y96.1988 I-0.2002 J-0.0003
G3 X35.2991 Y95.999 I0.0004 J-0.2005
G1 F50.0 X34.4991 Y95.9961
G3 F120.0 X35.4993 Y94.9991 I1.0005 J0.0035
G3 X36.4991 Y95.9989 I-0.0001 J0.9999
G3 X35.4992 Y96.9988 I-1.0002 J-0.0003
G3 X34.4991 Y95.999 I0.0004 J-1.0005
G3 Y95.9961 I1.0005 J0.0007
G0 Z3.0
G0 X44.2994 Y95.999
G0 Z1.0
G1 F50.0 Z-1.0
G3 F120.0 X44.4997 Y95.7991 I0.2005 J0.0007
G3 X44.6994 Y95.9988 I-0.0002 J0.1999
G3 X44.4996 Y96.1988 I-0.2002 J-0.0003
G3 X44.2994 Y95.999 I0.0004 J-0.2005
G1 F50.0 X43.4995 Y95.9961
G3 F120.0 X44.4996 Y94.9991 I1.0005 J0.0035
G3 X45.4994 Y95.9989 I-0.0001 J0.9999
G3 X44.4995 Y96.9988 I-1.0002 J-0.0003
G3 X43.4994 Y95.999 I0.0004 J-1.0005
G3 X43.4995 Y95.9961 I1.0005 J0.0007
G1 F50.0 X44.2994 Y95.999
G1 Z-2.0
G3 F120.0 X44.4997 Y95.7991 I0.2005 J0.0007
G3 X44.6994 Y95.9988 I-0.0002 J0.1999
G3 X44.4996 Y96.1988 I-0.2002 J-0.0003
G3 X44.2994 Y95.999 I0.0004 J-0.2005
G1 F50.0 X43.4995 Y95.9961
G3 F120.0 X44.4996 Y94.9991 I1.0005 J0.0035
G3 X45.4994 Y95.9989 I-0.0001 J0.9999
G3 X44.4995 Y96.9988 I-1.0002 J-0.0003
G3 X43.4994 Y95.999 I0.0004 J-1.0005
G3 X43.4995 Y95.9961 I1.0005 J0.0007
G0 Z3.0
G0 X44.4969 Y32.135
G0 Z1.0
G1 F50.0 Z-1.0
G3 F120.0 X44.2994 Y31.935 I0.0031 J-0.2005
G3 X44.4995 Y31.735 I0.2006 J0.0006
G3 X44.6994 Y31.9352 I-0.0005 J0.2004
G3 Y31.9354 I-0.2004 J0.0001
G1 Y31.9351
G3 Y31.9352 I-0.1999 J0.0
G3 X44.4998 Y32.135 I-0.1999 J-0.0001
G3 X44.4969 I0.0003 J-0.2006
G1 F50.0 X44.4844 Y32.9349
G3 F120.0 X43.4994 Y31.935 I0.0156 J-1.0004
G3 X44.4995 Y30.935 I1.0006 J0.0006
G3 X45.4994 Y31.9352 I-0.0004 J1.0004
G1 Y31.9353
G1 Y31.9351
G1 Y31.9352
G3 X44.4997 Y32.935 I-0.9999 J0.0
G3 X44.4844 Y32.9349 I0.0003 J-1.0006
G1 F50.0 X44.4969 Y32.135
G1 Z-2.0
G3 F120.0 X44.2994 Y31.935 I0.0031 J-0.2005
G3 X44.4995 Y31.735 I0.2006 J0.0006
G3 X44.6994 Y31.9352 I-0.0005 J0.2004
G3 Y31.9354 I-0.2004 J0.0001
G1 Y31.9351
G3 Y31.9352 I-0.1999 J0.0
G3 X44.4998 Y32.135 I-0.1999 J-0.0001
G3 X44.4969 I0.0003 J-0.2006
G1 F50.0 X44.4844 Y32.9349
G3 F120.0 X43.4994 Y31.935 I0.0156 J-1.0004
G3 X44.4995 Y30.935 I1.0006 J0.0006
G3 X45.4994 Y31.9352 I-0.0004 J1.0004
G1 Y31.9353
G1 Y31.9351
G1 Y31.9352
G3 X44.4997 Y32.935 I-0.9999 J0.0
G3 X44.4844 Y32.9349 I0.0003 J-1.0006
G0 Z3.0
G0 X35.6979 Y31.9572
G0 Z1.0
G1 F50.0 Z-1.0
G3 F120.0 X35.4994 Y32.135 I-0.1986 J-0.0221
G3 X35.2991 Y31.935 I0.0003 J-0.2006
G3 X35.4992 Y31.735 I0.2006 J0.0006
G3 X35.6991 Y31.9352 I-0.0005 J0.2004
G3 Y31.9354 I-0.2004 J0.0001
G1 Y31.9351
G3 Y31.9352 I-0.1999 J0.0
G3 X35.6979 Y31.9572 I-0.1999 J-0.0001
G1 F50.0 X36.493 Y32.0457
G3 F120.0 X35.4994 Y32.935 I-0.9937 J-0.1106
G3 X34.4991 Y31.935 I0.0003 J-1.0006
G3 X35.4992 Y30.935 I1.0006 J0.0006
G3 X36.4991 Y31.9352 I-0.0004 J1.0004
G1 Y31.9353
G1 Y31.9351
G1 Y31.9352
G3 X36.493 Y32.0457 I-0.9999 J0.0
G1 F50.0 X35.6979 Y31.9572
G1 Z-2.0
G3 F120.0 X35.4994 Y32.135 I-0.1986 J-0.0221
G3 X35.2991 Y31.935 I0.0003 J-0.2006
G3 X35.4992 Y31.735 I0.2006 J0.0006
G3 X35.6991 Y31.9352 I-0.0005 J0.2004
G3 Y31.9354 I-0.2004 J0.0001
G1 Y31.9351
G3 Y31.9352 I-0.1999 J0.0
G3 X35.6979 Y31.9572 I-0.1999 J-0.0001
G1 F50.0 X36.493 Y32.0457
G3 F120.0 X35.4994 Y32.935 I-0.9937 J-0.1106
G3 X34.4991 Y31.935 I0.0003 J-1.0006
G3 X35.4992 Y30.935 I1.0006 J0.0006
G3 X36.4991 Y31.9352 I-0.0004 J1.0004
G1 Y31.9353
G1 Y31.9351
G1 Y31.9352
G3 X36.493 Y32.0457 I-0.9999 J0.0
G0 Z3.0
G0 X14.6995 Y31.9361
G0 Z1.0
G1 F50.0 Z-1.0
G3 F120.0 X14.4999 Y32.135 I-0.1999 J-0.001
G3 X14.2996 Y31.935 I0.0003 J-0.2006
G3 X14.4996 Y31.735 I0.2006 J0.0006
G3 X14.6995 Y31.9352 I-0.0005 J0.2004
G3 Y31.9354 I-0.2004 J0.0001
G1 Y31.9351
G3 Y31.9352 I-0.1999 J0.0
G3 Y31.9361 I-0.1999 J-0.0001
G1 F50.0 X15.4995 Y31.9401
G3 F120.0 X14.4998 Y32.935 I-0.9999 J-0.005
G3 X13.4996 Y31.935 I0.0003 J-1.0006
G3 X14.4996 Y30.935 I1.0006 J0.0006
G3 X15.4995 Y31.9352 I-0.0004 J1.0004
G1 Y31.9353
G1 Y31.9351
G1 Y31.9352
G3 Y31.9401 I-0.9999 J0.0
G1 F50.0 X14.6995 Y31.9361
G1 Z-2.0
G3 F120.0 X14.4999 Y32.135 I-0.1999 J-0.001
G3 X14.2996 Y31.935 I0.0003 J-0.2006
G3 X14.4996 Y31.735 I0.2006 J0.0006
G3 X14.6995 Y31.9352 I-0.0005 J0.2004
G3 Y31.9354 I-0.2004 J0.0001
G1 Y31.9351
G3 Y31.9352 I-0.1999 J0.0
G3 Y31.9361 I-0.1999 J-0.0001
G1 F50.0 X15.4995 Y31.9401
G3 F120.0 X14.4998 Y32.935 I-0.9999 J-0.005
G3 X13.4996 Y31.935 I0.0003 J-1.0006
G3 X14.4996 Y30.935 I1.0006 J0.0006
G3 X15.4995 Y31.9352 I-0.0004 J1.0004
G1 Y31.9353
G1 Y31.9351
G1 Y31.9352
G3 Y31.9401 I-0.9999 J0.0
G0 Z3.0
G0 X5.6992 Y31.9351
G0 Z1.0
G1 F50.0 Z-1.0
G3 F120.0 Y31.9352 I-0.1999 J0.0
G3 X5.4996 Y32.135 I-0.1999 J-0.0001
G3 X5.2992 Y31.935 I0.0003 J-0.2006
G3 X5.4993 Y31.735 I0.2006 J0.0006
G3 X5.6992 Y31.9352 I-0.0005 J0.2004
G3 Y31.9354 I-0.2004 J0.0001
G1 Y31.9351
G1 F50.0 X6.4992 Y31.934
G3 F120.0 Y31.9352 I-1.0004 J0.0013
G1 Y31.9353
G1 Y31.9351
G1 Y31.9352
G3 X5.4995 Y32.935 I-0.9999 J0.0
G3 X4.4992 Y31.935 I0.0003 J-1.0006
G3 X5.4993 Y30.935 I1.0006 J0.0006
G3 X6.4992 Y31.934 I-0.0004 J1.0004
G1 F50.0 X5.6992 Y31.9351
G1 Z-2.0
G3 F120.0 Y31.9352 I-0.1999 J0.0
G3 X5.4996 Y32.135 I-0.1999 J-0.0001
G3 X5.2992 Y31.935 I0.0003 J-0.2006
G3 X5.4993 Y31.735 I0.2006 J0.0006
G3 X5.6992 Y31.9352 I-0.0005 J0.2004
G3 Y31.9354 I-0.2004 J0.0001
G1 Y31.9351
G1 F50.0 X6.4992 Y31.934
G3 F120.0 Y31.9352 I-1.0004 J0.0013
G1 Y31.9353
G1 Y31.9351
G1 Y31.9352
G3 X5.4995 Y32.935 I-0.9999 J0.0
G3 X4.4992 Y31.935 I0.0003 J-1.0006
G3 X5.4993 Y30.935 I1.0006 J0.0006
G3 X6.4992 Y31.934 I-0.0004 J1.0004
G0 Z3.0
G0 X5.5063 Y3.1999
G0 Z1.0
G1 F50.0 Z-1.0
G3 F120.0 X5.4996 Y3.2 I-0.0069 J-0.1998
G3 X5.2992 Y3.0 I0.0003 J-0.2006
G3 X5.4993 Y2.8 I0.2006 J0.0006
G3 X5.6992 Y3.0002 I-0.0005 J0.2004
G3 Y3.0003 I-0.2004 J0.0001
G1 Y3.0001
G3 Y3.0002 I-0.1999 J0.0
G3 X5.5063 Y3.1999 I-0.1999 J-0.0001
G1 F50.0 X5.5339 Y3.9994
G3 F120.0 X5.4995 Y4.0 I-0.0345 J-0.9993
G3 X4.4992 Y3.0 I0.0003 J-1.0006
G3 X5.4993 Y2.0 I1.0006 J0.0006
G3 X6.4992 Y3.0002 I-0.0004 J1.0004
G1 Y3.0001
G1 Y3.0002
G3 X5.5339 Y3.9994 I-0.9999 J0.0
G1 F50.0 X5.5063 Y3.1999
G1 Z-2.0
G3 F120.0 X5.4996 Y3.2 I-0.0069 J-0.1998
G3 X5.2992 Y3.0 I0.0003 J-0.2006
G3 X5.4993 Y2.8 I0.2006 J0.0006
G3 X5.6992 Y3.0002 I-0.0005 J0.2004
G3 Y3.0003 I-0.2004 J0.0001
G1 Y3.0001
G3 Y3.0002 I-0.1999 J0.0
G3 X5.5063 Y3.1999 I-0.1999 J-0.0001
G1 F50.0 X5.5339 Y3.9994
G3 F120.0 X5.4995 Y4.0 I-0.0345 J-0.9993
G3 X4.4992 Y3.0 I0.0003 J-1.0006
G3 X5.4993 Y2.0 I1.0006 J0.0006
G3 X6.4992 Y3.0002 I-0.0004 J1.0004
G1 Y3.0001
G1 Y3.0002
G3 X5.5339 Y3.9994 I-0.9999 J0.0
G0 Z3.0
G0 X14.3008 Y3.0216
G0 Z1.0
G1 F50.0 Z-1.0
G3 F120.0 X14.2996 Y3.0 I0.1993 J-0.0222
G3 X14.4996 Y2.8 I0.2006 J0.0006
G3 X14.6995 Y3.0002 I-0.0005 J0.2004
G3 Y3.0003 I-0.2004 J0.0001
G1 Y3.0001
G3 Y3.0002 I-0.1999 J0.0
G3 X14.4999 Y3.2 I-0.1999 J-0.0001
G3 X14.3008 Y3.0216 I0.0003 J-0.2006
G1 F50.0 X13.5057 Y3.1103
G3 F120.0 X13.4996 Y3.0 I0.9944 J-0.1109
G3 X14.4996 Y2.0 I1.0006 J0.0006
G3 X15.4995 Y3.0002 I-0.0004 J1.0004
G1 Y3.0001
G1 Y3.0002
G3 X14.4998 Y4.0 I-0.9999 J0.0
G3 X13.5057 Y3.1103 I0.0003 J-1.0006
G1 F50.0 X14.3008 Y3.0216
G1 Z-2.0
G3 F120.0 X14.2996 Y3.0 I0.1993 J-0.0222
G3 X14.4996 Y2.8 I0.2006 J0.0006
G3 X14.6995 Y3.0002 I-0.0005 J0.2004
G3 Y3.0003 I-0.2004 J0.0001
G1 Y3.0001
G3 Y3.0002 I-0.1999 J0.0
G3 X14.4999 Y3.2 I-0.1999 J-0.0001
G3 X14.3008 Y3.0216 I0.0003 J-0.2006
G1 F50.0 X13.5057 Y3.1103
G3 F120.0 X13.4996 Y3.0 I0.9944 J-0.1109
G3 X14.4996 Y2.0 I1.0006 J0.0006
G3 X15.4995 Y3.0002 I-0.0004 J1.0004
G1 Y3.0001
G1 Y3.0002
G3 X14.4998 Y4.0 I-0.9999 J0.0
G3 X13.5057 Y3.1103 I0.0003 J-1.0006
G0 Z3.0
G0 X35.2991 Y3.0004
G0 Z1.0
G1 F50.0 Z-1.0
G3 F120.0 Y3.0 I0.2006 J-0.001
G3 X35.4992 Y2.8 I0.2006 J0.0006
G3 X35.6991 Y3.0002 I-0.0005 J0.2004
G3 Y3.0003 I-0.2004 J0.0001
G1 Y3.0001
G3 Y3.0002 I-0.1999 J0.0
G3 X35.4994 Y3.2 I-0.1999 J-0.0001
G3 X35.2991 Y3.0004 I0.0003 J-0.2006
G1 F50.0 X34.4991 Y3.0045
G3 F120.0 Y3.0 I1.0005 J-0.005
G3 X35.4992 Y2.0 I1.0006 J0.0006
G3 X36.4991 Y3.0002 I-0.0004 J1.0004
G1 Y3.0001
G1 Y3.0002
G3 X35.4994 Y4.0 I-0.9999 J0.0
G3 X34.4991 Y3.0045 I0.0003 J-1.0006
G1 F50.0 X35.2991 Y3.0004
G1 Z-2.0
G3 F120.0 Y3.0 I0.2006 J-0.001
G3 X35.4992 Y2.8 I0.2006 J0.0006
G3 X35.6991 Y3.0002 I-0.0005 J0.2004
G3 Y3.0003 I-0.2004 J0.0001
G1 Y3.0001
G3 Y3.0002 I-0.1999 J0.0
G3 X35.4994 Y3.2 I-0.1999 J-0.0001
G3 X35.2991 Y3.0004 I0.0003 J-0.2006
G1 F50.0 X34.4991 Y3.0045
G3 F120.0 Y3.0 I1.0005 J-0.005
G3 X35.4992 Y2.0 I1.0006 J0.0006
G3 X36.4991 Y3.0002 I-0.0004 J1.0004
G1 Y3.0001
G1 Y3.0002
G3 X35.4994 Y4.0 I-0.9999 J0.0
G3 X34.4991 Y3.0045 I0.0003 J-1.0006
G0 Z3.0
G0 X44.2994 Y3.0
G0 Z1.0
G1 F50.0 Z-1.0
G3 F120.0 X44.4995 Y2.8 I0.2006 J0.0006
G3 X44.6994 Y3.0002 I-0.0005 J0.2004
G3 Y3.0003 I-0.2004 J0.0001
G1 Y3.0001
G3 Y3.0002 I-0.1999 J0.0
G3 X44.4998 Y3.2 I-0.1999 J-0.0001
G3 X44.2994 Y3.0 I0.0003 J-0.2006
G1 F50.0 X43.4995 Y2.9977
G3 F120.0 X44.4995 Y2.0 I1.0006 J0.0029
G3 X45.4994 Y3.0002 I-0.0004 J1.0004
G1 Y3.0001
G1 Y3.0002
G3 X44.4997 Y4.0 I-0.9999 J0.0
G3 X43.4994 Y3.0 I0.0003 J-1.0006
G3 X43.4995 Y2.9977 I1.0006 J0.0006
G1 F50.0 X44.2994 Y3.0
G1 Z-2.0
G3 F120.0 X44.4995 Y2.8 I0.2006 J0.0006
G3 X44.6994 Y3.0002 I-0.0005 J0.2004
G3 Y3.0003 I-0.2004 J0.0001
G1 Y3.0001
G3 Y3.0002 I-0.1999 J0.0
G3 X44.4998 Y3.2 I-0.1999 J-0.0001
G3 X44.2994 Y3.0 I0.0003 J-0.2006
G1 F50.0 X43.4995 Y2.9977
G3 F120.0 X44.4995 Y2.0 I1.0006 J0.0029
G3 X45.4994 Y3.0002 I-0.0004 J1.0004
G1 Y3.0001
G1 Y3.0002
G3 X44.4997 Y4.0 I-0.9999 J0.0
G3 X43.4994 Y3.0 I0.0003 J-1.0006
G3 X43.4995 Y2.9977 I1.0006 J0.0006
G0 Z3.0
M5
M30
