( Made using CamBam - http://www.cambam.co.uk )
( picker back plate 9/26/2013 4:55:56 PM )
( T4 : 4.0 )
G21 G90 G64 G40
G0 Z3.0
( T4 : 4.0 )
T4 M6
( Profile1 )
G17
M3 S1000
G0 X57.2852 Y21.7767
G0 Z1.0
G1 F50.0 Z-1.0
G2 F120.0 X55.2852 Y23.7767 I0.0 J2.0
G1 Y73.776
G2 X57.2852 Y75.776 I2.0 J0.0
G1 X81.8674
G2 X83.8674 Y73.776 I0.0 J-2.0
G1 Y23.7767
G2 X81.8674 Y21.7767 I-2.0 J0.0
G1 X57.2852
G1 F50.0 Z-2.0
G2 F120.0 X55.2852 Y23.7767 I0.0 J2.0
G1 Y73.776
G2 X57.2852 Y75.776 I2.0 J0.0
G1 X81.8674
G2 X83.8674 Y73.776 I0.0 J-2.0
G1 Y23.7767
G2 X81.8674 Y21.7767 I-2.0 J0.0
G1 X57.2852
G1 F50.0 Z-3.0
G2 F120.0 X55.2852 Y23.7767 I0.0 J2.0
G1 Y73.776
G2 X57.2852 Y75.776 I2.0 J0.0
G1 X81.8674
G2 X83.8674 Y73.776 I0.0 J-2.0
G1 Y23.7767
G2 X81.8674 Y21.7767 I-2.0 J0.0
G1 X57.2852
G1 F50.0 Z-4.0
G2 F120.0 X55.2852 Y23.7767 I0.0 J2.0
G1 Y73.776
G2 X57.2852 Y75.776 I2.0 J0.0
G1 X81.8674
G2 X83.8674 Y73.776 I0.0 J-2.0
G1 Y23.7767
G2 X81.8674 Y21.7767 I-2.0 J0.0
G1 X57.2852
G1 F50.0 Z-4.5
G2 F120.0 X55.2852 Y23.7767 I0.0 J2.0
G1 Y73.776
G2 X57.2852 Y75.776 I2.0 J0.0
G1 X81.8674
G2 X83.8674 Y73.776 I0.0 J-2.0
G1 Y23.7767
G2 X81.8674 Y21.7767 I-2.0 J0.0
G1 X57.2852
( Profile2 )
S1000
G0 Z3.0
G0 X-1.9998 Y98.9983
G0 Z1.0
G1 F50.0 Z-1.0
G2 F120.0 X0.0002 Y100.9983 I2.0 J0.0
G1 X49.9982
G2 X51.9982 Y98.9983 I0.0 J-2.0
G1 Y0.0
G2 X49.9982 Y-2.0 I-2.0 J0.0
G1 X0.0002
G2 X-1.9998 Y0.0 I0.0 J2.0
G1 Y98.9983
G1 F50.0 Z-2.0
G2 F120.0 X0.0002 Y100.9983 I2.0 J0.0
G1 X49.9982
G2 X51.9982 Y98.9983 I0.0 J-2.0
G1 Y0.0
G2 X49.9982 Y-2.0 I-2.0 J0.0
G1 X0.0002
G2 X-1.9998 Y0.0 I0.0 J2.0
G1 Y98.9983
G1 F50.0 Z-3.0
G2 F120.0 X0.0002 Y100.9983 I2.0 J0.0
G1 X49.9982
G2 X51.9982 Y98.9983 I0.0 J-2.0
G1 Y0.0
G2 X49.9982 Y-2.0 I-2.0 J0.0
G1 X0.0002
G2 X-1.9998 Y0.0 I0.0 J2.0
G1 Y98.9983
G1 F50.0 Z-4.0
G2 F120.0 X0.0002 Y100.9983 I2.0 J0.0
G1 X49.9982
G2 X51.9982 Y98.9983 I0.0 J-2.0
G1 Y0.0
G2 X49.9982 Y-2.0 I-2.0 J0.0
G1 X0.0002
G2 X-1.9998 Y0.0 I0.0 J2.0
G1 Y98.9983
G1 F50.0 Z-4.5
G2 F120.0 X0.0002 Y100.9983 I2.0 J0.0
G1 X49.9982
G2 X51.9982 Y98.9983 I0.0 J-2.0
G1 Y0.0
G2 X49.9982 Y-2.0 I-2.0 J0.0
G1 X0.0002
G2 X-1.9998 Y0.0 I0.0 J2.0
G1 Y98.9983
G0 Z3.0
M5
M30
