( Made using CamBam - http://www.cambam.co.uk )
( camera hole 11/8/2013 2:55:17 PM )
( T4 : 4.0 )
G21 G90 G91.1 G64 G40
G0 Z3.0
( T4 : 4.0 )
T4 M6
( Profile1 )
G17
M3 S1000
G0 X26.0 Y83.9999
G0 Z1.0
G1 F25.0 Z-7.0
G1 F150.0 X25.9809
G1 X2.3094 Y43.0
G1 X25.9809 Y2.0
G1 X73.3234
G1 X96.995 Y43.0
G1 X73.3236 Y83.9999
G1 X26.0
G0 Z3.0
M5
M30
