( Made using CamBam - http://www.cambam.co.uk )
( picker slide - back plate 9/4/2013 11:45:39 AM )
( T16 : 1.0 )
G21 G90 G64 G40
G0 Z3.0
( T16 : 1.0 )
T16 M6
( spot drill )
G17
M3 S1000
G0 X3.0005 Y57.0078
G98
G83 X3.0005 Y57.0078 Z-0.5 Q1.0 R2.0 F50.0
G83 X17.0005 Z-0.5
G83 X30.8724 Z-0.5
G83 X44.8727 Z-0.5
G83 X37.8725 Y70.0003 Z-0.5
G83 X10.0003 Z-0.5
G83 Y10.0003 Z-0.5
G83 X3.0005 Y3.0277 Z-0.5
G83 X17.0005 Z-0.5
G83 X30.8724 Z-0.5
G83 X37.8725 Y10.0003 Z-0.5
G83 X44.8727 Y3.0277 Z-0.5
G80
G0 Z3.0
M5
M30
