( Made using CamBam - http://www.cambam.co.uk )
( picker slide - back plate 9/4/2013 11:34:31 AM )
( T8 : 2.0 )
G21 G90 G64 G40
G0 Z3.0
( T8 : 2.0 )
T8 M6
( 2.5mm drill )
G17
M3 S1000
G0 X3.0005 Y57.0078
G98
G83 X3.0005 Y57.0078 Z-6.0 Q1.0 R2.0 F50.0
G83 X17.0005 Z-6.0
G83 X30.8724 Z-6.0
G83 X44.8727 Z-6.0
G83 X37.8725 Y70.0003 Z-6.0
G83 X10.0003 Z-6.0
G83 Y10.0003 Z-6.0
G83 X3.0005 Y3.0277 Z-6.0
G83 X17.0005 Z-6.0
G83 X30.8724 Z-6.0
G83 X37.8725 Y10.0003 Z-6.0
G83 X44.8727 Y3.0277 Z-6.0
G80
G0 Z3.0
M5
M30
