( Made using CamBam - http://www.cambam.co.uk )
( picker slide - back plate 9/4/2013 11:34:42 AM )
( T4 : 4.0 )
G21 G90 G64 G40
G0 Z3.0
( T4 : 4.0 )
T4 M6
( 4mm mill pocket 1 )
G17
M3 S1000
G0 X10.2004 Y17.1561
G0 Z1.0
G1 F50.0 Z-1.0
G1 F80.0 Y51.2334
G1 X9.8004
G1 Y17.1561
G1 X10.2004
G1 F50.0 Y16.3561
G1 F80.0 X10.2908
G1 X10.2909
G3 X11.0004 Y17.0655 I0.0 J0.7094
G1 Y17.0656
G1 Y51.3237
G3 X10.2908 Y52.0334 I-0.7097 J0.0
G1 X10.2907
G1 X10.2908
G1 X9.7102
G1 X9.7103
G1 X9.7102
G3 X9.0004 Y51.3236 I0.0001 J-0.7099
G1 Y51.3235
G1 Y51.3237
G1 Y51.3236
G1 Y17.0656
G1 Y17.0655
G3 X9.71 Y16.3561 I0.7094 J0.0
G1 X9.7102
G1 X10.2004
G1 F50.0 Y17.1561
G1 Z-2.0
G1 F80.0 Y51.2334
G1 X9.8004
G1 Y17.1561
G1 X10.2004
G1 F50.0 Y16.3561
G1 F80.0 X10.2908
G1 X10.2909
G3 X11.0004 Y17.0655 I0.0 J0.7094
G1 Y17.0656
G1 Y51.3237
G3 X10.2908 Y52.0334 I-0.7097 J0.0
G1 X10.2907
G1 X10.2908
G1 X9.7102
G1 X9.7103
G1 X9.7102
G3 X9.0004 Y51.3236 I0.0001 J-0.7099
G1 Y51.3235
G1 Y51.3237
G1 Y51.3236
G1 Y17.0656
G1 Y17.0655
G3 X9.71 Y16.3561 I0.7094 J0.0
G1 X9.7102
G1 X10.2004
G0 Z3.0
G0 X37.6726 Y17.1561
G0 Z1.0
G1 F50.0 Z-1.0
G1 F80.0 X38.0726
G1 Y51.2334
G1 X37.6726
G1 Y17.1561
G1 F50.0 X36.8726
G1 F80.0 Y17.0656
G1 Y17.0655
G3 X37.5821 Y16.3561 I0.7094 J0.0
G1 X37.5822
G1 X38.163
G1 X38.1631
G3 X38.8726 Y17.0655 I0.0 J0.7094
G1 Y17.0656
G1 Y51.3237
G3 X38.163 Y52.0334 I-0.7097 J0.0
G1 X38.1629
G1 X38.163
G1 X37.5822
G1 X37.5821
G3 X36.8726 Y51.3239 I0.0 J-0.7094
G1 Y51.3237
G1 Y17.1561
G1 F50.0 X37.6726
G1 Z-2.0
G1 F80.0 X38.0726
G1 Y51.2334
G1 X37.6726
G1 Y17.1561
G1 F50.0 X36.8726
G1 F80.0 Y17.0656
G1 Y17.0655
G3 X37.5821 Y16.3561 I0.7094 J0.0
G1 X37.5822
G1 X38.163
G1 X38.1631
G3 X38.8726 Y17.0655 I0.0 J0.7094
G1 Y17.0656
G1 Y51.3237
G3 X38.163 Y52.0334 I-0.7097 J0.0
G1 X38.1629
G1 X38.163
G1 X37.5822
G1 X37.5821
G3 X36.8726 Y51.3239 I0.0 J-0.7094
G1 Y51.3237
G1 Y17.1561
G0 Z3.0
M5
M30
