( Made using CamBam - http://www.cambam.co.uk )
( picker slide - back plate 9/4/2013 11:34:55 AM )
( T4 : 4.0 )
G21 G90 G64 G40
G0 Z3.0
( T4 : 4.0 )
T4 M6
( 4mm mill pocket 2 )
G17
M3 S1000
G0 X3.1004 Y57.0093
G0 Z1.0
G1 F50.0 Z-1.0
G3 F80.0 X3.0006 Y57.1085 I-0.0998 J-0.0006
G2 X3.0 I-0.0001 J2.8
G3 X2.9004 Y57.0094 I0.0 J-0.0996
G3 X3.0004 Y56.9095 I0.1004 J0.0005
G3 X3.1004 Y57.0093 I-0.0004 J0.1004
G1 F50.0 X3.9004 Y57.014
G3 F80.0 X3.0006 Y57.9085 I-0.8998 J-0.0053
G2 X3.0002 I-0.0001 J2.0
G3 X2.1004 Y57.0093 I-0.0001 J-0.8996
G3 X3.0005 Y56.1095 I0.9004 J0.0007
G3 X3.9004 Y57.0092 I-0.0004 J0.9004
G3 Y57.014 I-0.8998 J-0.0005
G1 F50.0 X3.1004 Y57.0093
G1 Z-2.0
G3 F80.0 X3.0006 Y57.1085 I-0.0998 J-0.0006
G2 X3.0 I-0.0001 J2.8
G3 X2.9004 Y57.0094 I0.0 J-0.0996
G3 X3.0004 Y56.9095 I0.1004 J0.0005
G3 X3.1004 Y57.0093 I-0.0004 J0.1004
G1 F50.0 X3.9004 Y57.014
G3 F80.0 X3.0006 Y57.9085 I-0.8998 J-0.0053
G2 X3.0002 I-0.0001 J2.0
G3 X2.1004 Y57.0093 I-0.0001 J-0.8996
G3 X3.0005 Y56.1095 I0.9004 J0.0007
G3 X3.9004 Y57.0092 I-0.0004 J0.9004
G3 Y57.014 I-0.8998 J-0.0005
G0 Z3.0
G0 X16.9004 Y57.0093
G0 Z1.0
G1 F50.0 Z-1.0
G3 F80.0 X17.0005 Y56.9095 I0.1004 J0.0006
G3 X17.1006 Y57.0094 I-0.0004 J0.1005
G3 X17.0008 Y57.1085 I-0.0998 J-0.0006
G2 X17.0002 I-0.0003 J2.8
G3 X16.9004 Y57.0093 I0.0 J-0.0998
G1 F50.0 X16.1004 Y57.0141
G3 F80.0 Y57.0092 I0.8997 J-0.0053
G3 X17.0005 Y56.1095 I0.9004 J0.0007
G3 X17.9006 Y57.0092 I-0.0004 J0.9005
G3 X17.0007 Y57.9085 I-0.8998 J-0.0005
G2 X17.0003 I-0.0002 J2.0
G3 X16.1004 Y57.0141 I-0.0001 J-0.8998
G1 F50.0 X16.9004 Y57.0093
G1 Z-2.0
G3 F80.0 X17.0005 Y56.9095 I0.1004 J0.0006
G3 X17.1006 Y57.0094 I-0.0004 J0.1005
G3 X17.0008 Y57.1085 I-0.0998 J-0.0006
G2 X17.0002 I-0.0003 J2.8
G3 X16.9004 Y57.0093 I0.0 J-0.0998
G1 F50.0 X16.1004 Y57.0141
G3 F80.0 Y57.0092 I0.8997 J-0.0053
G3 X17.0005 Y56.1095 I0.9004 J0.0007
G3 X17.9006 Y57.0092 I-0.0004 J0.9005
G3 X17.0007 Y57.9085 I-0.8998 J-0.0005
G2 X17.0003 I-0.0002 J2.0
G3 X16.1004 Y57.0141 I-0.0001 J-0.8998
G0 Z3.0
G0 X30.7721 Y57.0093
G0 Z1.0
G1 F50.0 Z-1.0
G3 F80.0 X30.8724 Y56.9095 I0.1004 J0.0006
G3 X30.8725 I0.0001 J0.1004
G1 X30.8722
G3 X30.8724 I0.0 J0.1
G3 X30.9723 Y57.0093 I-0.0001 J0.1
G3 X30.8728 Y57.1085 I-0.0994 J-0.0002
G2 X30.872 I-0.0006 J2.8
G3 X30.7721 Y57.0093 I0.0 J-0.0998
G1 F50.0 X29.9721 Y57.0041
G3 F80.0 X30.8723 Y56.1095 I0.9003 J0.0058
G1 X30.8724
G1 X30.8722
G1 X30.8723
G3 X31.7723 Y57.0092 I-0.0001 J0.9
G3 X30.8727 Y57.9085 I-0.8994 J-0.0001
G2 X30.872 I-0.0005 J2.0
G3 X29.9721 Y57.0092 I-0.0001 J-0.8998
G3 Y57.0041 I0.9004 J0.0007
G1 F50.0 X30.7721 Y57.0093
G1 Z-2.0
G3 F80.0 X30.8724 Y56.9095 I0.1004 J0.0006
G3 X30.8725 I0.0001 J0.1004
G1 X30.8722
G3 X30.8724 I0.0 J0.1
G3 X30.9723 Y57.0093 I-0.0001 J0.1
G3 X30.8728 Y57.1085 I-0.0994 J-0.0002
G2 X30.872 I-0.0006 J2.8
G3 X30.7721 Y57.0093 I0.0 J-0.0998
G1 F50.0 X29.9721 Y57.0041
G3 F80.0 X30.8723 Y56.1095 I0.9003 J0.0058
G1 X30.8724
G1 X30.8722
G1 X30.8723
G3 X31.7723 Y57.0092 I-0.0001 J0.9
G3 X30.8727 Y57.9085 I-0.8994 J-0.0001
G2 X30.872 I-0.0005 J2.0
G3 X29.9721 Y57.0092 I-0.0001 J-0.8998
G3 Y57.0041 I0.9004 J0.0007
G0 Z3.0
G0 X44.7726 Y57.0093
G0 Z1.0
G1 F50.0 Z-1.0
G3 F80.0 X44.8727 Y56.9095 I0.1004 J0.0006
G3 X44.9728 Y57.0094 I-0.0004 J0.1005
G3 X44.873 Y57.1085 I-0.0998 J-0.0006
G2 X44.8724 I-0.0003 J2.8
G3 X44.7726 Y57.0093 I0.0 J-0.0998
G1 F50.0 X43.9726 Y57.0141
G3 F80.0 Y57.0092 I0.8997 J-0.0053
G3 X44.8727 Y56.1095 I0.9004 J0.0007
G3 X45.7728 Y57.0092 I-0.0004 J0.9005
G3 X44.8729 Y57.9085 I-0.8998 J-0.0005
G2 X44.8725 I-0.0002 J2.0
G3 X43.9726 Y57.0141 I-0.0001 J-0.8998
G1 F50.0 X44.7726 Y57.0093
G1 Z-2.0
G3 F80.0 X44.8727 Y56.9095 I0.1004 J0.0006
G3 X44.9728 Y57.0094 I-0.0004 J0.1005
G3 X44.873 Y57.1085 I-0.0998 J-0.0006
G2 X44.8724 I-0.0003 J2.8
G3 X44.7726 Y57.0093 I0.0 J-0.0998
G1 F50.0 X43.9726 Y57.0141
G3 F80.0 Y57.0092 I0.8997 J-0.0053
G3 X44.8727 Y56.1095 I0.9004 J0.0007
G3 X45.7728 Y57.0092 I-0.0004 J0.9005
G3 X44.8729 Y57.9085 I-0.8998 J-0.0005
G2 X44.8725 I-0.0002 J2.0
G3 X43.9726 Y57.0141 I-0.0001 J-0.8998
G0 Z3.0
G0 X44.8704 Y3.1287
G0 Z1.0
G1 F50.0 Z-1.0
G3 F80.0 X44.7726 Y3.0296 I0.0017 J-0.0994
G3 X44.8727 Y2.9295 I0.1004 J0.0004
G3 X44.9728 Y3.0294 I-0.0004 J0.1005
G3 X44.873 Y3.1287 I-0.0998 J-0.0006
G2 X44.872 I-0.0002 J2.8
G3 X44.8704 I0.0 J-0.0994
G1 F50.0 X44.857 Y3.9285
G3 F80.0 X43.9726 Y3.0294 I0.015 J-0.8993
G3 X44.8727 Y2.1295 I0.9004 J0.0005
G3 X45.7728 Y3.0293 I-0.0004 J0.9005
G3 X44.8729 Y3.9287 I-0.8998 J-0.0004
G2 X44.8722 I-0.0002 J2.0
G3 X44.857 Y3.9285 I-0.0002 J-0.8994
G1 F50.0 X44.8704 Y3.1287
G1 Z-2.0
G3 F80.0 X44.7726 Y3.0296 I0.0017 J-0.0994
G3 X44.8727 Y2.9295 I0.1004 J0.0004
G3 X44.9728 Y3.0294 I-0.0004 J0.1005
G3 X44.873 Y3.1287 I-0.0998 J-0.0006
G2 X44.872 I-0.0002 J2.8
G3 X44.8704 I0.0 J-0.0994
G1 F50.0 X44.857 Y3.9285
G3 F80.0 X43.9726 Y3.0294 I0.015 J-0.8993
G3 X44.8727 Y2.1295 I0.9004 J0.0005
G3 X45.7728 Y3.0293 I-0.0004 J0.9005
G3 X44.8729 Y3.9287 I-0.8998 J-0.0004
G2 X44.8722 I-0.0002 J2.0
G3 X44.857 Y3.9285 I-0.0002 J-0.8994
G0 Z3.0
G0 X30.9721 Y3.0352
G0 Z1.0
G1 F50.0 Z-1.0
G3 F80.0 X30.8724 Y3.1287 I-0.0997 J-0.0064
G1 X30.872
G3 X30.7721 Y3.0293 I0.0 J-0.0999
G3 X30.8724 Y2.9295 I0.1004 J0.0006
G3 X30.8725 I0.0001 J0.1004
G1 X30.8722
G3 X30.8724 I0.0 J0.1
G3 X30.9723 Y3.0292 I-0.0001 J0.1
G3 X30.9721 Y3.0352 I-0.0999 J-0.0004
G1 F50.0 X31.7704 Y3.0866
G3 F80.0 X30.8723 Y3.9287 I-0.898 J-0.0578
G1 X30.872
G3 X29.9721 Y3.0292 I-0.0001 J-0.8999
G3 X30.8723 Y2.1295 I0.9004 J0.0007
G1 X30.8724
G1 X30.8722
G1 X30.8723
G3 X31.7723 Y3.0291 I-0.0001 J0.9
G3 X31.7704 Y3.0866 I-0.8999 J-0.0003
G1 F50.0 X30.9721 Y3.0352
G1 Z-2.0
G3 F80.0 X30.8724 Y3.1287 I-0.0997 J-0.0064
G1 X30.872
G3 X30.7721 Y3.0293 I0.0 J-0.0999
G3 X30.8724 Y2.9295 I0.1004 J0.0006
G3 X30.8725 I0.0001 J0.1004
G1 X30.8722
G3 X30.8724 I0.0 J0.1
G3 X30.9723 Y3.0292 I-0.0001 J0.1
G3 X30.9721 Y3.0352 I-0.0999 J-0.0004
G1 F50.0 X31.7704 Y3.0866
G3 F80.0 X30.8723 Y3.9287 I-0.898 J-0.0578
G1 X30.872
G3 X29.9721 Y3.0292 I-0.0001 J-0.8999
G3 X30.8723 Y2.1295 I0.9004 J0.0007
G1 X30.8724
G1 X30.8722
G1 X30.8723
G3 X31.7723 Y3.0291 I-0.0001 J0.9
G3 X31.7704 Y3.0866 I-0.8999 J-0.0003
G0 Z3.0
G0 X17.1006 Y3.0294
G0 Z1.0
G1 F50.0 Z-1.0
G3 F80.0 X17.0008 Y3.1287 I-0.0998 J-0.0006
G2 X16.9998 I-0.0002 J2.8
G3 X16.9004 Y3.0296 I0.0 J-0.0994
G3 X17.0005 Y2.9295 I0.1004 J0.0004
G3 X17.1006 Y3.0294 I-0.0004 J0.1005
G1 F50.0 X17.9006 Y3.0341
G3 F80.0 X17.0007 Y3.9287 I-0.8998 J-0.0052
G2 X17.0 I-0.0002 J2.0
G3 X16.1004 Y3.0294 I-0.0002 J-0.8994
G3 X17.0005 Y2.1295 I0.9004 J0.0005
G3 X17.9006 Y3.0293 I-0.0004 J0.9005
G3 Y3.0341 I-0.8998 J-0.0004
G1 F50.0 X17.1006 Y3.0294
G1 Z-2.0
G3 F80.0 X17.0008 Y3.1287 I-0.0998 J-0.0006
G2 X16.9998 I-0.0002 J2.8
G3 X16.9004 Y3.0296 I0.0 J-0.0994
G3 X17.0005 Y2.9295 I0.1004 J0.0004
G3 X17.1006 Y3.0294 I-0.0004 J0.1005
G1 F50.0 X17.9006 Y3.0341
G3 F80.0 X17.0007 Y3.9287 I-0.8998 J-0.0052
G2 X17.0 I-0.0002 J2.0
G3 X16.1004 Y3.0294 I-0.0002 J-0.8994
G3 X17.0005 Y2.1295 I0.9004 J0.0005
G3 X17.9006 Y3.0293 I-0.0004 J0.9005
G3 Y3.0341 I-0.8998 J-0.0004
G0 Z3.0
G0 X3.1004 Y3.0295
G0 Z1.0
G1 F50.0 Z-1.0
G3 F80.0 X3.001 Y3.1287 I-0.0994 J-0.0003
G2 X3.0004 I-0.0004 J2.8
G3 X2.9004 Y3.0293 I0.0 J-0.1
G3 X3.0004 Y2.9295 I0.1004 J0.0007
G3 X3.1004 Y3.0295 I-0.0004 J0.1004
G1 F50.0 X3.9004 Y3.0321
G3 F80.0 X3.0008 Y3.9287 I-0.8994 J-0.0029
G2 X3.0005 I-0.0003 J2.0
G3 X2.1004 Y3.0292 I0.0 J-0.9
G3 X3.0005 Y2.1295 I0.9004 J0.0007
G3 X3.9004 Y3.0294 I-0.0004 J0.9004
G3 Y3.0321 I-0.8994 J-0.0001
G1 F50.0 X3.1004 Y3.0295
G1 Z-2.0
G3 F80.0 X3.001 Y3.1287 I-0.0994 J-0.0003
G2 X3.0004 I-0.0004 J2.8
G3 X2.9004 Y3.0293 I0.0 J-0.1
G3 X3.0004 Y2.9295 I0.1004 J0.0007
G3 X3.1004 Y3.0295 I-0.0004 J0.1004
G1 F50.0 X3.9004 Y3.0321
G3 F80.0 X3.0008 Y3.9287 I-0.8994 J-0.0029
G2 X3.0005 I-0.0003 J2.0
G3 X2.1004 Y3.0292 I0.0 J-0.9
G3 X3.0005 Y2.1295 I0.9004 J0.0007
G3 X3.9004 Y3.0294 I-0.0004 J0.9004
G3 Y3.0321 I-0.8994 J-0.0001
G0 Z3.0
M5
M30
