( Made using CamBam - http://www.cambam.co.uk )
( picker slide - back plate 9/4/2013 11:35:08 AM )
( T4 : 4.0 )
G21 G90 G64 G40
G0 Z3.0
( T4 : 4.0 )
T4 M6
( 4mm mill profile )
G17
M3 S1000
G0 X20.0005 Y48.0002
G0 Z1.0
G1 F50.0 Z-1.0
G1 F80.0 X17.0003
G1 Y8.0
G1 X20.0005
G2 X22.0005 Y6.0 I0.0 J-2.0
G1 Y0.0
G2 X20.0005 Y-2.0 I-2.0 J0.0
G1 X15.0003
G1 X5.0004
G1 X0.0003
G2 X-1.9997 Y0.0 I0.0 J2.0
G1 Y6.0
G2 X0.0003 Y8.0 I2.0 J0.0
G1 X3.0004
G1 Y48.0002
G1 X0.0003
G2 X-1.9997 Y50.0002 I0.0 J2.0
G1 Y60.0003
G2 X0.0003 Y62.0003 I2.0 J0.0
G1 X3.0004
G1 Y70.0002
G2 X3.0006 Y70.0323 I2.0 J0.0
G2 X3.0465 Y70.699 I6.3419 J-0.1017
G2 X3.0624 Y70.8237 I3.0108 J-0.3206
G2 X3.1921 Y71.5302 I7.1973 J-0.9553
G2 X3.6629 Y72.9279 I7.2987 J-1.6806
G2 X3.6666 Y72.936 I1.8233 J-0.822
G2 X4.1604 Y73.8331 I6.2011 J-2.8289
G2 X5.0841 Y74.9381 I5.078 J-3.3061
G2 X6.6697 Y76.0183 I4.1796 J-4.4315
G2 X7.6552 Y76.3919 I2.8563 J-6.047
G2 X7.6565 Y76.3923 I0.5595 J-1.9202
G2 X8.7744 Y76.6282 I2.1309 J-7.3308
G2 X10.0041 Y76.7083 I1.1888 J-8.7751
G2 X11.4039 Y76.6009 I0.0083 J-9.0669
G2 X11.4053 Y76.6007 I-0.3069 J-1.9763
G2 X12.8753 Y76.2079 I-1.1047 J-7.0822
G2 X15.4928 Y74.291 I-2.1904 J-5.7365
G2 X15.501 Y74.2807 I-1.566 J-1.2441
G2 X16.5203 Y72.4554 I-5.314 J-4.165
G2 X16.8344 Y71.3818 I-7.4132 J-2.7511
G2 X16.9994 Y70.0587 I-6.8708 J-1.5291
G2 X17.0003 Y70.0002 I-1.9991 J-0.0585
G1 Y62.0003
G1 X20.0005
G2 X22.0005 Y60.0003 I0.0 J-2.0
G1 Y50.0002
G2 X20.0005 Y48.0002 I-2.0 J0.0
G1 F50.0 Z-2.0
G1 F80.0 X17.0003
G1 Y8.0
G1 X20.0005
G2 X22.0005 Y6.0 I0.0 J-2.0
G1 Y0.0
G2 X20.0005 Y-2.0 I-2.0 J0.0
G1 X15.0003
G1 X5.0004
G1 X0.0003
G2 X-1.9997 Y0.0 I0.0 J2.0
G1 Y6.0
G2 X0.0003 Y8.0 I2.0 J0.0
G1 X3.0004
G1 Y48.0002
G1 X0.0003
G2 X-1.9997 Y50.0002 I0.0 J2.0
G1 Y60.0003
G2 X0.0003 Y62.0003 I2.0 J0.0
G1 X3.0004
G1 Y70.0002
G2 X3.0006 Y70.0323 I2.0 J0.0
G2 X3.0465 Y70.699 I6.3419 J-0.1017
G2 X3.0624 Y70.8237 I3.0108 J-0.3206
G2 X3.1921 Y71.5302 I7.1973 J-0.9553
G2 X3.6629 Y72.9279 I7.2987 J-1.6806
G2 X3.6666 Y72.936 I1.8233 J-0.822
G2 X4.1604 Y73.8331 I6.2011 J-2.8289
G2 X5.0841 Y74.9381 I5.078 J-3.3061
G2 X6.6697 Y76.0183 I4.1796 J-4.4315
G2 X7.6552 Y76.3919 I2.8563 J-6.047
G2 X7.6565 Y76.3923 I0.5595 J-1.9202
G2 X8.7744 Y76.6282 I2.1309 J-7.3308
G2 X10.0041 Y76.7083 I1.1888 J-8.7751
G2 X11.4039 Y76.6009 I0.0083 J-9.0669
G2 X11.4053 Y76.6007 I-0.3069 J-1.9763
G2 X12.8753 Y76.2079 I-1.1047 J-7.0822
G2 X15.4928 Y74.291 I-2.1904 J-5.7365
G2 X15.501 Y74.2807 I-1.566 J-1.2441
G2 X16.5203 Y72.4554 I-5.314 J-4.165
G2 X16.8344 Y71.3818 I-7.4132 J-2.7511
G2 X16.9994 Y70.0587 I-6.8708 J-1.5291
G2 X17.0003 Y70.0002 I-1.9991 J-0.0585
G1 Y62.0003
G1 X20.0005
G2 X22.0005 Y60.0003 I0.0 J-2.0
G1 Y50.0002
G2 X20.0005 Y48.0002 I-2.0 J0.0
G1 F50.0 Z-3.0
G1 F80.0 X17.0003
G1 Y8.0
G1 X20.0005
G2 X22.0005 Y6.0 I0.0 J-2.0
G1 Y0.0
G2 X20.0005 Y-2.0 I-2.0 J0.0
G1 X15.0003
G1 X5.0004
G1 X0.0003
G2 X-1.9997 Y0.0 I0.0 J2.0
G1 Y6.0
G2 X0.0003 Y8.0 I2.0 J0.0
G1 X3.0004
G1 Y48.0002
G1 X0.0003
G2 X-1.9997 Y50.0002 I0.0 J2.0
G1 Y60.0003
G2 X0.0003 Y62.0003 I2.0 J0.0
G1 X3.0004
G1 Y70.0002
G2 X3.0006 Y70.0323 I2.0 J0.0
G2 X3.0465 Y70.699 I6.3419 J-0.1017
G2 X3.0624 Y70.8237 I3.0108 J-0.3206
G2 X3.1921 Y71.5302 I7.1973 J-0.9553
G2 X3.6629 Y72.9279 I7.2987 J-1.6806
G2 X3.6666 Y72.936 I1.8233 J-0.822
G2 X4.1604 Y73.8331 I6.2011 J-2.8289
G2 X5.0841 Y74.9381 I5.078 J-3.3061
G2 X6.6697 Y76.0183 I4.1796 J-4.4315
G2 X7.6552 Y76.3919 I2.8563 J-6.047
G2 X7.6565 Y76.3923 I0.5595 J-1.9202
G2 X8.7744 Y76.6282 I2.1309 J-7.3308
G2 X10.0041 Y76.7083 I1.1888 J-8.7751
G2 X11.4039 Y76.6009 I0.0083 J-9.0669
G2 X11.4053 Y76.6007 I-0.3069 J-1.9763
G2 X12.8753 Y76.2079 I-1.1047 J-7.0822
G2 X15.4928 Y74.291 I-2.1904 J-5.7365
G2 X15.501 Y74.2807 I-1.566 J-1.2441
G2 X16.5203 Y72.4554 I-5.314 J-4.165
G2 X16.8344 Y71.3818 I-7.4132 J-2.7511
G2 X16.9994 Y70.0587 I-6.8708 J-1.5291
G2 X17.0003 Y70.0002 I-1.9991 J-0.0585
G1 Y62.0003
G1 X20.0005
G2 X22.0005 Y60.0003 I0.0 J-2.0
G1 Y50.0002
G2 X20.0005 Y48.0002 I-2.0 J0.0
G1 F50.0 Z-4.0
G1 F80.0 X17.0003
G1 Y8.0
G1 X20.0005
G2 X22.0005 Y6.0 I0.0 J-2.0
G1 Y0.0
G2 X20.0005 Y-2.0 I-2.0 J0.0
G1 X15.0003
G1 X5.0004
G1 X0.0003
G2 X-1.9997 Y0.0 I0.0 J2.0
G1 Y6.0
G2 X0.0003 Y8.0 I2.0 J0.0
G1 X3.0004
G1 Y48.0002
G1 X0.0003
G2 X-1.9997 Y50.0002 I0.0 J2.0
G1 Y60.0003
G2 X0.0003 Y62.0003 I2.0 J0.0
G1 X3.0004
G1 Y70.0002
G2 X3.0006 Y70.0323 I2.0 J0.0
G2 X3.0465 Y70.699 I6.3419 J-0.1017
G2 X3.0624 Y70.8237 I3.0108 J-0.3206
G2 X3.1921 Y71.5302 I7.1973 J-0.9553
G2 X3.6629 Y72.9279 I7.2987 J-1.6806
G2 X3.6666 Y72.936 I1.8233 J-0.822
G2 X4.1604 Y73.8331 I6.2011 J-2.8289
G2 X5.0841 Y74.9381 I5.078 J-3.3061
G2 X6.6697 Y76.0183 I4.1796 J-4.4315
G2 X7.6552 Y76.3919 I2.8563 J-6.047
G2 X7.6565 Y76.3923 I0.5595 J-1.9202
G2 X8.7744 Y76.6282 I2.1309 J-7.3308
G2 X10.0041 Y76.7083 I1.1888 J-8.7751
G2 X11.4039 Y76.6009 I0.0083 J-9.0669
G2 X11.4053 Y76.6007 I-0.3069 J-1.9763
G2 X12.8753 Y76.2079 I-1.1047 J-7.0822
G2 X15.4928 Y74.291 I-2.1904 J-5.7365
G2 X15.501 Y74.2807 I-1.566 J-1.2441
G2 X16.5203 Y72.4554 I-5.314 J-4.165
G2 X16.8344 Y71.3818 I-7.4132 J-2.7511
G2 X16.9994 Y70.0587 I-6.8708 J-1.5291
G2 X17.0003 Y70.0002 I-1.9991 J-0.0585
G1 Y62.0003
G1 X20.0005
G2 X22.0005 Y60.0003 I0.0 J-2.0
G1 Y50.0002
G2 X20.0005 Y48.0002 I-2.0 J0.0
G1 F50.0 Z-4.5
G1 F80.0 X17.0003
G1 Y8.0
G1 X20.0005
G2 X22.0005 Y6.0 I0.0 J-2.0
G1 Y0.0
G2 X20.0005 Y-2.0 I-2.0 J0.0
G1 X15.0003
G1 X5.0004
G1 X0.0003
G2 X-1.9997 Y0.0 I0.0 J2.0
G1 Y6.0
G2 X0.0003 Y8.0 I2.0 J0.0
G1 X3.0004
G1 Y48.0002
G1 X0.0003
G2 X-1.9997 Y50.0002 I0.0 J2.0
G1 Y60.0003
G2 X0.0003 Y62.0003 I2.0 J0.0
G1 X3.0004
G1 Y70.0002
G2 X3.0006 Y70.0323 I2.0 J0.0
G2 X3.0465 Y70.699 I6.3419 J-0.1017
G2 X3.0624 Y70.8237 I3.0108 J-0.3206
G2 X3.1921 Y71.5302 I7.1973 J-0.9553
G2 X3.6629 Y72.9279 I7.2987 J-1.6806
G2 X3.6666 Y72.936 I1.8233 J-0.822
G2 X4.1604 Y73.8331 I6.2011 J-2.8289
G2 X5.0841 Y74.9381 I5.078 J-3.3061
G2 X6.6697 Y76.0183 I4.1796 J-4.4315
G2 X7.6552 Y76.3919 I2.8563 J-6.047
G2 X7.6565 Y76.3923 I0.5595 J-1.9202
G2 X8.7744 Y76.6282 I2.1309 J-7.3308
G2 X10.0041 Y76.7083 I1.1888 J-8.7751
G2 X11.4039 Y76.6009 I0.0083 J-9.0669
G2 X11.4053 Y76.6007 I-0.3069 J-1.9763
G2 X12.8753 Y76.2079 I-1.1047 J-7.0822
G2 X15.4928 Y74.291 I-2.1904 J-5.7365
G2 X15.501 Y74.2807 I-1.566 J-1.2441
G2 X16.5203 Y72.4554 I-5.314 J-4.165
G2 X16.8344 Y71.3818 I-7.4132 J-2.7511
G2 X16.9994 Y70.0587 I-6.8708 J-1.5291
G2 X17.0003 Y70.0002 I-1.9991 J-0.0585
G1 Y62.0003
G1 X20.0005
G2 X22.0005 Y60.0003 I0.0 J-2.0
G1 Y50.0002
G2 X20.0005 Y48.0002 I-2.0 J0.0
G0 Z3.0
G0 X25.9338 Y49.5077
G0 Z1.0
G1 F50.0 Z-1.0
G2 F80.0 X25.8722 Y50.0002 I1.9384 J0.4925
G1 Y60.0003
G2 X27.8722 Y62.0003 I2.0 J0.0
G1 X30.8724
G1 Y70.0002
G2 X30.8727 Y70.0343 I2.0 J0.0
G2 X30.9433 Y70.8868 I6.5201 J-0.111
G2 X31.1009 Y71.6823 I7.1881 J-1.01
G2 X31.6766 Y73.2213 I7.1304 J-1.7903
G2 X31.6811 Y73.2301 I1.7832 J-0.9057
G2 X32.2967 Y74.2058 I5.8417 J-3.0034
G2 X32.2997 Y74.2098 I1.5913 J-1.2116
G2 X33.4255 Y75.3379 I4.841 J-3.7052
G2 X33.4343 Y75.3447 I1.2189 J-1.5857
G2 X35.2793 Y76.3143 I3.8169 J-5.0228
G2 X36.3803 Y76.5876 I2.2449 J-6.6891
G2 X36.4009 Y76.5908 I0.3242 J-1.9735
G1 X36.6098 Y76.6229
G2 X36.6444 Y76.6279 I0.3037 J-1.9768
G2 X37.8764 Y76.7083 I1.1906 J-8.7714
G2 X39.2761 Y76.6009 I0.0083 J-9.0669
G2 X39.2775 Y76.6007 I-0.3069 J-1.9763
G2 X40.7475 Y76.2079 I-1.1047 J-7.0822
G2 X43.365 Y74.291 I-2.1904 J-5.7365
G2 X43.3732 Y74.2807 I-1.566 J-1.2441
G2 X44.3925 Y72.4554 I-5.314 J-4.165
G2 X44.7066 Y71.3818 I-7.4132 J-2.7511
G2 X44.8716 Y70.0587 I-6.8708 J-1.5291
G2 X44.8725 Y70.0002 I-1.9991 J-0.0585
G1 Y62.0003
G1 X47.8727
G2 X49.8727 Y60.0003 I0.0 J-2.0
G1 Y50.0002
G2 X47.8727 Y48.0002 I-2.0 J0.0
G1 X44.8725
G1 Y8.0
G1 X47.8727
G2 X49.8727 Y6.0 I0.0 J-2.0
G1 Y0.0
G2 X47.8727 Y-2.0 I-2.0 J0.0
G1 X42.8725
G1 X32.8724
G1 X27.8722
G2 X25.8722 Y0.0 I0.0 J2.0
G1 Y6.0
G2 X27.8722 Y8.0 I2.0 J0.0
G1 X30.8724
G1 Y48.0002
G1 X27.8722
G2 X25.9338 Y49.5077 I0.0 J2.0
G1 F50.0 Z-2.0
G2 F80.0 X25.8722 Y50.0002 I1.9384 J0.4925
G1 Y60.0003
G2 X27.8722 Y62.0003 I2.0 J0.0
G1 X30.8724
G1 Y70.0002
G2 X30.8727 Y70.0343 I2.0 J0.0
G2 X30.9433 Y70.8868 I6.5201 J-0.111
G2 X31.1009 Y71.6823 I7.1881 J-1.01
G2 X31.6766 Y73.2213 I7.1304 J-1.7903
G2 X31.6811 Y73.2301 I1.7832 J-0.9057
G2 X32.2967 Y74.2058 I5.8417 J-3.0034
G2 X32.2997 Y74.2098 I1.5913 J-1.2116
G2 X33.4255 Y75.3379 I4.841 J-3.7052
G2 X33.4343 Y75.3447 I1.2189 J-1.5857
G2 X35.2793 Y76.3143 I3.8169 J-5.0228
G2 X36.3803 Y76.5876 I2.2449 J-6.6891
G2 X36.4009 Y76.5908 I0.3242 J-1.9735
G1 X36.6098 Y76.6229
G2 X36.6444 Y76.6279 I0.3037 J-1.9768
G2 X37.8764 Y76.7083 I1.1906 J-8.7714
G2 X39.2761 Y76.6009 I0.0083 J-9.0669
G2 X39.2775 Y76.6007 I-0.3069 J-1.9763
G2 X40.7475 Y76.2079 I-1.1047 J-7.0822
G2 X43.365 Y74.291 I-2.1904 J-5.7365
G2 X43.3732 Y74.2807 I-1.566 J-1.2441
G2 X44.3925 Y72.4554 I-5.314 J-4.165
G2 X44.7066 Y71.3818 I-7.4132 J-2.7511
G2 X44.8716 Y70.0587 I-6.8708 J-1.5291
G2 X44.8725 Y70.0002 I-1.9991 J-0.0585
G1 Y62.0003
G1 X47.8727
G2 X49.8727 Y60.0003 I0.0 J-2.0
G1 Y50.0002
G2 X47.8727 Y48.0002 I-2.0 J0.0
G1 X44.8725
G1 Y8.0
G1 X47.8727
G2 X49.8727 Y6.0 I0.0 J-2.0
G1 Y0.0
G2 X47.8727 Y-2.0 I-2.0 J0.0
G1 X42.8725
G1 X32.8724
G1 X27.8722
G2 X25.8722 Y0.0 I0.0 J2.0
G1 Y6.0
G2 X27.8722 Y8.0 I2.0 J0.0
G1 X30.8724
G1 Y48.0002
G1 X27.8722
G2 X25.9338 Y49.5077 I0.0 J2.0
G1 F50.0 Z-3.0
G2 F80.0 X25.8722 Y50.0002 I1.9384 J0.4925
G1 Y60.0003
G2 X27.8722 Y62.0003 I2.0 J0.0
G1 X30.8724
G1 Y70.0002
G2 X30.8727 Y70.0343 I2.0 J0.0
G2 X30.9433 Y70.8868 I6.5201 J-0.111
G2 X31.1009 Y71.6823 I7.1881 J-1.01
G2 X31.6766 Y73.2213 I7.1304 J-1.7903
G2 X31.6811 Y73.2301 I1.7832 J-0.9057
G2 X32.2967 Y74.2058 I5.8417 J-3.0034
G2 X32.2997 Y74.2098 I1.5913 J-1.2116
G2 X33.4255 Y75.3379 I4.841 J-3.7052
G2 X33.4343 Y75.3447 I1.2189 J-1.5857
G2 X35.2793 Y76.3143 I3.8169 J-5.0228
G2 X36.3803 Y76.5876 I2.2449 J-6.6891
G2 X36.4009 Y76.5908 I0.3242 J-1.9735
G1 X36.6098 Y76.6229
G2 X36.6444 Y76.6279 I0.3037 J-1.9768
G2 X37.8764 Y76.7083 I1.1906 J-8.7714
G2 X39.2761 Y76.6009 I0.0083 J-9.0669
G2 X39.2775 Y76.6007 I-0.3069 J-1.9763
G2 X40.7475 Y76.2079 I-1.1047 J-7.0822
G2 X43.365 Y74.291 I-2.1904 J-5.7365
G2 X43.3732 Y74.2807 I-1.566 J-1.2441
G2 X44.3925 Y72.4554 I-5.314 J-4.165
G2 X44.7066 Y71.3818 I-7.4132 J-2.7511
G2 X44.8716 Y70.0587 I-6.8708 J-1.5291
G2 X44.8725 Y70.0002 I-1.9991 J-0.0585
G1 Y62.0003
G1 X47.8727
G2 X49.8727 Y60.0003 I0.0 J-2.0
G1 Y50.0002
G2 X47.8727 Y48.0002 I-2.0 J0.0
G1 X44.8725
G1 Y8.0
G1 X47.8727
G2 X49.8727 Y6.0 I0.0 J-2.0
G1 Y0.0
G2 X47.8727 Y-2.0 I-2.0 J0.0
G1 X42.8725
G1 X32.8724
G1 X27.8722
G2 X25.8722 Y0.0 I0.0 J2.0
G1 Y6.0
G2 X27.8722 Y8.0 I2.0 J0.0
G1 X30.8724
G1 Y48.0002
G1 X27.8722
G2 X25.9338 Y49.5077 I0.0 J2.0
G1 F50.0 Z-4.0
G2 F80.0 X25.8722 Y50.0002 I1.9384 J0.4925
G1 Y60.0003
G2 X27.8722 Y62.0003 I2.0 J0.0
G1 X30.8724
G1 Y70.0002
G2 X30.8727 Y70.0343 I2.0 J0.0
G2 X30.9433 Y70.8868 I6.5201 J-0.111
G2 X31.1009 Y71.6823 I7.1881 J-1.01
G2 X31.6766 Y73.2213 I7.1304 J-1.7903
G2 X31.6811 Y73.2301 I1.7832 J-0.9057
G2 X32.2967 Y74.2058 I5.8417 J-3.0034
G2 X32.2997 Y74.2098 I1.5913 J-1.2116
G2 X33.4255 Y75.3379 I4.841 J-3.7052
G2 X33.4343 Y75.3447 I1.2189 J-1.5857
G2 X35.2793 Y76.3143 I3.8169 J-5.0228
G2 X36.3803 Y76.5876 I2.2449 J-6.6891
G2 X36.4009 Y76.5908 I0.3242 J-1.9735
G1 X36.6098 Y76.6229
G2 X36.6444 Y76.6279 I0.3037 J-1.9768
G2 X37.8764 Y76.7083 I1.1906 J-8.7714
G2 X39.2761 Y76.6009 I0.0083 J-9.0669
G2 X39.2775 Y76.6007 I-0.3069 J-1.9763
G2 X40.7475 Y76.2079 I-1.1047 J-7.0822
G2 X43.365 Y74.291 I-2.1904 J-5.7365
G2 X43.3732 Y74.2807 I-1.566 J-1.2441
G2 X44.3925 Y72.4554 I-5.314 J-4.165
G2 X44.7066 Y71.3818 I-7.4132 J-2.7511
G2 X44.8716 Y70.0587 I-6.8708 J-1.5291
G2 X44.8725 Y70.0002 I-1.9991 J-0.0585
G1 Y62.0003
G1 X47.8727
G2 X49.8727 Y60.0003 I0.0 J-2.0
G1 Y50.0002
G2 X47.8727 Y48.0002 I-2.0 J0.0
G1 X44.8725
G1 Y8.0
G1 X47.8727
G2 X49.8727 Y6.0 I0.0 J-2.0
G1 Y0.0
G2 X47.8727 Y-2.0 I-2.0 J0.0
G1 X42.8725
G1 X32.8724
G1 X27.8722
G2 X25.8722 Y0.0 I0.0 J2.0
G1 Y6.0
G2 X27.8722 Y8.0 I2.0 J0.0
G1 X30.8724
G1 Y48.0002
G1 X27.8722
G2 X25.9338 Y49.5077 I0.0 J2.0
G1 F50.0 Z-4.5
G2 F80.0 X25.8722 Y50.0002 I1.9384 J0.4925
G1 Y60.0003
G2 X27.8722 Y62.0003 I2.0 J0.0
G1 X30.8724
G1 Y70.0002
G2 X30.8727 Y70.0343 I2.0 J0.0
G2 X30.9433 Y70.8868 I6.5201 J-0.111
G2 X31.1009 Y71.6823 I7.1881 J-1.01
G2 X31.6766 Y73.2213 I7.1304 J-1.7903
G2 X31.6811 Y73.2301 I1.7832 J-0.9057
G2 X32.2967 Y74.2058 I5.8417 J-3.0034
G2 X32.2997 Y74.2098 I1.5913 J-1.2116
G2 X33.4255 Y75.3379 I4.841 J-3.7052
G2 X33.4343 Y75.3447 I1.2189 J-1.5857
G2 X35.2793 Y76.3143 I3.8169 J-5.0228
G2 X36.3803 Y76.5876 I2.2449 J-6.6891
G2 X36.4009 Y76.5908 I0.3242 J-1.9735
G1 X36.6098 Y76.6229
G2 X36.6444 Y76.6279 I0.3037 J-1.9768
G2 X37.8764 Y76.7083 I1.1906 J-8.7714
G2 X39.2761 Y76.6009 I0.0083 J-9.0669
G2 X39.2775 Y76.6007 I-0.3069 J-1.9763
G2 X40.7475 Y76.2079 I-1.1047 J-7.0822
G2 X43.365 Y74.291 I-2.1904 J-5.7365
G2 X43.3732 Y74.2807 I-1.566 J-1.2441
G2 X44.3925 Y72.4554 I-5.314 J-4.165
G2 X44.7066 Y71.3818 I-7.4132 J-2.7511
G2 X44.8716 Y70.0587 I-6.8708 J-1.5291
G2 X44.8725 Y70.0002 I-1.9991 J-0.0585
G1 Y62.0003
G1 X47.8727
G2 X49.8727 Y60.0003 I0.0 J-2.0
G1 Y50.0002
G2 X47.8727 Y48.0002 I-2.0 J0.0
G1 X44.8725
G1 Y8.0
G1 X47.8727
G2 X49.8727 Y6.0 I0.0 J-2.0
G1 Y0.0
G2 X47.8727 Y-2.0 I-2.0 J0.0
G1 X42.8725
G1 X32.8724
G1 X27.8722
G2 X25.8722 Y0.0 I0.0 J2.0
G1 Y6.0
G2 X27.8722 Y8.0 I2.0 J0.0
G1 X30.8724
G1 Y48.0002
G1 X27.8722
G2 X25.9338 Y49.5077 I0.0 J2.0
G0 Z3.0
M5
M30
