( Made using CamBam - http://www.cambam.co.uk )
( End Stops 9/13/2013 12:10:11 PM )
( T5 : 5.0 )
G21 G90 G64 G40
G0 Z3.0
( T5 : 5.0 )
T5 M6
( Pocket1 )
G17
M3 S1000
G0 X10.5001 Y34.9514
G0 Z1.0
G1 F50.0 Z-2.0
G3 F150.0 X10.3571 Y35.2966 I-0.4869 J0.0005
G2 X10.3488 Y35.305 I3.1785 J3.1855
G3 X10.007 Y35.4466 I-0.341 J-0.34
G2 X9.9941 I-0.0069 J4.5
G3 X9.6509 Y35.3044 I-0.0006 J-0.4837
G2 X9.6425 Y35.296 I-3.1863 J3.1777
G3 X9.5002 Y34.9524 I0.3421 J-0.343
G2 Y34.9395 I-4.5 J-0.0059
G3 X9.6417 Y34.598 I0.4811 J-0.0008
G2 X9.65 Y34.5897 I-3.177 J-3.1869
G3 X9.9952 Y34.4467 I0.3447 J0.344
G2 X10.006 I0.0049 J-4.5
G3 X10.3495 Y34.5889 I0.0006 J0.4843
G2 X10.3579 Y34.5973 I3.1861 J-3.1779
G3 X10.5001 Y34.9407 I-0.3419 J0.3428
G2 Y34.9514 I4.5 J0.0059
G1 F50.0 X12.5001 Y34.9493
G3 F150.0 X11.7698 Y36.7124 I-2.4869 J0.0027
G2 X11.7651 Y36.717 I1.7658 J1.7697
G3 X10.0039 Y37.4466 I-1.7574 J-1.752
G2 X9.9967 I-0.0038 J2.5
G3 X8.2348 Y36.7167 I-0.0033 J-2.4837
G2 X8.2301 Y36.7121 I-1.7702 J1.7654
G3 X7.5002 Y34.9498 I1.7545 J-1.759
G2 Y34.9426 I-2.5 J-0.0033
G3 X8.2296 Y33.1816 I2.4811 J-0.0039
G2 X8.2343 Y33.177 I-1.765 J-1.7705
G3 X9.9974 Y32.4467 I1.7604 J1.7567
G2 X10.0034 I0.0027 J-2.5
G3 X11.7656 Y33.1766 I0.0033 J2.4842
G2 X11.7702 Y33.1812 I1.77 J-1.7655
G3 X12.5001 Y34.9433 I-1.7542 J1.7589
G2 Y34.9493 I2.5 J0.0033
G1 F50.0 X10.5001 Y34.9514
G1 Z-4.0
G3 F150.0 X10.3571 Y35.2966 I-0.4869 J0.0005
G2 X10.3488 Y35.305 I3.1785 J3.1855
G3 X10.007 Y35.4466 I-0.341 J-0.34
G2 X9.9941 I-0.0069 J4.5
G3 X9.6509 Y35.3044 I-0.0006 J-0.4837
G2 X9.6425 Y35.296 I-3.1863 J3.1777
G3 X9.5002 Y34.9524 I0.3421 J-0.343
G2 Y34.9395 I-4.5 J-0.0059
G3 X9.6417 Y34.598 I0.4811 J-0.0008
G2 X9.65 Y34.5897 I-3.177 J-3.1869
G3 X9.9952 Y34.4467 I0.3447 J0.344
G2 X10.006 I0.0049 J-4.5
G3 X10.3495 Y34.5889 I0.0006 J0.4843
G2 X10.3579 Y34.5973 I3.1861 J-3.1779
G3 X10.5001 Y34.9407 I-0.3419 J0.3428
G2 Y34.9514 I4.5 J0.0059
G1 F50.0 X12.5001 Y34.9493
G3 F150.0 X11.7698 Y36.7124 I-2.4869 J0.0027
G2 X11.7651 Y36.717 I1.7658 J1.7697
G3 X10.0039 Y37.4466 I-1.7574 J-1.752
G2 X9.9967 I-0.0038 J2.5
G3 X8.2348 Y36.7167 I-0.0033 J-2.4837
G2 X8.2301 Y36.7121 I-1.7702 J1.7654
G3 X7.5002 Y34.9498 I1.7545 J-1.759
G2 Y34.9426 I-2.5 J-0.0033
G3 X8.2296 Y33.1816 I2.4811 J-0.0039
G2 X8.2343 Y33.177 I-1.765 J-1.7705
G3 X9.9974 Y32.4467 I1.7604 J1.7567
G2 X10.0034 I0.0027 J-2.5
G3 X11.7656 Y33.1766 I0.0033 J2.4842
G2 X11.7702 Y33.1812 I1.77 J-1.7655
G3 X12.5001 Y34.9433 I-1.7542 J1.7589
G2 Y34.9493 I2.5 J0.0033
G1 F50.0 X10.5001 Y34.9514
G1 Z-6.0
G3 F150.0 X10.3571 Y35.2966 I-0.4869 J0.0005
G2 X10.3488 Y35.305 I3.1785 J3.1855
G3 X10.007 Y35.4466 I-0.341 J-0.34
G2 X9.9941 I-0.0069 J4.5
G3 X9.6509 Y35.3044 I-0.0006 J-0.4837
G2 X9.6425 Y35.296 I-3.1863 J3.1777
G3 X9.5002 Y34.9524 I0.3421 J-0.343
G2 Y34.9395 I-4.5 J-0.0059
G3 X9.6417 Y34.598 I0.4811 J-0.0008
G2 X9.65 Y34.5897 I-3.177 J-3.1869
G3 X9.9952 Y34.4467 I0.3447 J0.344
G2 X10.006 I0.0049 J-4.5
G3 X10.3495 Y34.5889 I0.0006 J0.4843
G2 X10.3579 Y34.5973 I3.1861 J-3.1779
G3 X10.5001 Y34.9407 I-0.3419 J0.3428
G2 Y34.9514 I4.5 J0.0059
G1 F50.0 X12.5001 Y34.9493
G3 F150.0 X11.7698 Y36.7124 I-2.4869 J0.0027
G2 X11.7651 Y36.717 I1.7658 J1.7697
G3 X10.0039 Y37.4466 I-1.7574 J-1.752
G2 X9.9967 I-0.0038 J2.5
G3 X8.2348 Y36.7167 I-0.0033 J-2.4837
G2 X8.2301 Y36.7121 I-1.7702 J1.7654
G3 X7.5002 Y34.9498 I1.7545 J-1.759
G2 Y34.9426 I-2.5 J-0.0033
G3 X8.2296 Y33.1816 I2.4811 J-0.0039
G2 X8.2343 Y33.177 I-1.765 J-1.7705
G3 X9.9974 Y32.4467 I1.7604 J1.7567
G2 X10.0034 I0.0027 J-2.5
G3 X11.7656 Y33.1766 I0.0033 J2.4842
G2 X11.7702 Y33.1812 I1.77 J-1.7655
G3 X12.5001 Y34.9433 I-1.7542 J1.7589
G2 Y34.9493 I2.5 J0.0033
G1 F50.0 X10.5001 Y34.9514
G1 Z-8.0
G3 F150.0 X10.3571 Y35.2966 I-0.4869 J0.0005
G2 X10.3488 Y35.305 I3.1785 J3.1855
G3 X10.007 Y35.4466 I-0.341 J-0.34
G2 X9.9941 I-0.0069 J4.5
G3 X9.6509 Y35.3044 I-0.0006 J-0.4837
G2 X9.6425 Y35.296 I-3.1863 J3.1777
G3 X9.5002 Y34.9524 I0.3421 J-0.343
G2 Y34.9395 I-4.5 J-0.0059
G3 X9.6417 Y34.598 I0.4811 J-0.0008
G2 X9.65 Y34.5897 I-3.177 J-3.1869
G3 X9.9952 Y34.4467 I0.3447 J0.344
G2 X10.006 I0.0049 J-4.5
G3 X10.3495 Y34.5889 I0.0006 J0.4843
G2 X10.3579 Y34.5973 I3.1861 J-3.1779
G3 X10.5001 Y34.9407 I-0.3419 J0.3428
G2 Y34.9514 I4.5 J0.0059
G1 F50.0 X12.5001 Y34.9493
G3 F150.0 X11.7698 Y36.7124 I-2.4869 J0.0027
G2 X11.7651 Y36.717 I1.7658 J1.7697
G3 X10.0039 Y37.4466 I-1.7574 J-1.752
G2 X9.9967 I-0.0038 J2.5
G3 X8.2348 Y36.7167 I-0.0033 J-2.4837
G2 X8.2301 Y36.7121 I-1.7702 J1.7654
G3 X7.5002 Y34.9498 I1.7545 J-1.759
G2 Y34.9426 I-2.5 J-0.0033
G3 X8.2296 Y33.1816 I2.4811 J-0.0039
G2 X8.2343 Y33.177 I-1.765 J-1.7705
G3 X9.9974 Y32.4467 I1.7604 J1.7567
G2 X10.0034 I0.0027 J-2.5
G3 X11.7656 Y33.1766 I0.0033 J2.4842
G2 X11.7702 Y33.1812 I1.77 J-1.7655
G3 X12.5001 Y34.9433 I-1.7542 J1.7589
G2 Y34.9493 I2.5 J0.0033
G1 F50.0 X10.5001 Y34.9514
G1 Z-10.0
G3 F150.0 X10.3571 Y35.2966 I-0.4869 J0.0005
G2 X10.3488 Y35.305 I3.1785 J3.1855
G3 X10.007 Y35.4466 I-0.341 J-0.34
G2 X9.9941 I-0.0069 J4.5
G3 X9.6509 Y35.3044 I-0.0006 J-0.4837
G2 X9.6425 Y35.296 I-3.1863 J3.1777
G3 X9.5002 Y34.9524 I0.3421 J-0.343
G2 Y34.9395 I-4.5 J-0.0059
G3 X9.6417 Y34.598 I0.4811 J-0.0008
G2 X9.65 Y34.5897 I-3.177 J-3.1869
G3 X9.9952 Y34.4467 I0.3447 J0.344
G2 X10.006 I0.0049 J-4.5
G3 X10.3495 Y34.5889 I0.0006 J0.4843
G2 X10.3579 Y34.5973 I3.1861 J-3.1779
G3 X10.5001 Y34.9407 I-0.3419 J0.3428
G2 Y34.9514 I4.5 J0.0059
G1 F50.0 X12.5001 Y34.9493
G3 F150.0 X11.7698 Y36.7124 I-2.4869 J0.0027
G2 X11.7651 Y36.717 I1.7658 J1.7697
G3 X10.0039 Y37.4466 I-1.7574 J-1.752
G2 X9.9967 I-0.0038 J2.5
G3 X8.2348 Y36.7167 I-0.0033 J-2.4837
G2 X8.2301 Y36.7121 I-1.7702 J1.7654
G3 X7.5002 Y34.9498 I1.7545 J-1.759
G2 Y34.9426 I-2.5 J-0.0033
G3 X8.2296 Y33.1816 I2.4811 J-0.0039
G2 X8.2343 Y33.177 I-1.765 J-1.7705
G3 X9.9974 Y32.4467 I1.7604 J1.7567
G2 X10.0034 I0.0027 J-2.5
G3 X11.7656 Y33.1766 I0.0033 J2.4842
G2 X11.7702 Y33.1812 I1.77 J-1.7655
G3 X12.5001 Y34.9433 I-1.7542 J1.7589
G2 Y34.9493 I2.5 J0.0033
G1 F50.0 X10.5001 Y34.9514
G1 Z-12.0
G3 F150.0 X10.3571 Y35.2966 I-0.4869 J0.0005
G2 X10.3488 Y35.305 I3.1785 J3.1855
G3 X10.007 Y35.4466 I-0.341 J-0.34
G2 X9.9941 I-0.0069 J4.5
G3 X9.6509 Y35.3044 I-0.0006 J-0.4837
G2 X9.6425 Y35.296 I-3.1863 J3.1777
G3 X9.5002 Y34.9524 I0.3421 J-0.343
G2 Y34.9395 I-4.5 J-0.0059
G3 X9.6417 Y34.598 I0.4811 J-0.0008
G2 X9.65 Y34.5897 I-3.177 J-3.1869
G3 X9.9952 Y34.4467 I0.3447 J0.344
G2 X10.006 I0.0049 J-4.5
G3 X10.3495 Y34.5889 I0.0006 J0.4843
G2 X10.3579 Y34.5973 I3.1861 J-3.1779
G3 X10.5001 Y34.9407 I-0.3419 J0.3428
G2 Y34.9514 I4.5 J0.0059
G1 F50.0 X12.5001 Y34.9493
G3 F150.0 X11.7698 Y36.7124 I-2.4869 J0.0027
G2 X11.7651 Y36.717 I1.7658 J1.7697
G3 X10.0039 Y37.4466 I-1.7574 J-1.752
G2 X9.9967 I-0.0038 J2.5
G3 X8.2348 Y36.7167 I-0.0033 J-2.4837
G2 X8.2301 Y36.7121 I-1.7702 J1.7654
G3 X7.5002 Y34.9498 I1.7545 J-1.759
G2 Y34.9426 I-2.5 J-0.0033
G3 X8.2296 Y33.1816 I2.4811 J-0.0039
G2 X8.2343 Y33.177 I-1.765 J-1.7705
G3 X9.9974 Y32.4467 I1.7604 J1.7567
G2 X10.0034 I0.0027 J-2.5
G3 X11.7656 Y33.1766 I0.0033 J2.4842
G2 X11.7702 Y33.1812 I1.77 J-1.7655
G3 X12.5001 Y34.9433 I-1.7542 J1.7589
G2 Y34.9493 I2.5 J0.0033
G1 F50.0 X10.5001 Y34.9514
G1 Z-14.0
G3 F150.0 X10.3571 Y35.2966 I-0.4869 J0.0005
G2 X10.3488 Y35.305 I3.1785 J3.1855
G3 X10.007 Y35.4466 I-0.341 J-0.34
G2 X9.9941 I-0.0069 J4.5
G3 X9.6509 Y35.3044 I-0.0006 J-0.4837
G2 X9.6425 Y35.296 I-3.1863 J3.1777
G3 X9.5002 Y34.9524 I0.3421 J-0.343
G2 Y34.9395 I-4.5 J-0.0059
G3 X9.6417 Y34.598 I0.4811 J-0.0008
G2 X9.65 Y34.5897 I-3.177 J-3.1869
G3 X9.9952 Y34.4467 I0.3447 J0.344
G2 X10.006 I0.0049 J-4.5
G3 X10.3495 Y34.5889 I0.0006 J0.4843
G2 X10.3579 Y34.5973 I3.1861 J-3.1779
G3 X10.5001 Y34.9407 I-0.3419 J0.3428
G2 Y34.9514 I4.5 J0.0059
G1 F50.0 X12.5001 Y34.9493
G3 F150.0 X11.7698 Y36.7124 I-2.4869 J0.0027
G2 X11.7651 Y36.717 I1.7658 J1.7697
G3 X10.0039 Y37.4466 I-1.7574 J-1.752
G2 X9.9967 I-0.0038 J2.5
G3 X8.2348 Y36.7167 I-0.0033 J-2.4837
G2 X8.2301 Y36.7121 I-1.7702 J1.7654
G3 X7.5002 Y34.9498 I1.7545 J-1.759
G2 Y34.9426 I-2.5 J-0.0033
G3 X8.2296 Y33.1816 I2.4811 J-0.0039
G2 X8.2343 Y33.177 I-1.765 J-1.7705
G3 X9.9974 Y32.4467 I1.7604 J1.7567
G2 X10.0034 I0.0027 J-2.5
G3 X11.7656 Y33.1766 I0.0033 J2.4842
G2 X11.7702 Y33.1812 I1.77 J-1.7655
G3 X12.5001 Y34.9433 I-1.7542 J1.7589
G2 Y34.9493 I2.5 J0.0033
G1 F50.0 X10.5001 Y34.9514
G1 Z-16.0
G3 F150.0 X10.3571 Y35.2966 I-0.4869 J0.0005
G2 X10.3488 Y35.305 I3.1785 J3.1855
G3 X10.007 Y35.4466 I-0.341 J-0.34
G2 X9.9941 I-0.0069 J4.5
G3 X9.6509 Y35.3044 I-0.0006 J-0.4837
G2 X9.6425 Y35.296 I-3.1863 J3.1777
G3 X9.5002 Y34.9524 I0.3421 J-0.343
G2 Y34.9395 I-4.5 J-0.0059
G3 X9.6417 Y34.598 I0.4811 J-0.0008
G2 X9.65 Y34.5897 I-3.177 J-3.1869
G3 X9.9952 Y34.4467 I0.3447 J0.344
G2 X10.006 I0.0049 J-4.5
G3 X10.3495 Y34.5889 I0.0006 J0.4843
G2 X10.3579 Y34.5973 I3.1861 J-3.1779
G3 X10.5001 Y34.9407 I-0.3419 J0.3428
G2 Y34.9514 I4.5 J0.0059
G1 F50.0 X12.5001 Y34.9493
G3 F150.0 X11.7698 Y36.7124 I-2.4869 J0.0027
G2 X11.7651 Y36.717 I1.7658 J1.7697
G3 X10.0039 Y37.4466 I-1.7574 J-1.752
G2 X9.9967 I-0.0038 J2.5
G3 X8.2348 Y36.7167 I-0.0033 J-2.4837
G2 X8.2301 Y36.7121 I-1.7702 J1.7654
G3 X7.5002 Y34.9498 I1.7545 J-1.759
G2 Y34.9426 I-2.5 J-0.0033
G3 X8.2296 Y33.1816 I2.4811 J-0.0039
G2 X8.2343 Y33.177 I-1.765 J-1.7705
G3 X9.9974 Y32.4467 I1.7604 J1.7567
G2 X10.0034 I0.0027 J-2.5
G3 X11.7656 Y33.1766 I0.0033 J2.4842
G2 X11.7702 Y33.1812 I1.77 J-1.7655
G3 X12.5001 Y34.9433 I-1.7542 J1.7589
G2 Y34.9493 I2.5 J0.0033
G0 Z3.0
G0 X10.0493 Y62.6721
G0 Z1.0
G1 F50.0 Z-2.0
G3 F150.0 X10.3495 Y62.8125 I-0.0426 J0.4824
G2 X10.3579 Y62.8209 I3.1861 J-3.1779
G3 X10.5001 Y63.1643 I-0.3419 J0.3428
G2 Y63.175 I4.5 J0.0059
G3 X10.3571 Y63.5202 I-0.4869 J0.0005
G2 X10.3488 Y63.5286 I3.1785 J3.1855
G3 X10.007 Y63.6702 I-0.341 J-0.34
G2 X9.9941 I-0.0069 J4.5
G3 X9.6509 Y63.528 I-0.0006 J-0.4837
G2 X9.6425 Y63.5196 I-3.1863 J3.1777
G3 X9.5002 Y63.176 I0.3421 J-0.343
G2 Y63.1631 I-4.5 J-0.0059
G3 X9.6417 Y62.8216 I0.4811 J-0.0008
G2 X9.65 Y62.8133 I-3.177 J-3.1869
G3 X9.9952 Y62.6703 I0.3447 J0.344
G2 X10.006 I0.0049 J-4.5
G3 X10.0493 Y62.6721 I0.0006 J0.4843
G1 F50.0 X10.2254 Y60.6799
G3 F150.0 X11.7656 Y61.4002 I-0.2188 J2.4746
G2 X11.7702 Y61.4048 I1.77 J-1.7655
G3 X12.5001 Y63.1669 I-1.7542 J1.7589
G2 Y63.1729 I2.5 J0.0033
G3 X11.7698 Y64.936 I-2.4869 J0.0027
G2 X11.7651 Y64.9406 I1.7658 J1.7697
G3 X10.0039 Y65.6702 I-1.7574 J-1.752
G2 X9.9967 I-0.0038 J2.5
G3 X8.2348 Y64.9403 I-0.0033 J-2.4837
G2 X8.2301 Y64.9357 I-1.7702 J1.7654
G3 X7.5002 Y63.1734 I1.7545 J-1.759
G2 Y63.1662 I-2.5 J-0.0033
G3 X8.2296 Y61.4052 I2.4811 J-0.0039
G2 X8.2343 Y61.4006 I-1.765 J-1.7705
G3 X9.9974 Y60.6703 I1.7604 J1.7567
G2 X10.0034 I0.0027 J-2.5
G3 X10.2254 Y60.6799 I0.0033 J2.4842
G1 F50.0 X10.0493 Y62.6721
G1 Z-4.0
G3 F150.0 X10.3495 Y62.8125 I-0.0426 J0.4824
G2 X10.3579 Y62.8209 I3.1861 J-3.1779
G3 X10.5001 Y63.1643 I-0.3419 J0.3428
G2 Y63.175 I4.5 J0.0059
G3 X10.3571 Y63.5202 I-0.4869 J0.0005
G2 X10.3488 Y63.5286 I3.1785 J3.1855
G3 X10.007 Y63.6702 I-0.341 J-0.34
G2 X9.9941 I-0.0069 J4.5
G3 X9.6509 Y63.528 I-0.0006 J-0.4837
G2 X9.6425 Y63.5196 I-3.1863 J3.1777
G3 X9.5002 Y63.176 I0.3421 J-0.343
G2 Y63.1631 I-4.5 J-0.0059
G3 X9.6417 Y62.8216 I0.4811 J-0.0008
G2 X9.65 Y62.8133 I-3.177 J-3.1869
G3 X9.9952 Y62.6703 I0.3447 J0.344
G2 X10.006 I0.0049 J-4.5
G3 X10.0493 Y62.6721 I0.0006 J0.4843
G1 F50.0 X10.2254 Y60.6799
G3 F150.0 X11.7656 Y61.4002 I-0.2188 J2.4746
G2 X11.7702 Y61.4048 I1.77 J-1.7655
G3 X12.5001 Y63.1669 I-1.7542 J1.7589
G2 Y63.1729 I2.5 J0.0033
G3 X11.7698 Y64.936 I-2.4869 J0.0027
G2 X11.7651 Y64.9406 I1.7658 J1.7697
G3 X10.0039 Y65.6702 I-1.7574 J-1.752
G2 X9.9967 I-0.0038 J2.5
G3 X8.2348 Y64.9403 I-0.0033 J-2.4837
G2 X8.2301 Y64.9357 I-1.7702 J1.7654
G3 X7.5002 Y63.1734 I1.7545 J-1.759
G2 Y63.1662 I-2.5 J-0.0033
G3 X8.2296 Y61.4052 I2.4811 J-0.0039
G2 X8.2343 Y61.4006 I-1.765 J-1.7705
G3 X9.9974 Y60.6703 I1.7604 J1.7567
G2 X10.0034 I0.0027 J-2.5
G3 X10.2254 Y60.6799 I0.0033 J2.4842
G1 F50.0 X10.0493 Y62.6721
G1 Z-6.0
G3 F150.0 X10.3495 Y62.8125 I-0.0426 J0.4824
G2 X10.3579 Y62.8209 I3.1861 J-3.1779
G3 X10.5001 Y63.1643 I-0.3419 J0.3428
G2 Y63.175 I4.5 J0.0059
G3 X10.3571 Y63.5202 I-0.4869 J0.0005
G2 X10.3488 Y63.5286 I3.1785 J3.1855
G3 X10.007 Y63.6702 I-0.341 J-0.34
G2 X9.9941 I-0.0069 J4.5
G3 X9.6509 Y63.528 I-0.0006 J-0.4837
G2 X9.6425 Y63.5196 I-3.1863 J3.1777
G3 X9.5002 Y63.176 I0.3421 J-0.343
G2 Y63.1631 I-4.5 J-0.0059
G3 X9.6417 Y62.8216 I0.4811 J-0.0008
G2 X9.65 Y62.8133 I-3.177 J-3.1869
G3 X9.9952 Y62.6703 I0.3447 J0.344
G2 X10.006 I0.0049 J-4.5
G3 X10.0493 Y62.6721 I0.0006 J0.4843
G1 F50.0 X10.2254 Y60.6799
G3 F150.0 X11.7656 Y61.4002 I-0.2188 J2.4746
G2 X11.7702 Y61.4048 I1.77 J-1.7655
G3 X12.5001 Y63.1669 I-1.7542 J1.7589
G2 Y63.1729 I2.5 J0.0033
G3 X11.7698 Y64.936 I-2.4869 J0.0027
G2 X11.7651 Y64.9406 I1.7658 J1.7697
G3 X10.0039 Y65.6702 I-1.7574 J-1.752
G2 X9.9967 I-0.0038 J2.5
G3 X8.2348 Y64.9403 I-0.0033 J-2.4837
G2 X8.2301 Y64.9357 I-1.7702 J1.7654
G3 X7.5002 Y63.1734 I1.7545 J-1.759
G2 Y63.1662 I-2.5 J-0.0033
G3 X8.2296 Y61.4052 I2.4811 J-0.0039
G2 X8.2343 Y61.4006 I-1.765 J-1.7705
G3 X9.9974 Y60.6703 I1.7604 J1.7567
G2 X10.0034 I0.0027 J-2.5
G3 X10.2254 Y60.6799 I0.0033 J2.4842
G1 F50.0 X10.0493 Y62.6721
G1 Z-8.0
G3 F150.0 X10.3495 Y62.8125 I-0.0426 J0.4824
G2 X10.3579 Y62.8209 I3.1861 J-3.1779
G3 X10.5001 Y63.1643 I-0.3419 J0.3428
G2 Y63.175 I4.5 J0.0059
G3 X10.3571 Y63.5202 I-0.4869 J0.0005
G2 X10.3488 Y63.5286 I3.1785 J3.1855
G3 X10.007 Y63.6702 I-0.341 J-0.34
G2 X9.9941 I-0.0069 J4.5
G3 X9.6509 Y63.528 I-0.0006 J-0.4837
G2 X9.6425 Y63.5196 I-3.1863 J3.1777
G3 X9.5002 Y63.176 I0.3421 J-0.343
G2 Y63.1631 I-4.5 J-0.0059
G3 X9.6417 Y62.8216 I0.4811 J-0.0008
G2 X9.65 Y62.8133 I-3.177 J-3.1869
G3 X9.9952 Y62.6703 I0.3447 J0.344
G2 X10.006 I0.0049 J-4.5
G3 X10.0493 Y62.6721 I0.0006 J0.4843
G1 F50.0 X10.2254 Y60.6799
G3 F150.0 X11.7656 Y61.4002 I-0.2188 J2.4746
G2 X11.7702 Y61.4048 I1.77 J-1.7655
G3 X12.5001 Y63.1669 I-1.7542 J1.7589
G2 Y63.1729 I2.5 J0.0033
G3 X11.7698 Y64.936 I-2.4869 J0.0027
G2 X11.7651 Y64.9406 I1.7658 J1.7697
G3 X10.0039 Y65.6702 I-1.7574 J-1.752
G2 X9.9967 I-0.0038 J2.5
G3 X8.2348 Y64.9403 I-0.0033 J-2.4837
G2 X8.2301 Y64.9357 I-1.7702 J1.7654
G3 X7.5002 Y63.1734 I1.7545 J-1.759
G2 Y63.1662 I-2.5 J-0.0033
G3 X8.2296 Y61.4052 I2.4811 J-0.0039
G2 X8.2343 Y61.4006 I-1.765 J-1.7705
G3 X9.9974 Y60.6703 I1.7604 J1.7567
G2 X10.0034 I0.0027 J-2.5
G3 X10.2254 Y60.6799 I0.0033 J2.4842
G1 F50.0 X10.0493 Y62.6721
G1 Z-10.0
G3 F150.0 X10.3495 Y62.8125 I-0.0426 J0.4824
G2 X10.3579 Y62.8209 I3.1861 J-3.1779
G3 X10.5001 Y63.1643 I-0.3419 J0.3428
G2 Y63.175 I4.5 J0.0059
G3 X10.3571 Y63.5202 I-0.4869 J0.0005
G2 X10.3488 Y63.5286 I3.1785 J3.1855
G3 X10.007 Y63.6702 I-0.341 J-0.34
G2 X9.9941 I-0.0069 J4.5
G3 X9.6509 Y63.528 I-0.0006 J-0.4837
G2 X9.6425 Y63.5196 I-3.1863 J3.1777
G3 X9.5002 Y63.176 I0.3421 J-0.343
G2 Y63.1631 I-4.5 J-0.0059
G3 X9.6417 Y62.8216 I0.4811 J-0.0008
G2 X9.65 Y62.8133 I-3.177 J-3.1869
G3 X9.9952 Y62.6703 I0.3447 J0.344
G2 X10.006 I0.0049 J-4.5
G3 X10.0493 Y62.6721 I0.0006 J0.4843
G1 F50.0 X10.2254 Y60.6799
G3 F150.0 X11.7656 Y61.4002 I-0.2188 J2.4746
G2 X11.7702 Y61.4048 I1.77 J-1.7655
G3 X12.5001 Y63.1669 I-1.7542 J1.7589
G2 Y63.1729 I2.5 J0.0033
G3 X11.7698 Y64.936 I-2.4869 J0.0027
G2 X11.7651 Y64.9406 I1.7658 J1.7697
G3 X10.0039 Y65.6702 I-1.7574 J-1.752
G2 X9.9967 I-0.0038 J2.5
G3 X8.2348 Y64.9403 I-0.0033 J-2.4837
G2 X8.2301 Y64.9357 I-1.7702 J1.7654
G3 X7.5002 Y63.1734 I1.7545 J-1.759
G2 Y63.1662 I-2.5 J-0.0033
G3 X8.2296 Y61.4052 I2.4811 J-0.0039
G2 X8.2343 Y61.4006 I-1.765 J-1.7705
G3 X9.9974 Y60.6703 I1.7604 J1.7567
G2 X10.0034 I0.0027 J-2.5
G3 X10.2254 Y60.6799 I0.0033 J2.4842
G1 F50.0 X10.0493 Y62.6721
G1 Z-12.0
G3 F150.0 X10.3495 Y62.8125 I-0.0426 J0.4824
G2 X10.3579 Y62.8209 I3.1861 J-3.1779
G3 X10.5001 Y63.1643 I-0.3419 J0.3428
G2 Y63.175 I4.5 J0.0059
G3 X10.3571 Y63.5202 I-0.4869 J0.0005
G2 X10.3488 Y63.5286 I3.1785 J3.1855
G3 X10.007 Y63.6702 I-0.341 J-0.34
G2 X9.9941 I-0.0069 J4.5
G3 X9.6509 Y63.528 I-0.0006 J-0.4837
G2 X9.6425 Y63.5196 I-3.1863 J3.1777
G3 X9.5002 Y63.176 I0.3421 J-0.343
G2 Y63.1631 I-4.5 J-0.0059
G3 X9.6417 Y62.8216 I0.4811 J-0.0008
G2 X9.65 Y62.8133 I-3.177 J-3.1869
G3 X9.9952 Y62.6703 I0.3447 J0.344
G2 X10.006 I0.0049 J-4.5
G3 X10.0493 Y62.6721 I0.0006 J0.4843
G1 F50.0 X10.2254 Y60.6799
G3 F150.0 X11.7656 Y61.4002 I-0.2188 J2.4746
G2 X11.7702 Y61.4048 I1.77 J-1.7655
G3 X12.5001 Y63.1669 I-1.7542 J1.7589
G2 Y63.1729 I2.5 J0.0033
G3 X11.7698 Y64.936 I-2.4869 J0.0027
G2 X11.7651 Y64.9406 I1.7658 J1.7697
G3 X10.0039 Y65.6702 I-1.7574 J-1.752
G2 X9.9967 I-0.0038 J2.5
G3 X8.2348 Y64.9403 I-0.0033 J-2.4837
G2 X8.2301 Y64.9357 I-1.7702 J1.7654
G3 X7.5002 Y63.1734 I1.7545 J-1.759
G2 Y63.1662 I-2.5 J-0.0033
G3 X8.2296 Y61.4052 I2.4811 J-0.0039
G2 X8.2343 Y61.4006 I-1.765 J-1.7705
G3 X9.9974 Y60.6703 I1.7604 J1.7567
G2 X10.0034 I0.0027 J-2.5
G3 X10.2254 Y60.6799 I0.0033 J2.4842
G1 F50.0 X10.0493 Y62.6721
G1 Z-14.0
G3 F150.0 X10.3495 Y62.8125 I-0.0426 J0.4824
G2 X10.3579 Y62.8209 I3.1861 J-3.1779
G3 X10.5001 Y63.1643 I-0.3419 J0.3428
G2 Y63.175 I4.5 J0.0059
G3 X10.3571 Y63.5202 I-0.4869 J0.0005
G2 X10.3488 Y63.5286 I3.1785 J3.1855
G3 X10.007 Y63.6702 I-0.341 J-0.34
G2 X9.9941 I-0.0069 J4.5
G3 X9.6509 Y63.528 I-0.0006 J-0.4837
G2 X9.6425 Y63.5196 I-3.1863 J3.1777
G3 X9.5002 Y63.176 I0.3421 J-0.343
G2 Y63.1631 I-4.5 J-0.0059
G3 X9.6417 Y62.8216 I0.4811 J-0.0008
G2 X9.65 Y62.8133 I-3.177 J-3.1869
G3 X9.9952 Y62.6703 I0.3447 J0.344
G2 X10.006 I0.0049 J-4.5
G3 X10.0493 Y62.6721 I0.0006 J0.4843
G1 F50.0 X10.2254 Y60.6799
G3 F150.0 X11.7656 Y61.4002 I-0.2188 J2.4746
G2 X11.7702 Y61.4048 I1.77 J-1.7655
G3 X12.5001 Y63.1669 I-1.7542 J1.7589
G2 Y63.1729 I2.5 J0.0033
G3 X11.7698 Y64.936 I-2.4869 J0.0027
G2 X11.7651 Y64.9406 I1.7658 J1.7697
G3 X10.0039 Y65.6702 I-1.7574 J-1.752
G2 X9.9967 I-0.0038 J2.5
G3 X8.2348 Y64.9403 I-0.0033 J-2.4837
G2 X8.2301 Y64.9357 I-1.7702 J1.7654
G3 X7.5002 Y63.1734 I1.7545 J-1.759
G2 Y63.1662 I-2.5 J-0.0033
G3 X8.2296 Y61.4052 I2.4811 J-0.0039
G2 X8.2343 Y61.4006 I-1.765 J-1.7705
G3 X9.9974 Y60.6703 I1.7604 J1.7567
G2 X10.0034 I0.0027 J-2.5
G3 X10.2254 Y60.6799 I0.0033 J2.4842
G1 F50.0 X10.0493 Y62.6721
G1 Z-16.0
G3 F150.0 X10.3495 Y62.8125 I-0.0426 J0.4824
G2 X10.3579 Y62.8209 I3.1861 J-3.1779
G3 X10.5001 Y63.1643 I-0.3419 J0.3428
G2 Y63.175 I4.5 J0.0059
G3 X10.3571 Y63.5202 I-0.4869 J0.0005
G2 X10.3488 Y63.5286 I3.1785 J3.1855
G3 X10.007 Y63.6702 I-0.341 J-0.34
G2 X9.9941 I-0.0069 J4.5
G3 X9.6509 Y63.528 I-0.0006 J-0.4837
G2 X9.6425 Y63.5196 I-3.1863 J3.1777
G3 X9.5002 Y63.176 I0.3421 J-0.343
G2 Y63.1631 I-4.5 J-0.0059
G3 X9.6417 Y62.8216 I0.4811 J-0.0008
G2 X9.65 Y62.8133 I-3.177 J-3.1869
G3 X9.9952 Y62.6703 I0.3447 J0.344
G2 X10.006 I0.0049 J-4.5
G3 X10.0493 Y62.6721 I0.0006 J0.4843
G1 F50.0 X10.2254 Y60.6799
G3 F150.0 X11.7656 Y61.4002 I-0.2188 J2.4746
G2 X11.7702 Y61.4048 I1.77 J-1.7655
G3 X12.5001 Y63.1669 I-1.7542 J1.7589
G2 Y63.1729 I2.5 J0.0033
G3 X11.7698 Y64.936 I-2.4869 J0.0027
G2 X11.7651 Y64.9406 I1.7658 J1.7697
G3 X10.0039 Y65.6702 I-1.7574 J-1.752
G2 X9.9967 I-0.0038 J2.5
G3 X8.2348 Y64.9403 I-0.0033 J-2.4837
G2 X8.2301 Y64.9357 I-1.7702 J1.7654
G3 X7.5002 Y63.1734 I1.7545 J-1.759
G2 Y63.1662 I-2.5 J-0.0033
G3 X8.2296 Y61.4052 I2.4811 J-0.0039
G2 X8.2343 Y61.4006 I-1.765 J-1.7705
G3 X9.9974 Y60.6703 I1.7604 J1.7567
G2 X10.0034 I0.0027 J-2.5
G3 X10.2254 Y60.6799 I0.0033 J2.4842
G0 Z3.0
G0 X32.0821 Y63.1092
G0 Z1.0
G1 F50.0 Z-2.0
G3 F150.0 X32.2206 Y62.8216 I0.4782 J0.0531
G2 X32.229 Y62.8133 I-3.177 J-3.1869
G3 X32.5742 Y62.6703 I0.3447 J0.344
G2 X32.5842 I0.0049 J-4.5
G3 X32.9294 Y62.8132 I0.0006 J0.4869
G2 X32.9377 Y62.8216 I3.1853 J-3.1787
G3 X33.0795 Y63.1637 I-0.3404 J0.3414
G2 X33.0794 Y63.1756 I4.5 J0.0065
G3 X32.937 Y63.5195 I-0.4849 J0.0006
G2 X32.9285 Y63.5281 I3.1778 J3.1861
G3 X32.5853 Y63.6702 I-0.3424 J-0.3415
G2 X32.5731 I-0.0063 J4.5
G3 X32.2299 Y63.528 I-0.0006 J-0.4837
G2 X32.2215 Y63.5196 I-3.1863 J3.1777
G3 X32.0792 Y63.176 I0.3421 J-0.343
G2 Y63.1631 I-4.5 J-0.0059
G3 X32.0821 Y63.1092 I0.4811 J-0.0008
G1 F50.0 X30.0944 Y62.8882
G3 F150.0 X30.8086 Y61.4052 I2.466 J0.2741
G2 X30.8132 Y61.4006 I-1.765 J-1.7705
G3 X32.5764 Y60.6703 I1.7604 J1.7567
G2 X32.5819 I0.0027 J-2.5
G3 X34.3451 Y61.4005 I0.0028 J2.4869
G2 X34.3497 Y61.4051 I1.7696 J-1.7659
G3 X35.0794 Y63.1665 I-1.7523 J1.7579
G2 Y63.1732 I2.5 J0.0036
G3 X34.3493 Y64.9356 I-2.4849 J0.003
G2 X34.3446 Y64.9403 I1.7655 J1.7701
G3 X32.5825 Y65.6702 I-1.7586 J-1.7538
G2 X32.5757 I-0.0035 J2.5
G3 X30.8138 Y64.9403 I-0.0033 J-2.4837
G2 X30.8091 Y64.9357 I-1.7702 J1.7654
G3 X30.0792 Y63.1734 I1.7545 J-1.759
G2 Y63.1662 I-2.5 J-0.0033
G3 X30.0944 Y62.8882 I2.4811 J-0.0039
G1 F50.0 X32.0821 Y63.1092
G1 Z-4.0
G3 F150.0 X32.2206 Y62.8216 I0.4782 J0.0531
G2 X32.229 Y62.8133 I-3.177 J-3.1869
G3 X32.5742 Y62.6703 I0.3447 J0.344
G2 X32.5842 I0.0049 J-4.5
G3 X32.9294 Y62.8132 I0.0006 J0.4869
G2 X32.9377 Y62.8216 I3.1853 J-3.1787
G3 X33.0795 Y63.1637 I-0.3404 J0.3414
G2 X33.0794 Y63.1756 I4.5 J0.0065
G3 X32.937 Y63.5195 I-0.4849 J0.0006
G2 X32.9285 Y63.5281 I3.1778 J3.1861
G3 X32.5853 Y63.6702 I-0.3424 J-0.3415
G2 X32.5731 I-0.0063 J4.5
G3 X32.2299 Y63.528 I-0.0006 J-0.4837
G2 X32.2215 Y63.5196 I-3.1863 J3.1777
G3 X32.0792 Y63.176 I0.3421 J-0.343
G2 Y63.1631 I-4.5 J-0.0059
G3 X32.0821 Y63.1092 I0.4811 J-0.0008
G1 F50.0 X30.0944 Y62.8882
G3 F150.0 X30.8086 Y61.4052 I2.466 J0.2741
G2 X30.8132 Y61.4006 I-1.765 J-1.7705
G3 X32.5764 Y60.6703 I1.7604 J1.7567
G2 X32.5819 I0.0027 J-2.5
G3 X34.3451 Y61.4005 I0.0028 J2.4869
G2 X34.3497 Y61.4051 I1.7696 J-1.7659
G3 X35.0794 Y63.1665 I-1.7523 J1.7579
G2 Y63.1732 I2.5 J0.0036
G3 X34.3493 Y64.9356 I-2.4849 J0.003
G2 X34.3446 Y64.9403 I1.7655 J1.7701
G3 X32.5825 Y65.6702 I-1.7586 J-1.7538
G2 X32.5757 I-0.0035 J2.5
G3 X30.8138 Y64.9403 I-0.0033 J-2.4837
G2 X30.8091 Y64.9357 I-1.7702 J1.7654
G3 X30.0792 Y63.1734 I1.7545 J-1.759
G2 Y63.1662 I-2.5 J-0.0033
G3 X30.0944 Y62.8882 I2.4811 J-0.0039
G1 F50.0 X32.0821 Y63.1092
G1 Z-6.0
G3 F150.0 X32.2206 Y62.8216 I0.4782 J0.0531
G2 X32.229 Y62.8133 I-3.177 J-3.1869
G3 X32.5742 Y62.6703 I0.3447 J0.344
G2 X32.5842 I0.0049 J-4.5
G3 X32.9294 Y62.8132 I0.0006 J0.4869
G2 X32.9377 Y62.8216 I3.1853 J-3.1787
G3 X33.0795 Y63.1637 I-0.3404 J0.3414
G2 X33.0794 Y63.1756 I4.5 J0.0065
G3 X32.937 Y63.5195 I-0.4849 J0.0006
G2 X32.9285 Y63.5281 I3.1778 J3.1861
G3 X32.5853 Y63.6702 I-0.3424 J-0.3415
G2 X32.5731 I-0.0063 J4.5
G3 X32.2299 Y63.528 I-0.0006 J-0.4837
G2 X32.2215 Y63.5196 I-3.1863 J3.1777
G3 X32.0792 Y63.176 I0.3421 J-0.343
G2 Y63.1631 I-4.5 J-0.0059
G3 X32.0821 Y63.1092 I0.4811 J-0.0008
G1 F50.0 X30.0944 Y62.8882
G3 F150.0 X30.8086 Y61.4052 I2.466 J0.2741
G2 X30.8132 Y61.4006 I-1.765 J-1.7705
G3 X32.5764 Y60.6703 I1.7604 J1.7567
G2 X32.5819 I0.0027 J-2.5
G3 X34.3451 Y61.4005 I0.0028 J2.4869
G2 X34.3497 Y61.4051 I1.7696 J-1.7659
G3 X35.0794 Y63.1665 I-1.7523 J1.7579
G2 Y63.1732 I2.5 J0.0036
G3 X34.3493 Y64.9356 I-2.4849 J0.003
G2 X34.3446 Y64.9403 I1.7655 J1.7701
G3 X32.5825 Y65.6702 I-1.7586 J-1.7538
G2 X32.5757 I-0.0035 J2.5
G3 X30.8138 Y64.9403 I-0.0033 J-2.4837
G2 X30.8091 Y64.9357 I-1.7702 J1.7654
G3 X30.0792 Y63.1734 I1.7545 J-1.759
G2 Y63.1662 I-2.5 J-0.0033
G3 X30.0944 Y62.8882 I2.4811 J-0.0039
G1 F50.0 X32.0821 Y63.1092
G1 Z-8.0
G3 F150.0 X32.2206 Y62.8216 I0.4782 J0.0531
G2 X32.229 Y62.8133 I-3.177 J-3.1869
G3 X32.5742 Y62.6703 I0.3447 J0.344
G2 X32.5842 I0.0049 J-4.5
G3 X32.9294 Y62.8132 I0.0006 J0.4869
G2 X32.9377 Y62.8216 I3.1853 J-3.1787
G3 X33.0795 Y63.1637 I-0.3404 J0.3414
G2 X33.0794 Y63.1756 I4.5 J0.0065
G3 X32.937 Y63.5195 I-0.4849 J0.0006
G2 X32.9285 Y63.5281 I3.1778 J3.1861
G3 X32.5853 Y63.6702 I-0.3424 J-0.3415
G2 X32.5731 I-0.0063 J4.5
G3 X32.2299 Y63.528 I-0.0006 J-0.4837
G2 X32.2215 Y63.5196 I-3.1863 J3.1777
G3 X32.0792 Y63.176 I0.3421 J-0.343
G2 Y63.1631 I-4.5 J-0.0059
G3 X32.0821 Y63.1092 I0.4811 J-0.0008
G1 F50.0 X30.0944 Y62.8882
G3 F150.0 X30.8086 Y61.4052 I2.466 J0.2741
G2 X30.8132 Y61.4006 I-1.765 J-1.7705
G3 X32.5764 Y60.6703 I1.7604 J1.7567
G2 X32.5819 I0.0027 J-2.5
G3 X34.3451 Y61.4005 I0.0028 J2.4869
G2 X34.3497 Y61.4051 I1.7696 J-1.7659
G3 X35.0794 Y63.1665 I-1.7523 J1.7579
G2 Y63.1732 I2.5 J0.0036
G3 X34.3493 Y64.9356 I-2.4849 J0.003
G2 X34.3446 Y64.9403 I1.7655 J1.7701
G3 X32.5825 Y65.6702 I-1.7586 J-1.7538
G2 X32.5757 I-0.0035 J2.5
G3 X30.8138 Y64.9403 I-0.0033 J-2.4837
G2 X30.8091 Y64.9357 I-1.7702 J1.7654
G3 X30.0792 Y63.1734 I1.7545 J-1.759
G2 Y63.1662 I-2.5 J-0.0033
G3 X30.0944 Y62.8882 I2.4811 J-0.0039
G1 F50.0 X32.0821 Y63.1092
G1 Z-10.0
G3 F150.0 X32.2206 Y62.8216 I0.4782 J0.0531
G2 X32.229 Y62.8133 I-3.177 J-3.1869
G3 X32.5742 Y62.6703 I0.3447 J0.344
G2 X32.5842 I0.0049 J-4.5
G3 X32.9294 Y62.8132 I0.0006 J0.4869
G2 X32.9377 Y62.8216 I3.1853 J-3.1787
G3 X33.0795 Y63.1637 I-0.3404 J0.3414
G2 X33.0794 Y63.1756 I4.5 J0.0065
G3 X32.937 Y63.5195 I-0.4849 J0.0006
G2 X32.9285 Y63.5281 I3.1778 J3.1861
G3 X32.5853 Y63.6702 I-0.3424 J-0.3415
G2 X32.5731 I-0.0063 J4.5
G3 X32.2299 Y63.528 I-0.0006 J-0.4837
G2 X32.2215 Y63.5196 I-3.1863 J3.1777
G3 X32.0792 Y63.176 I0.3421 J-0.343
G2 Y63.1631 I-4.5 J-0.0059
G3 X32.0821 Y63.1092 I0.4811 J-0.0008
G1 F50.0 X30.0944 Y62.8882
G3 F150.0 X30.8086 Y61.4052 I2.466 J0.2741
G2 X30.8132 Y61.4006 I-1.765 J-1.7705
G3 X32.5764 Y60.6703 I1.7604 J1.7567
G2 X32.5819 I0.0027 J-2.5
G3 X34.3451 Y61.4005 I0.0028 J2.4869
G2 X34.3497 Y61.4051 I1.7696 J-1.7659
G3 X35.0794 Y63.1665 I-1.7523 J1.7579
G2 Y63.1732 I2.5 J0.0036
G3 X34.3493 Y64.9356 I-2.4849 J0.003
G2 X34.3446 Y64.9403 I1.7655 J1.7701
G3 X32.5825 Y65.6702 I-1.7586 J-1.7538
G2 X32.5757 I-0.0035 J2.5
G3 X30.8138 Y64.9403 I-0.0033 J-2.4837
G2 X30.8091 Y64.9357 I-1.7702 J1.7654
G3 X30.0792 Y63.1734 I1.7545 J-1.759
G2 Y63.1662 I-2.5 J-0.0033
G3 X30.0944 Y62.8882 I2.4811 J-0.0039
G1 F50.0 X32.0821 Y63.1092
G1 Z-12.0
G3 F150.0 X32.2206 Y62.8216 I0.4782 J0.0531
G2 X32.229 Y62.8133 I-3.177 J-3.1869
G3 X32.5742 Y62.6703 I0.3447 J0.344
G2 X32.5842 I0.0049 J-4.5
G3 X32.9294 Y62.8132 I0.0006 J0.4869
G2 X32.9377 Y62.8216 I3.1853 J-3.1787
G3 X33.0795 Y63.1637 I-0.3404 J0.3414
G2 X33.0794 Y63.1756 I4.5 J0.0065
G3 X32.937 Y63.5195 I-0.4849 J0.0006
G2 X32.9285 Y63.5281 I3.1778 J3.1861
G3 X32.5853 Y63.6702 I-0.3424 J-0.3415
G2 X32.5731 I-0.0063 J4.5
G3 X32.2299 Y63.528 I-0.0006 J-0.4837
G2 X32.2215 Y63.5196 I-3.1863 J3.1777
G3 X32.0792 Y63.176 I0.3421 J-0.343
G2 Y63.1631 I-4.5 J-0.0059
G3 X32.0821 Y63.1092 I0.4811 J-0.0008
G1 F50.0 X30.0944 Y62.8882
G3 F150.0 X30.8086 Y61.4052 I2.466 J0.2741
G2 X30.8132 Y61.4006 I-1.765 J-1.7705
G3 X32.5764 Y60.6703 I1.7604 J1.7567
G2 X32.5819 I0.0027 J-2.5
G3 X34.3451 Y61.4005 I0.0028 J2.4869
G2 X34.3497 Y61.4051 I1.7696 J-1.7659
G3 X35.0794 Y63.1665 I-1.7523 J1.7579
G2 Y63.1732 I2.5 J0.0036
G3 X34.3493 Y64.9356 I-2.4849 J0.003
G2 X34.3446 Y64.9403 I1.7655 J1.7701
G3 X32.5825 Y65.6702 I-1.7586 J-1.7538
G2 X32.5757 I-0.0035 J2.5
G3 X30.8138 Y64.9403 I-0.0033 J-2.4837
G2 X30.8091 Y64.9357 I-1.7702 J1.7654
G3 X30.0792 Y63.1734 I1.7545 J-1.759
G2 Y63.1662 I-2.5 J-0.0033
G3 X30.0944 Y62.8882 I2.4811 J-0.0039
G1 F50.0 X32.0821 Y63.1092
G1 Z-14.0
G3 F150.0 X32.2206 Y62.8216 I0.4782 J0.0531
G2 X32.229 Y62.8133 I-3.177 J-3.1869
G3 X32.5742 Y62.6703 I0.3447 J0.344
G2 X32.5842 I0.0049 J-4.5
G3 X32.9294 Y62.8132 I0.0006 J0.4869
G2 X32.9377 Y62.8216 I3.1853 J-3.1787
G3 X33.0795 Y63.1637 I-0.3404 J0.3414
G2 X33.0794 Y63.1756 I4.5 J0.0065
G3 X32.937 Y63.5195 I-0.4849 J0.0006
G2 X32.9285 Y63.5281 I3.1778 J3.1861
G3 X32.5853 Y63.6702 I-0.3424 J-0.3415
G2 X32.5731 I-0.0063 J4.5
G3 X32.2299 Y63.528 I-0.0006 J-0.4837
G2 X32.2215 Y63.5196 I-3.1863 J3.1777
G3 X32.0792 Y63.176 I0.3421 J-0.343
G2 Y63.1631 I-4.5 J-0.0059
G3 X32.0821 Y63.1092 I0.4811 J-0.0008
G1 F50.0 X30.0944 Y62.8882
G3 F150.0 X30.8086 Y61.4052 I2.466 J0.2741
G2 X30.8132 Y61.4006 I-1.765 J-1.7705
G3 X32.5764 Y60.6703 I1.7604 J1.7567
G2 X32.5819 I0.0027 J-2.5
G3 X34.3451 Y61.4005 I0.0028 J2.4869
G2 X34.3497 Y61.4051 I1.7696 J-1.7659
G3 X35.0794 Y63.1665 I-1.7523 J1.7579
G2 Y63.1732 I2.5 J0.0036
G3 X34.3493 Y64.9356 I-2.4849 J0.003
G2 X34.3446 Y64.9403 I1.7655 J1.7701
G3 X32.5825 Y65.6702 I-1.7586 J-1.7538
G2 X32.5757 I-0.0035 J2.5
G3 X30.8138 Y64.9403 I-0.0033 J-2.4837
G2 X30.8091 Y64.9357 I-1.7702 J1.7654
G3 X30.0792 Y63.1734 I1.7545 J-1.759
G2 Y63.1662 I-2.5 J-0.0033
G3 X30.0944 Y62.8882 I2.4811 J-0.0039
G1 F50.0 X32.0821 Y63.1092
G1 Z-16.0
G3 F150.0 X32.2206 Y62.8216 I0.4782 J0.0531
G2 X32.229 Y62.8133 I-3.177 J-3.1869
G3 X32.5742 Y62.6703 I0.3447 J0.344
G2 X32.5842 I0.0049 J-4.5
G3 X32.9294 Y62.8132 I0.0006 J0.4869
G2 X32.9377 Y62.8216 I3.1853 J-3.1787
G3 X33.0795 Y63.1637 I-0.3404 J0.3414
G2 X33.0794 Y63.1756 I4.5 J0.0065
G3 X32.937 Y63.5195 I-0.4849 J0.0006
G2 X32.9285 Y63.5281 I3.1778 J3.1861
G3 X32.5853 Y63.6702 I-0.3424 J-0.3415
G2 X32.5731 I-0.0063 J4.5
G3 X32.2299 Y63.528 I-0.0006 J-0.4837
G2 X32.2215 Y63.5196 I-3.1863 J3.1777
G3 X32.0792 Y63.176 I0.3421 J-0.343
G2 Y63.1631 I-4.5 J-0.0059
G3 X32.0821 Y63.1092 I0.4811 J-0.0008
G1 F50.0 X30.0944 Y62.8882
G3 F150.0 X30.8086 Y61.4052 I2.466 J0.2741
G2 X30.8132 Y61.4006 I-1.765 J-1.7705
G3 X32.5764 Y60.6703 I1.7604 J1.7567
G2 X32.5819 I0.0027 J-2.5
G3 X34.3451 Y61.4005 I0.0028 J2.4869
G2 X34.3497 Y61.4051 I1.7696 J-1.7659
G3 X35.0794 Y63.1665 I-1.7523 J1.7579
G2 Y63.1732 I2.5 J0.0036
G3 X34.3493 Y64.9356 I-2.4849 J0.003
G2 X34.3446 Y64.9403 I1.7655 J1.7701
G3 X32.5825 Y65.6702 I-1.7586 J-1.7538
G2 X32.5757 I-0.0035 J2.5
G3 X30.8138 Y64.9403 I-0.0033 J-2.4837
G2 X30.8091 Y64.9357 I-1.7702 J1.7654
G3 X30.0792 Y63.1734 I1.7545 J-1.759
G2 Y63.1662 I-2.5 J-0.0033
G3 X30.0944 Y62.8882 I2.4811 J-0.0039
G0 Z3.0
G0 X40.6812 Y37.0451
G0 Z1.0
G1 F50.0 Z-2.0
G3 F150.0 X40.5217 Y36.9388 I0.1838 J-0.4486
G2 X40.5134 Y36.9305 I-3.1864 J3.1776
G3 X40.371 Y36.5868 I0.3422 J-0.3431
G2 Y36.5744 I-4.5 J-0.0061
G3 X40.5129 Y36.2319 I0.4827 J-0.0007
G2 X40.5213 Y36.2234 I-3.1774 J-3.1866
G3 X40.8655 Y36.0808 I0.3436 J0.3428
G2 X40.8759 I0.0053 J-4.5
G3 X41.2212 Y36.2239 I0.0005 J0.4871
G2 X41.2287 Y36.2314 I3.1853 J-3.1786
G3 X41.3711 Y36.5751 I-0.3422 J0.3431
G2 Y36.5875 I4.5 J0.0056
G3 X41.2293 Y36.9299 I-0.4825 J0.0007
G2 X41.2208 Y36.9384 I3.1773 J3.1867
G3 X40.8759 Y37.0813 I-0.3443 J-0.3435
G2 X40.8655 I-0.005 J4.5
G3 X40.6812 Y37.0451 I-0.0006 J-0.4847
G1 F50.0 X39.923 Y38.8958
G3 F150.0 X39.1055 Y38.3511 I0.9419 J-2.2993
G2 X39.1009 Y38.3465 I-1.7702 J1.7653
G3 X38.371 Y36.5841 I1.7547 J-1.759
G2 Y36.5772 I-2.5 J-0.0034
G3 X39.1007 Y34.8156 I2.4827 J-0.0035
G2 X39.1054 Y34.8109 I-1.7652 J-1.7703
G3 X40.8679 Y34.0808 I1.7596 J1.7553
G2 X40.8736 I0.003 J-2.5
G3 X42.6369 Y34.8111 I0.0027 J2.4871
G2 X42.6411 Y34.8153 I1.7696 J-1.7659
G3 X43.3711 Y36.5776 I-1.7546 J1.7592
G2 Y36.5845 I2.5 J0.0031
G3 X42.6414 Y38.3462 I-2.4825 J0.0038
G2 X42.6367 Y38.3509 I1.7652 J1.7704
G3 X40.8737 Y39.0813 I-1.7602 J-1.7561
G2 X40.8679 I-0.0028 J2.5
G3 X39.923 Y38.8958 I-0.003 J-2.4847
G1 F50.0 X40.6812 Y37.0451
G1 Z-4.0
G3 F150.0 X40.5217 Y36.9388 I0.1838 J-0.4486
G2 X40.5134 Y36.9305 I-3.1864 J3.1776
G3 X40.371 Y36.5868 I0.3422 J-0.3431
G2 Y36.5744 I-4.5 J-0.0061
G3 X40.5129 Y36.2319 I0.4827 J-0.0007
G2 X40.5213 Y36.2234 I-3.1774 J-3.1866
G3 X40.8655 Y36.0808 I0.3436 J0.3428
G2 X40.8759 I0.0053 J-4.5
G3 X41.2212 Y36.2239 I0.0005 J0.4871
G2 X41.2287 Y36.2314 I3.1853 J-3.1786
G3 X41.3711 Y36.5751 I-0.3422 J0.3431
G2 Y36.5875 I4.5 J0.0056
G3 X41.2293 Y36.9299 I-0.4825 J0.0007
G2 X41.2208 Y36.9384 I3.1773 J3.1867
G3 X40.8759 Y37.0813 I-0.3443 J-0.3435
G2 X40.8655 I-0.005 J4.5
G3 X40.6812 Y37.0451 I-0.0006 J-0.4847
G1 F50.0 X39.923 Y38.8958
G3 F150.0 X39.1055 Y38.3511 I0.9419 J-2.2993
G2 X39.1009 Y38.3465 I-1.7702 J1.7653
G3 X38.371 Y36.5841 I1.7547 J-1.759
G2 Y36.5772 I-2.5 J-0.0034
G3 X39.1007 Y34.8156 I2.4827 J-0.0035
G2 X39.1054 Y34.8109 I-1.7652 J-1.7703
G3 X40.8679 Y34.0808 I1.7596 J1.7553
G2 X40.8736 I0.003 J-2.5
G3 X42.6369 Y34.8111 I0.0027 J2.4871
G2 X42.6411 Y34.8153 I1.7696 J-1.7659
G3 X43.3711 Y36.5776 I-1.7546 J1.7592
G2 Y36.5845 I2.5 J0.0031
G3 X42.6414 Y38.3462 I-2.4825 J0.0038
G2 X42.6367 Y38.3509 I1.7652 J1.7704
G3 X40.8737 Y39.0813 I-1.7602 J-1.7561
G2 X40.8679 I-0.0028 J2.5
G3 X39.923 Y38.8958 I-0.003 J-2.4847
G1 F50.0 X40.6812 Y37.0451
G1 Z-6.0
G3 F150.0 X40.5217 Y36.9388 I0.1838 J-0.4486
G2 X40.5134 Y36.9305 I-3.1864 J3.1776
G3 X40.371 Y36.5868 I0.3422 J-0.3431
G2 Y36.5744 I-4.5 J-0.0061
G3 X40.5129 Y36.2319 I0.4827 J-0.0007
G2 X40.5213 Y36.2234 I-3.1774 J-3.1866
G3 X40.8655 Y36.0808 I0.3436 J0.3428
G2 X40.8759 I0.0053 J-4.5
G3 X41.2212 Y36.2239 I0.0005 J0.4871
G2 X41.2287 Y36.2314 I3.1853 J-3.1786
G3 X41.3711 Y36.5751 I-0.3422 J0.3431
G2 Y36.5875 I4.5 J0.0056
G3 X41.2293 Y36.9299 I-0.4825 J0.0007
G2 X41.2208 Y36.9384 I3.1773 J3.1867
G3 X40.8759 Y37.0813 I-0.3443 J-0.3435
G2 X40.8655 I-0.005 J4.5
G3 X40.6812 Y37.0451 I-0.0006 J-0.4847
G1 F50.0 X39.923 Y38.8958
G3 F150.0 X39.1055 Y38.3511 I0.9419 J-2.2993
G2 X39.1009 Y38.3465 I-1.7702 J1.7653
G3 X38.371 Y36.5841 I1.7547 J-1.759
G2 Y36.5772 I-2.5 J-0.0034
G3 X39.1007 Y34.8156 I2.4827 J-0.0035
G2 X39.1054 Y34.8109 I-1.7652 J-1.7703
G3 X40.8679 Y34.0808 I1.7596 J1.7553
G2 X40.8736 I0.003 J-2.5
G3 X42.6369 Y34.8111 I0.0027 J2.4871
G2 X42.6411 Y34.8153 I1.7696 J-1.7659
G3 X43.3711 Y36.5776 I-1.7546 J1.7592
G2 Y36.5845 I2.5 J0.0031
G3 X42.6414 Y38.3462 I-2.4825 J0.0038
G2 X42.6367 Y38.3509 I1.7652 J1.7704
G3 X40.8737 Y39.0813 I-1.7602 J-1.7561
G2 X40.8679 I-0.0028 J2.5
G3 X39.923 Y38.8958 I-0.003 J-2.4847
G1 F50.0 X40.6812 Y37.0451
G1 Z-8.0
G3 F150.0 X40.5217 Y36.9388 I0.1838 J-0.4486
G2 X40.5134 Y36.9305 I-3.1864 J3.1776
G3 X40.371 Y36.5868 I0.3422 J-0.3431
G2 Y36.5744 I-4.5 J-0.0061
G3 X40.5129 Y36.2319 I0.4827 J-0.0007
G2 X40.5213 Y36.2234 I-3.1774 J-3.1866
G3 X40.8655 Y36.0808 I0.3436 J0.3428
G2 X40.8759 I0.0053 J-4.5
G3 X41.2212 Y36.2239 I0.0005 J0.4871
G2 X41.2287 Y36.2314 I3.1853 J-3.1786
G3 X41.3711 Y36.5751 I-0.3422 J0.3431
G2 Y36.5875 I4.5 J0.0056
G3 X41.2293 Y36.9299 I-0.4825 J0.0007
G2 X41.2208 Y36.9384 I3.1773 J3.1867
G3 X40.8759 Y37.0813 I-0.3443 J-0.3435
G2 X40.8655 I-0.005 J4.5
G3 X40.6812 Y37.0451 I-0.0006 J-0.4847
G1 F50.0 X39.923 Y38.8958
G3 F150.0 X39.1055 Y38.3511 I0.9419 J-2.2993
G2 X39.1009 Y38.3465 I-1.7702 J1.7653
G3 X38.371 Y36.5841 I1.7547 J-1.759
G2 Y36.5772 I-2.5 J-0.0034
G3 X39.1007 Y34.8156 I2.4827 J-0.0035
G2 X39.1054 Y34.8109 I-1.7652 J-1.7703
G3 X40.8679 Y34.0808 I1.7596 J1.7553
G2 X40.8736 I0.003 J-2.5
G3 X42.6369 Y34.8111 I0.0027 J2.4871
G2 X42.6411 Y34.8153 I1.7696 J-1.7659
G3 X43.3711 Y36.5776 I-1.7546 J1.7592
G2 Y36.5845 I2.5 J0.0031
G3 X42.6414 Y38.3462 I-2.4825 J0.0038
G2 X42.6367 Y38.3509 I1.7652 J1.7704
G3 X40.8737 Y39.0813 I-1.7602 J-1.7561
G2 X40.8679 I-0.0028 J2.5
G3 X39.923 Y38.8958 I-0.003 J-2.4847
G1 F50.0 X40.6812 Y37.0451
G1 Z-10.0
G3 F150.0 X40.5217 Y36.9388 I0.1838 J-0.4486
G2 X40.5134 Y36.9305 I-3.1864 J3.1776
G3 X40.371 Y36.5868 I0.3422 J-0.3431
G2 Y36.5744 I-4.5 J-0.0061
G3 X40.5129 Y36.2319 I0.4827 J-0.0007
G2 X40.5213 Y36.2234 I-3.1774 J-3.1866
G3 X40.8655 Y36.0808 I0.3436 J0.3428
G2 X40.8759 I0.0053 J-4.5
G3 X41.2212 Y36.2239 I0.0005 J0.4871
G2 X41.2287 Y36.2314 I3.1853 J-3.1786
G3 X41.3711 Y36.5751 I-0.3422 J0.3431
G2 Y36.5875 I4.5 J0.0056
G3 X41.2293 Y36.9299 I-0.4825 J0.0007
G2 X41.2208 Y36.9384 I3.1773 J3.1867
G3 X40.8759 Y37.0813 I-0.3443 J-0.3435
G2 X40.8655 I-0.005 J4.5
G3 X40.6812 Y37.0451 I-0.0006 J-0.4847
G1 F50.0 X39.923 Y38.8958
G3 F150.0 X39.1055 Y38.3511 I0.9419 J-2.2993
G2 X39.1009 Y38.3465 I-1.7702 J1.7653
G3 X38.371 Y36.5841 I1.7547 J-1.759
G2 Y36.5772 I-2.5 J-0.0034
G3 X39.1007 Y34.8156 I2.4827 J-0.0035
G2 X39.1054 Y34.8109 I-1.7652 J-1.7703
G3 X40.8679 Y34.0808 I1.7596 J1.7553
G2 X40.8736 I0.003 J-2.5
G3 X42.6369 Y34.8111 I0.0027 J2.4871
G2 X42.6411 Y34.8153 I1.7696 J-1.7659
G3 X43.3711 Y36.5776 I-1.7546 J1.7592
G2 Y36.5845 I2.5 J0.0031
G3 X42.6414 Y38.3462 I-2.4825 J0.0038
G2 X42.6367 Y38.3509 I1.7652 J1.7704
G3 X40.8737 Y39.0813 I-1.7602 J-1.7561
G2 X40.8679 I-0.0028 J2.5
G3 X39.923 Y38.8958 I-0.003 J-2.4847
G1 F50.0 X40.6812 Y37.0451
G1 Z-12.0
G3 F150.0 X40.5217 Y36.9388 I0.1838 J-0.4486
G2 X40.5134 Y36.9305 I-3.1864 J3.1776
G3 X40.371 Y36.5868 I0.3422 J-0.3431
G2 Y36.5744 I-4.5 J-0.0061
G3 X40.5129 Y36.2319 I0.4827 J-0.0007
G2 X40.5213 Y36.2234 I-3.1774 J-3.1866
G3 X40.8655 Y36.0808 I0.3436 J0.3428
G2 X40.8759 I0.0053 J-4.5
G3 X41.2212 Y36.2239 I0.0005 J0.4871
G2 X41.2287 Y36.2314 I3.1853 J-3.1786
G3 X41.3711 Y36.5751 I-0.3422 J0.3431
G2 Y36.5875 I4.5 J0.0056
G3 X41.2293 Y36.9299 I-0.4825 J0.0007
G2 X41.2208 Y36.9384 I3.1773 J3.1867
G3 X40.8759 Y37.0813 I-0.3443 J-0.3435
G2 X40.8655 I-0.005 J4.5
G3 X40.6812 Y37.0451 I-0.0006 J-0.4847
G1 F50.0 X39.923 Y38.8958
G3 F150.0 X39.1055 Y38.3511 I0.9419 J-2.2993
G2 X39.1009 Y38.3465 I-1.7702 J1.7653
G3 X38.371 Y36.5841 I1.7547 J-1.759
G2 Y36.5772 I-2.5 J-0.0034
G3 X39.1007 Y34.8156 I2.4827 J-0.0035
G2 X39.1054 Y34.8109 I-1.7652 J-1.7703
G3 X40.8679 Y34.0808 I1.7596 J1.7553
G2 X40.8736 I0.003 J-2.5
G3 X42.6369 Y34.8111 I0.0027 J2.4871
G2 X42.6411 Y34.8153 I1.7696 J-1.7659
G3 X43.3711 Y36.5776 I-1.7546 J1.7592
G2 Y36.5845 I2.5 J0.0031
G3 X42.6414 Y38.3462 I-2.4825 J0.0038
G2 X42.6367 Y38.3509 I1.7652 J1.7704
G3 X40.8737 Y39.0813 I-1.7602 J-1.7561
G2 X40.8679 I-0.0028 J2.5
G3 X39.923 Y38.8958 I-0.003 J-2.4847
G1 F50.0 X40.6812 Y37.0451
G1 Z-14.0
G3 F150.0 X40.5217 Y36.9388 I0.1838 J-0.4486
G2 X40.5134 Y36.9305 I-3.1864 J3.1776
G3 X40.371 Y36.5868 I0.3422 J-0.3431
G2 Y36.5744 I-4.5 J-0.0061
G3 X40.5129 Y36.2319 I0.4827 J-0.0007
G2 X40.5213 Y36.2234 I-3.1774 J-3.1866
G3 X40.8655 Y36.0808 I0.3436 J0.3428
G2 X40.8759 I0.0053 J-4.5
G3 X41.2212 Y36.2239 I0.0005 J0.4871
G2 X41.2287 Y36.2314 I3.1853 J-3.1786
G3 X41.3711 Y36.5751 I-0.3422 J0.3431
G2 Y36.5875 I4.5 J0.0056
G3 X41.2293 Y36.9299 I-0.4825 J0.0007
G2 X41.2208 Y36.9384 I3.1773 J3.1867
G3 X40.8759 Y37.0813 I-0.3443 J-0.3435
G2 X40.8655 I-0.005 J4.5
G3 X40.6812 Y37.0451 I-0.0006 J-0.4847
G1 F50.0 X39.923 Y38.8958
G3 F150.0 X39.1055 Y38.3511 I0.9419 J-2.2993
G2 X39.1009 Y38.3465 I-1.7702 J1.7653
G3 X38.371 Y36.5841 I1.7547 J-1.759
G2 Y36.5772 I-2.5 J-0.0034
G3 X39.1007 Y34.8156 I2.4827 J-0.0035
G2 X39.1054 Y34.8109 I-1.7652 J-1.7703
G3 X40.8679 Y34.0808 I1.7596 J1.7553
G2 X40.8736 I0.003 J-2.5
G3 X42.6369 Y34.8111 I0.0027 J2.4871
G2 X42.6411 Y34.8153 I1.7696 J-1.7659
G3 X43.3711 Y36.5776 I-1.7546 J1.7592
G2 Y36.5845 I2.5 J0.0031
G3 X42.6414 Y38.3462 I-2.4825 J0.0038
G2 X42.6367 Y38.3509 I1.7652 J1.7704
G3 X40.8737 Y39.0813 I-1.7602 J-1.7561
G2 X40.8679 I-0.0028 J2.5
G3 X39.923 Y38.8958 I-0.003 J-2.4847
G1 F50.0 X40.6812 Y37.0451
G1 Z-16.0
G3 F150.0 X40.5217 Y36.9388 I0.1838 J-0.4486
G2 X40.5134 Y36.9305 I-3.1864 J3.1776
G3 X40.371 Y36.5868 I0.3422 J-0.3431
G2 Y36.5744 I-4.5 J-0.0061
G3 X40.5129 Y36.2319 I0.4827 J-0.0007
G2 X40.5213 Y36.2234 I-3.1774 J-3.1866
G3 X40.8655 Y36.0808 I0.3436 J0.3428
G2 X40.8759 I0.0053 J-4.5
G3 X41.2212 Y36.2239 I0.0005 J0.4871
G2 X41.2287 Y36.2314 I3.1853 J-3.1786
G3 X41.3711 Y36.5751 I-0.3422 J0.3431
G2 Y36.5875 I4.5 J0.0056
G3 X41.2293 Y36.9299 I-0.4825 J0.0007
G2 X41.2208 Y36.9384 I3.1773 J3.1867
G3 X40.8759 Y37.0813 I-0.3443 J-0.3435
G2 X40.8655 I-0.005 J4.5
G3 X40.6812 Y37.0451 I-0.0006 J-0.4847
G1 F50.0 X39.923 Y38.8958
G3 F150.0 X39.1055 Y38.3511 I0.9419 J-2.2993
G2 X39.1009 Y38.3465 I-1.7702 J1.7653
G3 X38.371 Y36.5841 I1.7547 J-1.759
G2 Y36.5772 I-2.5 J-0.0034
G3 X39.1007 Y34.8156 I2.4827 J-0.0035
G2 X39.1054 Y34.8109 I-1.7652 J-1.7703
G3 X40.8679 Y34.0808 I1.7596 J1.7553
G2 X40.8736 I0.003 J-2.5
G3 X42.6369 Y34.8111 I0.0027 J2.4871
G2 X42.6411 Y34.8153 I1.7696 J-1.7659
G3 X43.3711 Y36.5776 I-1.7546 J1.7592
G2 Y36.5845 I2.5 J0.0031
G3 X42.6414 Y38.3462 I-2.4825 J0.0038
G2 X42.6367 Y38.3509 I1.7652 J1.7704
G3 X40.8737 Y39.0813 I-1.7602 J-1.7561
G2 X40.8679 I-0.0028 J2.5
G3 X39.923 Y38.8958 I-0.003 J-2.4847
G0 Z3.0
G0 X68.5961 Y36.6247
G0 Z1.0
G1 F50.0 Z-2.0
G3 F150.0 X68.5946 Y36.5857 I0.4859 J-0.0385
G2 Y36.5746 I-4.5 J-0.005
G3 X68.7366 Y36.2318 I0.4832 J-0.0007
G2 X68.7459 Y36.2225 I-3.1774 J-3.1865
G3 X69.0879 Y36.0808 I0.3413 J0.3403
G2 X69.1012 I0.0069 J-4.5
G3 X69.4437 Y36.2227 I0.0007 J0.4827
G2 X69.4521 Y36.2312 I3.1866 J-3.1774
G3 X69.5947 Y36.5754 I-0.3428 J0.3436
G2 Y36.5864 I4.5 J0.0053
G3 X69.4521 Y36.9308 I-0.4856 J0.0006
G2 X69.4435 Y36.9394 I3.1783 J3.1856
G3 X69.101 Y37.0813 I-0.3418 J-0.3407
G2 X69.0881 I-0.0062 J4.5
G3 X68.7461 Y36.9396 I-0.0007 J-0.482
G2 X68.7377 Y36.9312 I-3.1869 J3.177
G3 X68.5961 Y36.6247 I0.3443 J-0.345
G1 F50.0 X66.6024 Y36.7826
G3 F150.0 X66.5946 Y36.5835 I2.4796 J-0.1964
G2 Y36.5773 I-2.5 J-0.0028
G3 X67.3244 Y34.8155 I2.4832 J-0.0034
G2 X67.3296 Y34.8104 I-1.7652 J-1.7703
G3 X69.091 Y34.0808 I1.7576 J1.7524
G2 X69.0984 I0.0038 J-2.5
G3 X70.8599 Y34.8105 I0.0035 J2.4827
G2 X70.8646 Y34.8152 I1.7703 J-1.7652
G3 X71.5947 Y36.5777 I-1.7553 J1.7596
G2 Y36.5839 I2.5 J0.003
G3 X70.8647 Y38.3466 I-2.4856 J0.0031
G2 X70.8599 Y38.3514 I1.7657 J1.7698
G3 X69.0983 Y39.0813 I-1.7582 J-1.7528
G2 X69.0911 I-0.0034 J2.5
G3 X67.3297 Y38.3516 I-0.0037 J-2.482
G2 X67.325 Y38.3469 I-1.7705 J1.765
G3 X66.6024 Y36.7826 I1.757 J-1.7607
G1 F50.0 X68.5961 Y36.6247
G1 Z-4.0
G3 F150.0 X68.5946 Y36.5857 I0.4859 J-0.0385
G2 Y36.5746 I-4.5 J-0.005
G3 X68.7366 Y36.2318 I0.4832 J-0.0007
G2 X68.7459 Y36.2225 I-3.1774 J-3.1865
G3 X69.0879 Y36.0808 I0.3413 J0.3403
G2 X69.1012 I0.0069 J-4.5
G3 X69.4437 Y36.2227 I0.0007 J0.4827
G2 X69.4521 Y36.2312 I3.1866 J-3.1774
G3 X69.5947 Y36.5754 I-0.3428 J0.3436
G2 Y36.5864 I4.5 J0.0053
G3 X69.4521 Y36.9308 I-0.4856 J0.0006
G2 X69.4435 Y36.9394 I3.1783 J3.1856
G3 X69.101 Y37.0813 I-0.3418 J-0.3407
G2 X69.0881 I-0.0062 J4.5
G3 X68.7461 Y36.9396 I-0.0007 J-0.482
G2 X68.7377 Y36.9312 I-3.1869 J3.177
G3 X68.5961 Y36.6247 I0.3443 J-0.345
G1 F50.0 X66.6024 Y36.7826
G3 F150.0 X66.5946 Y36.5835 I2.4796 J-0.1964
G2 Y36.5773 I-2.5 J-0.0028
G3 X67.3244 Y34.8155 I2.4832 J-0.0034
G2 X67.3296 Y34.8104 I-1.7652 J-1.7703
G3 X69.091 Y34.0808 I1.7576 J1.7524
G2 X69.0984 I0.0038 J-2.5
G3 X70.8599 Y34.8105 I0.0035 J2.4827
G2 X70.8646 Y34.8152 I1.7703 J-1.7652
G3 X71.5947 Y36.5777 I-1.7553 J1.7596
G2 Y36.5839 I2.5 J0.003
G3 X70.8647 Y38.3466 I-2.4856 J0.0031
G2 X70.8599 Y38.3514 I1.7657 J1.7698
G3 X69.0983 Y39.0813 I-1.7582 J-1.7528
G2 X69.0911 I-0.0034 J2.5
G3 X67.3297 Y38.3516 I-0.0037 J-2.482
G2 X67.325 Y38.3469 I-1.7705 J1.765
G3 X66.6024 Y36.7826 I1.757 J-1.7607
G1 F50.0 X68.5961 Y36.6247
G1 Z-6.0
G3 F150.0 X68.5946 Y36.5857 I0.4859 J-0.0385
G2 Y36.5746 I-4.5 J-0.005
G3 X68.7366 Y36.2318 I0.4832 J-0.0007
G2 X68.7459 Y36.2225 I-3.1774 J-3.1865
G3 X69.0879 Y36.0808 I0.3413 J0.3403
G2 X69.1012 I0.0069 J-4.5
G3 X69.4437 Y36.2227 I0.0007 J0.4827
G2 X69.4521 Y36.2312 I3.1866 J-3.1774
G3 X69.5947 Y36.5754 I-0.3428 J0.3436
G2 Y36.5864 I4.5 J0.0053
G3 X69.4521 Y36.9308 I-0.4856 J0.0006
G2 X69.4435 Y36.9394 I3.1783 J3.1856
G3 X69.101 Y37.0813 I-0.3418 J-0.3407
G2 X69.0881 I-0.0062 J4.5
G3 X68.7461 Y36.9396 I-0.0007 J-0.482
G2 X68.7377 Y36.9312 I-3.1869 J3.177
G3 X68.5961 Y36.6247 I0.3443 J-0.345
G1 F50.0 X66.6024 Y36.7826
G3 F150.0 X66.5946 Y36.5835 I2.4796 J-0.1964
G2 Y36.5773 I-2.5 J-0.0028
G3 X67.3244 Y34.8155 I2.4832 J-0.0034
G2 X67.3296 Y34.8104 I-1.7652 J-1.7703
G3 X69.091 Y34.0808 I1.7576 J1.7524
G2 X69.0984 I0.0038 J-2.5
G3 X70.8599 Y34.8105 I0.0035 J2.4827
G2 X70.8646 Y34.8152 I1.7703 J-1.7652
G3 X71.5947 Y36.5777 I-1.7553 J1.7596
G2 Y36.5839 I2.5 J0.003
G3 X70.8647 Y38.3466 I-2.4856 J0.0031
G2 X70.8599 Y38.3514 I1.7657 J1.7698
G3 X69.0983 Y39.0813 I-1.7582 J-1.7528
G2 X69.0911 I-0.0034 J2.5
G3 X67.3297 Y38.3516 I-0.0037 J-2.482
G2 X67.325 Y38.3469 I-1.7705 J1.765
G3 X66.6024 Y36.7826 I1.757 J-1.7607
G1 F50.0 X68.5961 Y36.6247
G1 Z-8.0
G3 F150.0 X68.5946 Y36.5857 I0.4859 J-0.0385
G2 Y36.5746 I-4.5 J-0.005
G3 X68.7366 Y36.2318 I0.4832 J-0.0007
G2 X68.7459 Y36.2225 I-3.1774 J-3.1865
G3 X69.0879 Y36.0808 I0.3413 J0.3403
G2 X69.1012 I0.0069 J-4.5
G3 X69.4437 Y36.2227 I0.0007 J0.4827
G2 X69.4521 Y36.2312 I3.1866 J-3.1774
G3 X69.5947 Y36.5754 I-0.3428 J0.3436
G2 Y36.5864 I4.5 J0.0053
G3 X69.4521 Y36.9308 I-0.4856 J0.0006
G2 X69.4435 Y36.9394 I3.1783 J3.1856
G3 X69.101 Y37.0813 I-0.3418 J-0.3407
G2 X69.0881 I-0.0062 J4.5
G3 X68.7461 Y36.9396 I-0.0007 J-0.482
G2 X68.7377 Y36.9312 I-3.1869 J3.177
G3 X68.5961 Y36.6247 I0.3443 J-0.345
G1 F50.0 X66.6024 Y36.7826
G3 F150.0 X66.5946 Y36.5835 I2.4796 J-0.1964
G2 Y36.5773 I-2.5 J-0.0028
G3 X67.3244 Y34.8155 I2.4832 J-0.0034
G2 X67.3296 Y34.8104 I-1.7652 J-1.7703
G3 X69.091 Y34.0808 I1.7576 J1.7524
G2 X69.0984 I0.0038 J-2.5
G3 X70.8599 Y34.8105 I0.0035 J2.4827
G2 X70.8646 Y34.8152 I1.7703 J-1.7652
G3 X71.5947 Y36.5777 I-1.7553 J1.7596
G2 Y36.5839 I2.5 J0.003
G3 X70.8647 Y38.3466 I-2.4856 J0.0031
G2 X70.8599 Y38.3514 I1.7657 J1.7698
G3 X69.0983 Y39.0813 I-1.7582 J-1.7528
G2 X69.0911 I-0.0034 J2.5
G3 X67.3297 Y38.3516 I-0.0037 J-2.482
G2 X67.325 Y38.3469 I-1.7705 J1.765
G3 X66.6024 Y36.7826 I1.757 J-1.7607
G1 F50.0 X68.5961 Y36.6247
G1 Z-10.0
G3 F150.0 X68.5946 Y36.5857 I0.4859 J-0.0385
G2 Y36.5746 I-4.5 J-0.005
G3 X68.7366 Y36.2318 I0.4832 J-0.0007
G2 X68.7459 Y36.2225 I-3.1774 J-3.1865
G3 X69.0879 Y36.0808 I0.3413 J0.3403
G2 X69.1012 I0.0069 J-4.5
G3 X69.4437 Y36.2227 I0.0007 J0.4827
G2 X69.4521 Y36.2312 I3.1866 J-3.1774
G3 X69.5947 Y36.5754 I-0.3428 J0.3436
G2 Y36.5864 I4.5 J0.0053
G3 X69.4521 Y36.9308 I-0.4856 J0.0006
G2 X69.4435 Y36.9394 I3.1783 J3.1856
G3 X69.101 Y37.0813 I-0.3418 J-0.3407
G2 X69.0881 I-0.0062 J4.5
G3 X68.7461 Y36.9396 I-0.0007 J-0.482
G2 X68.7377 Y36.9312 I-3.1869 J3.177
G3 X68.5961 Y36.6247 I0.3443 J-0.345
G1 F50.0 X66.6024 Y36.7826
G3 F150.0 X66.5946 Y36.5835 I2.4796 J-0.1964
G2 Y36.5773 I-2.5 J-0.0028
G3 X67.3244 Y34.8155 I2.4832 J-0.0034
G2 X67.3296 Y34.8104 I-1.7652 J-1.7703
G3 X69.091 Y34.0808 I1.7576 J1.7524
G2 X69.0984 I0.0038 J-2.5
G3 X70.8599 Y34.8105 I0.0035 J2.4827
G2 X70.8646 Y34.8152 I1.7703 J-1.7652
G3 X71.5947 Y36.5777 I-1.7553 J1.7596
G2 Y36.5839 I2.5 J0.003
G3 X70.8647 Y38.3466 I-2.4856 J0.0031
G2 X70.8599 Y38.3514 I1.7657 J1.7698
G3 X69.0983 Y39.0813 I-1.7582 J-1.7528
G2 X69.0911 I-0.0034 J2.5
G3 X67.3297 Y38.3516 I-0.0037 J-2.482
G2 X67.325 Y38.3469 I-1.7705 J1.765
G3 X66.6024 Y36.7826 I1.757 J-1.7607
G1 F50.0 X68.5961 Y36.6247
G1 Z-12.0
G3 F150.0 X68.5946 Y36.5857 I0.4859 J-0.0385
G2 Y36.5746 I-4.5 J-0.005
G3 X68.7366 Y36.2318 I0.4832 J-0.0007
G2 X68.7459 Y36.2225 I-3.1774 J-3.1865
G3 X69.0879 Y36.0808 I0.3413 J0.3403
G2 X69.1012 I0.0069 J-4.5
G3 X69.4437 Y36.2227 I0.0007 J0.4827
G2 X69.4521 Y36.2312 I3.1866 J-3.1774
G3 X69.5947 Y36.5754 I-0.3428 J0.3436
G2 Y36.5864 I4.5 J0.0053
G3 X69.4521 Y36.9308 I-0.4856 J0.0006
G2 X69.4435 Y36.9394 I3.1783 J3.1856
G3 X69.101 Y37.0813 I-0.3418 J-0.3407
G2 X69.0881 I-0.0062 J4.5
G3 X68.7461 Y36.9396 I-0.0007 J-0.482
G2 X68.7377 Y36.9312 I-3.1869 J3.177
G3 X68.5961 Y36.6247 I0.3443 J-0.345
G1 F50.0 X66.6024 Y36.7826
G3 F150.0 X66.5946 Y36.5835 I2.4796 J-0.1964
G2 Y36.5773 I-2.5 J-0.0028
G3 X67.3244 Y34.8155 I2.4832 J-0.0034
G2 X67.3296 Y34.8104 I-1.7652 J-1.7703
G3 X69.091 Y34.0808 I1.7576 J1.7524
G2 X69.0984 I0.0038 J-2.5
G3 X70.8599 Y34.8105 I0.0035 J2.4827
G2 X70.8646 Y34.8152 I1.7703 J-1.7652
G3 X71.5947 Y36.5777 I-1.7553 J1.7596
G2 Y36.5839 I2.5 J0.003
G3 X70.8647 Y38.3466 I-2.4856 J0.0031
G2 X70.8599 Y38.3514 I1.7657 J1.7698
G3 X69.0983 Y39.0813 I-1.7582 J-1.7528
G2 X69.0911 I-0.0034 J2.5
G3 X67.3297 Y38.3516 I-0.0037 J-2.482
G2 X67.325 Y38.3469 I-1.7705 J1.765
G3 X66.6024 Y36.7826 I1.757 J-1.7607
G1 F50.0 X68.5961 Y36.6247
G1 Z-14.0
G3 F150.0 X68.5946 Y36.5857 I0.4859 J-0.0385
G2 Y36.5746 I-4.5 J-0.005
G3 X68.7366 Y36.2318 I0.4832 J-0.0007
G2 X68.7459 Y36.2225 I-3.1774 J-3.1865
G3 X69.0879 Y36.0808 I0.3413 J0.3403
G2 X69.1012 I0.0069 J-4.5
G3 X69.4437 Y36.2227 I0.0007 J0.4827
G2 X69.4521 Y36.2312 I3.1866 J-3.1774
G3 X69.5947 Y36.5754 I-0.3428 J0.3436
G2 Y36.5864 I4.5 J0.0053
G3 X69.4521 Y36.9308 I-0.4856 J0.0006
G2 X69.4435 Y36.9394 I3.1783 J3.1856
G3 X69.101 Y37.0813 I-0.3418 J-0.3407
G2 X69.0881 I-0.0062 J4.5
G3 X68.7461 Y36.9396 I-0.0007 J-0.482
G2 X68.7377 Y36.9312 I-3.1869 J3.177
G3 X68.5961 Y36.6247 I0.3443 J-0.345
G1 F50.0 X66.6024 Y36.7826
G3 F150.0 X66.5946 Y36.5835 I2.4796 J-0.1964
G2 Y36.5773 I-2.5 J-0.0028
G3 X67.3244 Y34.8155 I2.4832 J-0.0034
G2 X67.3296 Y34.8104 I-1.7652 J-1.7703
G3 X69.091 Y34.0808 I1.7576 J1.7524
G2 X69.0984 I0.0038 J-2.5
G3 X70.8599 Y34.8105 I0.0035 J2.4827
G2 X70.8646 Y34.8152 I1.7703 J-1.7652
G3 X71.5947 Y36.5777 I-1.7553 J1.7596
G2 Y36.5839 I2.5 J0.003
G3 X70.8647 Y38.3466 I-2.4856 J0.0031
G2 X70.8599 Y38.3514 I1.7657 J1.7698
G3 X69.0983 Y39.0813 I-1.7582 J-1.7528
G2 X69.0911 I-0.0034 J2.5
G3 X67.3297 Y38.3516 I-0.0037 J-2.482
G2 X67.325 Y38.3469 I-1.7705 J1.765
G3 X66.6024 Y36.7826 I1.757 J-1.7607
G1 F50.0 X68.5961 Y36.6247
G1 Z-16.0
G3 F150.0 X68.5946 Y36.5857 I0.4859 J-0.0385
G2 Y36.5746 I-4.5 J-0.005
G3 X68.7366 Y36.2318 I0.4832 J-0.0007
G2 X68.7459 Y36.2225 I-3.1774 J-3.1865
G3 X69.0879 Y36.0808 I0.3413 J0.3403
G2 X69.1012 I0.0069 J-4.5
G3 X69.4437 Y36.2227 I0.0007 J0.4827
G2 X69.4521 Y36.2312 I3.1866 J-3.1774
G3 X69.5947 Y36.5754 I-0.3428 J0.3436
G2 Y36.5864 I4.5 J0.0053
G3 X69.4521 Y36.9308 I-0.4856 J0.0006
G2 X69.4435 Y36.9394 I3.1783 J3.1856
G3 X69.101 Y37.0813 I-0.3418 J-0.3407
G2 X69.0881 I-0.0062 J4.5
G3 X68.7461 Y36.9396 I-0.0007 J-0.482
G2 X68.7377 Y36.9312 I-3.1869 J3.177
G3 X68.5961 Y36.6247 I0.3443 J-0.345
G1 F50.0 X66.6024 Y36.7826
G3 F150.0 X66.5946 Y36.5835 I2.4796 J-0.1964
G2 Y36.5773 I-2.5 J-0.0028
G3 X67.3244 Y34.8155 I2.4832 J-0.0034
G2 X67.3296 Y34.8104 I-1.7652 J-1.7703
G3 X69.091 Y34.0808 I1.7576 J1.7524
G2 X69.0984 I0.0038 J-2.5
G3 X70.8599 Y34.8105 I0.0035 J2.4827
G2 X70.8646 Y34.8152 I1.7703 J-1.7652
G3 X71.5947 Y36.5777 I-1.7553 J1.7596
G2 Y36.5839 I2.5 J0.003
G3 X70.8647 Y38.3466 I-2.4856 J0.0031
G2 X70.8599 Y38.3514 I1.7657 J1.7698
G3 X69.0983 Y39.0813 I-1.7582 J-1.7528
G2 X69.0911 I-0.0034 J2.5
G3 X67.3297 Y38.3516 I-0.0037 J-2.482
G2 X67.325 Y38.3469 I-1.7705 J1.765
G3 X66.6024 Y36.7826 I1.757 J-1.7607
G0 Z3.0
G0 X69.0348 Y58.6637
G0 Z1.0
G1 F50.0 Z-2.0
G3 F150.0 X69.089 Y58.6607 I0.0536 J0.4818
G2 X69.101 I0.0058 J-4.5
G3 X69.4438 Y58.8027 I0.0007 J0.4832
G2 X69.453 Y58.812 I3.1865 J-3.1774
G3 X69.5947 Y59.154 I-0.3403 J0.3413
G2 Y59.1666 I4.5 J0.0069
G3 X69.4521 Y59.511 I-0.4856 J0.0006
G2 X69.4435 Y59.5196 I3.1783 J3.1856
G3 X69.101 Y59.6615 I-0.3418 J-0.3407
G2 X69.0881 I-0.0062 J4.5
G3 X68.7461 Y59.5198 I-0.0007 J-0.482
G2 X68.7377 Y59.5114 I-3.1869 J3.177
G3 X68.5946 Y59.1659 I0.3443 J-0.345
G2 Y59.1548 I-4.5 J-0.005
G3 X68.7368 Y58.8114 I0.484 J-0.0007
G2 X68.7452 Y58.8031 I-3.1777 J-3.1862
G3 X69.0348 Y58.6637 I0.3432 J0.3423
G1 F50.0 X68.8139 Y56.6759
G3 F150.0 X69.0916 Y56.6607 I0.2745 J2.4695
G2 X69.0982 I0.0032 J-2.5
G3 X70.86 Y57.3905 I0.0034 J2.4832
G2 X70.8652 Y57.3957 I1.7703 J-1.7652
G3 X71.5947 Y59.1571 I-1.7524 J1.7576
G2 Y59.1641 I2.5 J0.0038
G3 X70.8647 Y60.9268 I-2.4856 J0.0031
G2 X70.8599 Y60.9316 I1.7657 J1.7698
G3 X69.0983 Y61.6615 I-1.7582 J-1.7528
G2 X69.0911 I-0.0034 J2.5
G3 X67.3297 Y60.9318 I-0.0037 J-2.482
G2 X67.325 Y60.9271 I-1.7705 J1.765
G3 X66.5946 Y59.1637 I1.757 J-1.7607
G2 Y59.1575 I-2.5 J-0.0028
G3 X67.3245 Y57.3953 I2.484 J-0.0034
G2 X67.3292 Y57.3907 I-1.7654 J-1.7701
G3 X68.8139 Y56.6759 I1.7592 J1.7547
G1 F50.0 X69.0348 Y58.6637
G1 Z-4.0
G3 F150.0 X69.089 Y58.6607 I0.0536 J0.4818
G2 X69.101 I0.0058 J-4.5
G3 X69.4438 Y58.8027 I0.0007 J0.4832
G2 X69.453 Y58.812 I3.1865 J-3.1774
G3 X69.5947 Y59.154 I-0.3403 J0.3413
G2 Y59.1666 I4.5 J0.0069
G3 X69.4521 Y59.511 I-0.4856 J0.0006
G2 X69.4435 Y59.5196 I3.1783 J3.1856
G3 X69.101 Y59.6615 I-0.3418 J-0.3407
G2 X69.0881 I-0.0062 J4.5
G3 X68.7461 Y59.5198 I-0.0007 J-0.482
G2 X68.7377 Y59.5114 I-3.1869 J3.177
G3 X68.5946 Y59.1659 I0.3443 J-0.345
G2 Y59.1548 I-4.5 J-0.005
G3 X68.7368 Y58.8114 I0.484 J-0.0007
G2 X68.7452 Y58.8031 I-3.1777 J-3.1862
G3 X69.0348 Y58.6637 I0.3432 J0.3423
G1 F50.0 X68.8139 Y56.6759
G3 F150.0 X69.0916 Y56.6607 I0.2745 J2.4695
G2 X69.0982 I0.0032 J-2.5
G3 X70.86 Y57.3905 I0.0034 J2.4832
G2 X70.8652 Y57.3957 I1.7703 J-1.7652
G3 X71.5947 Y59.1571 I-1.7524 J1.7576
G2 Y59.1641 I2.5 J0.0038
G3 X70.8647 Y60.9268 I-2.4856 J0.0031
G2 X70.8599 Y60.9316 I1.7657 J1.7698
G3 X69.0983 Y61.6615 I-1.7582 J-1.7528
G2 X69.0911 I-0.0034 J2.5
G3 X67.3297 Y60.9318 I-0.0037 J-2.482
G2 X67.325 Y60.9271 I-1.7705 J1.765
G3 X66.5946 Y59.1637 I1.757 J-1.7607
G2 Y59.1575 I-2.5 J-0.0028
G3 X67.3245 Y57.3953 I2.484 J-0.0034
G2 X67.3292 Y57.3907 I-1.7654 J-1.7701
G3 X68.8139 Y56.6759 I1.7592 J1.7547
G1 F50.0 X69.0348 Y58.6637
G1 Z-6.0
G3 F150.0 X69.089 Y58.6607 I0.0536 J0.4818
G2 X69.101 I0.0058 J-4.5
G3 X69.4438 Y58.8027 I0.0007 J0.4832
G2 X69.453 Y58.812 I3.1865 J-3.1774
G3 X69.5947 Y59.154 I-0.3403 J0.3413
G2 Y59.1666 I4.5 J0.0069
G3 X69.4521 Y59.511 I-0.4856 J0.0006
G2 X69.4435 Y59.5196 I3.1783 J3.1856
G3 X69.101 Y59.6615 I-0.3418 J-0.3407
G2 X69.0881 I-0.0062 J4.5
G3 X68.7461 Y59.5198 I-0.0007 J-0.482
G2 X68.7377 Y59.5114 I-3.1869 J3.177
G3 X68.5946 Y59.1659 I0.3443 J-0.345
G2 Y59.1548 I-4.5 J-0.005
G3 X68.7368 Y58.8114 I0.484 J-0.0007
G2 X68.7452 Y58.8031 I-3.1777 J-3.1862
G3 X69.0348 Y58.6637 I0.3432 J0.3423
G1 F50.0 X68.8139 Y56.6759
G3 F150.0 X69.0916 Y56.6607 I0.2745 J2.4695
G2 X69.0982 I0.0032 J-2.5
G3 X70.86 Y57.3905 I0.0034 J2.4832
G2 X70.8652 Y57.3957 I1.7703 J-1.7652
G3 X71.5947 Y59.1571 I-1.7524 J1.7576
G2 Y59.1641 I2.5 J0.0038
G3 X70.8647 Y60.9268 I-2.4856 J0.0031
G2 X70.8599 Y60.9316 I1.7657 J1.7698
G3 X69.0983 Y61.6615 I-1.7582 J-1.7528
G2 X69.0911 I-0.0034 J2.5
G3 X67.3297 Y60.9318 I-0.0037 J-2.482
G2 X67.325 Y60.9271 I-1.7705 J1.765
G3 X66.5946 Y59.1637 I1.757 J-1.7607
G2 Y59.1575 I-2.5 J-0.0028
G3 X67.3245 Y57.3953 I2.484 J-0.0034
G2 X67.3292 Y57.3907 I-1.7654 J-1.7701
G3 X68.8139 Y56.6759 I1.7592 J1.7547
G1 F50.0 X69.0348 Y58.6637
G1 Z-8.0
G3 F150.0 X69.089 Y58.6607 I0.0536 J0.4818
G2 X69.101 I0.0058 J-4.5
G3 X69.4438 Y58.8027 I0.0007 J0.4832
G2 X69.453 Y58.812 I3.1865 J-3.1774
G3 X69.5947 Y59.154 I-0.3403 J0.3413
G2 Y59.1666 I4.5 J0.0069
G3 X69.4521 Y59.511 I-0.4856 J0.0006
G2 X69.4435 Y59.5196 I3.1783 J3.1856
G3 X69.101 Y59.6615 I-0.3418 J-0.3407
G2 X69.0881 I-0.0062 J4.5
G3 X68.7461 Y59.5198 I-0.0007 J-0.482
G2 X68.7377 Y59.5114 I-3.1869 J3.177
G3 X68.5946 Y59.1659 I0.3443 J-0.345
G2 Y59.1548 I-4.5 J-0.005
G3 X68.7368 Y58.8114 I0.484 J-0.0007
G2 X68.7452 Y58.8031 I-3.1777 J-3.1862
G3 X69.0348 Y58.6637 I0.3432 J0.3423
G1 F50.0 X68.8139 Y56.6759
G3 F150.0 X69.0916 Y56.6607 I0.2745 J2.4695
G2 X69.0982 I0.0032 J-2.5
G3 X70.86 Y57.3905 I0.0034 J2.4832
G2 X70.8652 Y57.3957 I1.7703 J-1.7652
G3 X71.5947 Y59.1571 I-1.7524 J1.7576
G2 Y59.1641 I2.5 J0.0038
G3 X70.8647 Y60.9268 I-2.4856 J0.0031
G2 X70.8599 Y60.9316 I1.7657 J1.7698
G3 X69.0983 Y61.6615 I-1.7582 J-1.7528
G2 X69.0911 I-0.0034 J2.5
G3 X67.3297 Y60.9318 I-0.0037 J-2.482
G2 X67.325 Y60.9271 I-1.7705 J1.765
G3 X66.5946 Y59.1637 I1.757 J-1.7607
G2 Y59.1575 I-2.5 J-0.0028
G3 X67.3245 Y57.3953 I2.484 J-0.0034
G2 X67.3292 Y57.3907 I-1.7654 J-1.7701
G3 X68.8139 Y56.6759 I1.7592 J1.7547
G1 F50.0 X69.0348 Y58.6637
G1 Z-10.0
G3 F150.0 X69.089 Y58.6607 I0.0536 J0.4818
G2 X69.101 I0.0058 J-4.5
G3 X69.4438 Y58.8027 I0.0007 J0.4832
G2 X69.453 Y58.812 I3.1865 J-3.1774
G3 X69.5947 Y59.154 I-0.3403 J0.3413
G2 Y59.1666 I4.5 J0.0069
G3 X69.4521 Y59.511 I-0.4856 J0.0006
G2 X69.4435 Y59.5196 I3.1783 J3.1856
G3 X69.101 Y59.6615 I-0.3418 J-0.3407
G2 X69.0881 I-0.0062 J4.5
G3 X68.7461 Y59.5198 I-0.0007 J-0.482
G2 X68.7377 Y59.5114 I-3.1869 J3.177
G3 X68.5946 Y59.1659 I0.3443 J-0.345
G2 Y59.1548 I-4.5 J-0.005
G3 X68.7368 Y58.8114 I0.484 J-0.0007
G2 X68.7452 Y58.8031 I-3.1777 J-3.1862
G3 X69.0348 Y58.6637 I0.3432 J0.3423
G1 F50.0 X68.8139 Y56.6759
G3 F150.0 X69.0916 Y56.6607 I0.2745 J2.4695
G2 X69.0982 I0.0032 J-2.5
G3 X70.86 Y57.3905 I0.0034 J2.4832
G2 X70.8652 Y57.3957 I1.7703 J-1.7652
G3 X71.5947 Y59.1571 I-1.7524 J1.7576
G2 Y59.1641 I2.5 J0.0038
G3 X70.8647 Y60.9268 I-2.4856 J0.0031
G2 X70.8599 Y60.9316 I1.7657 J1.7698
G3 X69.0983 Y61.6615 I-1.7582 J-1.7528
G2 X69.0911 I-0.0034 J2.5
G3 X67.3297 Y60.9318 I-0.0037 J-2.482
G2 X67.325 Y60.9271 I-1.7705 J1.765
G3 X66.5946 Y59.1637 I1.757 J-1.7607
G2 Y59.1575 I-2.5 J-0.0028
G3 X67.3245 Y57.3953 I2.484 J-0.0034
G2 X67.3292 Y57.3907 I-1.7654 J-1.7701
G3 X68.8139 Y56.6759 I1.7592 J1.7547
G1 F50.0 X69.0348 Y58.6637
G1 Z-12.0
G3 F150.0 X69.089 Y58.6607 I0.0536 J0.4818
G2 X69.101 I0.0058 J-4.5
G3 X69.4438 Y58.8027 I0.0007 J0.4832
G2 X69.453 Y58.812 I3.1865 J-3.1774
G3 X69.5947 Y59.154 I-0.3403 J0.3413
G2 Y59.1666 I4.5 J0.0069
G3 X69.4521 Y59.511 I-0.4856 J0.0006
G2 X69.4435 Y59.5196 I3.1783 J3.1856
G3 X69.101 Y59.6615 I-0.3418 J-0.3407
G2 X69.0881 I-0.0062 J4.5
G3 X68.7461 Y59.5198 I-0.0007 J-0.482
G2 X68.7377 Y59.5114 I-3.1869 J3.177
G3 X68.5946 Y59.1659 I0.3443 J-0.345
G2 Y59.1548 I-4.5 J-0.005
G3 X68.7368 Y58.8114 I0.484 J-0.0007
G2 X68.7452 Y58.8031 I-3.1777 J-3.1862
G3 X69.0348 Y58.6637 I0.3432 J0.3423
G1 F50.0 X68.8139 Y56.6759
G3 F150.0 X69.0916 Y56.6607 I0.2745 J2.4695
G2 X69.0982 I0.0032 J-2.5
G3 X70.86 Y57.3905 I0.0034 J2.4832
G2 X70.8652 Y57.3957 I1.7703 J-1.7652
G3 X71.5947 Y59.1571 I-1.7524 J1.7576
G2 Y59.1641 I2.5 J0.0038
G3 X70.8647 Y60.9268 I-2.4856 J0.0031
G2 X70.8599 Y60.9316 I1.7657 J1.7698
G3 X69.0983 Y61.6615 I-1.7582 J-1.7528
G2 X69.0911 I-0.0034 J2.5
G3 X67.3297 Y60.9318 I-0.0037 J-2.482
G2 X67.325 Y60.9271 I-1.7705 J1.765
G3 X66.5946 Y59.1637 I1.757 J-1.7607
G2 Y59.1575 I-2.5 J-0.0028
G3 X67.3245 Y57.3953 I2.484 J-0.0034
G2 X67.3292 Y57.3907 I-1.7654 J-1.7701
G3 X68.8139 Y56.6759 I1.7592 J1.7547
G1 F50.0 X69.0348 Y58.6637
G1 Z-14.0
G3 F150.0 X69.089 Y58.6607 I0.0536 J0.4818
G2 X69.101 I0.0058 J-4.5
G3 X69.4438 Y58.8027 I0.0007 J0.4832
G2 X69.453 Y58.812 I3.1865 J-3.1774
G3 X69.5947 Y59.154 I-0.3403 J0.3413
G2 Y59.1666 I4.5 J0.0069
G3 X69.4521 Y59.511 I-0.4856 J0.0006
G2 X69.4435 Y59.5196 I3.1783 J3.1856
G3 X69.101 Y59.6615 I-0.3418 J-0.3407
G2 X69.0881 I-0.0062 J4.5
G3 X68.7461 Y59.5198 I-0.0007 J-0.482
G2 X68.7377 Y59.5114 I-3.1869 J3.177
G3 X68.5946 Y59.1659 I0.3443 J-0.345
G2 Y59.1548 I-4.5 J-0.005
G3 X68.7368 Y58.8114 I0.484 J-0.0007
G2 X68.7452 Y58.8031 I-3.1777 J-3.1862
G3 X69.0348 Y58.6637 I0.3432 J0.3423
G1 F50.0 X68.8139 Y56.6759
G3 F150.0 X69.0916 Y56.6607 I0.2745 J2.4695
G2 X69.0982 I0.0032 J-2.5
G3 X70.86 Y57.3905 I0.0034 J2.4832
G2 X70.8652 Y57.3957 I1.7703 J-1.7652
G3 X71.5947 Y59.1571 I-1.7524 J1.7576
G2 Y59.1641 I2.5 J0.0038
G3 X70.8647 Y60.9268 I-2.4856 J0.0031
G2 X70.8599 Y60.9316 I1.7657 J1.7698
G3 X69.0983 Y61.6615 I-1.7582 J-1.7528
G2 X69.0911 I-0.0034 J2.5
G3 X67.3297 Y60.9318 I-0.0037 J-2.482
G2 X67.325 Y60.9271 I-1.7705 J1.765
G3 X66.5946 Y59.1637 I1.757 J-1.7607
G2 Y59.1575 I-2.5 J-0.0028
G3 X67.3245 Y57.3953 I2.484 J-0.0034
G2 X67.3292 Y57.3907 I-1.7654 J-1.7701
G3 X68.8139 Y56.6759 I1.7592 J1.7547
G1 F50.0 X69.0348 Y58.6637
G1 Z-16.0
G3 F150.0 X69.089 Y58.6607 I0.0536 J0.4818
G2 X69.101 I0.0058 J-4.5
G3 X69.4438 Y58.8027 I0.0007 J0.4832
G2 X69.453 Y58.812 I3.1865 J-3.1774
G3 X69.5947 Y59.154 I-0.3403 J0.3413
G2 Y59.1666 I4.5 J0.0069
G3 X69.4521 Y59.511 I-0.4856 J0.0006
G2 X69.4435 Y59.5196 I3.1783 J3.1856
G3 X69.101 Y59.6615 I-0.3418 J-0.3407
G2 X69.0881 I-0.0062 J4.5
G3 X68.7461 Y59.5198 I-0.0007 J-0.482
G2 X68.7377 Y59.5114 I-3.1869 J3.177
G3 X68.5946 Y59.1659 I0.3443 J-0.345
G2 Y59.1548 I-4.5 J-0.005
G3 X68.7368 Y58.8114 I0.484 J-0.0007
G2 X68.7452 Y58.8031 I-3.1777 J-3.1862
G3 X69.0348 Y58.6637 I0.3432 J0.3423
G1 F50.0 X68.8139 Y56.6759
G3 F150.0 X69.0916 Y56.6607 I0.2745 J2.4695
G2 X69.0982 I0.0032 J-2.5
G3 X70.86 Y57.3905 I0.0034 J2.4832
G2 X70.8652 Y57.3957 I1.7703 J-1.7652
G3 X71.5947 Y59.1571 I-1.7524 J1.7576
G2 Y59.1641 I2.5 J0.0038
G3 X70.8647 Y60.9268 I-2.4856 J0.0031
G2 X70.8599 Y60.9316 I1.7657 J1.7698
G3 X69.0983 Y61.6615 I-1.7582 J-1.7528
G2 X69.0911 I-0.0034 J2.5
G3 X67.3297 Y60.9318 I-0.0037 J-2.482
G2 X67.325 Y60.9271 I-1.7705 J1.765
G3 X66.5946 Y59.1637 I1.757 J-1.7607
G2 Y59.1575 I-2.5 J-0.0028
G3 X67.3245 Y57.3953 I2.484 J-0.0034
G2 X67.3292 Y57.3907 I-1.7654 J-1.7701
G3 X68.8139 Y56.6759 I1.7592 J1.7547
G0 Z3.0
G0 X66.2758 Y10.4991
G0 Z1.0
G1 F50.0 Z-2.0
G3 F150.0 X66.2486 Y10.4998 I-0.0265 J-0.482
G2 X66.2354 I-0.0063 J4.5
G3 X65.8934 Y10.3581 I-0.0007 J-0.4819
G2 X65.8841 Y10.3489 I-3.1867 J3.1773
G3 X65.7421 Y10.006 I0.3412 J-0.3422
G2 Y9.9933 I-4.5 J-0.0061
G3 X65.8838 Y9.6511 I0.4821 J-0.0007
G2 X65.8921 Y9.6428 I-3.1772 J-3.1867
G3 X66.2368 Y9.5 I0.3441 J0.3433
G2 X66.2473 I0.0055 J-4.5
G3 X66.5923 Y9.6429 I0.0005 J0.4866
G2 X66.5997 Y9.6503 I3.1855 J-3.1785
G3 X66.7422 Y9.9943 I-0.3426 J0.3434
G2 Y10.0053 I4.5 J0.0056
G3 X66.5996 Y10.3495 I-0.4854 J0.0006
G2 X66.5911 Y10.3579 I3.1781 J3.1858
G3 X66.2758 Y10.4991 I-0.3418 J-0.3408
G1 F50.0 X66.3856 Y12.496
G3 F150.0 X66.2458 Y12.4998 I-0.1363 J-2.479
G2 X66.2385 I-0.0035 J2.5
G3 X64.4771 Y11.7702 I-0.0038 J-2.4819
G2 X64.4719 Y11.7651 I-1.7704 J1.7652
G3 X63.7421 Y10.0033 I1.7534 J-1.7584
G2 Y9.9962 I-2.5 J-0.0034
G3 X64.4717 Y8.2348 I2.4821 J-0.0037
G2 X64.4763 Y8.2302 I-1.7651 J-1.7704
G3 X66.2393 Y7.5 I1.7599 J1.756
G2 X66.2451 I0.003 J-2.5
G3 X68.0081 Y8.2303 I0.0028 J2.4866
G2 X68.0122 Y8.2344 I1.7697 J-1.7658
G3 X68.7422 Y9.9968 I-1.7551 J1.7593
G2 Y10.0029 I2.5 J0.0031
G3 X68.0121 Y11.7654 I-2.4854 J0.003
G2 X68.0074 Y11.7701 I1.7656 J1.7699
G3 X66.3856 Y12.496 I-1.7581 J-1.753
G1 F50.0 X66.2758 Y10.4991
G1 Z-4.0
G3 F150.0 X66.2486 Y10.4998 I-0.0265 J-0.482
G2 X66.2354 I-0.0063 J4.5
G3 X65.8934 Y10.3581 I-0.0007 J-0.4819
G2 X65.8841 Y10.3489 I-3.1867 J3.1773
G3 X65.7421 Y10.006 I0.3412 J-0.3422
G2 Y9.9933 I-4.5 J-0.0061
G3 X65.8838 Y9.6511 I0.4821 J-0.0007
G2 X65.8921 Y9.6428 I-3.1772 J-3.1867
G3 X66.2368 Y9.5 I0.3441 J0.3433
G2 X66.2473 I0.0055 J-4.5
G3 X66.5923 Y9.6429 I0.0005 J0.4866
G2 X66.5997 Y9.6503 I3.1855 J-3.1785
G3 X66.7422 Y9.9943 I-0.3426 J0.3434
G2 Y10.0053 I4.5 J0.0056
G3 X66.5996 Y10.3495 I-0.4854 J0.0006
G2 X66.5911 Y10.3579 I3.1781 J3.1858
G3 X66.2758 Y10.4991 I-0.3418 J-0.3408
G1 F50.0 X66.3856 Y12.496
G3 F150.0 X66.2458 Y12.4998 I-0.1363 J-2.479
G2 X66.2385 I-0.0035 J2.5
G3 X64.4771 Y11.7702 I-0.0038 J-2.4819
G2 X64.4719 Y11.7651 I-1.7704 J1.7652
G3 X63.7421 Y10.0033 I1.7534 J-1.7584
G2 Y9.9962 I-2.5 J-0.0034
G3 X64.4717 Y8.2348 I2.4821 J-0.0037
G2 X64.4763 Y8.2302 I-1.7651 J-1.7704
G3 X66.2393 Y7.5 I1.7599 J1.756
G2 X66.2451 I0.003 J-2.5
G3 X68.0081 Y8.2303 I0.0028 J2.4866
G2 X68.0122 Y8.2344 I1.7697 J-1.7658
G3 X68.7422 Y9.9968 I-1.7551 J1.7593
G2 Y10.0029 I2.5 J0.0031
G3 X68.0121 Y11.7654 I-2.4854 J0.003
G2 X68.0074 Y11.7701 I1.7656 J1.7699
G3 X66.3856 Y12.496 I-1.7581 J-1.753
G1 F50.0 X66.2758 Y10.4991
G1 Z-6.0
G3 F150.0 X66.2486 Y10.4998 I-0.0265 J-0.482
G2 X66.2354 I-0.0063 J4.5
G3 X65.8934 Y10.3581 I-0.0007 J-0.4819
G2 X65.8841 Y10.3489 I-3.1867 J3.1773
G3 X65.7421 Y10.006 I0.3412 J-0.3422
G2 Y9.9933 I-4.5 J-0.0061
G3 X65.8838 Y9.6511 I0.4821 J-0.0007
G2 X65.8921 Y9.6428 I-3.1772 J-3.1867
G3 X66.2368 Y9.5 I0.3441 J0.3433
G2 X66.2473 I0.0055 J-4.5
G3 X66.5923 Y9.6429 I0.0005 J0.4866
G2 X66.5997 Y9.6503 I3.1855 J-3.1785
G3 X66.7422 Y9.9943 I-0.3426 J0.3434
G2 Y10.0053 I4.5 J0.0056
G3 X66.5996 Y10.3495 I-0.4854 J0.0006
G2 X66.5911 Y10.3579 I3.1781 J3.1858
G3 X66.2758 Y10.4991 I-0.3418 J-0.3408
G1 F50.0 X66.3856 Y12.496
G3 F150.0 X66.2458 Y12.4998 I-0.1363 J-2.479
G2 X66.2385 I-0.0035 J2.5
G3 X64.4771 Y11.7702 I-0.0038 J-2.4819
G2 X64.4719 Y11.7651 I-1.7704 J1.7652
G3 X63.7421 Y10.0033 I1.7534 J-1.7584
G2 Y9.9962 I-2.5 J-0.0034
G3 X64.4717 Y8.2348 I2.4821 J-0.0037
G2 X64.4763 Y8.2302 I-1.7651 J-1.7704
G3 X66.2393 Y7.5 I1.7599 J1.756
G2 X66.2451 I0.003 J-2.5
G3 X68.0081 Y8.2303 I0.0028 J2.4866
G2 X68.0122 Y8.2344 I1.7697 J-1.7658
G3 X68.7422 Y9.9968 I-1.7551 J1.7593
G2 Y10.0029 I2.5 J0.0031
G3 X68.0121 Y11.7654 I-2.4854 J0.003
G2 X68.0074 Y11.7701 I1.7656 J1.7699
G3 X66.3856 Y12.496 I-1.7581 J-1.753
G1 F50.0 X66.2758 Y10.4991
G1 Z-8.0
G3 F150.0 X66.2486 Y10.4998 I-0.0265 J-0.482
G2 X66.2354 I-0.0063 J4.5
G3 X65.8934 Y10.3581 I-0.0007 J-0.4819
G2 X65.8841 Y10.3489 I-3.1867 J3.1773
G3 X65.7421 Y10.006 I0.3412 J-0.3422
G2 Y9.9933 I-4.5 J-0.0061
G3 X65.8838 Y9.6511 I0.4821 J-0.0007
G2 X65.8921 Y9.6428 I-3.1772 J-3.1867
G3 X66.2368 Y9.5 I0.3441 J0.3433
G2 X66.2473 I0.0055 J-4.5
G3 X66.5923 Y9.6429 I0.0005 J0.4866
G2 X66.5997 Y9.6503 I3.1855 J-3.1785
G3 X66.7422 Y9.9943 I-0.3426 J0.3434
G2 Y10.0053 I4.5 J0.0056
G3 X66.5996 Y10.3495 I-0.4854 J0.0006
G2 X66.5911 Y10.3579 I3.1781 J3.1858
G3 X66.2758 Y10.4991 I-0.3418 J-0.3408
G1 F50.0 X66.3856 Y12.496
G3 F150.0 X66.2458 Y12.4998 I-0.1363 J-2.479
G2 X66.2385 I-0.0035 J2.5
G3 X64.4771 Y11.7702 I-0.0038 J-2.4819
G2 X64.4719 Y11.7651 I-1.7704 J1.7652
G3 X63.7421 Y10.0033 I1.7534 J-1.7584
G2 Y9.9962 I-2.5 J-0.0034
G3 X64.4717 Y8.2348 I2.4821 J-0.0037
G2 X64.4763 Y8.2302 I-1.7651 J-1.7704
G3 X66.2393 Y7.5 I1.7599 J1.756
G2 X66.2451 I0.003 J-2.5
G3 X68.0081 Y8.2303 I0.0028 J2.4866
G2 X68.0122 Y8.2344 I1.7697 J-1.7658
G3 X68.7422 Y9.9968 I-1.7551 J1.7593
G2 Y10.0029 I2.5 J0.0031
G3 X68.0121 Y11.7654 I-2.4854 J0.003
G2 X68.0074 Y11.7701 I1.7656 J1.7699
G3 X66.3856 Y12.496 I-1.7581 J-1.753
G1 F50.0 X66.2758 Y10.4991
G1 Z-10.0
G3 F150.0 X66.2486 Y10.4998 I-0.0265 J-0.482
G2 X66.2354 I-0.0063 J4.5
G3 X65.8934 Y10.3581 I-0.0007 J-0.4819
G2 X65.8841 Y10.3489 I-3.1867 J3.1773
G3 X65.7421 Y10.006 I0.3412 J-0.3422
G2 Y9.9933 I-4.5 J-0.0061
G3 X65.8838 Y9.6511 I0.4821 J-0.0007
G2 X65.8921 Y9.6428 I-3.1772 J-3.1867
G3 X66.2368 Y9.5 I0.3441 J0.3433
G2 X66.2473 I0.0055 J-4.5
G3 X66.5923 Y9.6429 I0.0005 J0.4866
G2 X66.5997 Y9.6503 I3.1855 J-3.1785
G3 X66.7422 Y9.9943 I-0.3426 J0.3434
G2 Y10.0053 I4.5 J0.0056
G3 X66.5996 Y10.3495 I-0.4854 J0.0006
G2 X66.5911 Y10.3579 I3.1781 J3.1858
G3 X66.2758 Y10.4991 I-0.3418 J-0.3408
G1 F50.0 X66.3856 Y12.496
G3 F150.0 X66.2458 Y12.4998 I-0.1363 J-2.479
G2 X66.2385 I-0.0035 J2.5
G3 X64.4771 Y11.7702 I-0.0038 J-2.4819
G2 X64.4719 Y11.7651 I-1.7704 J1.7652
G3 X63.7421 Y10.0033 I1.7534 J-1.7584
G2 Y9.9962 I-2.5 J-0.0034
G3 X64.4717 Y8.2348 I2.4821 J-0.0037
G2 X64.4763 Y8.2302 I-1.7651 J-1.7704
G3 X66.2393 Y7.5 I1.7599 J1.756
G2 X66.2451 I0.003 J-2.5
G3 X68.0081 Y8.2303 I0.0028 J2.4866
G2 X68.0122 Y8.2344 I1.7697 J-1.7658
G3 X68.7422 Y9.9968 I-1.7551 J1.7593
G2 Y10.0029 I2.5 J0.0031
G3 X68.0121 Y11.7654 I-2.4854 J0.003
G2 X68.0074 Y11.7701 I1.7656 J1.7699
G3 X66.3856 Y12.496 I-1.7581 J-1.753
G1 F50.0 X66.2758 Y10.4991
G1 Z-12.0
G3 F150.0 X66.2486 Y10.4998 I-0.0265 J-0.482
G2 X66.2354 I-0.0063 J4.5
G3 X65.8934 Y10.3581 I-0.0007 J-0.4819
G2 X65.8841 Y10.3489 I-3.1867 J3.1773
G3 X65.7421 Y10.006 I0.3412 J-0.3422
G2 Y9.9933 I-4.5 J-0.0061
G3 X65.8838 Y9.6511 I0.4821 J-0.0007
G2 X65.8921 Y9.6428 I-3.1772 J-3.1867
G3 X66.2368 Y9.5 I0.3441 J0.3433
G2 X66.2473 I0.0055 J-4.5
G3 X66.5923 Y9.6429 I0.0005 J0.4866
G2 X66.5997 Y9.6503 I3.1855 J-3.1785
G3 X66.7422 Y9.9943 I-0.3426 J0.3434
G2 Y10.0053 I4.5 J0.0056
G3 X66.5996 Y10.3495 I-0.4854 J0.0006
G2 X66.5911 Y10.3579 I3.1781 J3.1858
G3 X66.2758 Y10.4991 I-0.3418 J-0.3408
G1 F50.0 X66.3856 Y12.496
G3 F150.0 X66.2458 Y12.4998 I-0.1363 J-2.479
G2 X66.2385 I-0.0035 J2.5
G3 X64.4771 Y11.7702 I-0.0038 J-2.4819
G2 X64.4719 Y11.7651 I-1.7704 J1.7652
G3 X63.7421 Y10.0033 I1.7534 J-1.7584
G2 Y9.9962 I-2.5 J-0.0034
G3 X64.4717 Y8.2348 I2.4821 J-0.0037
G2 X64.4763 Y8.2302 I-1.7651 J-1.7704
G3 X66.2393 Y7.5 I1.7599 J1.756
G2 X66.2451 I0.003 J-2.5
G3 X68.0081 Y8.2303 I0.0028 J2.4866
G2 X68.0122 Y8.2344 I1.7697 J-1.7658
G3 X68.7422 Y9.9968 I-1.7551 J1.7593
G2 Y10.0029 I2.5 J0.0031
G3 X68.0121 Y11.7654 I-2.4854 J0.003
G2 X68.0074 Y11.7701 I1.7656 J1.7699
G3 X66.3856 Y12.496 I-1.7581 J-1.753
G1 F50.0 X66.2758 Y10.4991
G1 Z-14.0
G3 F150.0 X66.2486 Y10.4998 I-0.0265 J-0.482
G2 X66.2354 I-0.0063 J4.5
G3 X65.8934 Y10.3581 I-0.0007 J-0.4819
G2 X65.8841 Y10.3489 I-3.1867 J3.1773
G3 X65.7421 Y10.006 I0.3412 J-0.3422
G2 Y9.9933 I-4.5 J-0.0061
G3 X65.8838 Y9.6511 I0.4821 J-0.0007
G2 X65.8921 Y9.6428 I-3.1772 J-3.1867
G3 X66.2368 Y9.5 I0.3441 J0.3433
G2 X66.2473 I0.0055 J-4.5
G3 X66.5923 Y9.6429 I0.0005 J0.4866
G2 X66.5997 Y9.6503 I3.1855 J-3.1785
G3 X66.7422 Y9.9943 I-0.3426 J0.3434
G2 Y10.0053 I4.5 J0.0056
G3 X66.5996 Y10.3495 I-0.4854 J0.0006
G2 X66.5911 Y10.3579 I3.1781 J3.1858
G3 X66.2758 Y10.4991 I-0.3418 J-0.3408
G1 F50.0 X66.3856 Y12.496
G3 F150.0 X66.2458 Y12.4998 I-0.1363 J-2.479
G2 X66.2385 I-0.0035 J2.5
G3 X64.4771 Y11.7702 I-0.0038 J-2.4819
G2 X64.4719 Y11.7651 I-1.7704 J1.7652
G3 X63.7421 Y10.0033 I1.7534 J-1.7584
G2 Y9.9962 I-2.5 J-0.0034
G3 X64.4717 Y8.2348 I2.4821 J-0.0037
G2 X64.4763 Y8.2302 I-1.7651 J-1.7704
G3 X66.2393 Y7.5 I1.7599 J1.756
G2 X66.2451 I0.003 J-2.5
G3 X68.0081 Y8.2303 I0.0028 J2.4866
G2 X68.0122 Y8.2344 I1.7697 J-1.7658
G3 X68.7422 Y9.9968 I-1.7551 J1.7593
G2 Y10.0029 I2.5 J0.0031
G3 X68.0121 Y11.7654 I-2.4854 J0.003
G2 X68.0074 Y11.7701 I1.7656 J1.7699
G3 X66.3856 Y12.496 I-1.7581 J-1.753
G1 F50.0 X66.2758 Y10.4991
G1 Z-16.0
G3 F150.0 X66.2486 Y10.4998 I-0.0265 J-0.482
G2 X66.2354 I-0.0063 J4.5
G3 X65.8934 Y10.3581 I-0.0007 J-0.4819
G2 X65.8841 Y10.3489 I-3.1867 J3.1773
G3 X65.7421 Y10.006 I0.3412 J-0.3422
G2 Y9.9933 I-4.5 J-0.0061
G3 X65.8838 Y9.6511 I0.4821 J-0.0007
G2 X65.8921 Y9.6428 I-3.1772 J-3.1867
G3 X66.2368 Y9.5 I0.3441 J0.3433
G2 X66.2473 I0.0055 J-4.5
G3 X66.5923 Y9.6429 I0.0005 J0.4866
G2 X66.5997 Y9.6503 I3.1855 J-3.1785
G3 X66.7422 Y9.9943 I-0.3426 J0.3434
G2 Y10.0053 I4.5 J0.0056
G3 X66.5996 Y10.3495 I-0.4854 J0.0006
G2 X66.5911 Y10.3579 I3.1781 J3.1858
G3 X66.2758 Y10.4991 I-0.3418 J-0.3408
G1 F50.0 X66.3856 Y12.496
G3 F150.0 X66.2458 Y12.4998 I-0.1363 J-2.479
G2 X66.2385 I-0.0035 J2.5
G3 X64.4771 Y11.7702 I-0.0038 J-2.4819
G2 X64.4719 Y11.7651 I-1.7704 J1.7652
G3 X63.7421 Y10.0033 I1.7534 J-1.7584
G2 Y9.9962 I-2.5 J-0.0034
G3 X64.4717 Y8.2348 I2.4821 J-0.0037
G2 X64.4763 Y8.2302 I-1.7651 J-1.7704
G3 X66.2393 Y7.5 I1.7599 J1.756
G2 X66.2451 I0.003 J-2.5
G3 X68.0081 Y8.2303 I0.0028 J2.4866
G2 X68.0122 Y8.2344 I1.7697 J-1.7658
G3 X68.7422 Y9.9968 I-1.7551 J1.7593
G2 Y10.0029 I2.5 J0.0031
G3 X68.0121 Y11.7654 I-2.4854 J0.003
G2 X68.0074 Y11.7701 I1.7656 J1.7699
G3 X66.3856 Y12.496 I-1.7581 J-1.753
G0 Z3.0
G0 X35.6638 Y10.0442
G0 Z1.0
G1 F50.0 Z-2.0
G3 F150.0 X35.5224 Y10.3499 I-0.485 J-0.0387
G2 X35.5151 Y10.3573 I3.1785 J3.1855
G3 X35.171 Y10.4998 I-0.3434 J-0.3426
G2 X35.1607 I-0.0056 J4.5
G3 X34.8153 Y10.3567 I-0.0005 J-0.4873
G2 X34.8074 Y10.3488 I-3.1853 J3.1787
G3 X34.6654 Y10.0061 I0.341 J-0.342
G2 Y9.9939 I-4.5 J-0.0062
G3 X34.8076 Y9.6507 I0.4837 J-0.0006
G2 X34.816 Y9.6424 I-3.1777 J-3.1863
G3 X35.1596 Y9.5 I0.343 J0.3421
G2 X35.1717 I0.0059 J-4.5
G3 X35.5147 Y9.6421 I0.0007 J0.4835
G2 X35.5225 Y9.6499 I3.1863 J-3.1777
G3 X35.6653 Y9.9948 I-0.3436 J0.3443
G2 Y10.0049 I4.5 J0.0051
G3 X35.6638 Y10.0442 I-0.4866 J0.0005
G1 F50.0 X37.6575 Y10.2033
G3 F150.0 X36.9351 Y11.7657 I-2.4787 J-0.1978
G2 X36.931 Y11.7698 I1.7658 J1.7697
G3 X35.1686 Y12.4998 I-1.7593 J-1.7551
G2 X35.1628 I-0.0031 J2.5
G3 X33.3996 Y11.7695 I-0.0026 J-2.4873
G2 X33.3952 Y11.7651 I-1.7696 J1.7659
G3 X32.6654 Y10.0034 I1.7532 J-1.7583
G2 Y9.9966 I-2.5 J-0.0035
G3 X33.3953 Y8.2346 I2.4837 J-0.0033
G2 X33.3999 Y8.2299 I-1.7654 J-1.7702
G3 X35.1622 Y7.5 I1.759 J1.7545
G2 X35.1689 I0.0033 J-2.5
G3 X36.9308 Y8.2298 I0.0034 J2.4835
G2 X36.9352 Y8.2341 I1.7702 J-1.7654
G3 X37.6653 Y9.9971 I-1.7563 J1.7601
G2 Y10.0027 I2.5 J0.0028
G3 X37.6575 Y10.2033 I-2.4866 J0.0028
G1 F50.0 X35.6638 Y10.0442
G1 Z-4.0
G3 F150.0 X35.5224 Y10.3499 I-0.485 J-0.0387
G2 X35.5151 Y10.3573 I3.1785 J3.1855
G3 X35.171 Y10.4998 I-0.3434 J-0.3426
G2 X35.1607 I-0.0056 J4.5
G3 X34.8153 Y10.3567 I-0.0005 J-0.4873
G2 X34.8074 Y10.3488 I-3.1853 J3.1787
G3 X34.6654 Y10.0061 I0.341 J-0.342
G2 Y9.9939 I-4.5 J-0.0062
G3 X34.8076 Y9.6507 I0.4837 J-0.0006
G2 X34.816 Y9.6424 I-3.1777 J-3.1863
G3 X35.1596 Y9.5 I0.343 J0.3421
G2 X35.1717 I0.0059 J-4.5
G3 X35.5147 Y9.6421 I0.0007 J0.4835
G2 X35.5225 Y9.6499 I3.1863 J-3.1777
G3 X35.6653 Y9.9948 I-0.3436 J0.3443
G2 Y10.0049 I4.5 J0.0051
G3 X35.6638 Y10.0442 I-0.4866 J0.0005
G1 F50.0 X37.6575 Y10.2033
G3 F150.0 X36.9351 Y11.7657 I-2.4787 J-0.1978
G2 X36.931 Y11.7698 I1.7658 J1.7697
G3 X35.1686 Y12.4998 I-1.7593 J-1.7551
G2 X35.1628 I-0.0031 J2.5
G3 X33.3996 Y11.7695 I-0.0026 J-2.4873
G2 X33.3952 Y11.7651 I-1.7696 J1.7659
G3 X32.6654 Y10.0034 I1.7532 J-1.7583
G2 Y9.9966 I-2.5 J-0.0035
G3 X33.3953 Y8.2346 I2.4837 J-0.0033
G2 X33.3999 Y8.2299 I-1.7654 J-1.7702
G3 X35.1622 Y7.5 I1.759 J1.7545
G2 X35.1689 I0.0033 J-2.5
G3 X36.9308 Y8.2298 I0.0034 J2.4835
G2 X36.9352 Y8.2341 I1.7702 J-1.7654
G3 X37.6653 Y9.9971 I-1.7563 J1.7601
G2 Y10.0027 I2.5 J0.0028
G3 X37.6575 Y10.2033 I-2.4866 J0.0028
G1 F50.0 X35.6638 Y10.0442
G1 Z-6.0
G3 F150.0 X35.5224 Y10.3499 I-0.485 J-0.0387
G2 X35.5151 Y10.3573 I3.1785 J3.1855
G3 X35.171 Y10.4998 I-0.3434 J-0.3426
G2 X35.1607 I-0.0056 J4.5
G3 X34.8153 Y10.3567 I-0.0005 J-0.4873
G2 X34.8074 Y10.3488 I-3.1853 J3.1787
G3 X34.6654 Y10.0061 I0.341 J-0.342
G2 Y9.9939 I-4.5 J-0.0062
G3 X34.8076 Y9.6507 I0.4837 J-0.0006
G2 X34.816 Y9.6424 I-3.1777 J-3.1863
G3 X35.1596 Y9.5 I0.343 J0.3421
G2 X35.1717 I0.0059 J-4.5
G3 X35.5147 Y9.6421 I0.0007 J0.4835
G2 X35.5225 Y9.6499 I3.1863 J-3.1777
G3 X35.6653 Y9.9948 I-0.3436 J0.3443
G2 Y10.0049 I4.5 J0.0051
G3 X35.6638 Y10.0442 I-0.4866 J0.0005
G1 F50.0 X37.6575 Y10.2033
G3 F150.0 X36.9351 Y11.7657 I-2.4787 J-0.1978
G2 X36.931 Y11.7698 I1.7658 J1.7697
G3 X35.1686 Y12.4998 I-1.7593 J-1.7551
G2 X35.1628 I-0.0031 J2.5
G3 X33.3996 Y11.7695 I-0.0026 J-2.4873
G2 X33.3952 Y11.7651 I-1.7696 J1.7659
G3 X32.6654 Y10.0034 I1.7532 J-1.7583
G2 Y9.9966 I-2.5 J-0.0035
G3 X33.3953 Y8.2346 I2.4837 J-0.0033
G2 X33.3999 Y8.2299 I-1.7654 J-1.7702
G3 X35.1622 Y7.5 I1.759 J1.7545
G2 X35.1689 I0.0033 J-2.5
G3 X36.9308 Y8.2298 I0.0034 J2.4835
G2 X36.9352 Y8.2341 I1.7702 J-1.7654
G3 X37.6653 Y9.9971 I-1.7563 J1.7601
G2 Y10.0027 I2.5 J0.0028
G3 X37.6575 Y10.2033 I-2.4866 J0.0028
G1 F50.0 X35.6638 Y10.0442
G1 Z-8.0
G3 F150.0 X35.5224 Y10.3499 I-0.485 J-0.0387
G2 X35.5151 Y10.3573 I3.1785 J3.1855
G3 X35.171 Y10.4998 I-0.3434 J-0.3426
G2 X35.1607 I-0.0056 J4.5
G3 X34.8153 Y10.3567 I-0.0005 J-0.4873
G2 X34.8074 Y10.3488 I-3.1853 J3.1787
G3 X34.6654 Y10.0061 I0.341 J-0.342
G2 Y9.9939 I-4.5 J-0.0062
G3 X34.8076 Y9.6507 I0.4837 J-0.0006
G2 X34.816 Y9.6424 I-3.1777 J-3.1863
G3 X35.1596 Y9.5 I0.343 J0.3421
G2 X35.1717 I0.0059 J-4.5
G3 X35.5147 Y9.6421 I0.0007 J0.4835
G2 X35.5225 Y9.6499 I3.1863 J-3.1777
G3 X35.6653 Y9.9948 I-0.3436 J0.3443
G2 Y10.0049 I4.5 J0.0051
G3 X35.6638 Y10.0442 I-0.4866 J0.0005
G1 F50.0 X37.6575 Y10.2033
G3 F150.0 X36.9351 Y11.7657 I-2.4787 J-0.1978
G2 X36.931 Y11.7698 I1.7658 J1.7697
G3 X35.1686 Y12.4998 I-1.7593 J-1.7551
G2 X35.1628 I-0.0031 J2.5
G3 X33.3996 Y11.7695 I-0.0026 J-2.4873
G2 X33.3952 Y11.7651 I-1.7696 J1.7659
G3 X32.6654 Y10.0034 I1.7532 J-1.7583
G2 Y9.9966 I-2.5 J-0.0035
G3 X33.3953 Y8.2346 I2.4837 J-0.0033
G2 X33.3999 Y8.2299 I-1.7654 J-1.7702
G3 X35.1622 Y7.5 I1.759 J1.7545
G2 X35.1689 I0.0033 J-2.5
G3 X36.9308 Y8.2298 I0.0034 J2.4835
G2 X36.9352 Y8.2341 I1.7702 J-1.7654
G3 X37.6653 Y9.9971 I-1.7563 J1.7601
G2 Y10.0027 I2.5 J0.0028
G3 X37.6575 Y10.2033 I-2.4866 J0.0028
G1 F50.0 X35.6638 Y10.0442
G1 Z-10.0
G3 F150.0 X35.5224 Y10.3499 I-0.485 J-0.0387
G2 X35.5151 Y10.3573 I3.1785 J3.1855
G3 X35.171 Y10.4998 I-0.3434 J-0.3426
G2 X35.1607 I-0.0056 J4.5
G3 X34.8153 Y10.3567 I-0.0005 J-0.4873
G2 X34.8074 Y10.3488 I-3.1853 J3.1787
G3 X34.6654 Y10.0061 I0.341 J-0.342
G2 Y9.9939 I-4.5 J-0.0062
G3 X34.8076 Y9.6507 I0.4837 J-0.0006
G2 X34.816 Y9.6424 I-3.1777 J-3.1863
G3 X35.1596 Y9.5 I0.343 J0.3421
G2 X35.1717 I0.0059 J-4.5
G3 X35.5147 Y9.6421 I0.0007 J0.4835
G2 X35.5225 Y9.6499 I3.1863 J-3.1777
G3 X35.6653 Y9.9948 I-0.3436 J0.3443
G2 Y10.0049 I4.5 J0.0051
G3 X35.6638 Y10.0442 I-0.4866 J0.0005
G1 F50.0 X37.6575 Y10.2033
G3 F150.0 X36.9351 Y11.7657 I-2.4787 J-0.1978
G2 X36.931 Y11.7698 I1.7658 J1.7697
G3 X35.1686 Y12.4998 I-1.7593 J-1.7551
G2 X35.1628 I-0.0031 J2.5
G3 X33.3996 Y11.7695 I-0.0026 J-2.4873
G2 X33.3952 Y11.7651 I-1.7696 J1.7659
G3 X32.6654 Y10.0034 I1.7532 J-1.7583
G2 Y9.9966 I-2.5 J-0.0035
G3 X33.3953 Y8.2346 I2.4837 J-0.0033
G2 X33.3999 Y8.2299 I-1.7654 J-1.7702
G3 X35.1622 Y7.5 I1.759 J1.7545
G2 X35.1689 I0.0033 J-2.5
G3 X36.9308 Y8.2298 I0.0034 J2.4835
G2 X36.9352 Y8.2341 I1.7702 J-1.7654
G3 X37.6653 Y9.9971 I-1.7563 J1.7601
G2 Y10.0027 I2.5 J0.0028
G3 X37.6575 Y10.2033 I-2.4866 J0.0028
G1 F50.0 X35.6638 Y10.0442
G1 Z-12.0
G3 F150.0 X35.5224 Y10.3499 I-0.485 J-0.0387
G2 X35.5151 Y10.3573 I3.1785 J3.1855
G3 X35.171 Y10.4998 I-0.3434 J-0.3426
G2 X35.1607 I-0.0056 J4.5
G3 X34.8153 Y10.3567 I-0.0005 J-0.4873
G2 X34.8074 Y10.3488 I-3.1853 J3.1787
G3 X34.6654 Y10.0061 I0.341 J-0.342
G2 Y9.9939 I-4.5 J-0.0062
G3 X34.8076 Y9.6507 I0.4837 J-0.0006
G2 X34.816 Y9.6424 I-3.1777 J-3.1863
G3 X35.1596 Y9.5 I0.343 J0.3421
G2 X35.1717 I0.0059 J-4.5
G3 X35.5147 Y9.6421 I0.0007 J0.4835
G2 X35.5225 Y9.6499 I3.1863 J-3.1777
G3 X35.6653 Y9.9948 I-0.3436 J0.3443
G2 Y10.0049 I4.5 J0.0051
G3 X35.6638 Y10.0442 I-0.4866 J0.0005
G1 F50.0 X37.6575 Y10.2033
G3 F150.0 X36.9351 Y11.7657 I-2.4787 J-0.1978
G2 X36.931 Y11.7698 I1.7658 J1.7697
G3 X35.1686 Y12.4998 I-1.7593 J-1.7551
G2 X35.1628 I-0.0031 J2.5
G3 X33.3996 Y11.7695 I-0.0026 J-2.4873
G2 X33.3952 Y11.7651 I-1.7696 J1.7659
G3 X32.6654 Y10.0034 I1.7532 J-1.7583
G2 Y9.9966 I-2.5 J-0.0035
G3 X33.3953 Y8.2346 I2.4837 J-0.0033
G2 X33.3999 Y8.2299 I-1.7654 J-1.7702
G3 X35.1622 Y7.5 I1.759 J1.7545
G2 X35.1689 I0.0033 J-2.5
G3 X36.9308 Y8.2298 I0.0034 J2.4835
G2 X36.9352 Y8.2341 I1.7702 J-1.7654
G3 X37.6653 Y9.9971 I-1.7563 J1.7601
G2 Y10.0027 I2.5 J0.0028
G3 X37.6575 Y10.2033 I-2.4866 J0.0028
G1 F50.0 X35.6638 Y10.0442
G1 Z-14.0
G3 F150.0 X35.5224 Y10.3499 I-0.485 J-0.0387
G2 X35.5151 Y10.3573 I3.1785 J3.1855
G3 X35.171 Y10.4998 I-0.3434 J-0.3426
G2 X35.1607 I-0.0056 J4.5
G3 X34.8153 Y10.3567 I-0.0005 J-0.4873
G2 X34.8074 Y10.3488 I-3.1853 J3.1787
G3 X34.6654 Y10.0061 I0.341 J-0.342
G2 Y9.9939 I-4.5 J-0.0062
G3 X34.8076 Y9.6507 I0.4837 J-0.0006
G2 X34.816 Y9.6424 I-3.1777 J-3.1863
G3 X35.1596 Y9.5 I0.343 J0.3421
G2 X35.1717 I0.0059 J-4.5
G3 X35.5147 Y9.6421 I0.0007 J0.4835
G2 X35.5225 Y9.6499 I3.1863 J-3.1777
G3 X35.6653 Y9.9948 I-0.3436 J0.3443
G2 Y10.0049 I4.5 J0.0051
G3 X35.6638 Y10.0442 I-0.4866 J0.0005
G1 F50.0 X37.6575 Y10.2033
G3 F150.0 X36.9351 Y11.7657 I-2.4787 J-0.1978
G2 X36.931 Y11.7698 I1.7658 J1.7697
G3 X35.1686 Y12.4998 I-1.7593 J-1.7551
G2 X35.1628 I-0.0031 J2.5
G3 X33.3996 Y11.7695 I-0.0026 J-2.4873
G2 X33.3952 Y11.7651 I-1.7696 J1.7659
G3 X32.6654 Y10.0034 I1.7532 J-1.7583
G2 Y9.9966 I-2.5 J-0.0035
G3 X33.3953 Y8.2346 I2.4837 J-0.0033
G2 X33.3999 Y8.2299 I-1.7654 J-1.7702
G3 X35.1622 Y7.5 I1.759 J1.7545
G2 X35.1689 I0.0033 J-2.5
G3 X36.9308 Y8.2298 I0.0034 J2.4835
G2 X36.9352 Y8.2341 I1.7702 J-1.7654
G3 X37.6653 Y9.9971 I-1.7563 J1.7601
G2 Y10.0027 I2.5 J0.0028
G3 X37.6575 Y10.2033 I-2.4866 J0.0028
G1 F50.0 X35.6638 Y10.0442
G1 Z-16.0
G3 F150.0 X35.5224 Y10.3499 I-0.485 J-0.0387
G2 X35.5151 Y10.3573 I3.1785 J3.1855
G3 X35.171 Y10.4998 I-0.3434 J-0.3426
G2 X35.1607 I-0.0056 J4.5
G3 X34.8153 Y10.3567 I-0.0005 J-0.4873
G2 X34.8074 Y10.3488 I-3.1853 J3.1787
G3 X34.6654 Y10.0061 I0.341 J-0.342
G2 Y9.9939 I-4.5 J-0.0062
G3 X34.8076 Y9.6507 I0.4837 J-0.0006
G2 X34.816 Y9.6424 I-3.1777 J-3.1863
G3 X35.1596 Y9.5 I0.343 J0.3421
G2 X35.1717 I0.0059 J-4.5
G3 X35.5147 Y9.6421 I0.0007 J0.4835
G2 X35.5225 Y9.6499 I3.1863 J-3.1777
G3 X35.6653 Y9.9948 I-0.3436 J0.3443
G2 Y10.0049 I4.5 J0.0051
G3 X35.6638 Y10.0442 I-0.4866 J0.0005
G1 F50.0 X37.6575 Y10.2033
G3 F150.0 X36.9351 Y11.7657 I-2.4787 J-0.1978
G2 X36.931 Y11.7698 I1.7658 J1.7697
G3 X35.1686 Y12.4998 I-1.7593 J-1.7551
G2 X35.1628 I-0.0031 J2.5
G3 X33.3996 Y11.7695 I-0.0026 J-2.4873
G2 X33.3952 Y11.7651 I-1.7696 J1.7659
G3 X32.6654 Y10.0034 I1.7532 J-1.7583
G2 Y9.9966 I-2.5 J-0.0035
G3 X33.3953 Y8.2346 I2.4837 J-0.0033
G2 X33.3999 Y8.2299 I-1.7654 J-1.7702
G3 X35.1622 Y7.5 I1.759 J1.7545
G2 X35.1689 I0.0033 J-2.5
G3 X36.9308 Y8.2298 I0.0034 J2.4835
G2 X36.9352 Y8.2341 I1.7702 J-1.7654
G3 X37.6653 Y9.9971 I-1.7563 J1.7601
G2 Y10.0027 I2.5 J0.0028
G3 X37.6575 Y10.2033 I-2.4866 J0.0028
G0 Z3.0
M5
M30
