( Made using CamBam - http://www.cambam.co.uk )
( End Stops 9/12/2013 8:39:31 PM )
( T11 : 5.0 )
G21 G90 G64 G40
G0 Z3.0
( T11 : 5.0 )
T11 M6
( Drill1 )
G17
M3 S1000
G0 X10.0002 Y63.1702
G98
G83 X10.0002 Y63.1702 Z-23.0 Q5.0 R3.0 F50.0
G83 X32.5792 Z-23.0
G83 X40.8711 Y36.5811 Z-23.0
G83 X35.1655 Y10.0 Z-23.0
G83 X66.2421 Y10.0001 Z-23.0
G83 X69.0947 Y36.5811 Z-23.0
G83 Y59.1611 Z-23.0
G83 X10.0002 Y34.9466 Z-23.0
G80
G0 Z3.0
M5
M30
