( Made using CamBam - http://www.cambam.co.uk )
( End Stops 9/13/2013 12:28:34 PM )
( T5 : 5.0 )
G21 G90 G64 G40
G0 Z3.0
( T5 : 5.0 )
T5 M6
( Profile1 )
G17
M3 S1000
G0 X-2.4998 Y25.1706
G0 Z1.0
G1 F50.0 Z-2.0
G1 F150.0 Y71.1705
G1 Y71.1704
G1 Y71.1705
G2 X-1.1793 Y74.3516 I4.4916 J0.0001
G2 X1.9981 Y75.6706 I3.1812 J-3.1769
G2 X2.0002 I0.0021 J-2.5
G1 X41.0004
G1 X41.0007
G2 X44.1813 Y74.3502 I-0.0004 J-4.492
G2 X45.5003 Y71.1721 I-3.1761 J-3.181
G2 Y71.1705 I-2.5 J-0.0016
G1 Y55.1706
G1 Y55.1703
G2 X44.1803 Y51.99 I-4.4926 J0.0005
G2 X41.0021 Y50.6706 I-3.1812 J3.1755
G2 X41.0004 I-0.0017 J2.5
G1 X22.5002
G1 Y25.1706
G1 Y25.1707
G1 Y25.1706
G2 X21.1796 Y21.9895 I-4.4916 J-0.0001
G2 X18.0022 Y20.6705 I-3.1812 J3.1769
G2 X18.0001 I-0.0021 J2.5
G1 X2.0003
G1 X2.0002
G1 X2.0003
G2 X-1.1809 Y21.991 I-0.0001 J4.4916
G2 X-2.4998 Y25.1684 I3.1769 J3.1812
G2 Y25.1706 I2.5 J0.0021
G0 Z3.0
G0 X20.3145 Y19.1461
G0 Z1.0
G1 F50.0 Z-2.0
G2 F150.0 X21.4844 Y21.1794 I4.3469 J-1.1479
G2 X24.6655 Y22.5 I3.181 J-3.171
G1 X24.6656
G1 X24.6655
G1 X45.6654
G2 X45.6668 I0.0 J-2.5
G2 X48.8452 Y21.1806 I-0.0025 J-4.4939
G2 X50.1653 Y17.9999 I-3.1712 J-3.1805
G1 Y17.9998
G1 Y17.9999
G1 Y2.0001
G2 Y1.9977 I-2.5 J0.0
G2 X48.8462 Y-1.1796 I-4.4961 J0.0042
G2 X45.6664 Y-2.5 I-3.1815 J3.1727
G2 X45.6654 I-0.001 J2.5
G1 X24.6655
G2 X24.6634 I0.0 J2.5
G2 X21.486 Y-1.181 I0.0038 J4.4959
G2 X20.1655 Y2.0001 I3.171 J3.181
G1 Y2.0002
G1 Y2.0001
G1 Y17.9999
G2 Y18.0021 I2.5 J0.0
G2 X20.3145 Y19.1461 I4.4959 J-0.0038
G0 Z3.0
G0 X27.7075 Y25.6214
G0 Z1.0
G1 F50.0 Z-2.0
G2 F150.0 X26.5949 Y28.5806 I3.3784 J2.959
G1 Y28.5807
G1 Y28.5805
G1 Y28.5806
G1 Y44.5816
G2 Y44.5838 I2.5 J0.0
G2 X27.9142 Y47.7613 I4.4956 J-0.004
G2 X31.0951 Y49.0815 I3.1809 J-3.1719
G1 X56.5951
G1 Y67.5828
G2 Y67.5843 I2.5 J0.0
G2 X57.9155 Y70.7637 I4.4946 J-0.0027
G2 X61.0931 Y72.0827 I3.1816 J-3.1779
G2 X61.0953 I0.0022 J-2.5
G1 X77.095
G2 X77.0971 I0.0 J-2.5
G2 X80.2744 Y70.764 I-0.0037 J-4.4961
G2 X81.5953 Y67.5827 I-3.1702 J-3.1811
G1 Y67.5826
G1 Y67.5828
G1 Y67.5827
G1 Y28.5805
G2 Y28.5783 I-2.5 J0.0
G2 X80.276 Y25.4008 I-4.4956 J0.004
G2 X77.095 Y24.0806 I-3.1809 J3.1719
G1 X31.0951
G2 X31.093 I0.0 J2.5
G2 X27.9157 Y25.3993 I0.0037 J4.4961
G2 X27.7075 Y25.6214 I3.1702 J3.1811
G0 Z3.0
G0 X51.3997 Y19.178
G0 Z1.0
G1 F50.0 Z-2.0
G2 F150.0 X52.5614 Y21.1796 I4.338 J-1.1798
G2 X55.7423 Y22.4998 I3.1809 J-3.1719
G1 X55.7424
G1 X55.7423
G1 X76.7419 Y22.5
G2 X76.744 I0.0 J-2.5
G2 X79.9213 Y21.1814 I-0.0037 J-4.4961
G2 X81.2421 Y18.0 I-3.1702 J-3.1811
G1 Y17.9999
G1 Y18.0001
G1 Y18.0
G1 Y2.0001
G2 Y1.9978 I-2.5 J0.0
G2 X79.9228 Y-1.1796 I-4.4956 J0.004
G2 X76.7419 Y-2.4998 I-3.1809 J3.1719
G1 X55.7424 Y-2.5
G2 X55.7403 I0.0 J2.5
G2 X52.563 Y-1.1814 I0.0037 J4.4961
G2 X51.2421 Y1.9999 I3.1702 J3.1811
G1 Y2.0
G1 Y1.9999
G1 Y17.9999
G2 Y18.0021 I2.5 J0.0
G2 X51.3997 Y19.178 I4.4956 J-0.004
G1 F50.0 Z-4.0
G2 F150.0 X52.5614 Y21.1796 I4.338 J-1.1798
G2 X55.7423 Y22.4998 I3.1809 J-3.1719
G1 X55.7424
G1 X55.7423
G1 X76.7419 Y22.5
G2 X76.744 I0.0 J-2.5
G2 X79.9213 Y21.1814 I-0.0037 J-4.4961
G2 X81.2421 Y18.0 I-3.1702 J-3.1811
G1 Y17.9999
G1 Y18.0001
G1 Y18.0
G1 Y2.0001
G2 Y1.9978 I-2.5 J0.0
G2 X79.9228 Y-1.1796 I-4.4956 J0.004
G2 X76.7419 Y-2.4998 I-3.1809 J3.1719
G1 X55.7424 Y-2.5
G2 X55.7403 I0.0 J2.5
G2 X52.563 Y-1.1814 I0.0037 J4.4961
G2 X51.2421 Y1.9999 I3.1702 J3.1811
G1 Y2.0
G1 Y1.9999
G1 Y17.9999
G2 Y18.0021 I2.5 J0.0
G2 X51.3997 Y19.178 I4.4956 J-0.004
G1 F50.0 X50.0732 Y18.9051
G2 F150.0 X50.1653 Y17.9999 I-4.3992 J-0.905
G1 Y17.9998
G1 Y17.9999
G1 Y2.0001
G2 Y1.9977 I-2.5 J0.0
G2 X48.8462 Y-1.1796 I-4.4961 J0.0042
G2 X45.6664 Y-2.5 I-3.1815 J3.1727
G2 X45.6654 I-0.001 J2.5
G1 X24.6655
G2 X24.6634 I0.0 J2.5
G2 X21.486 Y-1.181 I0.0038 J4.4959
G2 X20.1655 Y2.0001 I3.171 J3.181
G1 Y2.0002
G1 Y2.0001
G1 Y17.9999
G2 Y18.0021 I2.5 J0.0
G2 X21.4844 Y21.1794 I4.4959 J-0.0038
G2 X24.6655 Y22.5 I3.181 J-3.171
G1 X24.6656
G1 X24.6655
G1 X45.6654
G2 X45.6668 I0.0 J-2.5
G2 X48.8452 Y21.1806 I-0.0025 J-4.4939
G2 X50.0732 Y18.9051 I-3.1712 J-3.1805
G0 Z3.0
G0 Y24.0806
G0 Z-1.0
G1 F50.0 Z-4.0
G1 F150.0 X31.0951
G2 X31.093 I0.0 J2.5
G2 X27.9157 Y25.3993 I0.0037 J4.4961
G2 X26.5949 Y28.5806 I3.1702 J3.1811
G1 Y28.5807
G1 Y28.5805
G1 Y28.5806
G1 Y44.5816
G2 Y44.5838 I2.5 J0.0
G2 X27.9142 Y47.7613 I4.4956 J-0.004
G2 X31.0951 Y49.0815 I3.1809 J-3.1719
G1 X56.5951
G1 Y67.5828
G2 Y67.5843 I2.5 J0.0
G2 X57.9155 Y70.7637 I4.4946 J-0.0027
G2 X61.0931 Y72.0827 I3.1816 J-3.1779
G2 X61.0953 I0.0022 J-2.5
G1 X77.095
G2 X77.0971 I0.0 J-2.5
G2 X80.2744 Y70.764 I-0.0037 J-4.4961
G2 X81.5953 Y67.5827 I-3.1702 J-3.1811
G1 Y67.5826
G1 Y67.5828
G1 Y67.5827
G1 Y28.5805
G2 Y28.5783 I-2.5 J0.0
G2 X80.276 Y25.4008 I-4.4956 J0.004
G2 X77.095 Y24.0806 I-3.1809 J3.1719
G1 X50.0732
G0 Z3.0
G0 X22.4976 Y25.0179
G0 Z-1.0
G1 F50.0 Z-4.0
G2 F150.0 X21.1796 Y21.9895 I-4.489 J0.1526
G2 X18.0022 Y20.6705 I-3.1812 J3.1769
G2 X18.0001 I-0.0021 J2.5
G1 X2.0003
G1 X2.0002
G1 X2.0003
G2 X-1.1809 Y21.991 I-0.0001 J4.4916
G2 X-2.4998 Y25.1684 I3.1769 J3.1812
G2 Y25.1706 I2.5 J0.0021
G1 Y71.1705
G1 Y71.1704
G1 Y71.1705
G2 X-1.1793 Y74.3516 I4.4916 J0.0001
G2 X1.9981 Y75.6706 I3.1812 J-3.1769
G2 X2.0002 I0.0021 J-2.5
G1 X41.0004
G1 X41.0007
G2 X44.1813 Y74.3502 I-0.0004 J-4.492
G2 X45.5003 Y71.1721 I-3.1761 J-3.181
G2 Y71.1705 I-2.5 J-0.0016
G1 Y55.1706
G1 Y55.1703
G2 X44.1803 Y51.99 I-4.4926 J0.0005
G2 X41.0021 Y50.6706 I-3.1812 J3.1755
G2 X41.0004 I-0.0017 J2.5
G1 X22.5002
G1 Y25.1706
G1 Y25.1707
G1 Y25.1706
G2 X22.4976 Y25.0179 I-4.4916 J-0.0001
G1 F50.0 Z-6.0
G2 F150.0 X21.1796 Y21.9895 I-4.489 J0.1526
G2 X18.0022 Y20.6705 I-3.1812 J3.1769
G2 X18.0001 I-0.0021 J2.5
G1 X2.0003
G1 X2.0002
G1 X2.0003
G2 X-1.1809 Y21.991 I-0.0001 J4.4916
G2 X-2.4998 Y25.1684 I3.1769 J3.1812
G2 Y25.1706 I2.5 J0.0021
G1 Y71.1705
G1 Y71.1704
G1 Y71.1705
G2 X-1.1793 Y74.3516 I4.4916 J0.0001
G2 X1.9981 Y75.6706 I3.1812 J-3.1769
G2 X2.0002 I0.0021 J-2.5
G1 X41.0004
G1 X41.0007
G2 X44.1813 Y74.3502 I-0.0004 J-4.492
G2 X45.5003 Y71.1721 I-3.1761 J-3.181
G2 Y71.1705 I-2.5 J-0.0016
G1 Y55.1706
G1 Y55.1703
G2 X44.1803 Y51.99 I-4.4926 J0.0005
G2 X41.0021 Y50.6706 I-3.1812 J3.1755
G2 X41.0004 I-0.0017 J2.5
G1 X22.5002
G1 Y25.1706
G1 Y25.1707
G1 Y25.1706
G2 X22.4976 Y25.0179 I-4.4916 J-0.0001
G1 F50.0 X23.3383 Y22.2995
G2 F150.0 X24.6655 Y22.5 I1.3271 J-4.291
G1 X24.6656
G1 X24.6655
G1 X45.6654
G2 X45.6668 I0.0 J-2.5
G2 X48.8452 Y21.1806 I-0.0025 J-4.4939
G2 X50.1653 Y17.9999 I-3.1712 J-3.1805
G1 Y17.9998
G1 Y17.9999
G1 Y2.0001
G2 Y1.9977 I-2.5 J0.0
G2 X48.8462 Y-1.1796 I-4.4961 J0.0042
G2 X45.6664 Y-2.5 I-3.1815 J3.1727
G2 X45.6654 I-0.001 J2.5
G1 X24.6655
G2 X24.6634 I0.0 J2.5
G2 X21.486 Y-1.181 I0.0038 J4.4959
G2 X20.1655 Y2.0001 I3.171 J3.181
G1 Y2.0002
G1 Y2.0001
G1 Y17.9999
G2 Y18.0021 I2.5 J0.0
G2 X21.4844 Y21.1794 I4.4959 J-0.0038
G2 X23.3383 Y22.2995 I3.181 J-3.171
G0 Z3.0
G0 X27.5973 Y25.7522
G0 Z-3.0
G1 F50.0 Z-6.0
G2 F150.0 X26.5949 Y28.5806 I3.4887 J2.8282
G1 Y28.5807
G1 Y28.5805
G1 Y28.5806
G1 Y44.5816
G2 Y44.5838 I2.5 J0.0
G2 X27.9142 Y47.7613 I4.4956 J-0.004
G2 X31.0951 Y49.0815 I3.1809 J-3.1719
G1 X56.5951
G1 Y67.5828
G2 Y67.5843 I2.5 J0.0
G2 X57.9155 Y70.7637 I4.4946 J-0.0027
G2 X61.0931 Y72.0827 I3.1816 J-3.1779
G2 X61.0953 I0.0022 J-2.5
G1 X77.095
G2 X77.0971 I0.0 J-2.5
G2 X80.2744 Y70.764 I-0.0037 J-4.4961
G2 X81.5953 Y67.5827 I-3.1702 J-3.1811
G1 Y67.5826
G1 Y67.5828
G1 Y67.5827
G1 Y28.5805
G2 Y28.5783 I-2.5 J0.0
G2 X80.276 Y25.4008 I-4.4956 J0.004
G2 X77.095 Y24.0806 I-3.1809 J3.1719
G1 X31.0951
G2 X31.093 I0.0 J2.5
G2 X27.9157 Y25.3993 I0.0037 J4.4961
G2 X27.5973 Y25.7522 I3.1702 J3.1811
G0 Z3.0
G0 X51.4036 Y19.1924
G0 Z-3.0
G1 F50.0 Z-6.0
G2 F150.0 X52.5614 Y21.1796 I4.3341 J-1.1942
G2 X55.7423 Y22.4998 I3.1809 J-3.1719
G1 X55.7424
G1 X55.7423
G1 X76.7419 Y22.5
G2 X76.744 I0.0 J-2.5
G2 X79.9213 Y21.1814 I-0.0037 J-4.4961
G2 X81.2421 Y18.0 I-3.1702 J-3.1811
G1 Y17.9999
G1 Y18.0001
G1 Y18.0
G1 Y2.0001
G2 Y1.9978 I-2.5 J0.0
G2 X79.9228 Y-1.1796 I-4.4956 J0.004
G2 X76.7419 Y-2.4998 I-3.1809 J3.1719
G1 X55.7424 Y-2.5
G2 X55.7403 I0.0 J2.5
G2 X52.563 Y-1.1814 I0.0037 J4.4961
G2 X51.2421 Y1.9999 I3.1702 J3.1811
G1 Y2.0
G1 Y1.9999
G1 Y17.9999
G2 Y18.0021 I2.5 J0.0
G2 X51.4036 Y19.1924 I4.4956 J-0.004
G1 F50.0 Z-8.0
G2 F150.0 X52.5614 Y21.1796 I4.3341 J-1.1942
G2 X55.7423 Y22.4998 I3.1809 J-3.1719
G1 X55.7424
G1 X55.7423
G1 X76.7419 Y22.5
G2 X76.744 I0.0 J-2.5
G2 X79.9213 Y21.1814 I-0.0037 J-4.4961
G2 X81.2421 Y18.0 I-3.1702 J-3.1811
G1 Y17.9999
G1 Y18.0001
G1 Y18.0
G1 Y2.0001
G2 Y1.9978 I-2.5 J0.0
G2 X79.9228 Y-1.1796 I-4.4956 J0.004
G2 X76.7419 Y-2.4998 I-3.1809 J3.1719
G1 X55.7424 Y-2.5
G2 X55.7403 I0.0 J2.5
G2 X52.563 Y-1.1814 I0.0037 J4.4961
G2 X51.2421 Y1.9999 I3.1702 J3.1811
G1 Y2.0
G1 Y1.9999
G1 Y17.9999
G2 Y18.0021 I2.5 J0.0
G2 X51.4036 Y19.1924 I4.4956 J-0.004
G1 F50.0 X50.0711 Y18.9151
G2 F150.0 X50.1653 Y17.9999 I-4.3972 J-0.915
G1 Y17.9998
G1 Y17.9999
G1 Y2.0001
G2 Y1.9977 I-2.5 J0.0
G2 X48.8462 Y-1.1796 I-4.4961 J0.0042
G2 X45.6664 Y-2.5 I-3.1815 J3.1727
G2 X45.6654 I-0.001 J2.5
G1 X24.6655
G2 X24.6634 I0.0 J2.5
G2 X21.486 Y-1.181 I0.0038 J4.4959
G2 X20.1655 Y2.0001 I3.171 J3.181
G1 Y2.0002
G1 Y2.0001
G1 Y17.9999
G2 Y18.0021 I2.5 J0.0
G2 X21.4844 Y21.1794 I4.4959 J-0.0038
G2 X24.6655 Y22.5 I3.181 J-3.171
G1 X24.6656
G1 X24.6655
G1 X45.6654
G2 X45.6668 I0.0 J-2.5
G2 X48.8452 Y21.1806 I-0.0025 J-4.4939
G2 X50.0711 Y18.9151 I-3.1712 J-3.1805
G0 Z3.0
G0 Y24.0806
G0 Z-5.0
G1 F50.0 Z-8.0
G1 F150.0 X31.0951
G2 X31.093 I0.0 J2.5
G2 X27.9157 Y25.3993 I0.0037 J4.4961
G2 X26.5949 Y28.5806 I3.1702 J3.1811
G1 Y28.5807
G1 Y28.5805
G1 Y28.5806
G1 Y44.5816
G2 Y44.5838 I2.5 J0.0
G2 X27.9142 Y47.7613 I4.4956 J-0.004
G2 X31.0951 Y49.0815 I3.1809 J-3.1719
G1 X56.5951
G1 Y67.5828
G2 Y67.5843 I2.5 J0.0
G2 X57.9155 Y70.7637 I4.4946 J-0.0027
G2 X61.0931 Y72.0827 I3.1816 J-3.1779
G2 X61.0953 I0.0022 J-2.5
G1 X77.095
G2 X77.0971 I0.0 J-2.5
G2 X80.2744 Y70.764 I-0.0037 J-4.4961
G2 X81.5953 Y67.5827 I-3.1702 J-3.1811
G1 Y67.5826
G1 Y67.5828
G1 Y67.5827
G1 Y28.5805
G2 Y28.5783 I-2.5 J0.0
G2 X80.276 Y25.4008 I-4.4956 J0.004
G2 X77.095 Y24.0806 I-3.1809 J3.1719
G1 X50.0711
G0 Z3.0
G0 X22.4976 Y25.0179
G0 Z-5.0
G1 F50.0 Z-8.0
G2 F150.0 X21.1796 Y21.9895 I-4.489 J0.1526
G2 X18.0022 Y20.6705 I-3.1812 J3.1769
G2 X18.0001 I-0.0021 J2.5
G1 X2.0003
G1 X2.0002
G1 X2.0003
G2 X-1.1809 Y21.991 I-0.0001 J4.4916
G2 X-2.4998 Y25.1684 I3.1769 J3.1812
G2 Y25.1706 I2.5 J0.0021
G1 Y71.1705
G1 Y71.1704
G1 Y71.1705
G2 X-1.1793 Y74.3516 I4.4916 J0.0001
G2 X1.9981 Y75.6706 I3.1812 J-3.1769
G2 X2.0002 I0.0021 J-2.5
G1 X41.0004
G1 X41.0007
G2 X44.1813 Y74.3502 I-0.0004 J-4.492
G2 X45.5003 Y71.1721 I-3.1761 J-3.181
G2 Y71.1705 I-2.5 J-0.0016
G1 Y55.1706
G1 Y55.1703
G2 X44.1803 Y51.99 I-4.4926 J0.0005
G2 X41.0021 Y50.6706 I-3.1812 J3.1755
G2 X41.0004 I-0.0017 J2.5
G1 X22.5002
G1 Y25.1706
G1 Y25.1707
G1 Y25.1706
G2 X22.4976 Y25.0179 I-4.4916 J-0.0001
G1 F50.0 Z-10.0
G2 F150.0 X21.1796 Y21.9895 I-4.489 J0.1526
G2 X18.0022 Y20.6705 I-3.1812 J3.1769
G2 X18.0001 I-0.0021 J2.5
G1 X2.0003
G1 X2.0002
G1 X2.0003
G2 X-1.1809 Y21.991 I-0.0001 J4.4916
G2 X-2.4998 Y25.1684 I3.1769 J3.1812
G2 Y25.1706 I2.5 J0.0021
G1 Y71.1705
G1 Y71.1704
G1 Y71.1705
G2 X-1.1793 Y74.3516 I4.4916 J0.0001
G2 X1.9981 Y75.6706 I3.1812 J-3.1769
G2 X2.0002 I0.0021 J-2.5
G1 X41.0004
G1 X41.0007
G2 X44.1813 Y74.3502 I-0.0004 J-4.492
G2 X45.5003 Y71.1721 I-3.1761 J-3.181
G2 Y71.1705 I-2.5 J-0.0016
G1 Y55.1706
G1 Y55.1703
G2 X44.1803 Y51.99 I-4.4926 J0.0005
G2 X41.0021 Y50.6706 I-3.1812 J3.1755
G2 X41.0004 I-0.0017 J2.5
G1 X22.5002
G1 Y25.1706
G1 Y25.1707
G1 Y25.1706
G2 X22.4976 Y25.0179 I-4.4916 J-0.0001
G1 F50.0 X23.3383 Y22.2995
G2 F150.0 X24.6655 Y22.5 I1.3271 J-4.291
G1 X24.6656
G1 X24.6655
G1 X45.6654
G2 X45.6668 I0.0 J-2.5
G2 X48.8452 Y21.1806 I-0.0025 J-4.4939
G2 X50.1653 Y17.9999 I-3.1712 J-3.1805
G1 Y17.9998
G1 Y17.9999
G1 Y2.0001
G2 Y1.9977 I-2.5 J0.0
G2 X48.8462 Y-1.1796 I-4.4961 J0.0042
G2 X45.6664 Y-2.5 I-3.1815 J3.1727
G2 X45.6654 I-0.001 J2.5
G1 X24.6655
G2 X24.6634 I0.0 J2.5
G2 X21.486 Y-1.181 I0.0038 J4.4959
G2 X20.1655 Y2.0001 I3.171 J3.181
G1 Y2.0002
G1 Y2.0001
G1 Y17.9999
G2 Y18.0021 I2.5 J0.0
G2 X21.4844 Y21.1794 I4.4959 J-0.0038
G2 X23.3383 Y22.2995 I3.181 J-3.171
G0 Z3.0
G0 X27.5973 Y25.7522
G0 Z-7.0
G1 F50.0 Z-10.0
G2 F150.0 X26.5949 Y28.5806 I3.4887 J2.8282
G1 Y28.5807
G1 Y28.5805
G1 Y28.5806
G1 Y44.5816
G2 Y44.5838 I2.5 J0.0
G2 X27.9142 Y47.7613 I4.4956 J-0.004
G2 X31.0951 Y49.0815 I3.1809 J-3.1719
G1 X56.5951
G1 Y67.5828
G2 Y67.5843 I2.5 J0.0
G2 X57.9155 Y70.7637 I4.4946 J-0.0027
G2 X61.0931 Y72.0827 I3.1816 J-3.1779
G2 X61.0953 I0.0022 J-2.5
G1 X77.095
G2 X77.0971 I0.0 J-2.5
G2 X80.2744 Y70.764 I-0.0037 J-4.4961
G2 X81.5953 Y67.5827 I-3.1702 J-3.1811
G1 Y67.5826
G1 Y67.5828
G1 Y67.5827
G1 Y28.5805
G2 Y28.5783 I-2.5 J0.0
G2 X80.276 Y25.4008 I-4.4956 J0.004
G2 X77.095 Y24.0806 I-3.1809 J3.1719
G1 X31.0951
G2 X31.093 I0.0 J2.5
G2 X27.9157 Y25.3993 I0.0037 J4.4961
G2 X27.5973 Y25.7522 I3.1702 J3.1811
G0 Z3.0
G0 X51.4036 Y19.1924
G0 Z-7.0
G1 F50.0 Z-10.0
G2 F150.0 X52.5614 Y21.1796 I4.3341 J-1.1942
G2 X55.7423 Y22.4998 I3.1809 J-3.1719
G1 X55.7424
G1 X55.7423
G1 X76.7419 Y22.5
G2 X76.744 I0.0 J-2.5
G2 X79.9213 Y21.1814 I-0.0037 J-4.4961
G2 X81.2421 Y18.0 I-3.1702 J-3.1811
G1 Y17.9999
G1 Y18.0001
G1 Y18.0
G1 Y2.0001
G2 Y1.9978 I-2.5 J0.0
G2 X79.9228 Y-1.1796 I-4.4956 J0.004
G2 X76.7419 Y-2.4998 I-3.1809 J3.1719
G1 X55.7424 Y-2.5
G2 X55.7403 I0.0 J2.5
G2 X52.563 Y-1.1814 I0.0037 J4.4961
G2 X51.2421 Y1.9999 I3.1702 J3.1811
G1 Y2.0
G1 Y1.9999
G1 Y17.9999
G2 Y18.0021 I2.5 J0.0
G2 X51.4036 Y19.1924 I4.4956 J-0.004
G1 F50.0 Z-12.0
G2 F150.0 X52.5614 Y21.1796 I4.3341 J-1.1942
G2 X55.7423 Y22.4998 I3.1809 J-3.1719
G1 X55.7424
G1 X55.7423
G1 X76.7419 Y22.5
G2 X76.744 I0.0 J-2.5
G2 X79.9213 Y21.1814 I-0.0037 J-4.4961
G2 X81.2421 Y18.0 I-3.1702 J-3.1811
G1 Y17.9999
G1 Y18.0001
G1 Y18.0
G1 Y2.0001
G2 Y1.9978 I-2.5 J0.0
G2 X79.9228 Y-1.1796 I-4.4956 J0.004
G2 X76.7419 Y-2.4998 I-3.1809 J3.1719
G1 X55.7424 Y-2.5
G2 X55.7403 I0.0 J2.5
G2 X52.563 Y-1.1814 I0.0037 J4.4961
G2 X51.2421 Y1.9999 I3.1702 J3.1811
G1 Y2.0
G1 Y1.9999
G1 Y17.9999
G2 Y18.0021 I2.5 J0.0
G2 X51.4036 Y19.1924 I4.4956 J-0.004
G1 F50.0 X50.0711 Y18.9151
G2 F150.0 X50.1653 Y17.9999 I-4.3972 J-0.915
G1 Y17.9998
G1 Y17.9999
G1 Y2.0001
G2 Y1.9977 I-2.5 J0.0
G2 X48.8462 Y-1.1796 I-4.4961 J0.0042
G2 X45.6664 Y-2.5 I-3.1815 J3.1727
G2 X45.6654 I-0.001 J2.5
G1 X24.6655
G2 X24.6634 I0.0 J2.5
G2 X21.486 Y-1.181 I0.0038 J4.4959
G2 X20.1655 Y2.0001 I3.171 J3.181
G1 Y2.0002
G1 Y2.0001
G1 Y17.9999
G2 Y18.0021 I2.5 J0.0
G2 X21.4844 Y21.1794 I4.4959 J-0.0038
G2 X24.6655 Y22.5 I3.181 J-3.171
G1 X24.6656
G1 X24.6655
G1 X45.6654
G2 X45.6668 I0.0 J-2.5
G2 X48.8452 Y21.1806 I-0.0025 J-4.4939
G2 X50.0711 Y18.9151 I-3.1712 J-3.1805
G0 Z3.0
G0 Y24.0806
G0 Z-9.0
G1 F50.0 Z-12.0
G1 F150.0 X31.0951
G2 X31.093 I0.0 J2.5
G2 X27.9157 Y25.3993 I0.0037 J4.4961
G2 X26.5949 Y28.5806 I3.1702 J3.1811
G1 Y28.5807
G1 Y28.5805
G1 Y28.5806
G1 Y44.5816
G2 Y44.5838 I2.5 J0.0
G2 X27.9142 Y47.7613 I4.4956 J-0.004
G2 X31.0951 Y49.0815 I3.1809 J-3.1719
G1 X56.5951
G1 Y67.5828
G2 Y67.5843 I2.5 J0.0
G2 X57.9155 Y70.7637 I4.4946 J-0.0027
G2 X61.0931 Y72.0827 I3.1816 J-3.1779
G2 X61.0953 I0.0022 J-2.5
G1 X77.095
G2 X77.0971 I0.0 J-2.5
G2 X80.2744 Y70.764 I-0.0037 J-4.4961
G2 X81.5953 Y67.5827 I-3.1702 J-3.1811
G1 Y67.5826
G1 Y67.5828
G1 Y67.5827
G1 Y28.5805
G2 Y28.5783 I-2.5 J0.0
G2 X80.276 Y25.4008 I-4.4956 J0.004
G2 X77.095 Y24.0806 I-3.1809 J3.1719
G1 X50.0711
G0 Z3.0
G0 X22.4976 Y25.0179
G0 Z-9.0
G1 F50.0 Z-12.0
G2 F150.0 X21.1796 Y21.9895 I-4.489 J0.1526
G2 X18.0022 Y20.6705 I-3.1812 J3.1769
G2 X18.0001 I-0.0021 J2.5
G1 X2.0003
G1 X2.0002
G1 X2.0003
G2 X-1.1809 Y21.991 I-0.0001 J4.4916
G2 X-2.4998 Y25.1684 I3.1769 J3.1812
G2 Y25.1706 I2.5 J0.0021
G1 Y71.1705
G1 Y71.1704
G1 Y71.1705
G2 X-1.1793 Y74.3516 I4.4916 J0.0001
G2 X1.9981 Y75.6706 I3.1812 J-3.1769
G2 X2.0002 I0.0021 J-2.5
G1 X41.0004
G1 X41.0007
G2 X44.1813 Y74.3502 I-0.0004 J-4.492
G2 X45.5003 Y71.1721 I-3.1761 J-3.181
G2 Y71.1705 I-2.5 J-0.0016
G1 Y55.1706
G1 Y55.1703
G2 X44.1803 Y51.99 I-4.4926 J0.0005
G2 X41.0021 Y50.6706 I-3.1812 J3.1755
G2 X41.0004 I-0.0017 J2.5
G1 X22.5002
G1 Y25.1706
G1 Y25.1707
G1 Y25.1706
G2 X22.4976 Y25.0179 I-4.4916 J-0.0001
G1 F50.0 Z-14.0
G2 F150.0 X21.1796 Y21.9895 I-4.489 J0.1526
G2 X18.0022 Y20.6705 I-3.1812 J3.1769
G2 X18.0001 I-0.0021 J2.5
G1 X2.0003
G1 X2.0002
G1 X2.0003
G2 X-1.1809 Y21.991 I-0.0001 J4.4916
G2 X-2.4998 Y25.1684 I3.1769 J3.1812
G2 Y25.1706 I2.5 J0.0021
G1 Y71.1705
G1 Y71.1704
G1 Y71.1705
G2 X-1.1793 Y74.3516 I4.4916 J0.0001
G2 X1.9981 Y75.6706 I3.1812 J-3.1769
G2 X2.0002 I0.0021 J-2.5
G1 X41.0004
G1 X41.0007
G2 X44.1813 Y74.3502 I-0.0004 J-4.492
G2 X45.5003 Y71.1721 I-3.1761 J-3.181
G2 Y71.1705 I-2.5 J-0.0016
G1 Y55.1706
G1 Y55.1703
G2 X44.1803 Y51.99 I-4.4926 J0.0005
G2 X41.0021 Y50.6706 I-3.1812 J3.1755
G2 X41.0004 I-0.0017 J2.5
G1 X22.5002
G1 Y25.1706
G1 Y25.1707
G1 Y25.1706
G2 X22.4976 Y25.0179 I-4.4916 J-0.0001
G1 F50.0 X23.3383 Y22.2995
G2 F150.0 X24.6655 Y22.5 I1.3271 J-4.291
G1 X24.6656
G1 X24.6655
G1 X45.6654
G2 X45.6668 I0.0 J-2.5
G2 X48.8452 Y21.1806 I-0.0025 J-4.4939
G2 X50.1653 Y17.9999 I-3.1712 J-3.1805
G1 Y17.9998
G1 Y17.9999
G1 Y2.0001
G2 Y1.9977 I-2.5 J0.0
G2 X48.8462 Y-1.1796 I-4.4961 J0.0042
G2 X45.6664 Y-2.5 I-3.1815 J3.1727
G2 X45.6654 I-0.001 J2.5
G1 X24.6655
G2 X24.6634 I0.0 J2.5
G2 X21.486 Y-1.181 I0.0038 J4.4959
G2 X20.1655 Y2.0001 I3.171 J3.181
G1 Y2.0002
G1 Y2.0001
G1 Y17.9999
G2 Y18.0021 I2.5 J0.0
G2 X21.4844 Y21.1794 I4.4959 J-0.0038
G2 X23.3383 Y22.2995 I3.181 J-3.171
G0 Z3.0
G0 X27.5973 Y25.7522
G0 Z-11.0
G1 F50.0 Z-14.0
G2 F150.0 X26.5949 Y28.5806 I3.4887 J2.8282
G1 Y28.5807
G1 Y28.5805
G1 Y28.5806
G1 Y44.5816
G2 Y44.5838 I2.5 J0.0
G2 X27.9142 Y47.7613 I4.4956 J-0.004
G2 X31.0951 Y49.0815 I3.1809 J-3.1719
G1 X56.5951
G1 Y67.5828
G2 Y67.5843 I2.5 J0.0
G2 X57.9155 Y70.7637 I4.4946 J-0.0027
G2 X61.0931 Y72.0827 I3.1816 J-3.1779
G2 X61.0953 I0.0022 J-2.5
G1 X77.095
G2 X77.0971 I0.0 J-2.5
G2 X80.2744 Y70.764 I-0.0037 J-4.4961
G2 X81.5953 Y67.5827 I-3.1702 J-3.1811
G1 Y67.5826
G1 Y67.5828
G1 Y67.5827
G1 Y28.5805
G2 Y28.5783 I-2.5 J0.0
G2 X80.276 Y25.4008 I-4.4956 J0.004
G2 X77.095 Y24.0806 I-3.1809 J3.1719
G1 X31.0951
G2 X31.093 I0.0 J2.5
G2 X27.9157 Y25.3993 I0.0037 J4.4961
G2 X27.5973 Y25.7522 I3.1702 J3.1811
G0 Z3.0
G0 X51.4036 Y19.1924
G0 Z-11.0
G1 F50.0 Z-14.0
G2 F150.0 X52.5614 Y21.1796 I4.3341 J-1.1942
G2 X55.7423 Y22.4998 I3.1809 J-3.1719
G1 X55.7424
G1 X55.7423
G1 X76.7419 Y22.5
G2 X76.744 I0.0 J-2.5
G2 X79.9213 Y21.1814 I-0.0037 J-4.4961
G2 X81.2421 Y18.0 I-3.1702 J-3.1811
G1 Y17.9999
G1 Y18.0001
G1 Y18.0
G1 Y2.0001
G2 Y1.9978 I-2.5 J0.0
G2 X79.9228 Y-1.1796 I-4.4956 J0.004
G2 X76.7419 Y-2.4998 I-3.1809 J3.1719
G1 X55.7424 Y-2.5
G2 X55.7403 I0.0 J2.5
G2 X52.563 Y-1.1814 I0.0037 J4.4961
G2 X51.2421 Y1.9999 I3.1702 J3.1811
G1 Y2.0
G1 Y1.9999
G1 Y17.9999
G2 Y18.0021 I2.5 J0.0
G2 X51.4036 Y19.1924 I4.4956 J-0.004
G1 F50.0 Z-16.0
G2 F150.0 X52.5614 Y21.1796 I4.3341 J-1.1942
G2 X55.7423 Y22.4998 I3.1809 J-3.1719
G1 X55.7424
G1 X55.7423
G1 X76.7419 Y22.5
G2 X76.744 I0.0 J-2.5
G2 X79.9213 Y21.1814 I-0.0037 J-4.4961
G2 X81.2421 Y18.0 I-3.1702 J-3.1811
G1 Y17.9999
G1 Y18.0001
G1 Y18.0
G1 Y2.0001
G2 Y1.9978 I-2.5 J0.0
G2 X79.9228 Y-1.1796 I-4.4956 J0.004
G2 X76.7419 Y-2.4998 I-3.1809 J3.1719
G1 X55.7424 Y-2.5
G2 X55.7403 I0.0 J2.5
G2 X52.563 Y-1.1814 I0.0037 J4.4961
G2 X51.2421 Y1.9999 I3.1702 J3.1811
G1 Y2.0
G1 Y1.9999
G1 Y17.9999
G2 Y18.0021 I2.5 J0.0
G2 X51.4036 Y19.1924 I4.4956 J-0.004
G1 F50.0 X50.0711 Y18.9151
G2 F150.0 X50.1653 Y17.9999 I-4.3972 J-0.915
G1 Y17.9998
G1 Y17.9999
G1 Y2.0001
G2 Y1.9977 I-2.5 J0.0
G2 X48.8462 Y-1.1796 I-4.4961 J0.0042
G2 X45.6664 Y-2.5 I-3.1815 J3.1727
G2 X45.6654 I-0.001 J2.5
G1 X24.6655
G2 X24.6634 I0.0 J2.5
G2 X21.486 Y-1.181 I0.0038 J4.4959
G2 X20.1655 Y2.0001 I3.171 J3.181
G1 Y2.0002
G1 Y2.0001
G1 Y17.9999
G2 Y18.0021 I2.5 J0.0
G2 X21.4844 Y21.1794 I4.4959 J-0.0038
G2 X24.6655 Y22.5 I3.181 J-3.171
G1 X24.6656
G1 X24.6655
G1 X45.6654
G2 X45.6668 I0.0 J-2.5
G2 X48.8452 Y21.1806 I-0.0025 J-4.4939
G2 X50.0711 Y18.9151 I-3.1712 J-3.1805
G0 Z3.0
G0 Y24.0806
G0 Z-13.0
G1 F50.0 Z-16.0
G1 F150.0 X31.0951
G2 X31.093 I0.0 J2.5
G2 X27.9157 Y25.3993 I0.0037 J4.4961
G2 X26.5949 Y28.5806 I3.1702 J3.1811
G1 Y28.5807
G1 Y28.5805
G1 Y28.5806
G1 Y44.5816
G2 Y44.5838 I2.5 J0.0
G2 X27.9142 Y47.7613 I4.4956 J-0.004
G2 X31.0951 Y49.0815 I3.1809 J-3.1719
G1 X56.5951
G1 Y67.5828
G2 Y67.5843 I2.5 J0.0
G2 X57.9155 Y70.7637 I4.4946 J-0.0027
G2 X61.0931 Y72.0827 I3.1816 J-3.1779
G2 X61.0953 I0.0022 J-2.5
G1 X77.095
G2 X77.0971 I0.0 J-2.5
G2 X80.2744 Y70.764 I-0.0037 J-4.4961
G2 X81.5953 Y67.5827 I-3.1702 J-3.1811
G1 Y67.5826
G1 Y67.5828
G1 Y67.5827
G1 Y28.5805
G2 Y28.5783 I-2.5 J0.0
G2 X80.276 Y25.4008 I-4.4956 J0.004
G2 X77.095 Y24.0806 I-3.1809 J3.1719
G1 X50.0711
G0 Z3.0
G0 X22.4976 Y25.0179
G0 Z-13.0
G1 F50.0 Z-16.0
G2 F150.0 X21.1796 Y21.9895 I-4.489 J0.1526
G2 X18.0022 Y20.6705 I-3.1812 J3.1769
G2 X18.0001 I-0.0021 J2.5
G1 X2.0003
G1 X2.0002
G1 X2.0003
G2 X-1.1809 Y21.991 I-0.0001 J4.4916
G2 X-2.4998 Y25.1684 I3.1769 J3.1812
G2 Y25.1706 I2.5 J0.0021
G1 Y71.1705
G1 Y71.1704
G1 Y71.1705
G2 X-1.1793 Y74.3516 I4.4916 J0.0001
G2 X1.9981 Y75.6706 I3.1812 J-3.1769
G2 X2.0002 I0.0021 J-2.5
G1 X41.0004
G1 X41.0007
G2 X44.1813 Y74.3502 I-0.0004 J-4.492
G2 X45.5003 Y71.1721 I-3.1761 J-3.181
G2 Y71.1705 I-2.5 J-0.0016
G1 Y55.1706
G1 Y55.1703
G2 X44.1803 Y51.99 I-4.4926 J0.0005
G2 X41.0021 Y50.6706 I-3.1812 J3.1755
G2 X41.0004 I-0.0017 J2.5
G1 X22.5002
G1 Y25.1706
G1 Y25.1707
G1 Y25.1706
G2 X22.4976 Y25.0179 I-4.4916 J-0.0001
G1 F50.0 Z-18.0
G2 F150.0 X21.1796 Y21.9895 I-4.489 J0.1526
G2 X18.0022 Y20.6705 I-3.1812 J3.1769
G2 X18.0001 I-0.0021 J2.5
G1 X2.0003
G1 X2.0002
G1 X2.0003
G2 X-1.1809 Y21.991 I-0.0001 J4.4916
G2 X-2.4998 Y25.1684 I3.1769 J3.1812
G2 Y25.1706 I2.5 J0.0021
G1 Y71.1705
G1 Y71.1704
G1 Y71.1705
G2 X-1.1793 Y74.3516 I4.4916 J0.0001
G2 X1.9981 Y75.6706 I3.1812 J-3.1769
G2 X2.0002 I0.0021 J-2.5
G1 X41.0004
G1 X41.0007
G2 X44.1813 Y74.3502 I-0.0004 J-4.492
G2 X45.5003 Y71.1721 I-3.1761 J-3.181
G2 Y71.1705 I-2.5 J-0.0016
G1 Y55.1706
G1 Y55.1703
G2 X44.1803 Y51.99 I-4.4926 J0.0005
G2 X41.0021 Y50.6706 I-3.1812 J3.1755
G2 X41.0004 I-0.0017 J2.5
G1 X22.5002
G1 Y25.1706
G1 Y25.1707
G1 Y25.1706
G2 X22.4976 Y25.0179 I-4.4916 J-0.0001
G1 F50.0 X23.3383 Y22.2995
G2 F150.0 X24.6655 Y22.5 I1.3271 J-4.291
G1 X24.6656
G1 X24.6655
G1 X45.6654
G2 X45.6668 I0.0 J-2.5
G2 X48.8452 Y21.1806 I-0.0025 J-4.4939
G2 X50.1653 Y17.9999 I-3.1712 J-3.1805
G1 Y17.9998
G1 Y17.9999
G1 Y2.0001
G2 Y1.9977 I-2.5 J0.0
G2 X48.8462 Y-1.1796 I-4.4961 J0.0042
G2 X45.6664 Y-2.5 I-3.1815 J3.1727
G2 X45.6654 I-0.001 J2.5
G1 X24.6655
G2 X24.6634 I0.0 J2.5
G2 X21.486 Y-1.181 I0.0038 J4.4959
G2 X20.1655 Y2.0001 I3.171 J3.181
G1 Y2.0002
G1 Y2.0001
G1 Y17.9999
G2 Y18.0021 I2.5 J0.0
G2 X21.4844 Y21.1794 I4.4959 J-0.0038
G2 X23.3383 Y22.2995 I3.181 J-3.171
G0 Z3.0
G0 X27.5973 Y25.7522
G0 Z-15.0
G1 F50.0 Z-18.0
G2 F150.0 X26.5949 Y28.5806 I3.4887 J2.8282
G1 Y28.5807
G1 Y28.5805
G1 Y28.5806
G1 Y44.5816
G2 Y44.5838 I2.5 J0.0
G2 X27.9142 Y47.7613 I4.4956 J-0.004
G2 X31.0951 Y49.0815 I3.1809 J-3.1719
G1 X56.5951
G1 Y67.5828
G2 Y67.5843 I2.5 J0.0
G2 X57.9155 Y70.7637 I4.4946 J-0.0027
G2 X61.0931 Y72.0827 I3.1816 J-3.1779
G2 X61.0953 I0.0022 J-2.5
G1 X77.095
G2 X77.0971 I0.0 J-2.5
G2 X80.2744 Y70.764 I-0.0037 J-4.4961
G2 X81.5953 Y67.5827 I-3.1702 J-3.1811
G1 Y67.5826
G1 Y67.5828
G1 Y67.5827
G1 Y28.5805
G2 Y28.5783 I-2.5 J0.0
G2 X80.276 Y25.4008 I-4.4956 J0.004
G2 X77.095 Y24.0806 I-3.1809 J3.1719
G1 X31.0951
G2 X31.093 I0.0 J2.5
G2 X27.9157 Y25.3993 I0.0037 J4.4961
G2 X27.5973 Y25.7522 I3.1702 J3.1811
G0 Z3.0
G0 X51.4036 Y19.1924
G0 Z-15.0
G1 F50.0 Z-18.0
G2 F150.0 X52.5614 Y21.1796 I4.3341 J-1.1942
G2 X55.7423 Y22.4998 I3.1809 J-3.1719
G1 X55.7424
G1 X55.7423
G1 X76.7419 Y22.5
G2 X76.744 I0.0 J-2.5
G2 X79.9213 Y21.1814 I-0.0037 J-4.4961
G2 X81.2421 Y18.0 I-3.1702 J-3.1811
G1 Y17.9999
G1 Y18.0001
G1 Y18.0
G1 Y2.0001
G2 Y1.9978 I-2.5 J0.0
G2 X79.9228 Y-1.1796 I-4.4956 J0.004
G2 X76.7419 Y-2.4998 I-3.1809 J3.1719
G1 X55.7424 Y-2.5
G2 X55.7403 I0.0 J2.5
G2 X52.563 Y-1.1814 I0.0037 J4.4961
G2 X51.2421 Y1.9999 I3.1702 J3.1811
G1 Y2.0
G1 Y1.9999
G1 Y17.9999
G2 Y18.0021 I2.5 J0.0
G2 X51.4036 Y19.1924 I4.4956 J-0.004
G1 F50.0 Z-20.0
G2 F150.0 X52.5614 Y21.1796 I4.3341 J-1.1942
G2 X55.7423 Y22.4998 I3.1809 J-3.1719
G1 X55.7424
G1 X55.7423
G1 X76.7419 Y22.5
G2 X76.744 I0.0 J-2.5
G2 X79.9213 Y21.1814 I-0.0037 J-4.4961
G2 X81.2421 Y18.0 I-3.1702 J-3.1811
G1 Y17.9999
G1 Y18.0001
G1 Y18.0
G1 Y2.0001
G2 Y1.9978 I-2.5 J0.0
G2 X79.9228 Y-1.1796 I-4.4956 J0.004
G2 X76.7419 Y-2.4998 I-3.1809 J3.1719
G1 X55.7424 Y-2.5
G2 X55.7403 I0.0 J2.5
G2 X52.563 Y-1.1814 I0.0037 J4.4961
G2 X51.2421 Y1.9999 I3.1702 J3.1811
G1 Y2.0
G1 Y1.9999
G1 Y17.9999
G2 Y18.0021 I2.5 J0.0
G2 X51.4036 Y19.1924 I4.4956 J-0.004
G1 F50.0 X50.0711 Y18.9151
G2 F150.0 X50.1653 Y17.9999 I-4.3972 J-0.915
G1 Y17.9998
G1 Y17.9999
G1 Y2.0001
G2 Y1.9977 I-2.5 J0.0
G2 X48.8462 Y-1.1796 I-4.4961 J0.0042
G2 X45.6664 Y-2.5 I-3.1815 J3.1727
G2 X45.6654 I-0.001 J2.5
G1 X24.6655
G2 X24.6634 I0.0 J2.5
G2 X21.486 Y-1.181 I0.0038 J4.4959
G2 X20.1655 Y2.0001 I3.171 J3.181
G1 Y2.0002
G1 Y2.0001
G1 Y17.9999
G2 Y18.0021 I2.5 J0.0
G2 X21.4844 Y21.1794 I4.4959 J-0.0038
G2 X24.6655 Y22.5 I3.181 J-3.171
G1 X24.6656
G1 X24.6655
G1 X45.6654
G2 X45.6668 I0.0 J-2.5
G2 X48.8452 Y21.1806 I-0.0025 J-4.4939
G2 X50.0711 Y18.9151 I-3.1712 J-3.1805
G0 Z3.0
G0 Y24.0806
G0 Z-17.0
G1 F50.0 Z-20.0
G1 F150.0 X31.0951
G2 X31.093 I0.0 J2.5
G2 X27.9157 Y25.3993 I0.0037 J4.4961
G2 X26.5949 Y28.5806 I3.1702 J3.1811
G1 Y28.5807
G1 Y28.5805
G1 Y28.5806
G1 Y44.5816
G2 Y44.5838 I2.5 J0.0
G2 X27.9142 Y47.7613 I4.4956 J-0.004
G2 X31.0951 Y49.0815 I3.1809 J-3.1719
G1 X56.5951
G1 Y67.5828
G2 Y67.5843 I2.5 J0.0
G2 X57.9155 Y70.7637 I4.4946 J-0.0027
G2 X61.0931 Y72.0827 I3.1816 J-3.1779
G2 X61.0953 I0.0022 J-2.5
G1 X77.095
G2 X77.0971 I0.0 J-2.5
G2 X80.2744 Y70.764 I-0.0037 J-4.4961
G2 X81.5953 Y67.5827 I-3.1702 J-3.1811
G1 Y67.5826
G1 Y67.5828
G1 Y67.5827
G1 Y28.5805
G2 Y28.5783 I-2.5 J0.0
G2 X80.276 Y25.4008 I-4.4956 J0.004
G2 X77.095 Y24.0806 I-3.1809 J3.1719
G1 X50.0711
G0 Z3.0
G0 X22.4976 Y25.0179
G0 Z-17.0
G1 F50.0 Z-20.0
G2 F150.0 X21.1796 Y21.9895 I-4.489 J0.1526
G2 X18.0022 Y20.6705 I-3.1812 J3.1769
G2 X18.0001 I-0.0021 J2.5
G1 X2.0003
G1 X2.0002
G1 X2.0003
G2 X-1.1809 Y21.991 I-0.0001 J4.4916
G2 X-2.4998 Y25.1684 I3.1769 J3.1812
G2 Y25.1706 I2.5 J0.0021
G1 Y71.1705
G1 Y71.1704
G1 Y71.1705
G2 X-1.1793 Y74.3516 I4.4916 J0.0001
G2 X1.9981 Y75.6706 I3.1812 J-3.1769
G2 X2.0002 I0.0021 J-2.5
G1 X41.0004
G1 X41.0007
G2 X44.1813 Y74.3502 I-0.0004 J-4.492
G2 X45.5003 Y71.1721 I-3.1761 J-3.181
G2 Y71.1705 I-2.5 J-0.0016
G1 Y55.1706
G1 Y55.1703
G2 X44.1803 Y51.99 I-4.4926 J0.0005
G2 X41.0021 Y50.6706 I-3.1812 J3.1755
G2 X41.0004 I-0.0017 J2.5
G1 X22.5002
G1 Y25.1706
G1 Y25.1707
G1 Y25.1706
G2 X22.4976 Y25.0179 I-4.4916 J-0.0001
G1 F50.0 Z-22.0
G2 F150.0 X21.1796 Y21.9895 I-4.489 J0.1526
G2 X18.0022 Y20.6705 I-3.1812 J3.1769
G2 X18.0001 I-0.0021 J2.5
G1 X2.0003
G1 X2.0002
G1 X2.0003
G2 X-1.1809 Y21.991 I-0.0001 J4.4916
G2 X-2.4998 Y25.1684 I3.1769 J3.1812
G2 Y25.1706 I2.5 J0.0021
G1 Y71.1705
G1 Y71.1704
G1 Y71.1705
G2 X-1.1793 Y74.3516 I4.4916 J0.0001
G2 X1.9981 Y75.6706 I3.1812 J-3.1769
G2 X2.0002 I0.0021 J-2.5
G1 X41.0004
G1 X41.0007
G2 X44.1813 Y74.3502 I-0.0004 J-4.492
G2 X45.5003 Y71.1721 I-3.1761 J-3.181
G2 Y71.1705 I-2.5 J-0.0016
G1 Y55.1706
G1 Y55.1703
G2 X44.1803 Y51.99 I-4.4926 J0.0005
G2 X41.0021 Y50.6706 I-3.1812 J3.1755
G2 X41.0004 I-0.0017 J2.5
G1 X22.5002
G1 Y25.1706
G1 Y25.1707
G1 Y25.1706
G2 X22.4976 Y25.0179 I-4.4916 J-0.0001
G1 F50.0 X23.3383 Y22.2995
G2 F150.0 X24.6655 Y22.5 I1.3271 J-4.291
G1 X24.6656
G1 X24.6655
G1 X45.6654
G2 X45.6668 I0.0 J-2.5
G2 X48.8452 Y21.1806 I-0.0025 J-4.4939
G2 X50.1653 Y17.9999 I-3.1712 J-3.1805
G1 Y17.9998
G1 Y17.9999
G1 Y2.0001
G2 Y1.9977 I-2.5 J0.0
G2 X48.8462 Y-1.1796 I-4.4961 J0.0042
G2 X45.6664 Y-2.5 I-3.1815 J3.1727
G2 X45.6654 I-0.001 J2.5
G1 X24.6655
G2 X24.6634 I0.0 J2.5
G2 X21.486 Y-1.181 I0.0038 J4.4959
G2 X20.1655 Y2.0001 I3.171 J3.181
G1 Y2.0002
G1 Y2.0001
G1 Y17.9999
G2 Y18.0021 I2.5 J0.0
G2 X21.4844 Y21.1794 I4.4959 J-0.0038
G2 X23.3383 Y22.2995 I3.181 J-3.171
G0 Z3.0
G0 X27.5973 Y25.7522
G0 Z-19.0
G1 F50.0 Z-22.0
G2 F150.0 X26.5949 Y28.5806 I3.4887 J2.8282
G1 Y28.5807
G1 Y28.5805
G1 Y28.5806
G1 Y44.5816
G2 Y44.5838 I2.5 J0.0
G2 X27.9142 Y47.7613 I4.4956 J-0.004
G2 X31.0951 Y49.0815 I3.1809 J-3.1719
G1 X56.5951
G1 Y67.5828
G2 Y67.5843 I2.5 J0.0
G2 X57.9155 Y70.7637 I4.4946 J-0.0027
G2 X61.0931 Y72.0827 I3.1816 J-3.1779
G2 X61.0953 I0.0022 J-2.5
G1 X77.095
G2 X77.0971 I0.0 J-2.5
G2 X80.2744 Y70.764 I-0.0037 J-4.4961
G2 X81.5953 Y67.5827 I-3.1702 J-3.1811
G1 Y67.5826
G1 Y67.5828
G1 Y67.5827
G1 Y28.5805
G2 Y28.5783 I-2.5 J0.0
G2 X80.276 Y25.4008 I-4.4956 J0.004
G2 X77.095 Y24.0806 I-3.1809 J3.1719
G1 X31.0951
G2 X31.093 I0.0 J2.5
G2 X27.9157 Y25.3993 I0.0037 J4.4961
G2 X27.5973 Y25.7522 I3.1702 J3.1811
G0 Z3.0
G0 X51.4036 Y19.1924
G0 Z-19.0
G1 F50.0 Z-22.0
G2 F150.0 X52.5614 Y21.1796 I4.3341 J-1.1942
G2 X55.7423 Y22.4998 I3.1809 J-3.1719
G1 X55.7424
G1 X55.7423
G1 X76.7419 Y22.5
G2 X76.744 I0.0 J-2.5
G2 X79.9213 Y21.1814 I-0.0037 J-4.4961
G2 X81.2421 Y18.0 I-3.1702 J-3.1811
G1 Y17.9999
G1 Y18.0001
G1 Y18.0
G1 Y2.0001
G2 Y1.9978 I-2.5 J0.0
G2 X79.9228 Y-1.1796 I-4.4956 J0.004
G2 X76.7419 Y-2.4998 I-3.1809 J3.1719
G1 X55.7424 Y-2.5
G2 X55.7403 I0.0 J2.5
G2 X52.563 Y-1.1814 I0.0037 J4.4961
G2 X51.2421 Y1.9999 I3.1702 J3.1811
G1 Y2.0
G1 Y1.9999
G1 Y17.9999
G2 Y18.0021 I2.5 J0.0
G2 X51.4036 Y19.1924 I4.4956 J-0.004
G0 Z3.0
M5
M30
