( Made using CamBam - http://www.cambam.co.uk )
( vertical slide - backplate 2/22/2013 10:52:50 AM )
( T14 : 4.0 )
G21 G90 G64 G40
G0 Z3.0
( T14 : 4.0 )
T14 M6
( 4mm Drill )
G17
M3 S1000
G0 X6.3 Y35.0001
G98
G83 X6.3 Y35.0001 Z-8.0 Q2.0 R3.0 F50.0
G83 X11.25 Y31.9999 Z-8.0
G83 Y11.9998 Z-8.0
G83 X6.3 Y9.0 Z-8.0
G83 X36.2999 Z-8.0
G83 X51.2003 Z-8.0
G83 X76.2502 Y11.9998 Z-8.0
G83 X81.2002 Y9.0 Z-8.0
G83 X76.2502 Y31.9999 Z-8.0
G83 X81.2002 Y35.0001 Z-8.0
G83 X51.2003 Z-8.0
G83 X36.2999 Z-8.0
G80
M5
M30
