( Made using CamBam - http://www.cambam.co.uk )
( vertical slide - backplate 2/22/2013 10:52:56 AM )
( T3 : 3.0 )
G21 G90 G64 G40
G0 Z3.0
( T3 : 3.0 )
T3 M6
( 3mm mill )
G17
M3 S1000
G0 X5.1453 Y6.9996
G1 F300.0 Z-1.0
G1 F50.0 X7.4548
G1 X8.6096 Y8.9996
G1 X7.4548 Y10.9997
G1 X5.1453
G1 X3.9905 Y8.9996
G1 X5.1453 Y6.9996
G1 F300.0 Z-2.0
G1 F50.0 X7.4548
G1 X8.6096 Y8.9996
G1 X7.4548 Y10.9997
G1 X5.1453
G1 X3.9905 Y8.9996
G1 X5.1453 Y6.9996
G1 F300.0 Z-3.0
G1 F50.0 X7.4548
G1 X8.6096 Y8.9996
G1 X7.4548 Y10.9997
G1 X5.1453
G1 X3.9905 Y8.9996
G1 X5.1453 Y6.9996
G1 F300.0 Z-3.5
G1 F50.0 X7.4548
G1 X8.6096 Y8.9996
G1 X7.4548 Y10.9997
G1 X5.1453
G1 X3.9905 Y8.9996
G1 X5.1453 Y6.9996
G0 Z3.0
G0 Y33.0001
G1 F300.0 Z-1.0
G1 F50.0 X7.4548
G1 X8.6096 Y35.0001
G1 X7.4548 Y37.0001
G1 X5.1453
G1 X3.9905 Y35.0001
G1 X5.1453 Y33.0001
G1 F300.0 Z-2.0
G1 F50.0 X7.4548
G1 X8.6096 Y35.0001
G1 X7.4548 Y37.0001
G1 X5.1453
G1 X3.9905 Y35.0001
G1 X5.1453 Y33.0001
G1 F300.0 Z-3.0
G1 F50.0 X7.4548
G1 X8.6096 Y35.0001
G1 X7.4548 Y37.0001
G1 X5.1453
G1 X3.9905 Y35.0001
G1 X5.1453 Y33.0001
G1 F300.0 Z-3.5
G1 F50.0 X7.4548
G1 X8.6096 Y35.0001
G1 X7.4548 Y37.0001
G1 X5.1453
G1 X3.9905 Y35.0001
G1 X5.1453 Y33.0001
G0 Z3.0
G0 X33.9904 Y35.0001
G1 F300.0 Z-1.0
G1 F50.0 X35.1452 Y33.0001
G1 X37.4547
G1 X38.6095 Y35.0001
G1 X37.4547 Y37.0001
G1 X35.1452
G1 X33.9904 Y35.0001
G1 F300.0 Z-2.0
G1 F50.0 X35.1452 Y33.0001
G1 X37.4547
G1 X38.6095 Y35.0001
G1 X37.4547 Y37.0001
G1 X35.1452
G1 X33.9904 Y35.0001
G1 F300.0 Z-3.0
G1 F50.0 X35.1452 Y33.0001
G1 X37.4547
G1 X38.6095 Y35.0001
G1 X37.4547 Y37.0001
G1 X35.1452
G1 X33.9904 Y35.0001
G1 F300.0 Z-3.5
G1 F50.0 X35.1452 Y33.0001
G1 X37.4547
G1 X38.6095 Y35.0001
G1 X37.4547 Y37.0001
G1 X35.1452
G1 X33.9904 Y35.0001
G0 Z3.0
G0 X48.8908
G1 F300.0 Z-1.0
G1 F50.0 X50.0456 Y33.0001
G1 X52.355
G1 X53.5099 Y35.0001
G1 X52.355 Y37.0001
G1 X50.0456
G1 X48.8908 Y35.0001
G1 F300.0 Z-2.0
G1 F50.0 X50.0456 Y33.0001
G1 X52.355
G1 X53.5099 Y35.0001
G1 X52.355 Y37.0001
G1 X50.0456
G1 X48.8908 Y35.0001
G1 F300.0 Z-3.0
G1 F50.0 X50.0456 Y33.0001
G1 X52.355
G1 X53.5099 Y35.0001
G1 X52.355 Y37.0001
G1 X50.0456
G1 X48.8908 Y35.0001
G1 F300.0 Z-3.5
G1 F50.0 X50.0456 Y33.0001
G1 X52.355
G1 X53.5099 Y35.0001
G1 X52.355 Y37.0001
G1 X50.0456
G1 X48.8908 Y35.0001
G0 Z3.0
G0 X50.0456 Y10.9997
G1 F300.0 Z-1.0
G1 F50.0 X48.8908 Y8.9996
G1 X50.0456 Y6.9996
G1 X52.355
G1 X53.5099 Y8.9996
G1 X52.355 Y10.9997
G1 X50.0456
G1 F300.0 Z-2.0
G1 F50.0 X48.8908 Y8.9996
G1 X50.0456 Y6.9996
G1 X52.355
G1 X53.5099 Y8.9996
G1 X52.355 Y10.9997
G1 X50.0456
G1 F300.0 Z-3.0
G1 F50.0 X48.8908 Y8.9996
G1 X50.0456 Y6.9996
G1 X52.355
G1 X53.5099 Y8.9996
G1 X52.355 Y10.9997
G1 X50.0456
G1 F300.0 Z-3.5
G1 F50.0 X48.8908 Y8.9996
G1 X50.0456 Y6.9996
G1 X52.355
G1 X53.5099 Y8.9996
G1 X52.355 Y10.9997
G1 X50.0456
G0 Z3.0
G0 X38.6095 Y9.0
G1 F300.0 Z-1.0
G1 F50.0 X37.4547 Y11.0
G1 X35.1452
G1 X33.9904 Y9.0
G1 X35.1452 Y6.9999
G1 X37.4547
G1 X38.6095 Y9.0
G1 F300.0 Z-2.0
G1 F50.0 X37.4547 Y11.0
G1 X35.1452
G1 X33.9904 Y9.0
G1 X35.1452 Y6.9999
G1 X37.4547
G1 X38.6095 Y9.0
G1 F300.0 Z-3.0
G1 F50.0 X37.4547 Y11.0
G1 X35.1452
G1 X33.9904 Y9.0
G1 X35.1452 Y6.9999
G1 X37.4547
G1 X38.6095 Y9.0
G1 F300.0 Z-3.5
G1 F50.0 X37.4547 Y11.0
G1 X35.1452
G1 X33.9904 Y9.0
G1 X35.1452 Y6.9999
G1 X37.4547
G1 X38.6095 Y9.0
G0 Z3.0
G0 X78.8907
G1 F300.0 Z-1.0
G1 F50.0 X80.0455 Y6.9999
G1 X82.3549
G1 X83.5097 Y9.0
G1 X82.3549 Y11.0
G1 X80.0455
G1 X78.8907 Y9.0
G1 F300.0 Z-2.0
G1 F50.0 X80.0455 Y6.9999
G1 X82.3549
G1 X83.5097 Y9.0
G1 X82.3549 Y11.0
G1 X80.0455
G1 X78.8907 Y9.0
G1 F300.0 Z-3.0
G1 F50.0 X80.0455 Y6.9999
G1 X82.3549
G1 X83.5097 Y9.0
G1 X82.3549 Y11.0
G1 X80.0455
G1 X78.8907 Y9.0
G1 F300.0 Z-3.5
G1 F50.0 X80.0455 Y6.9999
G1 X82.3549
G1 X83.5097 Y9.0
G1 X82.3549 Y11.0
G1 X80.0455
G1 X78.8907 Y9.0
G0 Z3.0
G0 X80.0455 Y33.0001
G1 F300.0 Z-1.0
G1 F50.0 X82.3549
G1 X83.5097 Y35.0001
G1 X82.3549 Y37.0001
G1 X80.0455
G1 X78.8907 Y35.0001
G1 X80.0455 Y33.0001
G1 F300.0 Z-2.0
G1 F50.0 X82.3549
G1 X83.5097 Y35.0001
G1 X82.3549 Y37.0001
G1 X80.0455
G1 X78.8907 Y35.0001
G1 X80.0455 Y33.0001
G1 F300.0 Z-3.0
G1 F50.0 X82.3549
G1 X83.5097 Y35.0001
G1 X82.3549 Y37.0001
G1 X80.0455
G1 X78.8907 Y35.0001
G1 X80.0455 Y33.0001
G1 F300.0 Z-3.5
G1 F50.0 X82.3549
G1 X83.5097 Y35.0001
G1 X82.3549 Y37.0001
G1 X80.0455
G1 X78.8907 Y35.0001
G1 X80.0455 Y33.0001
G0 Z3.0
M5
M30
