( Made using CamBam - http://www.cambam.co.uk )
( vertical slide - backplate 2/22/2013 10:53:01 AM )
( T2 : 2.0 )
G21 G90 G64 G40
G0 Z3.0
( T2 : 2.0 )
T2 M6
( 2mm Mill )
G17
M3 S1000
G0 X4.8567 Y6.4996
G1 F50.0 Z-0.5
G1 X7.7434
G1 X9.1869 Y8.9996
G1 X7.7434 Y11.4997
G1 X4.8567
G1 X3.4132 Y8.9996
G1 X4.8567 Y6.4996
G1 Z-1.0
G1 X7.7434
G1 X9.1869 Y8.9996
G1 X7.7434 Y11.4997
G1 X4.8567
G1 X3.4132 Y8.9996
G1 X4.8567 Y6.4996
G1 Z-1.5
G1 X7.7434
G1 X9.1869 Y8.9996
G1 X7.7434 Y11.4997
G1 X4.8567
G1 X3.4132 Y8.9996
G1 X4.8567 Y6.4996
G1 Z-2.0
G1 X7.7434
G1 X9.1869 Y8.9996
G1 X7.7434 Y11.4997
G1 X4.8567
G1 X3.4132 Y8.9996
G1 X4.8567 Y6.4996
G1 Z-2.5
G1 X7.7434
G1 X9.1869 Y8.9996
G1 X7.7434 Y11.4997
G1 X4.8567
G1 X3.4132 Y8.9996
G1 X4.8567 Y6.4996
G1 Z-3.0
G1 X7.7434
G1 X9.1869 Y8.9996
G1 X7.7434 Y11.4997
G1 X4.8567
G1 X3.4132 Y8.9996
G1 X4.8567 Y6.4996
G1 Z-3.5
G1 X7.7434
G1 X9.1869 Y8.9996
G1 X7.7434 Y11.4997
G1 X4.8567
G1 X3.4132 Y8.9996
G1 X4.8567 Y6.4996
G0 Z3.0
G0 Y32.5001
G1 Z-0.5
G1 X7.7434
G1 X9.1869 Y35.0001
G1 X7.7434 Y37.5001
G1 X4.8567
G1 X3.4132 Y35.0001
G1 X4.8567 Y32.5001
G1 Z-1.0
G1 X7.7434
G1 X9.1869 Y35.0001
G1 X7.7434 Y37.5001
G1 X4.8567
G1 X3.4132 Y35.0001
G1 X4.8567 Y32.5001
G1 Z-1.5
G1 X7.7434
G1 X9.1869 Y35.0001
G1 X7.7434 Y37.5001
G1 X4.8567
G1 X3.4132 Y35.0001
G1 X4.8567 Y32.5001
G1 Z-2.0
G1 X7.7434
G1 X9.1869 Y35.0001
G1 X7.7434 Y37.5001
G1 X4.8567
G1 X3.4132 Y35.0001
G1 X4.8567 Y32.5001
G1 Z-2.5
G1 X7.7434
G1 X9.1869 Y35.0001
G1 X7.7434 Y37.5001
G1 X4.8567
G1 X3.4132 Y35.0001
G1 X4.8567 Y32.5001
G1 Z-3.0
G1 X7.7434
G1 X9.1869 Y35.0001
G1 X7.7434 Y37.5001
G1 X4.8567
G1 X3.4132 Y35.0001
G1 X4.8567 Y32.5001
G1 Z-3.5
G1 X7.7434
G1 X9.1869 Y35.0001
G1 X7.7434 Y37.5001
G1 X4.8567
G1 X3.4132 Y35.0001
G1 X4.8567 Y32.5001
G0 Z3.0
G0 X33.413 Y35.0001
G1 Z-0.5
G1 X34.8565 Y32.5001
G1 X37.7433
G1 X39.1868 Y35.0001
G1 X37.7433 Y37.5001
G1 X34.8565
G1 X33.413 Y35.0001
G1 Z-1.0
G1 X34.8565 Y32.5001
G1 X37.7433
G1 X39.1868 Y35.0001
G1 X37.7433 Y37.5001
G1 X34.8565
G1 X33.413 Y35.0001
G1 Z-1.5
G1 X34.8565 Y32.5001
G1 X37.7433
G1 X39.1868 Y35.0001
G1 X37.7433 Y37.5001
G1 X34.8565
G1 X33.413 Y35.0001
G1 Z-2.0
G1 X34.8565 Y32.5001
G1 X37.7433
G1 X39.1868 Y35.0001
G1 X37.7433 Y37.5001
G1 X34.8565
G1 X33.413 Y35.0001
G1 Z-2.5
G1 X34.8565 Y32.5001
G1 X37.7433
G1 X39.1868 Y35.0001
G1 X37.7433 Y37.5001
G1 X34.8565
G1 X33.413 Y35.0001
G1 Z-3.0
G1 X34.8565 Y32.5001
G1 X37.7433
G1 X39.1868 Y35.0001
G1 X37.7433 Y37.5001
G1 X34.8565
G1 X33.413 Y35.0001
G1 Z-3.5
G1 X34.8565 Y32.5001
G1 X37.7433
G1 X39.1868 Y35.0001
G1 X37.7433 Y37.5001
G1 X34.8565
G1 X33.413 Y35.0001
G0 Z3.0
G0 X48.3134
G1 Z-0.5
G1 X49.7569 Y32.5001
G1 X52.6437
G1 X54.0872 Y35.0001
G1 X52.6437 Y37.5001
G1 X49.7569
G1 X48.3134 Y35.0001
G1 Z-1.0
G1 X49.7569 Y32.5001
G1 X52.6437
G1 X54.0872 Y35.0001
G1 X52.6437 Y37.5001
G1 X49.7569
G1 X48.3134 Y35.0001
G1 Z-1.5
G1 X49.7569 Y32.5001
G1 X52.6437
G1 X54.0872 Y35.0001
G1 X52.6437 Y37.5001
G1 X49.7569
G1 X48.3134 Y35.0001
G1 Z-2.0
G1 X49.7569 Y32.5001
G1 X52.6437
G1 X54.0872 Y35.0001
G1 X52.6437 Y37.5001
G1 X49.7569
G1 X48.3134 Y35.0001
G1 Z-2.5
G1 X49.7569 Y32.5001
G1 X52.6437
G1 X54.0872 Y35.0001
G1 X52.6437 Y37.5001
G1 X49.7569
G1 X48.3134 Y35.0001
G1 Z-3.0
G1 X49.7569 Y32.5001
G1 X52.6437
G1 X54.0872 Y35.0001
G1 X52.6437 Y37.5001
G1 X49.7569
G1 X48.3134 Y35.0001
G1 Z-3.5
G1 X49.7569 Y32.5001
G1 X52.6437
G1 X54.0872 Y35.0001
G1 X52.6437 Y37.5001
G1 X49.7569
G1 X48.3134 Y35.0001
G0 Z3.0
G0 X49.7569 Y11.4997
G1 Z-0.5
G1 X48.3134 Y8.9996
G1 X49.7569 Y6.4996
G1 X52.6437
G1 X54.0872 Y8.9996
G1 X52.6437 Y11.4997
G1 X49.7569
G1 Z-1.0
G1 X48.3134 Y8.9996
G1 X49.7569 Y6.4996
G1 X52.6437
G1 X54.0872 Y8.9996
G1 X52.6437 Y11.4997
G1 X49.7569
G1 Z-1.5
G1 X48.3134 Y8.9996
G1 X49.7569 Y6.4996
G1 X52.6437
G1 X54.0872 Y8.9996
G1 X52.6437 Y11.4997
G1 X49.7569
G1 Z-2.0
G1 X48.3134 Y8.9996
G1 X49.7569 Y6.4996
G1 X52.6437
G1 X54.0872 Y8.9996
G1 X52.6437 Y11.4997
G1 X49.7569
G1 Z-2.5
G1 X48.3134 Y8.9996
G1 X49.7569 Y6.4996
G1 X52.6437
G1 X54.0872 Y8.9996
G1 X52.6437 Y11.4997
G1 X49.7569
G1 Z-3.0
G1 X48.3134 Y8.9996
G1 X49.7569 Y6.4996
G1 X52.6437
G1 X54.0872 Y8.9996
G1 X52.6437 Y11.4997
G1 X49.7569
G1 Z-3.5
G1 X48.3134 Y8.9996
G1 X49.7569 Y6.4996
G1 X52.6437
G1 X54.0872 Y8.9996
G1 X52.6437 Y11.4997
G1 X49.7569
G0 Z3.0
G0 X39.1868 Y9.0
G1 Z-0.5
G1 X37.7433 Y11.5
G1 X34.8565
G1 X33.413 Y9.0
G1 X34.8565 Y6.4999
G1 X37.7433
G1 X39.1868 Y9.0
G1 Z-1.0
G1 X37.7433 Y11.5
G1 X34.8565
G1 X33.413 Y9.0
G1 X34.8565 Y6.4999
G1 X37.7433
G1 X39.1868 Y9.0
G1 Z-1.5
G1 X37.7433 Y11.5
G1 X34.8565
G1 X33.413 Y9.0
G1 X34.8565 Y6.4999
G1 X37.7433
G1 X39.1868 Y9.0
G1 Z-2.0
G1 X37.7433 Y11.5
G1 X34.8565
G1 X33.413 Y9.0
G1 X34.8565 Y6.4999
G1 X37.7433
G1 X39.1868 Y9.0
G1 Z-2.5
G1 X37.7433 Y11.5
G1 X34.8565
G1 X33.413 Y9.0
G1 X34.8565 Y6.4999
G1 X37.7433
G1 X39.1868 Y9.0
G1 Z-3.0
G1 X37.7433 Y11.5
G1 X34.8565
G1 X33.413 Y9.0
G1 X34.8565 Y6.4999
G1 X37.7433
G1 X39.1868 Y9.0
G1 Z-3.5
G1 X37.7433 Y11.5
G1 X34.8565
G1 X33.413 Y9.0
G1 X34.8565 Y6.4999
G1 X37.7433
G1 X39.1868 Y9.0
G0 Z3.0
G0 X78.3133
G1 Z-0.5
G1 X79.7568 Y6.4999
G1 X82.6436
G1 X84.0871 Y9.0
G1 X82.6436 Y11.5
G1 X79.7568
G1 X78.3133 Y9.0
G1 Z-1.0
G1 X79.7568 Y6.4999
G1 X82.6436
G1 X84.0871 Y9.0
G1 X82.6436 Y11.5
G1 X79.7568
G1 X78.3133 Y9.0
G1 Z-1.5
G1 X79.7568 Y6.4999
G1 X82.6436
G1 X84.0871 Y9.0
G1 X82.6436 Y11.5
G1 X79.7568
G1 X78.3133 Y9.0
G1 Z-2.0
G1 X79.7568 Y6.4999
G1 X82.6436
G1 X84.0871 Y9.0
G1 X82.6436 Y11.5
G1 X79.7568
G1 X78.3133 Y9.0
G1 Z-2.5
G1 X79.7568 Y6.4999
G1 X82.6436
G1 X84.0871 Y9.0
G1 X82.6436 Y11.5
G1 X79.7568
G1 X78.3133 Y9.0
G1 Z-3.0
G1 X79.7568 Y6.4999
G1 X82.6436
G1 X84.0871 Y9.0
G1 X82.6436 Y11.5
G1 X79.7568
G1 X78.3133 Y9.0
G1 Z-3.5
G1 X79.7568 Y6.4999
G1 X82.6436
G1 X84.0871 Y9.0
G1 X82.6436 Y11.5
G1 X79.7568
G1 X78.3133 Y9.0
G0 Z3.0
G0 X79.7568 Y32.5001
G1 Z-0.5
G1 X82.6436
G1 X84.0871 Y35.0001
G1 X82.6436 Y37.5001
G1 X79.7568
G1 X78.3133 Y35.0001
G1 X79.7568 Y32.5001
G1 Z-1.0
G1 X82.6436
G1 X84.0871 Y35.0001
G1 X82.6436 Y37.5001
G1 X79.7568
G1 X78.3133 Y35.0001
G1 X79.7568 Y32.5001
G1 Z-1.5
G1 X82.6436
G1 X84.0871 Y35.0001
G1 X82.6436 Y37.5001
G1 X79.7568
G1 X78.3133 Y35.0001
G1 X79.7568 Y32.5001
G1 Z-2.0
G1 X82.6436
G1 X84.0871 Y35.0001
G1 X82.6436 Y37.5001
G1 X79.7568
G1 X78.3133 Y35.0001
G1 X79.7568 Y32.5001
G1 Z-2.5
G1 X82.6436
G1 X84.0871 Y35.0001
G1 X82.6436 Y37.5001
G1 X79.7568
G1 X78.3133 Y35.0001
G1 X79.7568 Y32.5001
G1 Z-3.0
G1 X82.6436
G1 X84.0871 Y35.0001
G1 X82.6436 Y37.5001
G1 X79.7568
G1 X78.3133 Y35.0001
G1 X79.7568 Y32.5001
G1 Z-3.5
G1 X82.6436
G1 X84.0871 Y35.0001
G1 X82.6436 Y37.5001
G1 X79.7568
G1 X78.3133 Y35.0001
G1 X79.7568 Y32.5001
G0 Z3.0
M5
M30
