( Made using CamBam - http://www.cambam.co.uk )
( vertical slide - backplate 2/22/2013 10:53:15 AM )
( T4 : 4.0 )
G21 G90 G64 G40
G0 Z3.0
( T4 : 4.0 )
T4 M6
( Cutout 4mm mill )
G17
M3 S1000
G0 X-2.0 Y0.0
G1 F50.0 Z-1.0
G1 F80.0 Y44.0001
G2 X0.0 Y46.0001 I2.0 J0.0
G1 X87.5003
G2 X89.5003 Y44.0001 I0.0 J-2.0
G1 Y0.0
G2 X87.5003 Y-2.0 I-2.0 J0.0
G1 X0.0
G2 X-2.0 Y0.0 I0.0 J2.0
G1 F50.0 Z-2.0
G1 F80.0 Y44.0001
G2 X0.0 Y46.0001 I2.0 J0.0
G1 X87.5003
G2 X89.5003 Y44.0001 I0.0 J-2.0
G1 Y0.0
G2 X87.5003 Y-2.0 I-2.0 J0.0
G1 X0.0
G2 X-2.0 Y0.0 I0.0 J2.0
G1 F50.0 Z-3.0
G1 F80.0 Y44.0001
G2 X0.0 Y46.0001 I2.0 J0.0
G1 X87.5003
G2 X89.5003 Y44.0001 I0.0 J-2.0
G1 Y0.0
G2 X87.5003 Y-2.0 I-2.0 J0.0
G1 X0.0
G2 X-2.0 Y0.0 I0.0 J2.0
G1 F50.0 Z-4.0
G1 F80.0 Y44.0001
G2 X0.0 Y46.0001 I2.0 J0.0
G1 X87.5003
G2 X89.5003 Y44.0001 I0.0 J-2.0
G1 Y0.0
G2 X87.5003 Y-2.0 I-2.0 J0.0
G1 X0.0
G2 X-2.0 Y0.0 I0.0 J2.0
G1 F50.0 Z-5.0
G1 F80.0 Y44.0001
G2 X0.0 Y46.0001 I2.0 J0.0
G1 X87.5003
G2 X89.5003 Y44.0001 I0.0 J-2.0
G1 Y0.0
G2 X87.5003 Y-2.0 I-2.0 J0.0
G1 X0.0
G2 X-2.0 Y0.0 I0.0 J2.0
G1 F50.0 Z-6.0
G1 F80.0 Y44.0001
G2 X0.0 Y46.0001 I2.0 J0.0
G1 X87.5003
G2 X89.5003 Y44.0001 I0.0 J-2.0
G1 Y0.0
G2 X87.5003 Y-2.0 I-2.0 J0.0
G1 X0.0
G2 X-2.0 Y0.0 I0.0 J2.0
G1 F50.0 Z-6.5
G1 F80.0 Y44.0001
G2 X0.0 Y46.0001 I2.0 J0.0
G1 X87.5003
G2 X89.5003 Y44.0001 I0.0 J-2.0
G1 Y0.0
G2 X87.5003 Y-2.0 I-2.0 J0.0
G1 X0.0
G2 X-2.0 Y0.0 I0.0 J2.0
G0 Z3.0
M5
M30
