( Made using CamBam - http://www.cambam.co.uk )
( vertical slide - backplate 2/22/2013 10:53:08 AM )
( T6 : 6.0 )
G21 G90 G64 G40
G0 Z3.0
( T6 : 6.0 )
T6 M6
( Pocket 6mm mill )
G17
M3 S1000
G0 X64.1515 Y22.0008
G1 F50.0 Z-1.0
G3 F100.0 X63.4659 Y21.1094 I12.1183 J-10.0289
G3 X62.7625 Y22.053 I-8.5158 J-5.6144
G3 X63.43 Y22.9426 I-7.8123 J6.558
G3 X64.1515 Y22.0008 I12.8436 J9.0915
G1 F50.0 X66.0004 Y20.4706
G3 F100.0 X64.9258 Y18.972 I10.2694 J-8.4988
G3 X64.9246 Y18.9702 I6.6379 J-4.0961
G3 X63.8462 Y16.7998 I11.291 J-6.9631
G1 X63.2035
G1 X61.7051 Y19.395
G3 X59.173 Y22.053 I-6.755 J-3.9
G3 X61.7051 Y24.711 I-4.2229 J6.558
G1 X63.2037 Y27.3065
G1 X63.8058 Y27.3066
G3 X64.9878 Y24.9298 I12.4041 J4.686
G3 X64.9886 Y24.9284 I6.6014 J4.1547
G3 X67.4011 Y22.0782 I11.285 J7.1057
G1 Y21.9235
G3 X66.0004 Y20.4706 I8.8687 J-9.9517
G0 Z3.0
G0 X24.7467 Y22.053
G1 F50.0 Z-1.0
G3 F100.0 X24.0388 Y21.1026 I7.8123 J-6.558
G3 X23.3486 Y22.0004 I-12.8147 J-9.137
G3 X24.0749 Y22.949 I-12.1261 J10.0372
G3 X24.7467 Y22.053 I8.4842 J5.662
G1 F50.0 X26.5849 Y23.5961
G3 F100.0 X28.3362 Y22.053 I5.9741 J5.0149
G3 X25.8041 Y19.395 I4.2229 J-6.558
G1 X24.3057 Y16.7998
G1 X23.654
G3 X22.5832 Y18.9575 I-12.3635 J-4.7911
G3 X22.5818 Y18.9598 I-6.6431 J-4.0877
G3 X20.0891 Y21.9319 I-11.3577 J-6.9942
G1 X20.0881 Y22.0681
G3 X22.488 Y24.8908 I-8.8656 J9.9695
G3 X22.4899 Y24.8938 I-6.5864 J4.1784
G3 X23.6944 Y27.3066 I-11.2001 J7.098
G1 X24.3055 Y27.3065
G1 X25.8041 Y24.711
G3 X26.5849 Y23.5961 I6.755 J3.9
G1 F50.0 X28.4231 Y25.1391
G3 F100.0 X32.5591 Y23.211 I4.1359 J3.4719
G1 X39.7726
G3 X43.7501 Y24.9587 I0.0 J5.4
G3 X47.7277 Y23.211 I3.9775 J3.6523
G1 X54.9501
G3 X59.6267 Y25.911 I0.0 J5.4
G1 X61.818 Y29.7065
G1 X65.5935 Y29.7066
G3 X67.019 Y26.2081 I10.6164 J2.286
G3 X67.0196 Y26.2072 I4.5702 J2.8763
G3 X69.8011 Y23.2195 I9.2541 J5.8269
G1 Y20.8398
G1 X69.743 Y20.7392
G3 X66.9682 Y17.7117 I6.5268 J-8.7673
G3 X66.9674 Y17.7104 I4.5955 J-2.8358
G3 X65.6169 Y14.3998 I9.2482 J-5.7033
G1 X61.8179 Y14.3997
G1 X59.6267 Y18.195
G3 X54.9501 Y20.895 I-4.6765 J-2.7
G1 X47.7642
G3 X43.7501 Y19.1071 I0.0 J-5.4
G3 X39.7361 Y20.895 I-4.0141 J-3.6121
G1 X32.5591
G3 X27.8826 Y18.195 I0.0 J-5.4
G1 X25.6913 Y14.3997
G1 X21.8833 Y14.3999
G3 X20.5392 Y17.6997 I-10.5928 J-2.3912
G3 X20.5382 Y17.7013 I-4.5991 J-2.83
G3 X17.7735 Y20.7266 I-9.3141 J-5.7358
G1 X17.6972 Y20.8588
G1 X17.6794 Y23.2048
G3 X20.4614 Y26.1764 I-6.4569 J8.8329
G3 X20.4627 Y26.1786 I-4.5598 J2.8927
G3 X21.9065 Y29.7066 I-9.1729 J5.8133
G1 X25.6912 Y29.7065
G1 X27.8826 Y25.911
G3 X28.4231 Y25.1391 I4.6765 J2.7
G1 F50.0 X30.2613 Y26.6822
G3 F100.0 X32.5591 Y25.611 I2.2977 J1.9288
G1 X39.7726
G3 X42.3706 Y27.1109 I0.0 J3.0
G1 X43.4614 Y28.9999
G1 X44.0389
G1 X45.1297 Y27.1109
G3 X47.7277 Y25.611 I2.598 J1.5001
G1 X54.9501
G3 X57.5482 Y27.111 I0.0 J3.0
G1 X60.4324 Y32.1064
G1 X67.4684 Y32.1067
G1 X67.7592 Y31.6031
G3 X69.0502 Y27.4865 I8.4507 J0.3895
G3 X69.0505 Y27.486 I2.539 J1.598
G3 X71.6551 Y24.8558 I7.2231 J4.5481
G1 X72.2011 Y23.9103
G1 Y20.1967
G1 X71.5575 Y19.0821
G3 X69.0106 Y16.4514 I4.7123 J-7.1103
G3 X69.0102 Y16.4506 I2.553 J-1.5754
G3 X67.7654 Y12.5146 I7.2054 J-4.4435
G1 X67.4682 Y11.9999
G1 X60.4323 Y11.9997
G1 X57.5482 Y16.995
G3 X54.9501 Y18.495 I-2.5981 J-1.5
G1 X47.7642
G3 X44.9408 Y16.5092 I0.0 J-3.0
G1 X44.0389 Y14.9471
G1 X43.4614
G1 X42.5594 Y16.5092
G3 X39.7361 Y18.495 I-2.8234 J-1.0142
G1 X32.5591
G3 X29.961 Y16.995 I0.0 J-3.0
G1 X27.0769 Y11.9997
G1 X20.041 Y11.9999
G1 X19.7337 Y12.5321
G3 X18.4952 Y16.4419 I-8.4432 J-0.5235
G3 X18.4946 Y16.4428 I-2.555 J-1.5722
G3 X15.9576 Y19.0719 I-7.2705 J-4.4773
G1 X15.302 Y20.2072
G1 X15.2739 Y23.9167
G1 X15.8046 Y24.8294
G3 X18.4348 Y27.4621 I-4.5821 J7.2082
G3 X18.4356 Y27.4633 I-2.5332 J1.6071
G3 X19.7406 Y31.6002 I-7.1457 J4.5286
G1 X20.0351 Y32.1067
G1 X27.0768 Y32.1064
G1 X29.961 Y27.111
G3 X30.2613 Y26.6822 I2.5981 J1.5
G0 Z3.0
G0 X24.7467 Y22.053
G1 F50.0 Z-2.0
G3 F100.0 X24.0388 Y21.1026 I7.8123 J-6.558
G3 X23.3486 Y22.0004 I-12.8147 J-9.137
G3 X24.0749 Y22.949 I-12.1261 J10.0372
G3 X24.7467 Y22.053 I8.4842 J5.662
G1 F50.0 X26.5849 Y23.5961
G3 F100.0 X28.3362 Y22.053 I5.9741 J5.0149
G3 X25.8041 Y19.395 I4.2229 J-6.558
G1 X24.3057 Y16.7998
G1 X23.654
G3 X22.5832 Y18.9575 I-12.3635 J-4.7911
G3 X22.5818 Y18.9598 I-6.6431 J-4.0877
G3 X20.0891 Y21.9319 I-11.3577 J-6.9942
G1 X20.0881 Y22.0681
G3 X22.488 Y24.8908 I-8.8656 J9.9695
G3 X22.4899 Y24.8938 I-6.5864 J4.1784
G3 X23.6944 Y27.3066 I-11.2001 J7.098
G1 X24.3055 Y27.3065
G1 X25.8041 Y24.711
G3 X26.5849 Y23.5961 I6.755 J3.9
G0 Z3.0
G0 X62.7625 Y22.053
G1 F50.0 Z-2.0
G3 F100.0 X63.43 Y22.9426 I-7.8123 J6.558
G3 X64.1515 Y22.0008 I12.8436 J9.0915
G3 X63.4659 Y21.1094 I12.1183 J-10.0289
G3 X62.7625 Y22.053 I-8.5158 J-5.6144
G1 F50.0 X60.9243 Y23.5961
G3 F100.0 X61.7051 Y24.711 I-5.9741 J5.0149
G1 X63.2037 Y27.3065
G1 X63.8058 Y27.3066
G3 X64.9878 Y24.9298 I12.4041 J4.686
G3 X64.9886 Y24.9284 I6.6014 J4.1547
G3 X67.4011 Y22.0782 I11.285 J7.1057
G1 Y21.9235
G3 X64.9258 Y18.972 I8.8687 J-9.9517
G3 X64.9246 Y18.9702 I6.6379 J-4.0961
G3 X63.8462 Y16.7998 I11.291 J-6.9631
G1 X63.2035
G1 X61.7051 Y19.395
G3 X59.173 Y22.053 I-6.755 J-3.9
G3 X60.9243 Y23.5961 I-4.2229 J6.558
G1 F50.0 X59.0861 Y25.1391
G3 F100.0 X59.6267 Y25.911 I-4.1359 J3.4719
G1 X61.818 Y29.7065
G1 X65.5935 Y29.7066
G3 X67.019 Y26.2081 I10.6164 J2.286
G3 X67.0196 Y26.2072 I4.5702 J2.8763
G3 X69.8011 Y23.2195 I9.2541 J5.8269
G1 Y20.8398
G1 X69.743 Y20.7392
G3 X66.9682 Y17.7117 I6.5268 J-8.7673
G3 X66.9674 Y17.7104 I4.5955 J-2.8358
G3 X65.6169 Y14.3998 I9.2482 J-5.7033
G1 X61.8179 Y14.3997
G1 X59.6267 Y18.195
G3 X54.9501 Y20.895 I-4.6765 J-2.7
G1 X47.7642
G3 X43.7501 Y19.1071 I0.0 J-5.4
G3 X39.7361 Y20.895 I-4.0141 J-3.6121
G1 X32.5591
G3 X27.8826 Y18.195 I0.0 J-5.4
G1 X25.6913 Y14.3997
G1 X21.8833 Y14.3999
G3 X20.5392 Y17.6997 I-10.5928 J-2.3912
G3 X20.5382 Y17.7013 I-4.5991 J-2.83
G3 X17.7735 Y20.7266 I-9.3141 J-5.7358
G1 X17.6972 Y20.8588
G1 X17.6794 Y23.2048
G3 X20.4614 Y26.1764 I-6.4569 J8.8329
G3 X20.4627 Y26.1786 I-4.5598 J2.8927
G3 X21.9065 Y29.7066 I-9.1729 J5.8133
G1 X25.6912 Y29.7065
G1 X27.8826 Y25.911
G3 X32.5591 Y23.211 I4.6765 J2.7
G1 X39.7726
G3 X43.7501 Y24.9587 I0.0 J5.4
G3 X47.7277 Y23.211 I3.9775 J3.6523
G1 X54.9501
G3 X59.0861 Y25.1391 I0.0 J5.4
G1 F50.0 X57.2479 Y26.6822
G3 F100.0 X57.5482 Y27.111 I-2.2977 J1.9288
G1 X60.4324 Y32.1064
G1 X67.4684 Y32.1067
G1 X67.7592 Y31.6031
G3 X69.0502 Y27.4865 I8.4507 J0.3895
G3 X69.0505 Y27.486 I2.539 J1.598
G3 X71.6551 Y24.8558 I7.2231 J4.5481
G1 X72.2011 Y23.9103
G1 Y20.1967
G1 X71.5575 Y19.0821
G3 X69.0106 Y16.4514 I4.7123 J-7.1103
G3 X69.0102 Y16.4506 I2.553 J-1.5754
G3 X67.7654 Y12.5146 I7.2054 J-4.4435
G1 X67.4682 Y11.9999
G1 X60.4323 Y11.9997
G1 X57.5482 Y16.995
G3 X54.9501 Y18.495 I-2.5981 J-1.5
G1 X47.7642
G3 X44.9408 Y16.5092 I0.0 J-3.0
G1 X44.0389 Y14.9471
G1 X43.4614
G1 X42.5594 Y16.5092
G3 X39.7361 Y18.495 I-2.8234 J-1.0142
G1 X32.5591
G3 X29.961 Y16.995 I0.0 J-3.0
G1 X27.0769 Y11.9997
G1 X20.041 Y11.9999
G1 X19.7337 Y12.5321
G3 X18.4952 Y16.4419 I-8.4432 J-0.5235
G3 X18.4946 Y16.4428 I-2.555 J-1.5722
G3 X15.9576 Y19.0719 I-7.2705 J-4.4773
G1 X15.302 Y20.2072
G1 X15.2739 Y23.9167
G1 X15.8046 Y24.8294
G3 X18.4348 Y27.4621 I-4.5821 J7.2082
G3 X18.4356 Y27.4633 I-2.5332 J1.6071
G3 X19.7406 Y31.6002 I-7.1457 J4.5286
G1 X20.0351 Y32.1067
G1 X27.0768 Y32.1064
G1 X29.961 Y27.111
G3 X32.5591 Y25.611 I2.5981 J1.5
G1 X39.7726
G3 X42.3706 Y27.1109 I0.0 J3.0
G1 X43.4614 Y28.9999
G1 X44.0389
G1 X45.1297 Y27.1109
G3 X47.7277 Y25.611 I2.598 J1.5001
G1 X54.9501
G3 X57.2479 Y26.6822 I0.0 J3.0
G0 Z3.0
G0 X62.7625 Y22.053
G1 F50.0 Z-3.0
G3 F100.0 X63.43 Y22.9426 I-7.8123 J6.558
G3 X64.1515 Y22.0008 I12.8436 J9.0915
G3 X63.4659 Y21.1094 I12.1183 J-10.0289
G3 X62.7625 Y22.053 I-8.5158 J-5.6144
G1 F50.0 X60.9243 Y23.5961
G3 F100.0 X61.7051 Y24.711 I-5.9741 J5.0149
G1 X63.2037 Y27.3065
G1 X63.8058 Y27.3066
G3 X64.9878 Y24.9298 I12.4041 J4.686
G3 X64.9886 Y24.9284 I6.6014 J4.1547
G3 X67.4011 Y22.0782 I11.285 J7.1057
G1 Y21.9235
G3 X64.9258 Y18.972 I8.8687 J-9.9517
G3 X64.9246 Y18.9702 I6.6379 J-4.0961
G3 X63.8462 Y16.7998 I11.291 J-6.9631
G1 X63.2035
G1 X61.7051 Y19.395
G3 X59.173 Y22.053 I-6.755 J-3.9
G3 X60.9243 Y23.5961 I-4.2229 J6.558
G0 Z3.0
G0 X24.7467 Y22.053
G1 F50.0 Z-3.0
G3 F100.0 X24.0388 Y21.1026 I7.8123 J-6.558
G3 X23.3486 Y22.0004 I-12.8147 J-9.137
G3 X24.0749 Y22.949 I-12.1261 J10.0372
G3 X24.7467 Y22.053 I8.4842 J5.662
G1 F50.0 X26.5849 Y23.5961
G3 F100.0 X28.3362 Y22.053 I5.9741 J5.0149
G3 X25.8041 Y19.395 I4.2229 J-6.558
G1 X24.3057 Y16.7998
G1 X23.654
G3 X22.5832 Y18.9575 I-12.3635 J-4.7911
G3 X22.5818 Y18.9598 I-6.6431 J-4.0877
G3 X20.0891 Y21.9319 I-11.3577 J-6.9942
G1 X20.0881 Y22.0681
G3 X22.488 Y24.8908 I-8.8656 J9.9695
G3 X22.4899 Y24.8938 I-6.5864 J4.1784
G3 X23.6944 Y27.3066 I-11.2001 J7.098
G1 X24.3055 Y27.3065
G1 X25.8041 Y24.711
G3 X26.5849 Y23.5961 I6.755 J3.9
G1 F50.0 X28.4231 Y25.1391
G3 F100.0 X32.5591 Y23.211 I4.1359 J3.4719
G1 X39.7726
G3 X43.7501 Y24.9587 I0.0 J5.4
G3 X47.7277 Y23.211 I3.9775 J3.6523
G1 X54.9501
G3 X59.6267 Y25.911 I0.0 J5.4
G1 X61.818 Y29.7065
G1 X65.5935 Y29.7066
G3 X67.019 Y26.2081 I10.6164 J2.286
G3 X67.0196 Y26.2072 I4.5702 J2.8763
G3 X69.8011 Y23.2195 I9.2541 J5.8269
G1 Y20.8398
G1 X69.743 Y20.7392
G3 X66.9682 Y17.7117 I6.5268 J-8.7673
G3 X66.9674 Y17.7104 I4.5955 J-2.8358
G3 X65.6169 Y14.3998 I9.2482 J-5.7033
G1 X61.8179 Y14.3997
G1 X59.6267 Y18.195
G3 X54.9501 Y20.895 I-4.6765 J-2.7
G1 X47.7642
G3 X43.7501 Y19.1071 I0.0 J-5.4
G3 X39.7361 Y20.895 I-4.0141 J-3.6121
G1 X32.5591
G3 X27.8826 Y18.195 I0.0 J-5.4
G1 X25.6913 Y14.3997
G1 X21.8833 Y14.3999
G3 X20.5392 Y17.6997 I-10.5928 J-2.3912
G3 X20.5382 Y17.7013 I-4.5991 J-2.83
G3 X17.7735 Y20.7266 I-9.3141 J-5.7358
G1 X17.6972 Y20.8588
G1 X17.6794 Y23.2048
G3 X20.4614 Y26.1764 I-6.4569 J8.8329
G3 X20.4627 Y26.1786 I-4.5598 J2.8927
G3 X21.9065 Y29.7066 I-9.1729 J5.8133
G1 X25.6912 Y29.7065
G1 X27.8826 Y25.911
G3 X28.4231 Y25.1391 I4.6765 J2.7
G1 F50.0 X30.2613 Y26.6822
G3 F100.0 X32.5591 Y25.611 I2.2977 J1.9288
G1 X39.7726
G3 X42.3706 Y27.1109 I0.0 J3.0
G1 X43.4614 Y28.9999
G1 X44.0389
G1 X45.1297 Y27.1109
G3 X47.7277 Y25.611 I2.598 J1.5001
G1 X54.9501
G3 X57.5482 Y27.111 I0.0 J3.0
G1 X60.4324 Y32.1064
G1 X67.4684 Y32.1067
G1 X67.7592 Y31.6031
G3 X69.0502 Y27.4865 I8.4507 J0.3895
G3 X69.0505 Y27.486 I2.539 J1.598
G3 X71.6551 Y24.8558 I7.2231 J4.5481
G1 X72.2011 Y23.9103
G1 Y20.1967
G1 X71.5575 Y19.0821
G3 X69.0106 Y16.4514 I4.7123 J-7.1103
G3 X69.0102 Y16.4506 I2.553 J-1.5754
G3 X67.7654 Y12.5146 I7.2054 J-4.4435
G1 X67.4682 Y11.9999
G1 X60.4323 Y11.9997
G1 X57.5482 Y16.995
G3 X54.9501 Y18.495 I-2.5981 J-1.5
G1 X47.7642
G3 X44.9408 Y16.5092 I0.0 J-3.0
G1 X44.0389 Y14.9471
G1 X43.4614
G1 X42.5594 Y16.5092
G3 X39.7361 Y18.495 I-2.8234 J-1.0142
G1 X32.5591
G3 X29.961 Y16.995 I0.0 J-3.0
G1 X27.0769 Y11.9997
G1 X20.041 Y11.9999
G1 X19.7337 Y12.5321
G3 X18.4952 Y16.4419 I-8.4432 J-0.5235
G3 X18.4946 Y16.4428 I-2.555 J-1.5722
G3 X15.9576 Y19.0719 I-7.2705 J-4.4773
G1 X15.302 Y20.2072
G1 X15.2739 Y23.9167
G1 X15.8046 Y24.8294
G3 X18.4348 Y27.4621 I-4.5821 J7.2082
G3 X18.4356 Y27.4633 I-2.5332 J1.6071
G3 X19.7406 Y31.6002 I-7.1457 J4.5286
G1 X20.0351 Y32.1067
G1 X27.0768 Y32.1064
G1 X29.961 Y27.111
G3 X30.2613 Y26.6822 I2.5981 J1.5
G0 Z3.0
G0 X24.7467 Y22.053
G1 F50.0 Z-4.0
G3 F100.0 X24.0388 Y21.1026 I7.8123 J-6.558
G3 X23.3486 Y22.0004 I-12.8147 J-9.137
G3 X24.0749 Y22.949 I-12.1261 J10.0372
G3 X24.7467 Y22.053 I8.4842 J5.662
G1 F50.0 X26.5849 Y23.5961
G3 F100.0 X28.3362 Y22.053 I5.9741 J5.0149
G3 X25.8041 Y19.395 I4.2229 J-6.558
G1 X24.3057 Y16.7998
G1 X23.654
G3 X22.5832 Y18.9575 I-12.3635 J-4.7911
G3 X22.5818 Y18.9598 I-6.6431 J-4.0877
G3 X20.0891 Y21.9319 I-11.3577 J-6.9942
G1 X20.0881 Y22.0681
G3 X22.488 Y24.8908 I-8.8656 J9.9695
G3 X22.4899 Y24.8938 I-6.5864 J4.1784
G3 X23.6944 Y27.3066 I-11.2001 J7.098
G1 X24.3055 Y27.3065
G1 X25.8041 Y24.711
G3 X26.5849 Y23.5961 I6.755 J3.9
G0 Z3.0
G0 X62.7625 Y22.053
G1 F50.0 Z-4.0
G3 F100.0 X63.43 Y22.9426 I-7.8123 J6.558
G3 X64.1515 Y22.0008 I12.8436 J9.0915
G3 X63.4659 Y21.1094 I12.1183 J-10.0289
G3 X62.7625 Y22.053 I-8.5158 J-5.6144
G1 F50.0 X60.9243 Y23.5961
G3 F100.0 X61.7051 Y24.711 I-5.9741 J5.0149
G1 X63.2037 Y27.3065
G1 X63.8058 Y27.3066
G3 X64.9878 Y24.9298 I12.4041 J4.686
G3 X64.9886 Y24.9284 I6.6014 J4.1547
G3 X67.4011 Y22.0782 I11.285 J7.1057
G1 Y21.9235
G3 X64.9258 Y18.972 I8.8687 J-9.9517
G3 X64.9246 Y18.9702 I6.6379 J-4.0961
G3 X63.8462 Y16.7998 I11.291 J-6.9631
G1 X63.2035
G1 X61.7051 Y19.395
G3 X59.173 Y22.053 I-6.755 J-3.9
G3 X60.9243 Y23.5961 I-4.2229 J6.558
G1 F50.0 X59.0861 Y25.1391
G3 F100.0 X59.6267 Y25.911 I-4.1359 J3.4719
G1 X61.818 Y29.7065
G1 X65.5935 Y29.7066
G3 X67.019 Y26.2081 I10.6164 J2.286
G3 X67.0196 Y26.2072 I4.5702 J2.8763
G3 X69.8011 Y23.2195 I9.2541 J5.8269
G1 Y20.8398
G1 X69.743 Y20.7392
G3 X66.9682 Y17.7117 I6.5268 J-8.7673
G3 X66.9674 Y17.7104 I4.5955 J-2.8358
G3 X65.6169 Y14.3998 I9.2482 J-5.7033
G1 X61.8179 Y14.3997
G1 X59.6267 Y18.195
G3 X54.9501 Y20.895 I-4.6765 J-2.7
G1 X47.7642
G3 X43.7501 Y19.1071 I0.0 J-5.4
G3 X39.7361 Y20.895 I-4.0141 J-3.6121
G1 X32.5591
G3 X27.8826 Y18.195 I0.0 J-5.4
G1 X25.6913 Y14.3997
G1 X21.8833 Y14.3999
G3 X20.5392 Y17.6997 I-10.5928 J-2.3912
G3 X20.5382 Y17.7013 I-4.5991 J-2.83
G3 X17.7735 Y20.7266 I-9.3141 J-5.7358
G1 X17.6972 Y20.8588
G1 X17.6794 Y23.2048
G3 X20.4614 Y26.1764 I-6.4569 J8.8329
G3 X20.4627 Y26.1786 I-4.5598 J2.8927
G3 X21.9065 Y29.7066 I-9.1729 J5.8133
G1 X25.6912 Y29.7065
G1 X27.8826 Y25.911
G3 X32.5591 Y23.211 I4.6765 J2.7
G1 X39.7726
G3 X43.7501 Y24.9587 I0.0 J5.4
G3 X47.7277 Y23.211 I3.9775 J3.6523
G1 X54.9501
G3 X59.0861 Y25.1391 I0.0 J5.4
G1 F50.0 X57.2479 Y26.6822
G3 F100.0 X57.5482 Y27.111 I-2.2977 J1.9288
G1 X60.4324 Y32.1064
G1 X67.4684 Y32.1067
G1 X67.7592 Y31.6031
G3 X69.0502 Y27.4865 I8.4507 J0.3895
G3 X69.0505 Y27.486 I2.539 J1.598
G3 X71.6551 Y24.8558 I7.2231 J4.5481
G1 X72.2011 Y23.9103
G1 Y20.1967
G1 X71.5575 Y19.0821
G3 X69.0106 Y16.4514 I4.7123 J-7.1103
G3 X69.0102 Y16.4506 I2.553 J-1.5754
G3 X67.7654 Y12.5146 I7.2054 J-4.4435
G1 X67.4682 Y11.9999
G1 X60.4323 Y11.9997
G1 X57.5482 Y16.995
G3 X54.9501 Y18.495 I-2.5981 J-1.5
G1 X47.7642
G3 X44.9408 Y16.5092 I0.0 J-3.0
G1 X44.0389 Y14.9471
G1 X43.4614
G1 X42.5594 Y16.5092
G3 X39.7361 Y18.495 I-2.8234 J-1.0142
G1 X32.5591
G3 X29.961 Y16.995 I0.0 J-3.0
G1 X27.0769 Y11.9997
G1 X20.041 Y11.9999
G1 X19.7337 Y12.5321
G3 X18.4952 Y16.4419 I-8.4432 J-0.5235
G3 X18.4946 Y16.4428 I-2.555 J-1.5722
G3 X15.9576 Y19.0719 I-7.2705 J-4.4773
G1 X15.302 Y20.2072
G1 X15.2739 Y23.9167
G1 X15.8046 Y24.8294
G3 X18.4348 Y27.4621 I-4.5821 J7.2082
G3 X18.4356 Y27.4633 I-2.5332 J1.6071
G3 X19.7406 Y31.6002 I-7.1457 J4.5286
G1 X20.0351 Y32.1067
G1 X27.0768 Y32.1064
G1 X29.961 Y27.111
G3 X32.5591 Y25.611 I2.5981 J1.5
G1 X39.7726
G3 X42.3706 Y27.1109 I0.0 J3.0
G1 X43.4614 Y28.9999
G1 X44.0389
G1 X45.1297 Y27.1109
G3 X47.7277 Y25.611 I2.598 J1.5001
G1 X54.9501
G3 X57.2479 Y26.6822 I0.0 J3.0
G0 Z3.0
M5
M30
