( Made using CamBam - http://www.cambam.co.uk )
( bearing plates 10/9/2013 12:17:18 PM )
( T16 : 1.0 )
G21 G90 G64 G40
G0 Z3.0
( T16 : 1.0 )
T16 M6
( Spot Drill )
G17
M3 S1000
G0 X30.1849 Y38.0011
G98
G81 X30.1849 Y38.0011 Z-1.0 R3.0 F80.0
G81 X4.5002 Y38.0001 Z-1.0
G81 Y12.0 Z-1.0
G81 X30.5003 Y11.9999 Z-1.0
G81 X61.2078 Y11.9989 Z-1.0
G81 X86.8925 Y12.0 Z-1.0
G81 Y38.0001 Z-1.0
G81 X60.8924 Y38.0002 Z-1.0
G80
G0 Z3.0
M5
M30
