( Made using CamBam - http://www.cambam.co.uk )
( bearing plates 10/9/2013 12:17:24 PM )
( T10 : 4.0 )
G21 G90 G64 G40
G0 Z3.0
( T10 : 4.0 )
T10 M6
( 4mm Drill )
G17
M3 S1000
G0 X30.1849 Y38.0011
G98
G83 X30.1849 Y38.0011 Z-8.0 Q3.0 R3.0 F50.0
G83 X4.5002 Y38.0001 Z-8.0
G83 Y12.0 Z-8.0
G83 X30.5003 Y11.9999 Z-8.0
G83 X61.2078 Y11.9989 Z-8.0
G83 X86.8925 Y12.0 Z-8.0
G83 Y38.0001 Z-8.0
G83 X60.8924 Y38.0002 Z-8.0
G80
G0 Z3.0
M5
M30
