( Made using CamBam - http://www.cambam.co.uk )
( bearing plates 10/9/2013 12:17:28 PM )
( T4 : 4.0 )
G21 G90 G64 G40
G0 Z3.0
( T4 : 4.0 )
T4 M6
( Profile1 )
G17
M3 S1000
G0 X60.8918 Y30.0008
G0 Z1.0
G1 F300.0 Z-1.0
G2 F150.0 X59.3927 Y30.1428 I-0.0018 J7.9629
G1 Y19.7916
G2 X61.208 Y19.9987 I1.8056 J-7.7666
G2 X66.8647 Y17.6557 I0.008 J-7.9804
G2 X69.208 Y11.998 I-5.6387 J-5.6495
G2 X68.9537 Y10.0 I-7.9685 J-0.001
G1 X79.1472
G2 X78.8927 Y11.9996 I7.696 J1.9952
G2 X79.7763 Y15.6512 I7.9577 J0.0071
G2 X79.7771 Y15.6526 I1.7779 J-0.916
G2 X81.3925 Y17.8015 I7.1394 J-3.6856
G1 X81.3927 Y32.1987
G2 X79.7774 Y34.3465 I5.532 J5.8417
G2 X79.777 Y34.3472 I1.7767 J0.9183
G2 X78.8926 Y38.0018 I7.0521 J3.641
G2 X79.1472 Y40.0 I7.9679 J-0.0001
G1 X68.6381
G2 X68.8926 Y38.0006 I-7.696 J-1.9952
G2 X66.549 Y32.3434 I-7.9795 J-0.0084
G2 X60.8918 Y30.0008 I-5.649 J5.6397
G1 F300.0 Z-2.0
G2 F150.0 X59.3927 Y30.1428 I-0.0018 J7.9629
G1 Y19.7916
G2 X61.208 Y19.9987 I1.8056 J-7.7666
G2 X66.8647 Y17.6557 I0.008 J-7.9804
G2 X69.208 Y11.998 I-5.6387 J-5.6495
G2 X68.9537 Y10.0 I-7.9685 J-0.001
G1 X79.1472
G2 X78.8927 Y11.9996 I7.696 J1.9952
G2 X79.7763 Y15.6512 I7.9577 J0.0071
G2 X79.7771 Y15.6526 I1.7779 J-0.916
G2 X81.3925 Y17.8015 I7.1394 J-3.6856
G1 X81.3927 Y32.1987
G2 X79.7774 Y34.3465 I5.532 J5.8417
G2 X79.777 Y34.3472 I1.7767 J0.9183
G2 X78.8926 Y38.0018 I7.0521 J3.641
G2 X79.1472 Y40.0 I7.9679 J-0.0001
G1 X68.6381
G2 X68.8926 Y38.0006 I-7.696 J-1.9952
G2 X66.549 Y32.3434 I-7.9795 J-0.0084
G2 X60.8918 Y30.0008 I-5.649 J5.6397
G1 F300.0 Z-3.0
G2 F150.0 X59.3927 Y30.1428 I-0.0018 J7.9629
G1 Y19.7916
G2 X61.208 Y19.9987 I1.8056 J-7.7666
G2 X66.8647 Y17.6557 I0.008 J-7.9804
G2 X69.208 Y11.998 I-5.6387 J-5.6495
G2 X68.9537 Y10.0 I-7.9685 J-0.001
G1 X79.1472
G2 X78.8927 Y11.9996 I7.696 J1.9952
G2 X79.7763 Y15.6512 I7.9577 J0.0071
G2 X79.7771 Y15.6526 I1.7779 J-0.916
G2 X81.3925 Y17.8015 I7.1394 J-3.6856
G1 X81.3927 Y32.1987
G2 X79.7774 Y34.3465 I5.532 J5.8417
G2 X79.777 Y34.3472 I1.7767 J0.9183
G2 X78.8926 Y38.0018 I7.0521 J3.641
G2 X79.1472 Y40.0 I7.9679 J-0.0001
G1 X68.6381
G2 X68.8926 Y38.0006 I-7.696 J-1.9952
G2 X66.549 Y32.3434 I-7.9795 J-0.0084
G2 X60.8918 Y30.0008 I-5.649 J5.6397
G1 F300.0 Z-4.0
G2 F150.0 X59.3927 Y30.1428 I-0.0018 J7.9629
G1 Y19.7916
G2 X61.208 Y19.9987 I1.8056 J-7.7666
G2 X66.8647 Y17.6557 I0.008 J-7.9804
G2 X69.208 Y11.998 I-5.6387 J-5.6495
G2 X68.9537 Y10.0 I-7.9685 J-0.001
G1 X79.1472
G2 X78.8927 Y11.9996 I7.696 J1.9952
G2 X79.7763 Y15.6512 I7.9577 J0.0071
G2 X79.7771 Y15.6526 I1.7779 J-0.916
G2 X81.3925 Y17.8015 I7.1394 J-3.6856
G1 X81.3927 Y32.1987
G2 X79.7774 Y34.3465 I5.532 J5.8417
G2 X79.777 Y34.3472 I1.7767 J0.9183
G2 X78.8926 Y38.0018 I7.0521 J3.641
G2 X79.1472 Y40.0 I7.9679 J-0.0001
G1 X68.6381
G2 X68.8926 Y38.0006 I-7.696 J-1.9952
G2 X66.549 Y32.3434 I-7.9795 J-0.0084
G2 X60.8918 Y30.0008 I-5.649 J5.6397
G1 F300.0 Z-5.0
G2 F150.0 X59.3927 Y30.1428 I-0.0018 J7.9629
G1 Y19.7916
G2 X61.208 Y19.9987 I1.8056 J-7.7666
G2 X66.8647 Y17.6557 I0.008 J-7.9804
G2 X69.208 Y11.998 I-5.6387 J-5.6495
G2 X68.9537 Y10.0 I-7.9685 J-0.001
G1 X79.1472
G2 X78.8927 Y11.9996 I7.696 J1.9952
G2 X79.7763 Y15.6512 I7.9577 J0.0071
G2 X79.7771 Y15.6526 I1.7779 J-0.916
G2 X81.3925 Y17.8015 I7.1394 J-3.6856
G1 X81.3927 Y32.1987
G2 X79.7774 Y34.3465 I5.532 J5.8417
G2 X79.777 Y34.3472 I1.7767 J0.9183
G2 X78.8926 Y38.0018 I7.0521 J3.641
G2 X79.1472 Y40.0 I7.9679 J-0.0001
G1 X68.6381
G2 X68.8926 Y38.0006 I-7.696 J-1.9952
G2 X66.549 Y32.3434 I-7.9795 J-0.0084
G2 X60.8918 Y30.0008 I-5.649 J5.6397
G1 F300.0 Z-6.0
G2 F150.0 X59.3927 Y30.1428 I-0.0018 J7.9629
G1 Y19.7916
G2 X61.208 Y19.9987 I1.8056 J-7.7666
G2 X66.8647 Y17.6557 I0.008 J-7.9804
G2 X69.208 Y11.998 I-5.6387 J-5.6495
G2 X68.9537 Y10.0 I-7.9685 J-0.001
G1 X79.1472
G2 X78.8927 Y11.9996 I7.696 J1.9952
G2 X79.7763 Y15.6512 I7.9577 J0.0071
G2 X79.7771 Y15.6526 I1.7779 J-0.916
G2 X81.3925 Y17.8015 I7.1394 J-3.6856
G1 X81.3927 Y32.1987
G2 X79.7774 Y34.3465 I5.532 J5.8417
G2 X79.777 Y34.3472 I1.7767 J0.9183
G2 X78.8926 Y38.0018 I7.0521 J3.641
G2 X79.1472 Y40.0 I7.9679 J-0.0001
G1 X68.6381
G2 X68.8926 Y38.0006 I-7.696 J-1.9952
G2 X66.549 Y32.3434 I-7.9795 J-0.0084
G2 X60.8918 Y30.0008 I-5.649 J5.6397
G1 F300.0 Z-6.5
G2 F150.0 X59.3927 Y30.1428 I-0.0018 J7.9629
G1 Y19.7916
G2 X61.208 Y19.9987 I1.8056 J-7.7666
G2 X66.8647 Y17.6557 I0.008 J-7.9804
G2 X69.208 Y11.998 I-5.6387 J-5.6495
G2 X68.9537 Y10.0 I-7.9685 J-0.001
G1 X79.1472
G2 X78.8927 Y11.9996 I7.696 J1.9952
G2 X79.7763 Y15.6512 I7.9577 J0.0071
G2 X79.7771 Y15.6526 I1.7779 J-0.916
G2 X81.3925 Y17.8015 I7.1394 J-3.6856
G1 X81.3927 Y32.1987
G2 X79.7774 Y34.3465 I5.532 J5.8417
G2 X79.777 Y34.3472 I1.7767 J0.9183
G2 X78.8926 Y38.0018 I7.0521 J3.641
G2 X79.1472 Y40.0 I7.9679 J-0.0001
G1 X68.6381
G2 X68.8926 Y38.0006 I-7.696 J-1.9952
G2 X66.549 Y32.3434 I-7.9795 J-0.0084
G2 X60.8918 Y30.0008 I-5.649 J5.6397
( Profile2 )
S1000
G0 Z3.0
G0 X-2.0 Y0.0
G0 Z1.0
G1 F300.0 Z-1.0
G1 F150.0 X-1.9998 Y50.0001
G2 X0.0002 Y52.0 I2.0 J0.0
G1 X31.9999
G2 X33.2 Y51.6 I0.0 J-2.0
G1 X43.2 Y44.0999
G2 X44.0 Y42.4999 I-1.2 J-1.6
G1 Y7.5
G2 X43.2 Y5.9 I-2.0 J0.0
G1 X33.1999 Y-1.6
G2 X31.9999 Y-2.0 I-1.2 J1.6
G1 X0.0
G2 X-2.0 Y0.0 I0.0 J2.0
G1 F300.0 Z-2.0
G1 F150.0 X-1.9998 Y50.0001
G2 X0.0002 Y52.0 I2.0 J0.0
G1 X31.9999
G2 X33.2 Y51.6 I0.0 J-2.0
G1 X43.2 Y44.0999
G2 X44.0 Y42.4999 I-1.2 J-1.6
G1 Y7.5
G2 X43.2 Y5.9 I-2.0 J0.0
G1 X33.1999 Y-1.6
G2 X31.9999 Y-2.0 I-1.2 J1.6
G1 X0.0
G2 X-2.0 Y0.0 I0.0 J2.0
G1 F300.0 Z-3.0
G1 F150.0 X-1.9998 Y50.0001
G2 X0.0002 Y52.0 I2.0 J0.0
G1 X31.9999
G2 X33.2 Y51.6 I0.0 J-2.0
G1 X43.2 Y44.0999
G2 X44.0 Y42.4999 I-1.2 J-1.6
G1 Y7.5
G2 X43.2 Y5.9 I-2.0 J0.0
G1 X33.1999 Y-1.6
G2 X31.9999 Y-2.0 I-1.2 J1.6
G1 X0.0
G2 X-2.0 Y0.0 I0.0 J2.0
G1 F300.0 Z-4.0
G1 F150.0 X-1.9998 Y50.0001
G2 X0.0002 Y52.0 I2.0 J0.0
G1 X31.9999
G2 X33.2 Y51.6 I0.0 J-2.0
G1 X43.2 Y44.0999
G2 X44.0 Y42.4999 I-1.2 J-1.6
G1 Y7.5
G2 X43.2 Y5.9 I-2.0 J0.0
G1 X33.1999 Y-1.6
G2 X31.9999 Y-2.0 I-1.2 J1.6
G1 X0.0
G2 X-2.0 Y0.0 I0.0 J2.0
G1 F300.0 Z-5.0
G1 F150.0 X-1.9998 Y50.0001
G2 X0.0002 Y52.0 I2.0 J0.0
G1 X31.9999
G2 X33.2 Y51.6 I0.0 J-2.0
G1 X43.2 Y44.0999
G2 X44.0 Y42.4999 I-1.2 J-1.6
G1 Y7.5
G2 X43.2 Y5.9 I-2.0 J0.0
G1 X33.1999 Y-1.6
G2 X31.9999 Y-2.0 I-1.2 J1.6
G1 X0.0
G2 X-2.0 Y0.0 I0.0 J2.0
G1 F300.0 Z-6.0
G1 F150.0 X-1.9998 Y50.0001
G2 X0.0002 Y52.0 I2.0 J0.0
G1 X31.9999
G2 X33.2 Y51.6 I0.0 J-2.0
G1 X43.2 Y44.0999
G2 X44.0 Y42.4999 I-1.2 J-1.6
G1 Y7.5
G2 X43.2 Y5.9 I-2.0 J0.0
G1 X33.1999 Y-1.6
G2 X31.9999 Y-2.0 I-1.2 J1.6
G1 X0.0
G2 X-2.0 Y0.0 I0.0 J2.0
G1 F300.0 Z-6.5
G1 F150.0 X-1.9998 Y50.0001
G2 X0.0002 Y52.0 I2.0 J0.0
G1 X31.9999
G2 X33.2 Y51.6 I0.0 J-2.0
G1 X43.2 Y44.0999
G2 X44.0 Y42.4999 I-1.2 J-1.6
G1 Y7.5
G2 X43.2 Y5.9 I-2.0 J0.0
G1 X33.1999 Y-1.6
G2 X31.9999 Y-2.0 I-1.2 J1.6
G1 X0.0
G2 X-2.0 Y0.0 I0.0 J2.0
( Profile3 )
S1000
G0 Z3.0
G0 X93.3927 Y50.0
G0 Z1.0
G1 F300.0 Z-1.0
G1 F150.0 X93.3925 Y0.0
G2 X91.3925 Y-2.0 I-2.0 J0.0
G1 X59.3928
G2 X58.1927 Y-1.6 I0.0 J2.0
G1 X48.1927 Y5.9002
G2 X47.3927 Y7.5001 I1.2 J1.6
G1 Y42.5001
G2 X48.1927 Y44.1001 I2.0 J0.0
G1 X58.1928 Y51.6001
G2 X59.3928 Y52.0 I1.2 J-1.6
G1 X91.3927
G2 X93.3927 Y50.0 I0.0 J-2.0
G1 F300.0 Z-2.0
G1 F150.0 X93.3925 Y0.0
G2 X91.3925 Y-2.0 I-2.0 J0.0
G1 X59.3928
G2 X58.1927 Y-1.6 I0.0 J2.0
G1 X48.1927 Y5.9002
G2 X47.3927 Y7.5001 I1.2 J1.6
G1 Y42.5001
G2 X48.1927 Y44.1001 I2.0 J0.0
G1 X58.1928 Y51.6001
G2 X59.3928 Y52.0 I1.2 J-1.6
G1 X91.3927
G2 X93.3927 Y50.0 I0.0 J-2.0
G1 F300.0 Z-3.0
G1 F150.0 X93.3925 Y0.0
G2 X91.3925 Y-2.0 I-2.0 J0.0
G1 X59.3928
G2 X58.1927 Y-1.6 I0.0 J2.0
G1 X48.1927 Y5.9002
G2 X47.3927 Y7.5001 I1.2 J1.6
G1 Y42.5001
G2 X48.1927 Y44.1001 I2.0 J0.0
G1 X58.1928 Y51.6001
G2 X59.3928 Y52.0 I1.2 J-1.6
G1 X91.3927
G2 X93.3927 Y50.0 I0.0 J-2.0
G1 F300.0 Z-4.0
G1 F150.0 X93.3925 Y0.0
G2 X91.3925 Y-2.0 I-2.0 J0.0
G1 X59.3928
G2 X58.1927 Y-1.6 I0.0 J2.0
G1 X48.1927 Y5.9002
G2 X47.3927 Y7.5001 I1.2 J1.6
G1 Y42.5001
G2 X48.1927 Y44.1001 I2.0 J0.0
G1 X58.1928 Y51.6001
G2 X59.3928 Y52.0 I1.2 J-1.6
G1 X91.3927
G2 X93.3927 Y50.0 I0.0 J-2.0
G1 F300.0 Z-5.0
G1 F150.0 X93.3925 Y0.0
G2 X91.3925 Y-2.0 I-2.0 J0.0
G1 X59.3928
G2 X58.1927 Y-1.6 I0.0 J2.0
G1 X48.1927 Y5.9002
G2 X47.3927 Y7.5001 I1.2 J1.6
G1 Y42.5001
G2 X48.1927 Y44.1001 I2.0 J0.0
G1 X58.1928 Y51.6001
G2 X59.3928 Y52.0 I1.2 J-1.6
G1 X91.3927
G2 X93.3927 Y50.0 I0.0 J-2.0
G1 F300.0 Z-6.0
G1 F150.0 X93.3925 Y0.0
G2 X91.3925 Y-2.0 I-2.0 J0.0
G1 X59.3928
G2 X58.1927 Y-1.6 I0.0 J2.0
G1 X48.1927 Y5.9002
G2 X47.3927 Y7.5001 I1.2 J1.6
G1 Y42.5001
G2 X48.1927 Y44.1001 I2.0 J0.0
G1 X58.1928 Y51.6001
G2 X59.3928 Y52.0 I1.2 J-1.6
G1 X91.3927
G2 X93.3927 Y50.0 I0.0 J-2.0
G1 F300.0 Z-6.5
G1 F150.0 X93.3925 Y0.0
G2 X91.3925 Y-2.0 I-2.0 J0.0
G1 X59.3928
G2 X58.1927 Y-1.6 I0.0 J2.0
G1 X48.1927 Y5.9002
G2 X47.3927 Y7.5001 I1.2 J1.6
G1 Y42.5001
G2 X48.1927 Y44.1001 I2.0 J0.0
G1 X58.1928 Y51.6001
G2 X59.3928 Y52.0 I1.2 J-1.6
G1 X91.3927
G2 X93.3927 Y50.0 I0.0 J-2.0
G0 Z3.0
M5
M30
