( Made using CamBam - http://www.cambam.co.uk )
( bearing block 9/10/2013 3:46:49 PM )
( T0 : 4.9 )
G21 G90 G64 G40
G0 Z3.0
( T0 : 4.9 )
T0 M6
( Profile2 )
G17
M3 S1000
G0 X17.53 Y10.507
G0 Z1.0
G1 F50.0 Z-22.0
G2 F150.0 X12.5502 Y12.5695 I-0.0099 J7.0191
G3 X12.5453 Y12.5744 I-1.7347 J-1.7301
G2 X10.4826 Y17.5538 I4.9549 J4.9696
G3 Y17.5601 I-2.45 J0.0034
G2 X12.5457 Y22.54 I7.0216 J0.0083
G3 X12.55 Y22.5442 I-1.7301 J1.7347
G2 X17.5305 Y24.6069 I4.9721 J-4.9611
G3 X17.5366 I0.003 J2.45
G2 X22.5166 Y22.5443 I0.0089 J-7.0217
G3 X22.5213 Y22.5396 I1.7345 J1.7303
G2 X24.584 Y17.5606 I-4.9546 J-4.9694
G3 Y17.5542 I2.45 J-0.0034
G2 X22.5211 Y12.5742 I-7.0214 J-0.0088
G3 X22.5166 Y12.5697 I1.7302 J-1.7346
G2 X17.5368 Y10.507 I-4.9702 J4.9569
G3 X17.53 I-0.0033 J-2.45
G0 Z3.0
G0 X60.3789 Y16.5625
G0 Z1.0
G1 F50.0 Z-22.0
G2 F150.0 X60.3099 Y17.554 I6.9514 J0.9824
G3 Y17.5604 I-2.45 J0.0032
G2 X62.3726 Y22.5398 I7.0196 J0.0091
G3 X62.3771 Y22.5443 I-1.7301 J1.7348
G2 X67.3569 Y24.6069 I4.9708 J-4.9584
G3 X67.363 I0.0031 J2.45
G2 X72.3429 Y22.5441 I0.0084 J-7.0224
G3 X72.3472 Y22.5398 I1.7345 J1.7303
G2 X74.4099 Y17.5604 I-4.9574 J-4.9705
G3 Y17.5539 I2.45 J-0.0031
G2 X72.3474 Y12.5744 I-7.0193 J-0.0095
G3 X72.345 Y12.5719 I1.7301 J-1.7347
G2 X70.0571 Y11.0407 I-5.0068 J5.006
G2 X67.3639 Y10.507 I-2.6824 J6.4746
G3 X67.3568 I-0.0038 J-2.45
G2 X62.3771 Y12.5697 I-0.0094 J7.0198
G3 X62.3725 Y12.5742 I-1.7347 J-1.7301
G2 X60.3789 Y16.5625 I4.9577 J4.9706
G0 Z3.0
M5
M30
