( Made using CamBam - http://www.cambam.co.uk )
( bearing block 9/10/2013 3:18:24 PM )
( T5 : 5.0 )
G21 G90 G64 G40
G0 Z3.0
( T5 : 5.0 )
T5 M6
( Pocket1 )
G17
M3 S1000
G0 X17.5451 Y16.557
G0 Z1.0
G1 F50.0 Z-2.0
G3 F150.0 X18.2329 Y16.8419 I0.0013 J0.9695
G2 X18.2486 Y16.8577 I6.0185 J-6.0023
G3 X18.534 Y17.5466 I-0.686 J0.6877
G2 Y17.5689 I8.5 J0.0106
G3 X18.2497 Y18.2552 I-0.9673 J0.0013
G2 X18.2334 Y18.2715 I6.0014 J6.0194
G3 X17.5443 Y18.5569 I-0.6879 J-0.6862
G2 X17.5232 I-0.0108 J8.5
G3 X16.8327 Y18.2709 I-0.0012 J-0.9738
G2 X16.8181 Y18.2563 I-6.017 J6.0038
G3 X16.5326 Y17.5673 I0.6861 J-0.688
G2 Y17.5453 I-8.5 J-0.01
G3 X16.817 Y16.8587 I0.9677 J-0.0014
G2 X16.8339 Y16.8418 I-6.0015 J-6.0193
G3 X17.5214 Y16.557 I0.6862 J0.6843
G2 X17.5451 I0.012 J-8.5
G1 F50.0 X17.5424 Y14.557
G3 F150.0 X19.649 Y15.4296 I0.0041 J2.9695
G2 X19.661 Y15.4416 I4.6023 J-4.59
G3 X20.534 Y17.5491 I-2.0984 J2.1038
G2 Y17.5662 I6.5 J0.0081
G3 X19.6618 Y19.6716 I-2.9673 J0.0041
G2 X19.6493 Y19.684 I4.5893 J4.6031
G3 X17.5417 Y20.5569 I-2.1038 J-2.0987
G2 X17.5256 I-0.0083 J6.5
G3 X15.4169 Y19.6836 I-0.0036 J-2.9738
G2 X15.4057 Y19.6724 I-4.6013 J4.5911
G3 X14.5326 Y17.5649 I2.0985 J-2.104
G2 Y17.5481 I-6.5 J-0.0077
G3 X15.4049 Y15.4424 I2.9677 J-0.0042
G2 X15.4178 Y15.4295 I-4.5894 J-4.603
G3 X17.5243 Y14.557 I2.1023 J2.0967
G2 X17.5424 I0.0092 J-6.5
G1 F50.0 X17.5396 Y12.557
G3 F150.0 X21.0651 Y14.0173 I0.0068 J4.9695
G2 X21.0734 Y14.0256 I3.1862 J-3.1777
G3 X22.534 Y17.5516 I-3.5108 J3.5198
G2 Y17.5634 I4.5 J0.0056
G3 X21.0739 Y21.0879 I-4.9673 J0.0068
G2 X21.0653 Y21.0965 I3.1772 J3.1867
G3 X17.5392 Y22.5569 I-3.5198 J-3.5113
G2 X17.528 I-0.0057 J4.5
G3 X14.0011 Y21.0962 I-0.006 J-4.9738
G2 X13.9934 Y21.0885 I-3.1855 J3.1785
G3 X12.5326 Y17.5625 I3.5108 J-3.5201
G2 Y17.5509 I-4.5 J-0.0053
G3 X13.9928 Y14.0261 I4.9677 J-0.007
G2 X14.0017 Y14.0171 I-3.1773 J-3.1867
G3 X17.5271 Y12.557 I3.5184 J3.509
G2 X17.5396 I0.0064 J-4.5
G1 F50.0 X17.5369 Y10.557
G3 F150.0 X22.4812 Y12.605 I0.0095 J6.9695
G2 X22.4858 Y12.6096 I1.7701 J-1.7654
G3 X24.534 Y17.5541 I-4.9232 J4.9358
G2 Y17.5607 I2.5 J0.0031
G3 X22.486 Y22.5042 I-6.9673 J0.0096
G2 X22.4812 Y22.509 I1.7651 J1.7704
G3 X17.5366 Y24.5569 I-4.9357 J-4.9238
G2 X17.5304 I-0.0032 J2.5
G3 X12.5853 Y22.5089 I-0.0084 J-6.9738
G2 X12.5811 Y22.5046 I-1.7697 J1.7658
G3 X10.5326 Y17.5602 I4.9231 J-4.9362
G2 Y17.5537 I-2.5 J-0.0029
G3 X12.5806 Y12.6098 I6.9677 J-0.0098
G2 X12.5856 Y12.6048 I-1.7652 J-1.7704
G3 X17.5299 Y10.557 I4.9345 J4.9213
G2 X17.5369 I0.0035 J-2.5
G0 Z3.0
G0 X17.5451 Y16.557
G0 Z-1.0
G1 F50.0 Z-4.0
G3 F150.0 X18.2329 Y16.8419 I0.0013 J0.9695
G2 X18.2486 Y16.8577 I6.0185 J-6.0023
G3 X18.534 Y17.5466 I-0.686 J0.6877
G2 Y17.5689 I8.5 J0.0106
G3 X18.2497 Y18.2552 I-0.9673 J0.0013
G2 X18.2334 Y18.2715 I6.0014 J6.0194
G3 X17.5443 Y18.5569 I-0.6879 J-0.6862
G2 X17.5232 I-0.0108 J8.5
G3 X16.8327 Y18.2709 I-0.0012 J-0.9738
G2 X16.8181 Y18.2563 I-6.017 J6.0038
G3 X16.5326 Y17.5673 I0.6861 J-0.688
G2 Y17.5453 I-8.5 J-0.01
G3 X16.817 Y16.8587 I0.9677 J-0.0014
G2 X16.8339 Y16.8418 I-6.0015 J-6.0193
G3 X17.5214 Y16.557 I0.6862 J0.6843
G2 X17.5451 I0.012 J-8.5
G1 F50.0 X17.5424 Y14.557
G3 F150.0 X19.649 Y15.4296 I0.0041 J2.9695
G2 X19.661 Y15.4416 I4.6023 J-4.59
G3 X20.534 Y17.5491 I-2.0984 J2.1038
G2 Y17.5662 I6.5 J0.0081
G3 X19.6618 Y19.6716 I-2.9673 J0.0041
G2 X19.6493 Y19.684 I4.5893 J4.6031
G3 X17.5417 Y20.5569 I-2.1038 J-2.0987
G2 X17.5256 I-0.0083 J6.5
G3 X15.4169 Y19.6836 I-0.0036 J-2.9738
G2 X15.4057 Y19.6724 I-4.6013 J4.5911
G3 X14.5326 Y17.5649 I2.0985 J-2.104
G2 Y17.5481 I-6.5 J-0.0077
G3 X15.4049 Y15.4424 I2.9677 J-0.0042
G2 X15.4178 Y15.4295 I-4.5894 J-4.603
G3 X17.5243 Y14.557 I2.1023 J2.0967
G2 X17.5424 I0.0092 J-6.5
G1 F50.0 X17.5396 Y12.557
G3 F150.0 X21.0651 Y14.0173 I0.0068 J4.9695
G2 X21.0734 Y14.0256 I3.1862 J-3.1777
G3 X22.534 Y17.5516 I-3.5108 J3.5198
G2 Y17.5634 I4.5 J0.0056
G3 X21.0739 Y21.0879 I-4.9673 J0.0068
G2 X21.0653 Y21.0965 I3.1772 J3.1867
G3 X17.5392 Y22.5569 I-3.5198 J-3.5113
G2 X17.528 I-0.0057 J4.5
G3 X14.0011 Y21.0962 I-0.006 J-4.9738
G2 X13.9934 Y21.0885 I-3.1855 J3.1785
G3 X12.5326 Y17.5625 I3.5108 J-3.5201
G2 Y17.5509 I-4.5 J-0.0053
G3 X13.9928 Y14.0261 I4.9677 J-0.007
G2 X14.0017 Y14.0171 I-3.1773 J-3.1867
G3 X17.5271 Y12.557 I3.5184 J3.509
G2 X17.5396 I0.0064 J-4.5
G1 F50.0 X17.5369 Y10.557
G3 F150.0 X22.4812 Y12.605 I0.0095 J6.9695
G2 X22.4858 Y12.6096 I1.7701 J-1.7654
G3 X24.534 Y17.5541 I-4.9232 J4.9358
G2 Y17.5607 I2.5 J0.0031
G3 X22.486 Y22.5042 I-6.9673 J0.0096
G2 X22.4812 Y22.509 I1.7651 J1.7704
G3 X17.5366 Y24.5569 I-4.9357 J-4.9238
G2 X17.5304 I-0.0032 J2.5
G3 X12.5853 Y22.5089 I-0.0084 J-6.9738
G2 X12.5811 Y22.5046 I-1.7697 J1.7658
G3 X10.5326 Y17.5602 I4.9231 J-4.9362
G2 Y17.5537 I-2.5 J-0.0029
G3 X12.5806 Y12.6098 I6.9677 J-0.0098
G2 X12.5856 Y12.6048 I-1.7652 J-1.7704
G3 X17.5299 Y10.557 I4.9345 J4.9213
G2 X17.5369 I0.0035 J-2.5
G0 Z3.0
G0 X17.5451 Y16.557
G0 Z-3.0
G1 F50.0 Z-6.0
G3 F150.0 X18.2329 Y16.8419 I0.0013 J0.9695
G2 X18.2486 Y16.8577 I6.0185 J-6.0023
G3 X18.534 Y17.5466 I-0.686 J0.6877
G2 Y17.5689 I8.5 J0.0106
G3 X18.2497 Y18.2552 I-0.9673 J0.0013
G2 X18.2334 Y18.2715 I6.0014 J6.0194
G3 X17.5443 Y18.5569 I-0.6879 J-0.6862
G2 X17.5232 I-0.0108 J8.5
G3 X16.8327 Y18.2709 I-0.0012 J-0.9738
G2 X16.8181 Y18.2563 I-6.017 J6.0038
G3 X16.5326 Y17.5673 I0.6861 J-0.688
G2 Y17.5453 I-8.5 J-0.01
G3 X16.817 Y16.8587 I0.9677 J-0.0014
G2 X16.8339 Y16.8418 I-6.0015 J-6.0193
G3 X17.5214 Y16.557 I0.6862 J0.6843
G2 X17.5451 I0.012 J-8.5
G1 F50.0 X17.5424 Y14.557
G3 F150.0 X19.649 Y15.4296 I0.0041 J2.9695
G2 X19.661 Y15.4416 I4.6023 J-4.59
G3 X20.534 Y17.5491 I-2.0984 J2.1038
G2 Y17.5662 I6.5 J0.0081
G3 X19.6618 Y19.6716 I-2.9673 J0.0041
G2 X19.6493 Y19.684 I4.5893 J4.6031
G3 X17.5417 Y20.5569 I-2.1038 J-2.0987
G2 X17.5256 I-0.0083 J6.5
G3 X15.4169 Y19.6836 I-0.0036 J-2.9738
G2 X15.4057 Y19.6724 I-4.6013 J4.5911
G3 X14.5326 Y17.5649 I2.0985 J-2.104
G2 Y17.5481 I-6.5 J-0.0077
G3 X15.4049 Y15.4424 I2.9677 J-0.0042
G2 X15.4178 Y15.4295 I-4.5894 J-4.603
G3 X17.5243 Y14.557 I2.1023 J2.0967
G2 X17.5424 I0.0092 J-6.5
G1 F50.0 X17.5396 Y12.557
G3 F150.0 X21.0651 Y14.0173 I0.0068 J4.9695
G2 X21.0734 Y14.0256 I3.1862 J-3.1777
G3 X22.534 Y17.5516 I-3.5108 J3.5198
G2 Y17.5634 I4.5 J0.0056
G3 X21.0739 Y21.0879 I-4.9673 J0.0068
G2 X21.0653 Y21.0965 I3.1772 J3.1867
G3 X17.5392 Y22.5569 I-3.5198 J-3.5113
G2 X17.528 I-0.0057 J4.5
G3 X14.0011 Y21.0962 I-0.006 J-4.9738
G2 X13.9934 Y21.0885 I-3.1855 J3.1785
G3 X12.5326 Y17.5625 I3.5108 J-3.5201
G2 Y17.5509 I-4.5 J-0.0053
G3 X13.9928 Y14.0261 I4.9677 J-0.007
G2 X14.0017 Y14.0171 I-3.1773 J-3.1867
G3 X17.5271 Y12.557 I3.5184 J3.509
G2 X17.5396 I0.0064 J-4.5
G1 F50.0 X17.5369 Y10.557
G3 F150.0 X22.4812 Y12.605 I0.0095 J6.9695
G2 X22.4858 Y12.6096 I1.7701 J-1.7654
G3 X24.534 Y17.5541 I-4.9232 J4.9358
G2 Y17.5607 I2.5 J0.0031
G3 X22.486 Y22.5042 I-6.9673 J0.0096
G2 X22.4812 Y22.509 I1.7651 J1.7704
G3 X17.5366 Y24.5569 I-4.9357 J-4.9238
G2 X17.5304 I-0.0032 J2.5
G3 X12.5853 Y22.5089 I-0.0084 J-6.9738
G2 X12.5811 Y22.5046 I-1.7697 J1.7658
G3 X10.5326 Y17.5602 I4.9231 J-4.9362
G2 Y17.5537 I-2.5 J-0.0029
G3 X12.5806 Y12.6098 I6.9677 J-0.0098
G2 X12.5856 Y12.6048 I-1.7652 J-1.7704
G3 X17.5299 Y10.557 I4.9345 J4.9213
G2 X17.5369 I0.0035 J-2.5
G0 Z3.0
G0 X17.5451 Y16.557
G0 Z-5.0
G1 F50.0 Z-8.0
G3 F150.0 X18.2329 Y16.8419 I0.0013 J0.9695
G2 X18.2486 Y16.8577 I6.0185 J-6.0023
G3 X18.534 Y17.5466 I-0.686 J0.6877
G2 Y17.5689 I8.5 J0.0106
G3 X18.2497 Y18.2552 I-0.9673 J0.0013
G2 X18.2334 Y18.2715 I6.0014 J6.0194
G3 X17.5443 Y18.5569 I-0.6879 J-0.6862
G2 X17.5232 I-0.0108 J8.5
G3 X16.8327 Y18.2709 I-0.0012 J-0.9738
G2 X16.8181 Y18.2563 I-6.017 J6.0038
G3 X16.5326 Y17.5673 I0.6861 J-0.688
G2 Y17.5453 I-8.5 J-0.01
G3 X16.817 Y16.8587 I0.9677 J-0.0014
G2 X16.8339 Y16.8418 I-6.0015 J-6.0193
G3 X17.5214 Y16.557 I0.6862 J0.6843
G2 X17.5451 I0.012 J-8.5
G1 F50.0 X17.5424 Y14.557
G3 F150.0 X19.649 Y15.4296 I0.0041 J2.9695
G2 X19.661 Y15.4416 I4.6023 J-4.59
G3 X20.534 Y17.5491 I-2.0984 J2.1038
G2 Y17.5662 I6.5 J0.0081
G3 X19.6618 Y19.6716 I-2.9673 J0.0041
G2 X19.6493 Y19.684 I4.5893 J4.6031
G3 X17.5417 Y20.5569 I-2.1038 J-2.0987
G2 X17.5256 I-0.0083 J6.5
G3 X15.4169 Y19.6836 I-0.0036 J-2.9738
G2 X15.4057 Y19.6724 I-4.6013 J4.5911
G3 X14.5326 Y17.5649 I2.0985 J-2.104
G2 Y17.5481 I-6.5 J-0.0077
G3 X15.4049 Y15.4424 I2.9677 J-0.0042
G2 X15.4178 Y15.4295 I-4.5894 J-4.603
G3 X17.5243 Y14.557 I2.1023 J2.0967
G2 X17.5424 I0.0092 J-6.5
G1 F50.0 X17.5396 Y12.557
G3 F150.0 X21.0651 Y14.0173 I0.0068 J4.9695
G2 X21.0734 Y14.0256 I3.1862 J-3.1777
G3 X22.534 Y17.5516 I-3.5108 J3.5198
G2 Y17.5634 I4.5 J0.0056
G3 X21.0739 Y21.0879 I-4.9673 J0.0068
G2 X21.0653 Y21.0965 I3.1772 J3.1867
G3 X17.5392 Y22.5569 I-3.5198 J-3.5113
G2 X17.528 I-0.0057 J4.5
G3 X14.0011 Y21.0962 I-0.006 J-4.9738
G2 X13.9934 Y21.0885 I-3.1855 J3.1785
G3 X12.5326 Y17.5625 I3.5108 J-3.5201
G2 Y17.5509 I-4.5 J-0.0053
G3 X13.9928 Y14.0261 I4.9677 J-0.007
G2 X14.0017 Y14.0171 I-3.1773 J-3.1867
G3 X17.5271 Y12.557 I3.5184 J3.509
G2 X17.5396 I0.0064 J-4.5
G1 F50.0 X17.5369 Y10.557
G3 F150.0 X22.4812 Y12.605 I0.0095 J6.9695
G2 X22.4858 Y12.6096 I1.7701 J-1.7654
G3 X24.534 Y17.5541 I-4.9232 J4.9358
G2 Y17.5607 I2.5 J0.0031
G3 X22.486 Y22.5042 I-6.9673 J0.0096
G2 X22.4812 Y22.509 I1.7651 J1.7704
G3 X17.5366 Y24.5569 I-4.9357 J-4.9238
G2 X17.5304 I-0.0032 J2.5
G3 X12.5853 Y22.5089 I-0.0084 J-6.9738
G2 X12.5811 Y22.5046 I-1.7697 J1.7658
G3 X10.5326 Y17.5602 I4.9231 J-4.9362
G2 Y17.5537 I-2.5 J-0.0029
G3 X12.5806 Y12.6098 I6.9677 J-0.0098
G2 X12.5856 Y12.6048 I-1.7652 J-1.7704
G3 X17.5299 Y10.557 I4.9345 J4.9213
G2 X17.5369 I0.0035 J-2.5
G0 Z3.0
G0 X17.5451 Y16.557
G0 Z-7.0
G1 F50.0 Z-10.0
G3 F150.0 X18.2329 Y16.8419 I0.0013 J0.9695
G2 X18.2486 Y16.8577 I6.0185 J-6.0023
G3 X18.534 Y17.5466 I-0.686 J0.6877
G2 Y17.5689 I8.5 J0.0106
G3 X18.2497 Y18.2552 I-0.9673 J0.0013
G2 X18.2334 Y18.2715 I6.0014 J6.0194
G3 X17.5443 Y18.5569 I-0.6879 J-0.6862
G2 X17.5232 I-0.0108 J8.5
G3 X16.8327 Y18.2709 I-0.0012 J-0.9738
G2 X16.8181 Y18.2563 I-6.017 J6.0038
G3 X16.5326 Y17.5673 I0.6861 J-0.688
G2 Y17.5453 I-8.5 J-0.01
G3 X16.817 Y16.8587 I0.9677 J-0.0014
G2 X16.8339 Y16.8418 I-6.0015 J-6.0193
G3 X17.5214 Y16.557 I0.6862 J0.6843
G2 X17.5451 I0.012 J-8.5
G1 F50.0 X17.5424 Y14.557
G3 F150.0 X19.649 Y15.4296 I0.0041 J2.9695
G2 X19.661 Y15.4416 I4.6023 J-4.59
G3 X20.534 Y17.5491 I-2.0984 J2.1038
G2 Y17.5662 I6.5 J0.0081
G3 X19.6618 Y19.6716 I-2.9673 J0.0041
G2 X19.6493 Y19.684 I4.5893 J4.6031
G3 X17.5417 Y20.5569 I-2.1038 J-2.0987
G2 X17.5256 I-0.0083 J6.5
G3 X15.4169 Y19.6836 I-0.0036 J-2.9738
G2 X15.4057 Y19.6724 I-4.6013 J4.5911
G3 X14.5326 Y17.5649 I2.0985 J-2.104
G2 Y17.5481 I-6.5 J-0.0077
G3 X15.4049 Y15.4424 I2.9677 J-0.0042
G2 X15.4178 Y15.4295 I-4.5894 J-4.603
G3 X17.5243 Y14.557 I2.1023 J2.0967
G2 X17.5424 I0.0092 J-6.5
G1 F50.0 X17.5396 Y12.557
G3 F150.0 X21.0651 Y14.0173 I0.0068 J4.9695
G2 X21.0734 Y14.0256 I3.1862 J-3.1777
G3 X22.534 Y17.5516 I-3.5108 J3.5198
G2 Y17.5634 I4.5 J0.0056
G3 X21.0739 Y21.0879 I-4.9673 J0.0068
G2 X21.0653 Y21.0965 I3.1772 J3.1867
G3 X17.5392 Y22.5569 I-3.5198 J-3.5113
G2 X17.528 I-0.0057 J4.5
G3 X14.0011 Y21.0962 I-0.006 J-4.9738
G2 X13.9934 Y21.0885 I-3.1855 J3.1785
G3 X12.5326 Y17.5625 I3.5108 J-3.5201
G2 Y17.5509 I-4.5 J-0.0053
G3 X13.9928 Y14.0261 I4.9677 J-0.007
G2 X14.0017 Y14.0171 I-3.1773 J-3.1867
G3 X17.5271 Y12.557 I3.5184 J3.509
G2 X17.5396 I0.0064 J-4.5
G1 F50.0 X17.5369 Y10.557
G3 F150.0 X22.4812 Y12.605 I0.0095 J6.9695
G2 X22.4858 Y12.6096 I1.7701 J-1.7654
G3 X24.534 Y17.5541 I-4.9232 J4.9358
G2 Y17.5607 I2.5 J0.0031
G3 X22.486 Y22.5042 I-6.9673 J0.0096
G2 X22.4812 Y22.509 I1.7651 J1.7704
G3 X17.5366 Y24.5569 I-4.9357 J-4.9238
G2 X17.5304 I-0.0032 J2.5
G3 X12.5853 Y22.5089 I-0.0084 J-6.9738
G2 X12.5811 Y22.5046 I-1.7697 J1.7658
G3 X10.5326 Y17.5602 I4.9231 J-4.9362
G2 Y17.5537 I-2.5 J-0.0029
G3 X12.5806 Y12.6098 I6.9677 J-0.0098
G2 X12.5856 Y12.6048 I-1.7652 J-1.7704
G3 X17.5299 Y10.557 I4.9345 J4.9213
G2 X17.5369 I0.0035 J-2.5
G0 Z3.0
G0 X17.5451 Y16.557
G0 Z-9.0
G1 F50.0 Z-12.0
G3 F150.0 X18.2329 Y16.8419 I0.0013 J0.9695
G2 X18.2486 Y16.8577 I6.0185 J-6.0023
G3 X18.534 Y17.5466 I-0.686 J0.6877
G2 Y17.5689 I8.5 J0.0106
G3 X18.2497 Y18.2552 I-0.9673 J0.0013
G2 X18.2334 Y18.2715 I6.0014 J6.0194
G3 X17.5443 Y18.5569 I-0.6879 J-0.6862
G2 X17.5232 I-0.0108 J8.5
G3 X16.8327 Y18.2709 I-0.0012 J-0.9738
G2 X16.8181 Y18.2563 I-6.017 J6.0038
G3 X16.5326 Y17.5673 I0.6861 J-0.688
G2 Y17.5453 I-8.5 J-0.01
G3 X16.817 Y16.8587 I0.9677 J-0.0014
G2 X16.8339 Y16.8418 I-6.0015 J-6.0193
G3 X17.5214 Y16.557 I0.6862 J0.6843
G2 X17.5451 I0.012 J-8.5
G1 F50.0 X17.5424 Y14.557
G3 F150.0 X19.649 Y15.4296 I0.0041 J2.9695
G2 X19.661 Y15.4416 I4.6023 J-4.59
G3 X20.534 Y17.5491 I-2.0984 J2.1038
G2 Y17.5662 I6.5 J0.0081
G3 X19.6618 Y19.6716 I-2.9673 J0.0041
G2 X19.6493 Y19.684 I4.5893 J4.6031
G3 X17.5417 Y20.5569 I-2.1038 J-2.0987
G2 X17.5256 I-0.0083 J6.5
G3 X15.4169 Y19.6836 I-0.0036 J-2.9738
G2 X15.4057 Y19.6724 I-4.6013 J4.5911
G3 X14.5326 Y17.5649 I2.0985 J-2.104
G2 Y17.5481 I-6.5 J-0.0077
G3 X15.4049 Y15.4424 I2.9677 J-0.0042
G2 X15.4178 Y15.4295 I-4.5894 J-4.603
G3 X17.5243 Y14.557 I2.1023 J2.0967
G2 X17.5424 I0.0092 J-6.5
G1 F50.0 X17.5396 Y12.557
G3 F150.0 X21.0651 Y14.0173 I0.0068 J4.9695
G2 X21.0734 Y14.0256 I3.1862 J-3.1777
G3 X22.534 Y17.5516 I-3.5108 J3.5198
G2 Y17.5634 I4.5 J0.0056
G3 X21.0739 Y21.0879 I-4.9673 J0.0068
G2 X21.0653 Y21.0965 I3.1772 J3.1867
G3 X17.5392 Y22.5569 I-3.5198 J-3.5113
G2 X17.528 I-0.0057 J4.5
G3 X14.0011 Y21.0962 I-0.006 J-4.9738
G2 X13.9934 Y21.0885 I-3.1855 J3.1785
G3 X12.5326 Y17.5625 I3.5108 J-3.5201
G2 Y17.5509 I-4.5 J-0.0053
G3 X13.9928 Y14.0261 I4.9677 J-0.007
G2 X14.0017 Y14.0171 I-3.1773 J-3.1867
G3 X17.5271 Y12.557 I3.5184 J3.509
G2 X17.5396 I0.0064 J-4.5
G1 F50.0 X17.5369 Y10.557
G3 F150.0 X22.4812 Y12.605 I0.0095 J6.9695
G2 X22.4858 Y12.6096 I1.7701 J-1.7654
G3 X24.534 Y17.5541 I-4.9232 J4.9358
G2 Y17.5607 I2.5 J0.0031
G3 X22.486 Y22.5042 I-6.9673 J0.0096
G2 X22.4812 Y22.509 I1.7651 J1.7704
G3 X17.5366 Y24.5569 I-4.9357 J-4.9238
G2 X17.5304 I-0.0032 J2.5
G3 X12.5853 Y22.5089 I-0.0084 J-6.9738
G2 X12.5811 Y22.5046 I-1.7697 J1.7658
G3 X10.5326 Y17.5602 I4.9231 J-4.9362
G2 Y17.5537 I-2.5 J-0.0029
G3 X12.5806 Y12.6098 I6.9677 J-0.0098
G2 X12.5856 Y12.6048 I-1.7652 J-1.7704
G3 X17.5299 Y10.557 I4.9345 J4.9213
G2 X17.5369 I0.0035 J-2.5
G0 Z3.0
G0 X17.5451 Y16.557
G0 Z-11.0
G1 F50.0 Z-14.0
G3 F150.0 X18.2329 Y16.8419 I0.0013 J0.9695
G2 X18.2486 Y16.8577 I6.0185 J-6.0023
G3 X18.534 Y17.5466 I-0.686 J0.6877
G2 Y17.5689 I8.5 J0.0106
G3 X18.2497 Y18.2552 I-0.9673 J0.0013
G2 X18.2334 Y18.2715 I6.0014 J6.0194
G3 X17.5443 Y18.5569 I-0.6879 J-0.6862
G2 X17.5232 I-0.0108 J8.5
G3 X16.8327 Y18.2709 I-0.0012 J-0.9738
G2 X16.8181 Y18.2563 I-6.017 J6.0038
G3 X16.5326 Y17.5673 I0.6861 J-0.688
G2 Y17.5453 I-8.5 J-0.01
G3 X16.817 Y16.8587 I0.9677 J-0.0014
G2 X16.8339 Y16.8418 I-6.0015 J-6.0193
G3 X17.5214 Y16.557 I0.6862 J0.6843
G2 X17.5451 I0.012 J-8.5
G1 F50.0 X17.5424 Y14.557
G3 F150.0 X19.649 Y15.4296 I0.0041 J2.9695
G2 X19.661 Y15.4416 I4.6023 J-4.59
G3 X20.534 Y17.5491 I-2.0984 J2.1038
G2 Y17.5662 I6.5 J0.0081
G3 X19.6618 Y19.6716 I-2.9673 J0.0041
G2 X19.6493 Y19.684 I4.5893 J4.6031
G3 X17.5417 Y20.5569 I-2.1038 J-2.0987
G2 X17.5256 I-0.0083 J6.5
G3 X15.4169 Y19.6836 I-0.0036 J-2.9738
G2 X15.4057 Y19.6724 I-4.6013 J4.5911
G3 X14.5326 Y17.5649 I2.0985 J-2.104
G2 Y17.5481 I-6.5 J-0.0077
G3 X15.4049 Y15.4424 I2.9677 J-0.0042
G2 X15.4178 Y15.4295 I-4.5894 J-4.603
G3 X17.5243 Y14.557 I2.1023 J2.0967
G2 X17.5424 I0.0092 J-6.5
G1 F50.0 X17.5396 Y12.557
G3 F150.0 X21.0651 Y14.0173 I0.0068 J4.9695
G2 X21.0734 Y14.0256 I3.1862 J-3.1777
G3 X22.534 Y17.5516 I-3.5108 J3.5198
G2 Y17.5634 I4.5 J0.0056
G3 X21.0739 Y21.0879 I-4.9673 J0.0068
G2 X21.0653 Y21.0965 I3.1772 J3.1867
G3 X17.5392 Y22.5569 I-3.5198 J-3.5113
G2 X17.528 I-0.0057 J4.5
G3 X14.0011 Y21.0962 I-0.006 J-4.9738
G2 X13.9934 Y21.0885 I-3.1855 J3.1785
G3 X12.5326 Y17.5625 I3.5108 J-3.5201
G2 Y17.5509 I-4.5 J-0.0053
G3 X13.9928 Y14.0261 I4.9677 J-0.007
G2 X14.0017 Y14.0171 I-3.1773 J-3.1867
G3 X17.5271 Y12.557 I3.5184 J3.509
G2 X17.5396 I0.0064 J-4.5
G1 F50.0 X17.5369 Y10.557
G3 F150.0 X22.4812 Y12.605 I0.0095 J6.9695
G2 X22.4858 Y12.6096 I1.7701 J-1.7654
G3 X24.534 Y17.5541 I-4.9232 J4.9358
G2 Y17.5607 I2.5 J0.0031
G3 X22.486 Y22.5042 I-6.9673 J0.0096
G2 X22.4812 Y22.509 I1.7651 J1.7704
G3 X17.5366 Y24.5569 I-4.9357 J-4.9238
G2 X17.5304 I-0.0032 J2.5
G3 X12.5853 Y22.5089 I-0.0084 J-6.9738
G2 X12.5811 Y22.5046 I-1.7697 J1.7658
G3 X10.5326 Y17.5602 I4.9231 J-4.9362
G2 Y17.5537 I-2.5 J-0.0029
G3 X12.5806 Y12.6098 I6.9677 J-0.0098
G2 X12.5856 Y12.6048 I-1.7652 J-1.7704
G3 X17.5299 Y10.557 I4.9345 J4.9213
G2 X17.5369 I0.0035 J-2.5
G0 Z3.0
G0 X17.5451 Y16.557
G0 Z-13.0
G1 F50.0 Z-16.0
G3 F150.0 X18.2329 Y16.8419 I0.0013 J0.9695
G2 X18.2486 Y16.8577 I6.0185 J-6.0023
G3 X18.534 Y17.5466 I-0.686 J0.6877
G2 Y17.5689 I8.5 J0.0106
G3 X18.2497 Y18.2552 I-0.9673 J0.0013
G2 X18.2334 Y18.2715 I6.0014 J6.0194
G3 X17.5443 Y18.5569 I-0.6879 J-0.6862
G2 X17.5232 I-0.0108 J8.5
G3 X16.8327 Y18.2709 I-0.0012 J-0.9738
G2 X16.8181 Y18.2563 I-6.017 J6.0038
G3 X16.5326 Y17.5673 I0.6861 J-0.688
G2 Y17.5453 I-8.5 J-0.01
G3 X16.817 Y16.8587 I0.9677 J-0.0014
G2 X16.8339 Y16.8418 I-6.0015 J-6.0193
G3 X17.5214 Y16.557 I0.6862 J0.6843
G2 X17.5451 I0.012 J-8.5
G1 F50.0 X17.5424 Y14.557
G3 F150.0 X19.649 Y15.4296 I0.0041 J2.9695
G2 X19.661 Y15.4416 I4.6023 J-4.59
G3 X20.534 Y17.5491 I-2.0984 J2.1038
G2 Y17.5662 I6.5 J0.0081
G3 X19.6618 Y19.6716 I-2.9673 J0.0041
G2 X19.6493 Y19.684 I4.5893 J4.6031
G3 X17.5417 Y20.5569 I-2.1038 J-2.0987
G2 X17.5256 I-0.0083 J6.5
G3 X15.4169 Y19.6836 I-0.0036 J-2.9738
G2 X15.4057 Y19.6724 I-4.6013 J4.5911
G3 X14.5326 Y17.5649 I2.0985 J-2.104
G2 Y17.5481 I-6.5 J-0.0077
G3 X15.4049 Y15.4424 I2.9677 J-0.0042
G2 X15.4178 Y15.4295 I-4.5894 J-4.603
G3 X17.5243 Y14.557 I2.1023 J2.0967
G2 X17.5424 I0.0092 J-6.5
G1 F50.0 X17.5396 Y12.557
G3 F150.0 X21.0651 Y14.0173 I0.0068 J4.9695
G2 X21.0734 Y14.0256 I3.1862 J-3.1777
G3 X22.534 Y17.5516 I-3.5108 J3.5198
G2 Y17.5634 I4.5 J0.0056
G3 X21.0739 Y21.0879 I-4.9673 J0.0068
G2 X21.0653 Y21.0965 I3.1772 J3.1867
G3 X17.5392 Y22.5569 I-3.5198 J-3.5113
G2 X17.528 I-0.0057 J4.5
G3 X14.0011 Y21.0962 I-0.006 J-4.9738
G2 X13.9934 Y21.0885 I-3.1855 J3.1785
G3 X12.5326 Y17.5625 I3.5108 J-3.5201
G2 Y17.5509 I-4.5 J-0.0053
G3 X13.9928 Y14.0261 I4.9677 J-0.007
G2 X14.0017 Y14.0171 I-3.1773 J-3.1867
G3 X17.5271 Y12.557 I3.5184 J3.509
G2 X17.5396 I0.0064 J-4.5
G1 F50.0 X17.5369 Y10.557
G3 F150.0 X22.4812 Y12.605 I0.0095 J6.9695
G2 X22.4858 Y12.6096 I1.7701 J-1.7654
G3 X24.534 Y17.5541 I-4.9232 J4.9358
G2 Y17.5607 I2.5 J0.0031
G3 X22.486 Y22.5042 I-6.9673 J0.0096
G2 X22.4812 Y22.509 I1.7651 J1.7704
G3 X17.5366 Y24.5569 I-4.9357 J-4.9238
G2 X17.5304 I-0.0032 J2.5
G3 X12.5853 Y22.5089 I-0.0084 J-6.9738
G2 X12.5811 Y22.5046 I-1.7697 J1.7658
G3 X10.5326 Y17.5602 I4.9231 J-4.9362
G2 Y17.5537 I-2.5 J-0.0029
G3 X12.5806 Y12.6098 I6.9677 J-0.0098
G2 X12.5856 Y12.6048 I-1.7652 J-1.7704
G3 X17.5299 Y10.557 I4.9345 J4.9213
G2 X17.5369 I0.0035 J-2.5
G0 Z3.0
G0 X17.5451 Y16.557
G0 Z-15.0
G1 F50.0 Z-18.0
G3 F150.0 X18.2329 Y16.8419 I0.0013 J0.9695
G2 X18.2486 Y16.8577 I6.0185 J-6.0023
G3 X18.534 Y17.5466 I-0.686 J0.6877
G2 Y17.5689 I8.5 J0.0106
G3 X18.2497 Y18.2552 I-0.9673 J0.0013
G2 X18.2334 Y18.2715 I6.0014 J6.0194
G3 X17.5443 Y18.5569 I-0.6879 J-0.6862
G2 X17.5232 I-0.0108 J8.5
G3 X16.8327 Y18.2709 I-0.0012 J-0.9738
G2 X16.8181 Y18.2563 I-6.017 J6.0038
G3 X16.5326 Y17.5673 I0.6861 J-0.688
G2 Y17.5453 I-8.5 J-0.01
G3 X16.817 Y16.8587 I0.9677 J-0.0014
G2 X16.8339 Y16.8418 I-6.0015 J-6.0193
G3 X17.5214 Y16.557 I0.6862 J0.6843
G2 X17.5451 I0.012 J-8.5
G1 F50.0 X17.5424 Y14.557
G3 F150.0 X19.649 Y15.4296 I0.0041 J2.9695
G2 X19.661 Y15.4416 I4.6023 J-4.59
G3 X20.534 Y17.5491 I-2.0984 J2.1038
G2 Y17.5662 I6.5 J0.0081
G3 X19.6618 Y19.6716 I-2.9673 J0.0041
G2 X19.6493 Y19.684 I4.5893 J4.6031
G3 X17.5417 Y20.5569 I-2.1038 J-2.0987
G2 X17.5256 I-0.0083 J6.5
G3 X15.4169 Y19.6836 I-0.0036 J-2.9738
G2 X15.4057 Y19.6724 I-4.6013 J4.5911
G3 X14.5326 Y17.5649 I2.0985 J-2.104
G2 Y17.5481 I-6.5 J-0.0077
G3 X15.4049 Y15.4424 I2.9677 J-0.0042
G2 X15.4178 Y15.4295 I-4.5894 J-4.603
G3 X17.5243 Y14.557 I2.1023 J2.0967
G2 X17.5424 I0.0092 J-6.5
G1 F50.0 X17.5396 Y12.557
G3 F150.0 X21.0651 Y14.0173 I0.0068 J4.9695
G2 X21.0734 Y14.0256 I3.1862 J-3.1777
G3 X22.534 Y17.5516 I-3.5108 J3.5198
G2 Y17.5634 I4.5 J0.0056
G3 X21.0739 Y21.0879 I-4.9673 J0.0068
G2 X21.0653 Y21.0965 I3.1772 J3.1867
G3 X17.5392 Y22.5569 I-3.5198 J-3.5113
G2 X17.528 I-0.0057 J4.5
G3 X14.0011 Y21.0962 I-0.006 J-4.9738
G2 X13.9934 Y21.0885 I-3.1855 J3.1785
G3 X12.5326 Y17.5625 I3.5108 J-3.5201
G2 Y17.5509 I-4.5 J-0.0053
G3 X13.9928 Y14.0261 I4.9677 J-0.007
G2 X14.0017 Y14.0171 I-3.1773 J-3.1867
G3 X17.5271 Y12.557 I3.5184 J3.509
G2 X17.5396 I0.0064 J-4.5
G1 F50.0 X17.5369 Y10.557
G3 F150.0 X22.4812 Y12.605 I0.0095 J6.9695
G2 X22.4858 Y12.6096 I1.7701 J-1.7654
G3 X24.534 Y17.5541 I-4.9232 J4.9358
G2 Y17.5607 I2.5 J0.0031
G3 X22.486 Y22.5042 I-6.9673 J0.0096
G2 X22.4812 Y22.509 I1.7651 J1.7704
G3 X17.5366 Y24.5569 I-4.9357 J-4.9238
G2 X17.5304 I-0.0032 J2.5
G3 X12.5853 Y22.5089 I-0.0084 J-6.9738
G2 X12.5811 Y22.5046 I-1.7697 J1.7658
G3 X10.5326 Y17.5602 I4.9231 J-4.9362
G2 Y17.5537 I-2.5 J-0.0029
G3 X12.5806 Y12.6098 I6.9677 J-0.0098
G2 X12.5856 Y12.6048 I-1.7652 J-1.7704
G3 X17.5299 Y10.557 I4.9345 J4.9213
G2 X17.5369 I0.0035 J-2.5
G0 Z3.0
G0 X17.5451 Y16.557
G0 Z-17.0
G1 F50.0 Z-20.0
G3 F150.0 X18.2329 Y16.8419 I0.0013 J0.9695
G2 X18.2486 Y16.8577 I6.0185 J-6.0023
G3 X18.534 Y17.5466 I-0.686 J0.6877
G2 Y17.5689 I8.5 J0.0106
G3 X18.2497 Y18.2552 I-0.9673 J0.0013
G2 X18.2334 Y18.2715 I6.0014 J6.0194
G3 X17.5443 Y18.5569 I-0.6879 J-0.6862
G2 X17.5232 I-0.0108 J8.5
G3 X16.8327 Y18.2709 I-0.0012 J-0.9738
G2 X16.8181 Y18.2563 I-6.017 J6.0038
G3 X16.5326 Y17.5673 I0.6861 J-0.688
G2 Y17.5453 I-8.5 J-0.01
G3 X16.817 Y16.8587 I0.9677 J-0.0014
G2 X16.8339 Y16.8418 I-6.0015 J-6.0193
G3 X17.5214 Y16.557 I0.6862 J0.6843
G2 X17.5451 I0.012 J-8.5
G1 F50.0 X17.5424 Y14.557
G3 F150.0 X19.649 Y15.4296 I0.0041 J2.9695
G2 X19.661 Y15.4416 I4.6023 J-4.59
G3 X20.534 Y17.5491 I-2.0984 J2.1038
G2 Y17.5662 I6.5 J0.0081
G3 X19.6618 Y19.6716 I-2.9673 J0.0041
G2 X19.6493 Y19.684 I4.5893 J4.6031
G3 X17.5417 Y20.5569 I-2.1038 J-2.0987
G2 X17.5256 I-0.0083 J6.5
G3 X15.4169 Y19.6836 I-0.0036 J-2.9738
G2 X15.4057 Y19.6724 I-4.6013 J4.5911
G3 X14.5326 Y17.5649 I2.0985 J-2.104
G2 Y17.5481 I-6.5 J-0.0077
G3 X15.4049 Y15.4424 I2.9677 J-0.0042
G2 X15.4178 Y15.4295 I-4.5894 J-4.603
G3 X17.5243 Y14.557 I2.1023 J2.0967
G2 X17.5424 I0.0092 J-6.5
G1 F50.0 X17.5396 Y12.557
G3 F150.0 X21.0651 Y14.0173 I0.0068 J4.9695
G2 X21.0734 Y14.0256 I3.1862 J-3.1777
G3 X22.534 Y17.5516 I-3.5108 J3.5198
G2 Y17.5634 I4.5 J0.0056
G3 X21.0739 Y21.0879 I-4.9673 J0.0068
G2 X21.0653 Y21.0965 I3.1772 J3.1867
G3 X17.5392 Y22.5569 I-3.5198 J-3.5113
G2 X17.528 I-0.0057 J4.5
G3 X14.0011 Y21.0962 I-0.006 J-4.9738
G2 X13.9934 Y21.0885 I-3.1855 J3.1785
G3 X12.5326 Y17.5625 I3.5108 J-3.5201
G2 Y17.5509 I-4.5 J-0.0053
G3 X13.9928 Y14.0261 I4.9677 J-0.007
G2 X14.0017 Y14.0171 I-3.1773 J-3.1867
G3 X17.5271 Y12.557 I3.5184 J3.509
G2 X17.5396 I0.0064 J-4.5
G1 F50.0 X17.5369 Y10.557
G3 F150.0 X22.4812 Y12.605 I0.0095 J6.9695
G2 X22.4858 Y12.6096 I1.7701 J-1.7654
G3 X24.534 Y17.5541 I-4.9232 J4.9358
G2 Y17.5607 I2.5 J0.0031
G3 X22.486 Y22.5042 I-6.9673 J0.0096
G2 X22.4812 Y22.509 I1.7651 J1.7704
G3 X17.5366 Y24.5569 I-4.9357 J-4.9238
G2 X17.5304 I-0.0032 J2.5
G3 X12.5853 Y22.5089 I-0.0084 J-6.9738
G2 X12.5811 Y22.5046 I-1.7697 J1.7658
G3 X10.5326 Y17.5602 I4.9231 J-4.9362
G2 Y17.5537 I-2.5 J-0.0029
G3 X12.5806 Y12.6098 I6.9677 J-0.0098
G2 X12.5856 Y12.6048 I-1.7652 J-1.7704
G3 X17.5299 Y10.557 I4.9345 J4.9213
G2 X17.5369 I0.0035 J-2.5
G0 Z3.0
G0 X17.5451 Y16.557
G0 Z-19.0
G1 F50.0 Z-22.0
G3 F150.0 X18.2329 Y16.8419 I0.0013 J0.9695
G2 X18.2486 Y16.8577 I6.0185 J-6.0023
G3 X18.534 Y17.5466 I-0.686 J0.6877
G2 Y17.5689 I8.5 J0.0106
G3 X18.2497 Y18.2552 I-0.9673 J0.0013
G2 X18.2334 Y18.2715 I6.0014 J6.0194
G3 X17.5443 Y18.5569 I-0.6879 J-0.6862
G2 X17.5232 I-0.0108 J8.5
G3 X16.8327 Y18.2709 I-0.0012 J-0.9738
G2 X16.8181 Y18.2563 I-6.017 J6.0038
G3 X16.5326 Y17.5673 I0.6861 J-0.688
G2 Y17.5453 I-8.5 J-0.01
G3 X16.817 Y16.8587 I0.9677 J-0.0014
G2 X16.8339 Y16.8418 I-6.0015 J-6.0193
G3 X17.5214 Y16.557 I0.6862 J0.6843
G2 X17.5451 I0.012 J-8.5
G1 F50.0 X17.5424 Y14.557
G3 F150.0 X19.649 Y15.4296 I0.0041 J2.9695
G2 X19.661 Y15.4416 I4.6023 J-4.59
G3 X20.534 Y17.5491 I-2.0984 J2.1038
G2 Y17.5662 I6.5 J0.0081
G3 X19.6618 Y19.6716 I-2.9673 J0.0041
G2 X19.6493 Y19.684 I4.5893 J4.6031
G3 X17.5417 Y20.5569 I-2.1038 J-2.0987
G2 X17.5256 I-0.0083 J6.5
G3 X15.4169 Y19.6836 I-0.0036 J-2.9738
G2 X15.4057 Y19.6724 I-4.6013 J4.5911
G3 X14.5326 Y17.5649 I2.0985 J-2.104
G2 Y17.5481 I-6.5 J-0.0077
G3 X15.4049 Y15.4424 I2.9677 J-0.0042
G2 X15.4178 Y15.4295 I-4.5894 J-4.603
G3 X17.5243 Y14.557 I2.1023 J2.0967
G2 X17.5424 I0.0092 J-6.5
G1 F50.0 X17.5396 Y12.557
G3 F150.0 X21.0651 Y14.0173 I0.0068 J4.9695
G2 X21.0734 Y14.0256 I3.1862 J-3.1777
G3 X22.534 Y17.5516 I-3.5108 J3.5198
G2 Y17.5634 I4.5 J0.0056
G3 X21.0739 Y21.0879 I-4.9673 J0.0068
G2 X21.0653 Y21.0965 I3.1772 J3.1867
G3 X17.5392 Y22.5569 I-3.5198 J-3.5113
G2 X17.528 I-0.0057 J4.5
G3 X14.0011 Y21.0962 I-0.006 J-4.9738
G2 X13.9934 Y21.0885 I-3.1855 J3.1785
G3 X12.5326 Y17.5625 I3.5108 J-3.5201
G2 Y17.5509 I-4.5 J-0.0053
G3 X13.9928 Y14.0261 I4.9677 J-0.007
G2 X14.0017 Y14.0171 I-3.1773 J-3.1867
G3 X17.5271 Y12.557 I3.5184 J3.509
G2 X17.5396 I0.0064 J-4.5
G1 F50.0 X17.5369 Y10.557
G3 F150.0 X22.4812 Y12.605 I0.0095 J6.9695
G2 X22.4858 Y12.6096 I1.7701 J-1.7654
G3 X24.534 Y17.5541 I-4.9232 J4.9358
G2 Y17.5607 I2.5 J0.0031
G3 X22.486 Y22.5042 I-6.9673 J0.0096
G2 X22.4812 Y22.509 I1.7651 J1.7704
G3 X17.5366 Y24.5569 I-4.9357 J-4.9238
G2 X17.5304 I-0.0032 J2.5
G3 X12.5853 Y22.5089 I-0.0084 J-6.9738
G2 X12.5811 Y22.5046 I-1.7697 J1.7658
G3 X10.5326 Y17.5602 I4.9231 J-4.9362
G2 Y17.5537 I-2.5 J-0.0029
G3 X12.5806 Y12.6098 I6.9677 J-0.0098
G2 X12.5856 Y12.6048 I-1.7652 J-1.7704
G3 X17.5299 Y10.557 I4.9345 J4.9213
G2 X17.5369 I0.0035 J-2.5
G0 Z3.0
G0 X66.3693 Y17.41
G0 Z1.0
G1 F50.0 Z-2.0
G3 F150.0 X66.645 Y16.8578 I0.961 J0.1349
G2 X66.6607 Y16.842 I-6.0026 J-6.0182
G3 X67.3487 Y16.557 I0.6867 J0.6849
G2 X67.3732 I0.0113 J-8.5
G3 X67.7377 Y16.6284 I0.0015 J0.9582
G3 X68.0666 Y16.8496 I-0.3995 J0.9494
G2 X68.0751 Y16.858 I6.0109 J-6.0099
G3 X68.3599 Y17.5457 I-0.6845 J0.6863
G2 Y17.5681 I8.5 J0.0116
G3 X68.0749 Y18.2561 I-0.9701 J0.0012
G2 X68.0597 Y18.2713 I6.0025 J6.0183
G3 X67.3702 Y18.5569 I-0.6884 J-0.6868
G2 X67.3492 I-0.0101 J8.5
G3 X66.6605 Y18.2717 I-0.0012 J-0.971
G2 X66.6448 Y18.256 I-6.0179 J6.0029
G3 X66.3599 Y17.5682 I0.6847 J-0.6865
G2 Y17.5461 I-8.5 J-0.011
G3 X66.3693 Y17.41 I0.9704 J-0.0013
G1 F50.0 X64.3887 Y17.132
G3 F150.0 X65.2326 Y15.4417 I2.9416 J0.4128
G2 X65.2447 Y15.4297 I-4.5902 J-4.6022
G3 X67.3514 Y14.557 I2.1028 J2.0972
G2 X67.3701 I0.0087 J-6.5
G3 X68.5044 Y14.7812 I0.0046 J2.9582
G3 X69.481 Y15.4355 I-1.1662 J2.7966
G2 X69.4874 Y15.4419 I4.5966 J-4.5958
G3 X70.3599 Y17.5484 I-2.0969 J2.1024
G2 Y17.5655 I6.5 J0.0088
G3 X69.4872 Y19.6722 I-2.9701 J0.0038
G2 X69.4756 Y19.6838 I4.5901 J4.6023
G3 X67.3678 Y20.5569 I-2.1043 J-2.0993
G2 X67.3517 I-0.0077 J6.5
G3 X65.2445 Y19.6841 I-0.0038 J-2.971
G2 X65.2325 Y19.6721 I-4.6019 J4.5904
G3 X64.3599 Y17.5656 I2.097 J-2.1027
G2 Y17.5487 I-6.5 J-0.0084
G3 X64.3887 Y17.132 I2.9704 J-0.0039
G1 F50.0 X62.4081 Y16.8541
G3 F150.0 X63.8202 Y14.0257 I4.9222 J0.6908
G2 X63.8286 Y14.0173 I-3.1778 J-3.1861
G3 X67.3541 Y12.557 I3.5189 J3.5095
G2 X67.367 I0.006 J-4.5
G3 X69.2712 Y12.9341 I0.0077 J4.9582
G3 X70.8953 Y14.0214 I-1.933 J4.6438
G2 X70.8998 Y14.0258 I3.1822 J-3.1817
G3 X72.3599 Y17.5511 I-3.5092 J3.5185
G2 Y17.563 I4.5 J0.0061
G3 X70.8996 Y21.0883 I-4.9701 J0.0063
G2 X70.8916 Y21.0963 I3.1778 J3.1862
G3 X67.3654 Y22.5569 I-3.5202 J-3.5118
G2 X67.3543 I-0.0054 J4.5
G3 X63.8285 Y21.0966 I-0.0064 J-4.971
G2 X63.8202 Y21.0883 I-3.186 J3.178
G3 X62.3599 Y17.563 I3.5093 J-3.5188
G2 Y17.5514 I-4.5 J-0.0058
G3 X62.4081 Y16.8541 I4.9704 J-0.0065
G1 F50.0 X60.4275 Y16.5761
G3 F150.0 X62.4078 Y12.6096 I6.9028 J0.9687
G2 X62.4125 Y12.605 I-1.7655 J-1.7701
G3 X67.3567 Y10.557 I4.9349 J4.9219
G2 X67.3639 I0.0033 J-2.5
G3 X70.038 Y11.0869 I0.0108 J6.9582
G3 X72.3096 Y12.6073 I-2.6998 J6.491
G2 X72.3121 Y12.6098 I1.7679 J-1.7676
G3 X74.3599 Y17.5538 I-4.9215 J4.9346
G2 Y17.5604 I2.5 J0.0034
G3 X72.3119 Y22.5044 I-6.9701 J0.0089
G2 X72.3075 Y22.5088 I1.7654 J1.7701
G3 X67.363 Y24.5569 I-4.9361 J-4.9243
G2 X67.3569 I-0.003 J2.5
G3 X62.4125 Y22.509 I-0.0089 J-6.971
G2 X62.4079 Y22.5044 I-1.77 J1.7656
G3 X60.3599 Y17.5605 I4.9215 J-4.9349
G2 Y17.554 I-2.5 J-0.0032
G3 X60.4275 Y16.5761 I6.9704 J-0.0091
G0 Z3.0
G0 X66.3693 Y17.41
G0 Z-1.0
G1 F50.0 Z-4.0
G3 F150.0 X66.645 Y16.8578 I0.961 J0.1349
G2 X66.6607 Y16.842 I-6.0026 J-6.0182
G3 X67.3487 Y16.557 I0.6867 J0.6849
G2 X67.3732 I0.0113 J-8.5
G3 X67.7377 Y16.6284 I0.0015 J0.9582
G3 X68.0666 Y16.8496 I-0.3995 J0.9494
G2 X68.0751 Y16.858 I6.0109 J-6.0099
G3 X68.3599 Y17.5457 I-0.6845 J0.6863
G2 Y17.5681 I8.5 J0.0116
G3 X68.0749 Y18.2561 I-0.9701 J0.0012
G2 X68.0597 Y18.2713 I6.0025 J6.0183
G3 X67.3702 Y18.5569 I-0.6884 J-0.6868
G2 X67.3492 I-0.0101 J8.5
G3 X66.6605 Y18.2717 I-0.0012 J-0.971
G2 X66.6448 Y18.256 I-6.0179 J6.0029
G3 X66.3599 Y17.5682 I0.6847 J-0.6865
G2 Y17.5461 I-8.5 J-0.011
G3 X66.3693 Y17.41 I0.9704 J-0.0013
G1 F50.0 X64.3887 Y17.132
G3 F150.0 X65.2326 Y15.4417 I2.9416 J0.4128
G2 X65.2447 Y15.4297 I-4.5902 J-4.6022
G3 X67.3514 Y14.557 I2.1028 J2.0972
G2 X67.3701 I0.0087 J-6.5
G3 X68.5044 Y14.7812 I0.0046 J2.9582
G3 X69.481 Y15.4355 I-1.1662 J2.7966
G2 X69.4874 Y15.4419 I4.5966 J-4.5958
G3 X70.3599 Y17.5484 I-2.0969 J2.1024
G2 Y17.5655 I6.5 J0.0088
G3 X69.4872 Y19.6722 I-2.9701 J0.0038
G2 X69.4756 Y19.6838 I4.5901 J4.6023
G3 X67.3678 Y20.5569 I-2.1043 J-2.0993
G2 X67.3517 I-0.0077 J6.5
G3 X65.2445 Y19.6841 I-0.0038 J-2.971
G2 X65.2325 Y19.6721 I-4.6019 J4.5904
G3 X64.3599 Y17.5656 I2.097 J-2.1027
G2 Y17.5487 I-6.5 J-0.0084
G3 X64.3887 Y17.132 I2.9704 J-0.0039
G1 F50.0 X62.4081 Y16.8541
G3 F150.0 X63.8202 Y14.0257 I4.9222 J0.6908
G2 X63.8286 Y14.0173 I-3.1778 J-3.1861
G3 X67.3541 Y12.557 I3.5189 J3.5095
G2 X67.367 I0.006 J-4.5
G3 X69.2712 Y12.9341 I0.0077 J4.9582
G3 X70.8953 Y14.0214 I-1.933 J4.6438
G2 X70.8998 Y14.0258 I3.1822 J-3.1817
G3 X72.3599 Y17.5511 I-3.5092 J3.5185
G2 Y17.563 I4.5 J0.0061
G3 X70.8996 Y21.0883 I-4.9701 J0.0063
G2 X70.8916 Y21.0963 I3.1778 J3.1862
G3 X67.3654 Y22.5569 I-3.5202 J-3.5118
G2 X67.3543 I-0.0054 J4.5
G3 X63.8285 Y21.0966 I-0.0064 J-4.971
G2 X63.8202 Y21.0883 I-3.186 J3.178
G3 X62.3599 Y17.563 I3.5093 J-3.5188
G2 Y17.5514 I-4.5 J-0.0058
G3 X62.4081 Y16.8541 I4.9704 J-0.0065
G1 F50.0 X60.4275 Y16.5761
G3 F150.0 X62.4078 Y12.6096 I6.9028 J0.9687
G2 X62.4125 Y12.605 I-1.7655 J-1.7701
G3 X67.3567 Y10.557 I4.9349 J4.9219
G2 X67.3639 I0.0033 J-2.5
G3 X70.038 Y11.0869 I0.0108 J6.9582
G3 X72.3096 Y12.6073 I-2.6998 J6.491
G2 X72.3121 Y12.6098 I1.7679 J-1.7676
G3 X74.3599 Y17.5538 I-4.9215 J4.9346
G2 Y17.5604 I2.5 J0.0034
G3 X72.3119 Y22.5044 I-6.9701 J0.0089
G2 X72.3075 Y22.5088 I1.7654 J1.7701
G3 X67.363 Y24.5569 I-4.9361 J-4.9243
G2 X67.3569 I-0.003 J2.5
G3 X62.4125 Y22.509 I-0.0089 J-6.971
G2 X62.4079 Y22.5044 I-1.77 J1.7656
G3 X60.3599 Y17.5605 I4.9215 J-4.9349
G2 Y17.554 I-2.5 J-0.0032
G3 X60.4275 Y16.5761 I6.9704 J-0.0091
G0 Z3.0
G0 X66.3693 Y17.41
G0 Z-3.0
G1 F50.0 Z-6.0
G3 F150.0 X66.645 Y16.8578 I0.961 J0.1349
G2 X66.6607 Y16.842 I-6.0026 J-6.0182
G3 X67.3487 Y16.557 I0.6867 J0.6849
G2 X67.3732 I0.0113 J-8.5
G3 X67.7377 Y16.6284 I0.0015 J0.9582
G3 X68.0666 Y16.8496 I-0.3995 J0.9494
G2 X68.0751 Y16.858 I6.0109 J-6.0099
G3 X68.3599 Y17.5457 I-0.6845 J0.6863
G2 Y17.5681 I8.5 J0.0116
G3 X68.0749 Y18.2561 I-0.9701 J0.0012
G2 X68.0597 Y18.2713 I6.0025 J6.0183
G3 X67.3702 Y18.5569 I-0.6884 J-0.6868
G2 X67.3492 I-0.0101 J8.5
G3 X66.6605 Y18.2717 I-0.0012 J-0.971
G2 X66.6448 Y18.256 I-6.0179 J6.0029
G3 X66.3599 Y17.5682 I0.6847 J-0.6865
G2 Y17.5461 I-8.5 J-0.011
G3 X66.3693 Y17.41 I0.9704 J-0.0013
G1 F50.0 X64.3887 Y17.132
G3 F150.0 X65.2326 Y15.4417 I2.9416 J0.4128
G2 X65.2447 Y15.4297 I-4.5902 J-4.6022
G3 X67.3514 Y14.557 I2.1028 J2.0972
G2 X67.3701 I0.0087 J-6.5
G3 X68.5044 Y14.7812 I0.0046 J2.9582
G3 X69.481 Y15.4355 I-1.1662 J2.7966
G2 X69.4874 Y15.4419 I4.5966 J-4.5958
G3 X70.3599 Y17.5484 I-2.0969 J2.1024
G2 Y17.5655 I6.5 J0.0088
G3 X69.4872 Y19.6722 I-2.9701 J0.0038
G2 X69.4756 Y19.6838 I4.5901 J4.6023
G3 X67.3678 Y20.5569 I-2.1043 J-2.0993
G2 X67.3517 I-0.0077 J6.5
G3 X65.2445 Y19.6841 I-0.0038 J-2.971
G2 X65.2325 Y19.6721 I-4.6019 J4.5904
G3 X64.3599 Y17.5656 I2.097 J-2.1027
G2 Y17.5487 I-6.5 J-0.0084
G3 X64.3887 Y17.132 I2.9704 J-0.0039
G1 F50.0 X62.4081 Y16.8541
G3 F150.0 X63.8202 Y14.0257 I4.9222 J0.6908
G2 X63.8286 Y14.0173 I-3.1778 J-3.1861
G3 X67.3541 Y12.557 I3.5189 J3.5095
G2 X67.367 I0.006 J-4.5
G3 X69.2712 Y12.9341 I0.0077 J4.9582
G3 X70.8953 Y14.0214 I-1.933 J4.6438
G2 X70.8998 Y14.0258 I3.1822 J-3.1817
G3 X72.3599 Y17.5511 I-3.5092 J3.5185
G2 Y17.563 I4.5 J0.0061
G3 X70.8996 Y21.0883 I-4.9701 J0.0063
G2 X70.8916 Y21.0963 I3.1778 J3.1862
G3 X67.3654 Y22.5569 I-3.5202 J-3.5118
G2 X67.3543 I-0.0054 J4.5
G3 X63.8285 Y21.0966 I-0.0064 J-4.971
G2 X63.8202 Y21.0883 I-3.186 J3.178
G3 X62.3599 Y17.563 I3.5093 J-3.5188
G2 Y17.5514 I-4.5 J-0.0058
G3 X62.4081 Y16.8541 I4.9704 J-0.0065
G1 F50.0 X60.4275 Y16.5761
G3 F150.0 X62.4078 Y12.6096 I6.9028 J0.9687
G2 X62.4125 Y12.605 I-1.7655 J-1.7701
G3 X67.3567 Y10.557 I4.9349 J4.9219
G2 X67.3639 I0.0033 J-2.5
G3 X70.038 Y11.0869 I0.0108 J6.9582
G3 X72.3096 Y12.6073 I-2.6998 J6.491
G2 X72.3121 Y12.6098 I1.7679 J-1.7676
G3 X74.3599 Y17.5538 I-4.9215 J4.9346
G2 Y17.5604 I2.5 J0.0034
G3 X72.3119 Y22.5044 I-6.9701 J0.0089
G2 X72.3075 Y22.5088 I1.7654 J1.7701
G3 X67.363 Y24.5569 I-4.9361 J-4.9243
G2 X67.3569 I-0.003 J2.5
G3 X62.4125 Y22.509 I-0.0089 J-6.971
G2 X62.4079 Y22.5044 I-1.77 J1.7656
G3 X60.3599 Y17.5605 I4.9215 J-4.9349
G2 Y17.554 I-2.5 J-0.0032
G3 X60.4275 Y16.5761 I6.9704 J-0.0091
G0 Z3.0
G0 X66.3693 Y17.41
G0 Z-5.0
G1 F50.0 Z-8.0
G3 F150.0 X66.645 Y16.8578 I0.961 J0.1349
G2 X66.6607 Y16.842 I-6.0026 J-6.0182
G3 X67.3487 Y16.557 I0.6867 J0.6849
G2 X67.3732 I0.0113 J-8.5
G3 X67.7377 Y16.6284 I0.0015 J0.9582
G3 X68.0666 Y16.8496 I-0.3995 J0.9494
G2 X68.0751 Y16.858 I6.0109 J-6.0099
G3 X68.3599 Y17.5457 I-0.6845 J0.6863
G2 Y17.5681 I8.5 J0.0116
G3 X68.0749 Y18.2561 I-0.9701 J0.0012
G2 X68.0597 Y18.2713 I6.0025 J6.0183
G3 X67.3702 Y18.5569 I-0.6884 J-0.6868
G2 X67.3492 I-0.0101 J8.5
G3 X66.6605 Y18.2717 I-0.0012 J-0.971
G2 X66.6448 Y18.256 I-6.0179 J6.0029
G3 X66.3599 Y17.5682 I0.6847 J-0.6865
G2 Y17.5461 I-8.5 J-0.011
G3 X66.3693 Y17.41 I0.9704 J-0.0013
G1 F50.0 X64.3887 Y17.132
G3 F150.0 X65.2326 Y15.4417 I2.9416 J0.4128
G2 X65.2447 Y15.4297 I-4.5902 J-4.6022
G3 X67.3514 Y14.557 I2.1028 J2.0972
G2 X67.3701 I0.0087 J-6.5
G3 X68.5044 Y14.7812 I0.0046 J2.9582
G3 X69.481 Y15.4355 I-1.1662 J2.7966
G2 X69.4874 Y15.4419 I4.5966 J-4.5958
G3 X70.3599 Y17.5484 I-2.0969 J2.1024
G2 Y17.5655 I6.5 J0.0088
G3 X69.4872 Y19.6722 I-2.9701 J0.0038
G2 X69.4756 Y19.6838 I4.5901 J4.6023
G3 X67.3678 Y20.5569 I-2.1043 J-2.0993
G2 X67.3517 I-0.0077 J6.5
G3 X65.2445 Y19.6841 I-0.0038 J-2.971
G2 X65.2325 Y19.6721 I-4.6019 J4.5904
G3 X64.3599 Y17.5656 I2.097 J-2.1027
G2 Y17.5487 I-6.5 J-0.0084
G3 X64.3887 Y17.132 I2.9704 J-0.0039
G1 F50.0 X62.4081 Y16.8541
G3 F150.0 X63.8202 Y14.0257 I4.9222 J0.6908
G2 X63.8286 Y14.0173 I-3.1778 J-3.1861
G3 X67.3541 Y12.557 I3.5189 J3.5095
G2 X67.367 I0.006 J-4.5
G3 X69.2712 Y12.9341 I0.0077 J4.9582
G3 X70.8953 Y14.0214 I-1.933 J4.6438
G2 X70.8998 Y14.0258 I3.1822 J-3.1817
G3 X72.3599 Y17.5511 I-3.5092 J3.5185
G2 Y17.563 I4.5 J0.0061
G3 X70.8996 Y21.0883 I-4.9701 J0.0063
G2 X70.8916 Y21.0963 I3.1778 J3.1862
G3 X67.3654 Y22.5569 I-3.5202 J-3.5118
G2 X67.3543 I-0.0054 J4.5
G3 X63.8285 Y21.0966 I-0.0064 J-4.971
G2 X63.8202 Y21.0883 I-3.186 J3.178
G3 X62.3599 Y17.563 I3.5093 J-3.5188
G2 Y17.5514 I-4.5 J-0.0058
G3 X62.4081 Y16.8541 I4.9704 J-0.0065
G1 F50.0 X60.4275 Y16.5761
G3 F150.0 X62.4078 Y12.6096 I6.9028 J0.9687
G2 X62.4125 Y12.605 I-1.7655 J-1.7701
G3 X67.3567 Y10.557 I4.9349 J4.9219
G2 X67.3639 I0.0033 J-2.5
G3 X70.038 Y11.0869 I0.0108 J6.9582
G3 X72.3096 Y12.6073 I-2.6998 J6.491
G2 X72.3121 Y12.6098 I1.7679 J-1.7676
G3 X74.3599 Y17.5538 I-4.9215 J4.9346
G2 Y17.5604 I2.5 J0.0034
G3 X72.3119 Y22.5044 I-6.9701 J0.0089
G2 X72.3075 Y22.5088 I1.7654 J1.7701
G3 X67.363 Y24.5569 I-4.9361 J-4.9243
G2 X67.3569 I-0.003 J2.5
G3 X62.4125 Y22.509 I-0.0089 J-6.971
G2 X62.4079 Y22.5044 I-1.77 J1.7656
G3 X60.3599 Y17.5605 I4.9215 J-4.9349
G2 Y17.554 I-2.5 J-0.0032
G3 X60.4275 Y16.5761 I6.9704 J-0.0091
G0 Z3.0
G0 X66.3693 Y17.41
G0 Z-7.0
G1 F50.0 Z-10.0
G3 F150.0 X66.645 Y16.8578 I0.961 J0.1349
G2 X66.6607 Y16.842 I-6.0026 J-6.0182
G3 X67.3487 Y16.557 I0.6867 J0.6849
G2 X67.3732 I0.0113 J-8.5
G3 X67.7377 Y16.6284 I0.0015 J0.9582
G3 X68.0666 Y16.8496 I-0.3995 J0.9494
G2 X68.0751 Y16.858 I6.0109 J-6.0099
G3 X68.3599 Y17.5457 I-0.6845 J0.6863
G2 Y17.5681 I8.5 J0.0116
G3 X68.0749 Y18.2561 I-0.9701 J0.0012
G2 X68.0597 Y18.2713 I6.0025 J6.0183
G3 X67.3702 Y18.5569 I-0.6884 J-0.6868
G2 X67.3492 I-0.0101 J8.5
G3 X66.6605 Y18.2717 I-0.0012 J-0.971
G2 X66.6448 Y18.256 I-6.0179 J6.0029
G3 X66.3599 Y17.5682 I0.6847 J-0.6865
G2 Y17.5461 I-8.5 J-0.011
G3 X66.3693 Y17.41 I0.9704 J-0.0013
G1 F50.0 X64.3887 Y17.132
G3 F150.0 X65.2326 Y15.4417 I2.9416 J0.4128
G2 X65.2447 Y15.4297 I-4.5902 J-4.6022
G3 X67.3514 Y14.557 I2.1028 J2.0972
G2 X67.3701 I0.0087 J-6.5
G3 X68.5044 Y14.7812 I0.0046 J2.9582
G3 X69.481 Y15.4355 I-1.1662 J2.7966
G2 X69.4874 Y15.4419 I4.5966 J-4.5958
G3 X70.3599 Y17.5484 I-2.0969 J2.1024
G2 Y17.5655 I6.5 J0.0088
G3 X69.4872 Y19.6722 I-2.9701 J0.0038
G2 X69.4756 Y19.6838 I4.5901 J4.6023
G3 X67.3678 Y20.5569 I-2.1043 J-2.0993
G2 X67.3517 I-0.0077 J6.5
G3 X65.2445 Y19.6841 I-0.0038 J-2.971
G2 X65.2325 Y19.6721 I-4.6019 J4.5904
G3 X64.3599 Y17.5656 I2.097 J-2.1027
G2 Y17.5487 I-6.5 J-0.0084
G3 X64.3887 Y17.132 I2.9704 J-0.0039
G1 F50.0 X62.4081 Y16.8541
G3 F150.0 X63.8202 Y14.0257 I4.9222 J0.6908
G2 X63.8286 Y14.0173 I-3.1778 J-3.1861
G3 X67.3541 Y12.557 I3.5189 J3.5095
G2 X67.367 I0.006 J-4.5
G3 X69.2712 Y12.9341 I0.0077 J4.9582
G3 X70.8953 Y14.0214 I-1.933 J4.6438
G2 X70.8998 Y14.0258 I3.1822 J-3.1817
G3 X72.3599 Y17.5511 I-3.5092 J3.5185
G2 Y17.563 I4.5 J0.0061
G3 X70.8996 Y21.0883 I-4.9701 J0.0063
G2 X70.8916 Y21.0963 I3.1778 J3.1862
G3 X67.3654 Y22.5569 I-3.5202 J-3.5118
G2 X67.3543 I-0.0054 J4.5
G3 X63.8285 Y21.0966 I-0.0064 J-4.971
G2 X63.8202 Y21.0883 I-3.186 J3.178
G3 X62.3599 Y17.563 I3.5093 J-3.5188
G2 Y17.5514 I-4.5 J-0.0058
G3 X62.4081 Y16.8541 I4.9704 J-0.0065
G1 F50.0 X60.4275 Y16.5761
G3 F150.0 X62.4078 Y12.6096 I6.9028 J0.9687
G2 X62.4125 Y12.605 I-1.7655 J-1.7701
G3 X67.3567 Y10.557 I4.9349 J4.9219
G2 X67.3639 I0.0033 J-2.5
G3 X70.038 Y11.0869 I0.0108 J6.9582
G3 X72.3096 Y12.6073 I-2.6998 J6.491
G2 X72.3121 Y12.6098 I1.7679 J-1.7676
G3 X74.3599 Y17.5538 I-4.9215 J4.9346
G2 Y17.5604 I2.5 J0.0034
G3 X72.3119 Y22.5044 I-6.9701 J0.0089
G2 X72.3075 Y22.5088 I1.7654 J1.7701
G3 X67.363 Y24.5569 I-4.9361 J-4.9243
G2 X67.3569 I-0.003 J2.5
G3 X62.4125 Y22.509 I-0.0089 J-6.971
G2 X62.4079 Y22.5044 I-1.77 J1.7656
G3 X60.3599 Y17.5605 I4.9215 J-4.9349
G2 Y17.554 I-2.5 J-0.0032
G3 X60.4275 Y16.5761 I6.9704 J-0.0091
G0 Z3.0
G0 X66.3693 Y17.41
G0 Z-9.0
G1 F50.0 Z-12.0
G3 F150.0 X66.645 Y16.8578 I0.961 J0.1349
G2 X66.6607 Y16.842 I-6.0026 J-6.0182
G3 X67.3487 Y16.557 I0.6867 J0.6849
G2 X67.3732 I0.0113 J-8.5
G3 X67.7377 Y16.6284 I0.0015 J0.9582
G3 X68.0666 Y16.8496 I-0.3995 J0.9494
G2 X68.0751 Y16.858 I6.0109 J-6.0099
G3 X68.3599 Y17.5457 I-0.6845 J0.6863
G2 Y17.5681 I8.5 J0.0116
G3 X68.0749 Y18.2561 I-0.9701 J0.0012
G2 X68.0597 Y18.2713 I6.0025 J6.0183
G3 X67.3702 Y18.5569 I-0.6884 J-0.6868
G2 X67.3492 I-0.0101 J8.5
G3 X66.6605 Y18.2717 I-0.0012 J-0.971
G2 X66.6448 Y18.256 I-6.0179 J6.0029
G3 X66.3599 Y17.5682 I0.6847 J-0.6865
G2 Y17.5461 I-8.5 J-0.011
G3 X66.3693 Y17.41 I0.9704 J-0.0013
G1 F50.0 X64.3887 Y17.132
G3 F150.0 X65.2326 Y15.4417 I2.9416 J0.4128
G2 X65.2447 Y15.4297 I-4.5902 J-4.6022
G3 X67.3514 Y14.557 I2.1028 J2.0972
G2 X67.3701 I0.0087 J-6.5
G3 X68.5044 Y14.7812 I0.0046 J2.9582
G3 X69.481 Y15.4355 I-1.1662 J2.7966
G2 X69.4874 Y15.4419 I4.5966 J-4.5958
G3 X70.3599 Y17.5484 I-2.0969 J2.1024
G2 Y17.5655 I6.5 J0.0088
G3 X69.4872 Y19.6722 I-2.9701 J0.0038
G2 X69.4756 Y19.6838 I4.5901 J4.6023
G3 X67.3678 Y20.5569 I-2.1043 J-2.0993
G2 X67.3517 I-0.0077 J6.5
G3 X65.2445 Y19.6841 I-0.0038 J-2.971
G2 X65.2325 Y19.6721 I-4.6019 J4.5904
G3 X64.3599 Y17.5656 I2.097 J-2.1027
G2 Y17.5487 I-6.5 J-0.0084
G3 X64.3887 Y17.132 I2.9704 J-0.0039
G1 F50.0 X62.4081 Y16.8541
G3 F150.0 X63.8202 Y14.0257 I4.9222 J0.6908
G2 X63.8286 Y14.0173 I-3.1778 J-3.1861
G3 X67.3541 Y12.557 I3.5189 J3.5095
G2 X67.367 I0.006 J-4.5
G3 X69.2712 Y12.9341 I0.0077 J4.9582
G3 X70.8953 Y14.0214 I-1.933 J4.6438
G2 X70.8998 Y14.0258 I3.1822 J-3.1817
G3 X72.3599 Y17.5511 I-3.5092 J3.5185
G2 Y17.563 I4.5 J0.0061
G3 X70.8996 Y21.0883 I-4.9701 J0.0063
G2 X70.8916 Y21.0963 I3.1778 J3.1862
G3 X67.3654 Y22.5569 I-3.5202 J-3.5118
G2 X67.3543 I-0.0054 J4.5
G3 X63.8285 Y21.0966 I-0.0064 J-4.971
G2 X63.8202 Y21.0883 I-3.186 J3.178
G3 X62.3599 Y17.563 I3.5093 J-3.5188
G2 Y17.5514 I-4.5 J-0.0058
G3 X62.4081 Y16.8541 I4.9704 J-0.0065
G1 F50.0 X60.4275 Y16.5761
G3 F150.0 X62.4078 Y12.6096 I6.9028 J0.9687
G2 X62.4125 Y12.605 I-1.7655 J-1.7701
G3 X67.3567 Y10.557 I4.9349 J4.9219
G2 X67.3639 I0.0033 J-2.5
G3 X70.038 Y11.0869 I0.0108 J6.9582
G3 X72.3096 Y12.6073 I-2.6998 J6.491
G2 X72.3121 Y12.6098 I1.7679 J-1.7676
G3 X74.3599 Y17.5538 I-4.9215 J4.9346
G2 Y17.5604 I2.5 J0.0034
G3 X72.3119 Y22.5044 I-6.9701 J0.0089
G2 X72.3075 Y22.5088 I1.7654 J1.7701
G3 X67.363 Y24.5569 I-4.9361 J-4.9243
G2 X67.3569 I-0.003 J2.5
G3 X62.4125 Y22.509 I-0.0089 J-6.971
G2 X62.4079 Y22.5044 I-1.77 J1.7656
G3 X60.3599 Y17.5605 I4.9215 J-4.9349
G2 Y17.554 I-2.5 J-0.0032
G3 X60.4275 Y16.5761 I6.9704 J-0.0091
G0 Z3.0
G0 X66.3693 Y17.41
G0 Z-11.0
G1 F50.0 Z-14.0
G3 F150.0 X66.645 Y16.8578 I0.961 J0.1349
G2 X66.6607 Y16.842 I-6.0026 J-6.0182
G3 X67.3487 Y16.557 I0.6867 J0.6849
G2 X67.3732 I0.0113 J-8.5
G3 X67.7377 Y16.6284 I0.0015 J0.9582
G3 X68.0666 Y16.8496 I-0.3995 J0.9494
G2 X68.0751 Y16.858 I6.0109 J-6.0099
G3 X68.3599 Y17.5457 I-0.6845 J0.6863
G2 Y17.5681 I8.5 J0.0116
G3 X68.0749 Y18.2561 I-0.9701 J0.0012
G2 X68.0597 Y18.2713 I6.0025 J6.0183
G3 X67.3702 Y18.5569 I-0.6884 J-0.6868
G2 X67.3492 I-0.0101 J8.5
G3 X66.6605 Y18.2717 I-0.0012 J-0.971
G2 X66.6448 Y18.256 I-6.0179 J6.0029
G3 X66.3599 Y17.5682 I0.6847 J-0.6865
G2 Y17.5461 I-8.5 J-0.011
G3 X66.3693 Y17.41 I0.9704 J-0.0013
G1 F50.0 X64.3887 Y17.132
G3 F150.0 X65.2326 Y15.4417 I2.9416 J0.4128
G2 X65.2447 Y15.4297 I-4.5902 J-4.6022
G3 X67.3514 Y14.557 I2.1028 J2.0972
G2 X67.3701 I0.0087 J-6.5
G3 X68.5044 Y14.7812 I0.0046 J2.9582
G3 X69.481 Y15.4355 I-1.1662 J2.7966
G2 X69.4874 Y15.4419 I4.5966 J-4.5958
G3 X70.3599 Y17.5484 I-2.0969 J2.1024
G2 Y17.5655 I6.5 J0.0088
G3 X69.4872 Y19.6722 I-2.9701 J0.0038
G2 X69.4756 Y19.6838 I4.5901 J4.6023
G3 X67.3678 Y20.5569 I-2.1043 J-2.0993
G2 X67.3517 I-0.0077 J6.5
G3 X65.2445 Y19.6841 I-0.0038 J-2.971
G2 X65.2325 Y19.6721 I-4.6019 J4.5904
G3 X64.3599 Y17.5656 I2.097 J-2.1027
G2 Y17.5487 I-6.5 J-0.0084
G3 X64.3887 Y17.132 I2.9704 J-0.0039
G1 F50.0 X62.4081 Y16.8541
G3 F150.0 X63.8202 Y14.0257 I4.9222 J0.6908
G2 X63.8286 Y14.0173 I-3.1778 J-3.1861
G3 X67.3541 Y12.557 I3.5189 J3.5095
G2 X67.367 I0.006 J-4.5
G3 X69.2712 Y12.9341 I0.0077 J4.9582
G3 X70.8953 Y14.0214 I-1.933 J4.6438
G2 X70.8998 Y14.0258 I3.1822 J-3.1817
G3 X72.3599 Y17.5511 I-3.5092 J3.5185
G2 Y17.563 I4.5 J0.0061
G3 X70.8996 Y21.0883 I-4.9701 J0.0063
G2 X70.8916 Y21.0963 I3.1778 J3.1862
G3 X67.3654 Y22.5569 I-3.5202 J-3.5118
G2 X67.3543 I-0.0054 J4.5
G3 X63.8285 Y21.0966 I-0.0064 J-4.971
G2 X63.8202 Y21.0883 I-3.186 J3.178
G3 X62.3599 Y17.563 I3.5093 J-3.5188
G2 Y17.5514 I-4.5 J-0.0058
G3 X62.4081 Y16.8541 I4.9704 J-0.0065
G1 F50.0 X60.4275 Y16.5761
G3 F150.0 X62.4078 Y12.6096 I6.9028 J0.9687
G2 X62.4125 Y12.605 I-1.7655 J-1.7701
G3 X67.3567 Y10.557 I4.9349 J4.9219
G2 X67.3639 I0.0033 J-2.5
G3 X70.038 Y11.0869 I0.0108 J6.9582
G3 X72.3096 Y12.6073 I-2.6998 J6.491
G2 X72.3121 Y12.6098 I1.7679 J-1.7676
G3 X74.3599 Y17.5538 I-4.9215 J4.9346
G2 Y17.5604 I2.5 J0.0034
G3 X72.3119 Y22.5044 I-6.9701 J0.0089
G2 X72.3075 Y22.5088 I1.7654 J1.7701
G3 X67.363 Y24.5569 I-4.9361 J-4.9243
G2 X67.3569 I-0.003 J2.5
G3 X62.4125 Y22.509 I-0.0089 J-6.971
G2 X62.4079 Y22.5044 I-1.77 J1.7656
G3 X60.3599 Y17.5605 I4.9215 J-4.9349
G2 Y17.554 I-2.5 J-0.0032
G3 X60.4275 Y16.5761 I6.9704 J-0.0091
G0 Z3.0
G0 X66.3693 Y17.41
G0 Z-13.0
G1 F50.0 Z-16.0
G3 F150.0 X66.645 Y16.8578 I0.961 J0.1349
G2 X66.6607 Y16.842 I-6.0026 J-6.0182
G3 X67.3487 Y16.557 I0.6867 J0.6849
G2 X67.3732 I0.0113 J-8.5
G3 X67.7377 Y16.6284 I0.0015 J0.9582
G3 X68.0666 Y16.8496 I-0.3995 J0.9494
G2 X68.0751 Y16.858 I6.0109 J-6.0099
G3 X68.3599 Y17.5457 I-0.6845 J0.6863
G2 Y17.5681 I8.5 J0.0116
G3 X68.0749 Y18.2561 I-0.9701 J0.0012
G2 X68.0597 Y18.2713 I6.0025 J6.0183
G3 X67.3702 Y18.5569 I-0.6884 J-0.6868
G2 X67.3492 I-0.0101 J8.5
G3 X66.6605 Y18.2717 I-0.0012 J-0.971
G2 X66.6448 Y18.256 I-6.0179 J6.0029
G3 X66.3599 Y17.5682 I0.6847 J-0.6865
G2 Y17.5461 I-8.5 J-0.011
G3 X66.3693 Y17.41 I0.9704 J-0.0013
G1 F50.0 X64.3887 Y17.132
G3 F150.0 X65.2326 Y15.4417 I2.9416 J0.4128
G2 X65.2447 Y15.4297 I-4.5902 J-4.6022
G3 X67.3514 Y14.557 I2.1028 J2.0972
G2 X67.3701 I0.0087 J-6.5
G3 X68.5044 Y14.7812 I0.0046 J2.9582
G3 X69.481 Y15.4355 I-1.1662 J2.7966
G2 X69.4874 Y15.4419 I4.5966 J-4.5958
G3 X70.3599 Y17.5484 I-2.0969 J2.1024
G2 Y17.5655 I6.5 J0.0088
G3 X69.4872 Y19.6722 I-2.9701 J0.0038
G2 X69.4756 Y19.6838 I4.5901 J4.6023
G3 X67.3678 Y20.5569 I-2.1043 J-2.0993
G2 X67.3517 I-0.0077 J6.5
G3 X65.2445 Y19.6841 I-0.0038 J-2.971
G2 X65.2325 Y19.6721 I-4.6019 J4.5904
G3 X64.3599 Y17.5656 I2.097 J-2.1027
G2 Y17.5487 I-6.5 J-0.0084
G3 X64.3887 Y17.132 I2.9704 J-0.0039
G1 F50.0 X62.4081 Y16.8541
G3 F150.0 X63.8202 Y14.0257 I4.9222 J0.6908
G2 X63.8286 Y14.0173 I-3.1778 J-3.1861
G3 X67.3541 Y12.557 I3.5189 J3.5095
G2 X67.367 I0.006 J-4.5
G3 X69.2712 Y12.9341 I0.0077 J4.9582
G3 X70.8953 Y14.0214 I-1.933 J4.6438
G2 X70.8998 Y14.0258 I3.1822 J-3.1817
G3 X72.3599 Y17.5511 I-3.5092 J3.5185
G2 Y17.563 I4.5 J0.0061
G3 X70.8996 Y21.0883 I-4.9701 J0.0063
G2 X70.8916 Y21.0963 I3.1778 J3.1862
G3 X67.3654 Y22.5569 I-3.5202 J-3.5118
G2 X67.3543 I-0.0054 J4.5
G3 X63.8285 Y21.0966 I-0.0064 J-4.971
G2 X63.8202 Y21.0883 I-3.186 J3.178
G3 X62.3599 Y17.563 I3.5093 J-3.5188
G2 Y17.5514 I-4.5 J-0.0058
G3 X62.4081 Y16.8541 I4.9704 J-0.0065
G1 F50.0 X60.4275 Y16.5761
G3 F150.0 X62.4078 Y12.6096 I6.9028 J0.9687
G2 X62.4125 Y12.605 I-1.7655 J-1.7701
G3 X67.3567 Y10.557 I4.9349 J4.9219
G2 X67.3639 I0.0033 J-2.5
G3 X70.038 Y11.0869 I0.0108 J6.9582
G3 X72.3096 Y12.6073 I-2.6998 J6.491
G2 X72.3121 Y12.6098 I1.7679 J-1.7676
G3 X74.3599 Y17.5538 I-4.9215 J4.9346
G2 Y17.5604 I2.5 J0.0034
G3 X72.3119 Y22.5044 I-6.9701 J0.0089
G2 X72.3075 Y22.5088 I1.7654 J1.7701
G3 X67.363 Y24.5569 I-4.9361 J-4.9243
G2 X67.3569 I-0.003 J2.5
G3 X62.4125 Y22.509 I-0.0089 J-6.971
G2 X62.4079 Y22.5044 I-1.77 J1.7656
G3 X60.3599 Y17.5605 I4.9215 J-4.9349
G2 Y17.554 I-2.5 J-0.0032
G3 X60.4275 Y16.5761 I6.9704 J-0.0091
G0 Z3.0
G0 X66.3693 Y17.41
G0 Z-15.0
G1 F50.0 Z-18.0
G3 F150.0 X66.645 Y16.8578 I0.961 J0.1349
G2 X66.6607 Y16.842 I-6.0026 J-6.0182
G3 X67.3487 Y16.557 I0.6867 J0.6849
G2 X67.3732 I0.0113 J-8.5
G3 X67.7377 Y16.6284 I0.0015 J0.9582
G3 X68.0666 Y16.8496 I-0.3995 J0.9494
G2 X68.0751 Y16.858 I6.0109 J-6.0099
G3 X68.3599 Y17.5457 I-0.6845 J0.6863
G2 Y17.5681 I8.5 J0.0116
G3 X68.0749 Y18.2561 I-0.9701 J0.0012
G2 X68.0597 Y18.2713 I6.0025 J6.0183
G3 X67.3702 Y18.5569 I-0.6884 J-0.6868
G2 X67.3492 I-0.0101 J8.5
G3 X66.6605 Y18.2717 I-0.0012 J-0.971
G2 X66.6448 Y18.256 I-6.0179 J6.0029
G3 X66.3599 Y17.5682 I0.6847 J-0.6865
G2 Y17.5461 I-8.5 J-0.011
G3 X66.3693 Y17.41 I0.9704 J-0.0013
G1 F50.0 X64.3887 Y17.132
G3 F150.0 X65.2326 Y15.4417 I2.9416 J0.4128
G2 X65.2447 Y15.4297 I-4.5902 J-4.6022
G3 X67.3514 Y14.557 I2.1028 J2.0972
G2 X67.3701 I0.0087 J-6.5
G3 X68.5044 Y14.7812 I0.0046 J2.9582
G3 X69.481 Y15.4355 I-1.1662 J2.7966
G2 X69.4874 Y15.4419 I4.5966 J-4.5958
G3 X70.3599 Y17.5484 I-2.0969 J2.1024
G2 Y17.5655 I6.5 J0.0088
G3 X69.4872 Y19.6722 I-2.9701 J0.0038
G2 X69.4756 Y19.6838 I4.5901 J4.6023
G3 X67.3678 Y20.5569 I-2.1043 J-2.0993
G2 X67.3517 I-0.0077 J6.5
G3 X65.2445 Y19.6841 I-0.0038 J-2.971
G2 X65.2325 Y19.6721 I-4.6019 J4.5904
G3 X64.3599 Y17.5656 I2.097 J-2.1027
G2 Y17.5487 I-6.5 J-0.0084
G3 X64.3887 Y17.132 I2.9704 J-0.0039
G1 F50.0 X62.4081 Y16.8541
G3 F150.0 X63.8202 Y14.0257 I4.9222 J0.6908
G2 X63.8286 Y14.0173 I-3.1778 J-3.1861
G3 X67.3541 Y12.557 I3.5189 J3.5095
G2 X67.367 I0.006 J-4.5
G3 X69.2712 Y12.9341 I0.0077 J4.9582
G3 X70.8953 Y14.0214 I-1.933 J4.6438
G2 X70.8998 Y14.0258 I3.1822 J-3.1817
G3 X72.3599 Y17.5511 I-3.5092 J3.5185
G2 Y17.563 I4.5 J0.0061
G3 X70.8996 Y21.0883 I-4.9701 J0.0063
G2 X70.8916 Y21.0963 I3.1778 J3.1862
G3 X67.3654 Y22.5569 I-3.5202 J-3.5118
G2 X67.3543 I-0.0054 J4.5
G3 X63.8285 Y21.0966 I-0.0064 J-4.971
G2 X63.8202 Y21.0883 I-3.186 J3.178
G3 X62.3599 Y17.563 I3.5093 J-3.5188
G2 Y17.5514 I-4.5 J-0.0058
G3 X62.4081 Y16.8541 I4.9704 J-0.0065
G1 F50.0 X60.4275 Y16.5761
G3 F150.0 X62.4078 Y12.6096 I6.9028 J0.9687
G2 X62.4125 Y12.605 I-1.7655 J-1.7701
G3 X67.3567 Y10.557 I4.9349 J4.9219
G2 X67.3639 I0.0033 J-2.5
G3 X70.038 Y11.0869 I0.0108 J6.9582
G3 X72.3096 Y12.6073 I-2.6998 J6.491
G2 X72.3121 Y12.6098 I1.7679 J-1.7676
G3 X74.3599 Y17.5538 I-4.9215 J4.9346
G2 Y17.5604 I2.5 J0.0034
G3 X72.3119 Y22.5044 I-6.9701 J0.0089
G2 X72.3075 Y22.5088 I1.7654 J1.7701
G3 X67.363 Y24.5569 I-4.9361 J-4.9243
G2 X67.3569 I-0.003 J2.5
G3 X62.4125 Y22.509 I-0.0089 J-6.971
G2 X62.4079 Y22.5044 I-1.77 J1.7656
G3 X60.3599 Y17.5605 I4.9215 J-4.9349
G2 Y17.554 I-2.5 J-0.0032
G3 X60.4275 Y16.5761 I6.9704 J-0.0091
G0 Z3.0
G0 X66.3693 Y17.41
G0 Z-17.0
G1 F50.0 Z-20.0
G3 F150.0 X66.645 Y16.8578 I0.961 J0.1349
G2 X66.6607 Y16.842 I-6.0026 J-6.0182
G3 X67.3487 Y16.557 I0.6867 J0.6849
G2 X67.3732 I0.0113 J-8.5
G3 X67.7377 Y16.6284 I0.0015 J0.9582
G3 X68.0666 Y16.8496 I-0.3995 J0.9494
G2 X68.0751 Y16.858 I6.0109 J-6.0099
G3 X68.3599 Y17.5457 I-0.6845 J0.6863
G2 Y17.5681 I8.5 J0.0116
G3 X68.0749 Y18.2561 I-0.9701 J0.0012
G2 X68.0597 Y18.2713 I6.0025 J6.0183
G3 X67.3702 Y18.5569 I-0.6884 J-0.6868
G2 X67.3492 I-0.0101 J8.5
G3 X66.6605 Y18.2717 I-0.0012 J-0.971
G2 X66.6448 Y18.256 I-6.0179 J6.0029
G3 X66.3599 Y17.5682 I0.6847 J-0.6865
G2 Y17.5461 I-8.5 J-0.011
G3 X66.3693 Y17.41 I0.9704 J-0.0013
G1 F50.0 X64.3887 Y17.132
G3 F150.0 X65.2326 Y15.4417 I2.9416 J0.4128
G2 X65.2447 Y15.4297 I-4.5902 J-4.6022
G3 X67.3514 Y14.557 I2.1028 J2.0972
G2 X67.3701 I0.0087 J-6.5
G3 X68.5044 Y14.7812 I0.0046 J2.9582
G3 X69.481 Y15.4355 I-1.1662 J2.7966
G2 X69.4874 Y15.4419 I4.5966 J-4.5958
G3 X70.3599 Y17.5484 I-2.0969 J2.1024
G2 Y17.5655 I6.5 J0.0088
G3 X69.4872 Y19.6722 I-2.9701 J0.0038
G2 X69.4756 Y19.6838 I4.5901 J4.6023
G3 X67.3678 Y20.5569 I-2.1043 J-2.0993
G2 X67.3517 I-0.0077 J6.5
G3 X65.2445 Y19.6841 I-0.0038 J-2.971
G2 X65.2325 Y19.6721 I-4.6019 J4.5904
G3 X64.3599 Y17.5656 I2.097 J-2.1027
G2 Y17.5487 I-6.5 J-0.0084
G3 X64.3887 Y17.132 I2.9704 J-0.0039
G1 F50.0 X62.4081 Y16.8541
G3 F150.0 X63.8202 Y14.0257 I4.9222 J0.6908
G2 X63.8286 Y14.0173 I-3.1778 J-3.1861
G3 X67.3541 Y12.557 I3.5189 J3.5095
G2 X67.367 I0.006 J-4.5
G3 X69.2712 Y12.9341 I0.0077 J4.9582
G3 X70.8953 Y14.0214 I-1.933 J4.6438
G2 X70.8998 Y14.0258 I3.1822 J-3.1817
G3 X72.3599 Y17.5511 I-3.5092 J3.5185
G2 Y17.563 I4.5 J0.0061
G3 X70.8996 Y21.0883 I-4.9701 J0.0063
G2 X70.8916 Y21.0963 I3.1778 J3.1862
G3 X67.3654 Y22.5569 I-3.5202 J-3.5118
G2 X67.3543 I-0.0054 J4.5
G3 X63.8285 Y21.0966 I-0.0064 J-4.971
G2 X63.8202 Y21.0883 I-3.186 J3.178
G3 X62.3599 Y17.563 I3.5093 J-3.5188
G2 Y17.5514 I-4.5 J-0.0058
G3 X62.4081 Y16.8541 I4.9704 J-0.0065
G1 F50.0 X60.4275 Y16.5761
G3 F150.0 X62.4078 Y12.6096 I6.9028 J0.9687
G2 X62.4125 Y12.605 I-1.7655 J-1.7701
G3 X67.3567 Y10.557 I4.9349 J4.9219
G2 X67.3639 I0.0033 J-2.5
G3 X70.038 Y11.0869 I0.0108 J6.9582
G3 X72.3096 Y12.6073 I-2.6998 J6.491
G2 X72.3121 Y12.6098 I1.7679 J-1.7676
G3 X74.3599 Y17.5538 I-4.9215 J4.9346
G2 Y17.5604 I2.5 J0.0034
G3 X72.3119 Y22.5044 I-6.9701 J0.0089
G2 X72.3075 Y22.5088 I1.7654 J1.7701
G3 X67.363 Y24.5569 I-4.9361 J-4.9243
G2 X67.3569 I-0.003 J2.5
G3 X62.4125 Y22.509 I-0.0089 J-6.971
G2 X62.4079 Y22.5044 I-1.77 J1.7656
G3 X60.3599 Y17.5605 I4.9215 J-4.9349
G2 Y17.554 I-2.5 J-0.0032
G3 X60.4275 Y16.5761 I6.9704 J-0.0091
G0 Z3.0
G0 X66.3693 Y17.41
G0 Z-19.0
G1 F50.0 Z-22.0
G3 F150.0 X66.645 Y16.8578 I0.961 J0.1349
G2 X66.6607 Y16.842 I-6.0026 J-6.0182
G3 X67.3487 Y16.557 I0.6867 J0.6849
G2 X67.3732 I0.0113 J-8.5
G3 X67.7377 Y16.6284 I0.0015 J0.9582
G3 X68.0666 Y16.8496 I-0.3995 J0.9494
G2 X68.0751 Y16.858 I6.0109 J-6.0099
G3 X68.3599 Y17.5457 I-0.6845 J0.6863
G2 Y17.5681 I8.5 J0.0116
G3 X68.0749 Y18.2561 I-0.9701 J0.0012
G2 X68.0597 Y18.2713 I6.0025 J6.0183
G3 X67.3702 Y18.5569 I-0.6884 J-0.6868
G2 X67.3492 I-0.0101 J8.5
G3 X66.6605 Y18.2717 I-0.0012 J-0.971
G2 X66.6448 Y18.256 I-6.0179 J6.0029
G3 X66.3599 Y17.5682 I0.6847 J-0.6865
G2 Y17.5461 I-8.5 J-0.011
G3 X66.3693 Y17.41 I0.9704 J-0.0013
G1 F50.0 X64.3887 Y17.132
G3 F150.0 X65.2326 Y15.4417 I2.9416 J0.4128
G2 X65.2447 Y15.4297 I-4.5902 J-4.6022
G3 X67.3514 Y14.557 I2.1028 J2.0972
G2 X67.3701 I0.0087 J-6.5
G3 X68.5044 Y14.7812 I0.0046 J2.9582
G3 X69.481 Y15.4355 I-1.1662 J2.7966
G2 X69.4874 Y15.4419 I4.5966 J-4.5958
G3 X70.3599 Y17.5484 I-2.0969 J2.1024
G2 Y17.5655 I6.5 J0.0088
G3 X69.4872 Y19.6722 I-2.9701 J0.0038
G2 X69.4756 Y19.6838 I4.5901 J4.6023
G3 X67.3678 Y20.5569 I-2.1043 J-2.0993
G2 X67.3517 I-0.0077 J6.5
G3 X65.2445 Y19.6841 I-0.0038 J-2.971
G2 X65.2325 Y19.6721 I-4.6019 J4.5904
G3 X64.3599 Y17.5656 I2.097 J-2.1027
G2 Y17.5487 I-6.5 J-0.0084
G3 X64.3887 Y17.132 I2.9704 J-0.0039
G1 F50.0 X62.4081 Y16.8541
G3 F150.0 X63.8202 Y14.0257 I4.9222 J0.6908
G2 X63.8286 Y14.0173 I-3.1778 J-3.1861
G3 X67.3541 Y12.557 I3.5189 J3.5095
G2 X67.367 I0.006 J-4.5
G3 X69.2712 Y12.9341 I0.0077 J4.9582
G3 X70.8953 Y14.0214 I-1.933 J4.6438
G2 X70.8998 Y14.0258 I3.1822 J-3.1817
G3 X72.3599 Y17.5511 I-3.5092 J3.5185
G2 Y17.563 I4.5 J0.0061
G3 X70.8996 Y21.0883 I-4.9701 J0.0063
G2 X70.8916 Y21.0963 I3.1778 J3.1862
G3 X67.3654 Y22.5569 I-3.5202 J-3.5118
G2 X67.3543 I-0.0054 J4.5
G3 X63.8285 Y21.0966 I-0.0064 J-4.971
G2 X63.8202 Y21.0883 I-3.186 J3.178
G3 X62.3599 Y17.563 I3.5093 J-3.5188
G2 Y17.5514 I-4.5 J-0.0058
G3 X62.4081 Y16.8541 I4.9704 J-0.0065
G1 F50.0 X60.4275 Y16.5761
G3 F150.0 X62.4078 Y12.6096 I6.9028 J0.9687
G2 X62.4125 Y12.605 I-1.7655 J-1.7701
G3 X67.3567 Y10.557 I4.9349 J4.9219
G2 X67.3639 I0.0033 J-2.5
G3 X70.038 Y11.0869 I0.0108 J6.9582
G3 X72.3096 Y12.6073 I-2.6998 J6.491
G2 X72.3121 Y12.6098 I1.7679 J-1.7676
G3 X74.3599 Y17.5538 I-4.9215 J4.9346
G2 Y17.5604 I2.5 J0.0034
G3 X72.3119 Y22.5044 I-6.9701 J0.0089
G2 X72.3075 Y22.5088 I1.7654 J1.7701
G3 X67.363 Y24.5569 I-4.9361 J-4.9243
G2 X67.3569 I-0.003 J2.5
G3 X62.4125 Y22.509 I-0.0089 J-6.971
G2 X62.4079 Y22.5044 I-1.77 J1.7656
G3 X60.3599 Y17.5605 I4.9215 J-4.9349
G2 Y17.554 I-2.5 J-0.0032
G3 X60.4275 Y16.5761 I6.9704 J-0.0091
G0 Z3.0
M5
M30
