( Made using CamBam - http://www.cambam.co.uk )
( bearing block 9/10/2013 3:18:28 PM )
( T5 : 5.0 )
G21 G90 G64 G40
G0 Z3.0
( T5 : 5.0 )
T5 M6
( Pocket2 )
G17
M3 S1000
G0 X17.5179 Y17.0579
G0 Z1.0
G1 F50.0 Z-2.0
G2 F150.0 X17.3479 Y17.0897 I-0.0005 J0.4673
G2 X17.1097 Y17.2892 I0.2231 J0.5082
G3 X17.1072 Y17.2929 I-11.2177 J-7.5109
G2 X17.0334 Y17.5363 I0.3622 J0.2427
G3 X17.0335 Y17.5741 I-13.5 J0.0211
G2 X17.1674 Y17.8973 I0.4557 J0.0006
G3 X17.183 Y17.9129 I-9.533 J9.5589
G2 X17.3467 Y18.0238 I0.3701 J-0.3699
G2 X17.5149 Y18.0561 I0.1676 J-0.4195
G3 X17.5505 I0.0187 J13.5
G2 X17.8753 Y17.9215 I0.0006 J-0.4581
G3 X17.8898 Y17.9071 I9.5573 J9.5346
G2 X18.0012 Y17.7433 I-0.3747 J-0.3749
G2 X18.0335 Y17.573 I-0.4307 J-0.1698
G3 Y17.5403 I13.5 J-0.0156
G2 X17.8994 Y17.2166 I-0.4564 J-0.0006
G3 X17.8816 Y17.1988 I9.5335 J-9.5583
G2 X17.7203 Y17.0901 I-0.3587 J0.3583
G2 X17.5548 Y17.0579 I-0.1649 J0.4059
G3 X17.5179 I-0.0211 J-13.5
G1 F50.0 X17.5191 Y16.0579
G2 F150.0 X16.9649 Y16.1659 I-0.0017 J1.4673
G2 X16.2788 Y16.7328 I0.606 J1.4321
G3 X16.2765 Y16.7363 I-10.3867 J-6.9545
G2 X16.0334 Y17.5378 I1.1929 J0.7993
G3 X16.0335 Y17.5728 I-12.5 J0.0196
G2 X16.4612 Y18.6053 I1.4557 J0.0018
G3 X16.4757 Y18.6198 I-8.8268 J8.8508
G2 X16.9637 Y18.9476 I1.0774 J-1.0768
G2 X17.5163 Y19.0561 I0.5505 J-1.3432
G3 X17.5492 I0.0173 J12.5
G2 X18.5833 Y18.6278 I0.0018 J-1.4581
G3 X18.5966 Y18.6144 I8.8493 J8.8283
G2 X18.925 Y18.1264 I-1.0815 J-1.0822
G2 X19.0335 Y17.5719 I-1.3545 J-0.5528
G3 Y17.5416 I12.5 J-0.0145
G2 X18.6056 Y16.5085 I-1.4564 J-0.0018
G3 X18.5891 Y16.4921 I8.8274 J-8.8503
G2 X18.1034 Y16.1664 I-1.0662 J1.065
G2 X17.5532 Y16.0579 I-0.5479 J1.3296
G3 X17.5191 I-0.0196 J-12.5
G1 F50.0 X17.5214 Y14.0579
G2 F150.0 X16.1985 Y14.3185 I-0.004 J3.4673
G2 X14.6169 Y15.6201 I1.3724 J3.2794
G3 X14.615 Y15.623 I-8.7249 J-5.8418
G2 X14.0334 Y17.541 I2.8544 J1.9126
G3 X14.0335 Y17.5704 I-10.5 J0.0164
G2 X15.0489 Y20.0215 I3.4557 J0.0043
G3 X15.0611 Y20.0336 I-7.4145 J7.4347
G2 X16.1976 Y20.795 I2.492 J-2.4907
G2 X17.5191 Y21.0561 I1.3167 J-3.1907
G3 X17.5467 Y21.056 I0.0146 J10.5
G2 X19.9992 Y20.0403 I0.0043 J-3.4581
G3 X20.0104 Y20.0291 I7.4334 J7.4158
G2 X20.7724 Y18.8927 I-2.4953 J-2.4969
G2 X21.0335 Y17.5696 I-3.2019 J-1.3191
G3 Y17.5441 I10.5 J-0.0122
G2 X20.018 Y15.0925 I-3.4564 J-0.0044
G3 X20.0041 Y15.0787 I7.415 J-7.4343
G2 X18.8696 Y14.319 I-2.4812 J2.4785
G2 X17.5501 Y14.0579 I-1.3142 J3.177
G3 X17.5214 I-0.0164 J-10.5
G1 F50.0 X17.5237 Y12.0579
G2 F150.0 X15.4321 Y12.4712 I-0.0064 J5.4673
G2 X12.955 Y14.5073 I2.1389 J5.1267
G3 X12.9535 Y14.5097 I-7.063 J-4.7291
G2 X12.0335 Y17.5441 I4.5159 J3.0259
G3 Y17.5679 I-8.5 J0.0133
G2 X13.6366 Y21.4376 I5.4557 J0.0067
G3 X13.6465 Y21.4474 I-6.0022 J6.0186
G2 X15.4314 Y22.6425 I3.9066 J-3.9045
G2 X17.5218 Y23.056 I2.0829 J-5.0381
G3 X17.5442 I0.0118 J8.5
G2 X21.4151 Y21.4528 I0.0068 J-5.4581
G3 X21.4242 Y21.4437 I6.0176 J6.0033
G2 X22.6198 Y19.659 I-3.9091 J-3.9116
G2 X23.0335 Y17.5672 I-5.0493 J-2.0854
G3 Y17.5466 I8.5 J-0.0098
G2 X21.4303 Y13.6764 I-5.4564 J-0.0069
G3 X21.4191 Y13.6653 I6.0026 J-6.0182
G2 X19.6359 Y12.4716 I-3.8963 J3.8919
G2 X17.5469 Y12.0579 I-2.0804 J5.0244
G3 X17.5237 I-0.0133 J-8.5
G1 F50.0 X17.5261 Y10.0579
G2 F150.0 X14.6656 Y10.6239 I-0.0087 J7.4673
G2 X11.2932 Y13.3946 I2.9053 J6.9741
G3 X11.292 Y13.3964 I-5.4011 J-3.6164
G2 X10.0335 Y17.5472 I6.1775 J4.1392
G3 Y17.5654 I-6.5 J0.0102
G2 X12.2243 Y22.8537 I7.4557 J0.0092
G3 X12.2319 Y22.8613 I-4.5899 J4.6024
G2 X14.6651 Y24.4899 I5.3212 J-5.3183
G2 X17.5246 Y25.056 I2.8491 J-6.8855
G3 X17.5417 I0.009 J6.5
G2 X22.831 Y22.8653 I0.0093 J-7.4581
G3 X22.8379 Y22.8584 I4.6017 J4.5907
G2 X24.4671 Y20.4254 I-5.3228 J-5.3262
G2 X25.0335 Y17.5649 I-6.8966 J-2.8518
G3 Y17.5492 I6.5 J-0.0075
G2 X22.8427 Y12.2604 I-7.4564 J-0.0095
G3 X22.8341 Y12.2518 I4.5902 J-4.6022
G2 X20.4021 Y10.6242 I-5.3113 J5.3053
G2 X17.5438 Y10.0579 I-2.8467 J6.8718
G3 X17.5261 I-0.0102 J-6.5
G1 F50.0 X17.5284 Y8.0579
G2 F150.0 X13.8992 Y8.7766 I-0.011 J9.4673
G2 X9.6313 Y12.2819 I3.6717 J8.8214
G3 X9.6304 Y12.2832 I-3.7392 J-2.5036
G2 X8.0335 Y17.5504 I7.839 J5.2524
G3 Y17.563 I-4.5 J0.007
G2 X10.812 Y24.2699 I9.4557 J0.0117
G3 X10.8172 Y24.2751 I-3.1777 J3.1863
G2 X13.8989 Y26.3373 I6.7358 J-6.7321
G2 X17.5274 Y27.056 I3.6154 J-8.7329
G3 X17.5392 I0.0062 J4.5
G2 X24.2469 Y24.2779 I0.0118 J-9.4581
G3 X24.2517 Y24.2731 I3.1858 J3.1782
G2 X26.3145 Y21.1917 I-6.7366 J-6.7409
G2 X27.0335 Y17.5626 I-8.744 J-3.6181
G3 Y17.5517 I4.5 J-0.0052
G2 X24.2551 Y10.8443 I-9.4564 J-0.012
G3 X24.2492 Y10.8384 I3.1778 J-3.1861
G2 X21.1684 Y8.7768 I-6.7263 J6.7187
G2 X17.5407 Y8.0579 I-3.6129 J8.7192
G3 X17.5284 I-0.007 J-4.5
G1 F50.0 X17.5307 Y6.0579
G2 F150.0 X13.1327 Y6.9293 I-0.0134 J11.4672
G2 X7.9694 Y11.1692 I4.4382 J10.6687
G3 X7.9689 Y11.1699 I-2.0773 J-1.3909
G2 X6.0335 Y17.5535 I9.5005 J6.3657
G3 Y17.5605 I-2.5 J0.0039
G2 X9.3998 Y25.686 I11.4557 J0.0141
G3 X9.4026 Y25.6889 I-1.7654 J1.7702
G2 X13.1327 Y28.1847 I8.1504 J-8.146
G2 X17.5302 Y29.056 I4.3816 J-10.5803
G3 X17.5368 I0.0035 J2.5
G2 X25.6628 Y25.6904 I0.0143 J-11.4581
G3 X25.6654 Y25.6877 I1.7699 J1.7657
G2 X28.1618 Y21.9581 I-8.1503 J-8.1556
G2 X29.0335 Y17.5603 I-10.5913 J-4.3845
G3 Y17.5542 I2.5 J-0.0029
G2 X25.6675 Y9.4283 I-11.4564 J-0.0145
G3 X25.6642 Y9.425 I1.7655 J-1.7701
G2 X21.9346 Y6.9294 I-8.1413 J8.1321
G2 X17.5376 Y6.0579 I-4.3792 J10.5666
G3 X17.5307 I-0.0039 J-2.5
G0 Z3.0
G0 X17.5179 Y17.0579
G0 Z-1.0
G1 F50.0 Z-3.0
G2 F150.0 X17.3479 Y17.0897 I-0.0005 J0.4673
G2 X17.1097 Y17.2892 I0.2231 J0.5082
G3 X17.1072 Y17.2929 I-11.2177 J-7.5109
G2 X17.0334 Y17.5363 I0.3622 J0.2427
G3 X17.0335 Y17.5741 I-13.5 J0.0211
G2 X17.1674 Y17.8973 I0.4557 J0.0006
G3 X17.183 Y17.9129 I-9.533 J9.5589
G2 X17.3467 Y18.0238 I0.3701 J-0.3699
G2 X17.5149 Y18.0561 I0.1676 J-0.4195
G3 X17.5505 I0.0187 J13.5
G2 X17.8753 Y17.9215 I0.0006 J-0.4581
G3 X17.8898 Y17.9071 I9.5573 J9.5346
G2 X18.0012 Y17.7433 I-0.3747 J-0.3749
G2 X18.0335 Y17.573 I-0.4307 J-0.1698
G3 Y17.5403 I13.5 J-0.0156
G2 X17.8994 Y17.2166 I-0.4564 J-0.0006
G3 X17.8816 Y17.1988 I9.5335 J-9.5583
G2 X17.7203 Y17.0901 I-0.3587 J0.3583
G2 X17.5548 Y17.0579 I-0.1649 J0.4059
G3 X17.5179 I-0.0211 J-13.5
G1 F50.0 X17.5191 Y16.0579
G2 F150.0 X16.9649 Y16.1659 I-0.0017 J1.4673
G2 X16.2788 Y16.7328 I0.606 J1.4321
G3 X16.2765 Y16.7363 I-10.3867 J-6.9545
G2 X16.0334 Y17.5378 I1.1929 J0.7993
G3 X16.0335 Y17.5728 I-12.5 J0.0196
G2 X16.4612 Y18.6053 I1.4557 J0.0018
G3 X16.4757 Y18.6198 I-8.8268 J8.8508
G2 X16.9637 Y18.9476 I1.0774 J-1.0768
G2 X17.5163 Y19.0561 I0.5505 J-1.3432
G3 X17.5492 I0.0173 J12.5
G2 X18.5833 Y18.6278 I0.0018 J-1.4581
G3 X18.5966 Y18.6144 I8.8493 J8.8283
G2 X18.925 Y18.1264 I-1.0815 J-1.0822
G2 X19.0335 Y17.5719 I-1.3545 J-0.5528
G3 Y17.5416 I12.5 J-0.0145
G2 X18.6056 Y16.5085 I-1.4564 J-0.0018
G3 X18.5891 Y16.4921 I8.8274 J-8.8503
G2 X18.1034 Y16.1664 I-1.0662 J1.065
G2 X17.5532 Y16.0579 I-0.5479 J1.3296
G3 X17.5191 I-0.0196 J-12.5
G1 F50.0 X17.5214 Y14.0579
G2 F150.0 X16.1985 Y14.3185 I-0.004 J3.4673
G2 X14.6169 Y15.6201 I1.3724 J3.2794
G3 X14.615 Y15.623 I-8.7249 J-5.8418
G2 X14.0334 Y17.541 I2.8544 J1.9126
G3 X14.0335 Y17.5704 I-10.5 J0.0164
G2 X15.0489 Y20.0215 I3.4557 J0.0043
G3 X15.0611 Y20.0336 I-7.4145 J7.4347
G2 X16.1976 Y20.795 I2.492 J-2.4907
G2 X17.5191 Y21.0561 I1.3167 J-3.1907
G3 X17.5467 Y21.056 I0.0146 J10.5
G2 X19.9992 Y20.0403 I0.0043 J-3.4581
G3 X20.0104 Y20.0291 I7.4334 J7.4158
G2 X20.7724 Y18.8927 I-2.4953 J-2.4969
G2 X21.0335 Y17.5696 I-3.2019 J-1.3191
G3 Y17.5441 I10.5 J-0.0122
G2 X20.018 Y15.0925 I-3.4564 J-0.0044
G3 X20.0041 Y15.0787 I7.415 J-7.4343
G2 X18.8696 Y14.319 I-2.4812 J2.4785
G2 X17.5501 Y14.0579 I-1.3142 J3.177
G3 X17.5214 I-0.0164 J-10.5
G1 F50.0 X17.5237 Y12.0579
G2 F150.0 X15.4321 Y12.4712 I-0.0064 J5.4673
G2 X12.955 Y14.5073 I2.1389 J5.1267
G3 X12.9535 Y14.5097 I-7.063 J-4.7291
G2 X12.0335 Y17.5441 I4.5159 J3.0259
G3 Y17.5679 I-8.5 J0.0133
G2 X13.6366 Y21.4376 I5.4557 J0.0067
G3 X13.6465 Y21.4474 I-6.0022 J6.0186
G2 X15.4314 Y22.6425 I3.9066 J-3.9045
G2 X17.5218 Y23.056 I2.0829 J-5.0381
G3 X17.5442 I0.0118 J8.5
G2 X21.4151 Y21.4528 I0.0068 J-5.4581
G3 X21.4242 Y21.4437 I6.0176 J6.0033
G2 X22.6198 Y19.659 I-3.9091 J-3.9116
G2 X23.0335 Y17.5672 I-5.0493 J-2.0854
G3 Y17.5466 I8.5 J-0.0098
G2 X21.4303 Y13.6764 I-5.4564 J-0.0069
G3 X21.4191 Y13.6653 I6.0026 J-6.0182
G2 X19.6359 Y12.4716 I-3.8963 J3.8919
G2 X17.5469 Y12.0579 I-2.0804 J5.0244
G3 X17.5237 I-0.0133 J-8.5
G1 F50.0 X17.5261 Y10.0579
G2 F150.0 X14.6656 Y10.6239 I-0.0087 J7.4673
G2 X11.2932 Y13.3946 I2.9053 J6.9741
G3 X11.292 Y13.3964 I-5.4011 J-3.6164
G2 X10.0335 Y17.5472 I6.1775 J4.1392
G3 Y17.5654 I-6.5 J0.0102
G2 X12.2243 Y22.8537 I7.4557 J0.0092
G3 X12.2319 Y22.8613 I-4.5899 J4.6024
G2 X14.6651 Y24.4899 I5.3212 J-5.3183
G2 X17.5246 Y25.056 I2.8491 J-6.8855
G3 X17.5417 I0.009 J6.5
G2 X22.831 Y22.8653 I0.0093 J-7.4581
G3 X22.8379 Y22.8584 I4.6017 J4.5907
G2 X24.4671 Y20.4254 I-5.3228 J-5.3262
G2 X25.0335 Y17.5649 I-6.8966 J-2.8518
G3 Y17.5492 I6.5 J-0.0075
G2 X22.8427 Y12.2604 I-7.4564 J-0.0095
G3 X22.8341 Y12.2518 I4.5902 J-4.6022
G2 X20.4021 Y10.6242 I-5.3113 J5.3053
G2 X17.5438 Y10.0579 I-2.8467 J6.8718
G3 X17.5261 I-0.0102 J-6.5
G1 F50.0 X17.5284 Y8.0579
G2 F150.0 X13.8992 Y8.7766 I-0.011 J9.4673
G2 X9.6313 Y12.2819 I3.6717 J8.8214
G3 X9.6304 Y12.2832 I-3.7392 J-2.5036
G2 X8.0335 Y17.5504 I7.839 J5.2524
G3 Y17.563 I-4.5 J0.007
G2 X10.812 Y24.2699 I9.4557 J0.0117
G3 X10.8172 Y24.2751 I-3.1777 J3.1863
G2 X13.8989 Y26.3373 I6.7358 J-6.7321
G2 X17.5274 Y27.056 I3.6154 J-8.7329
G3 X17.5392 I0.0062 J4.5
G2 X24.2469 Y24.2779 I0.0118 J-9.4581
G3 X24.2517 Y24.2731 I3.1858 J3.1782
G2 X26.3145 Y21.1917 I-6.7366 J-6.7409
G2 X27.0335 Y17.5626 I-8.744 J-3.6181
G3 Y17.5517 I4.5 J-0.0052
G2 X24.2551 Y10.8443 I-9.4564 J-0.012
G3 X24.2492 Y10.8384 I3.1778 J-3.1861
G2 X21.1684 Y8.7768 I-6.7263 J6.7187
G2 X17.5407 Y8.0579 I-3.6129 J8.7192
G3 X17.5284 I-0.007 J-4.5
G1 F50.0 X17.5307 Y6.0579
G2 F150.0 X13.1327 Y6.9293 I-0.0134 J11.4672
G2 X7.9694 Y11.1692 I4.4382 J10.6687
G3 X7.9689 Y11.1699 I-2.0773 J-1.3909
G2 X6.0335 Y17.5535 I9.5005 J6.3657
G3 Y17.5605 I-2.5 J0.0039
G2 X9.3998 Y25.686 I11.4557 J0.0141
G3 X9.4026 Y25.6889 I-1.7654 J1.7702
G2 X13.1327 Y28.1847 I8.1504 J-8.146
G2 X17.5302 Y29.056 I4.3816 J-10.5803
G3 X17.5368 I0.0035 J2.5
G2 X25.6628 Y25.6904 I0.0143 J-11.4581
G3 X25.6654 Y25.6877 I1.7699 J1.7657
G2 X28.1618 Y21.9581 I-8.1503 J-8.1556
G2 X29.0335 Y17.5603 I-10.5913 J-4.3845
G3 Y17.5542 I2.5 J-0.0029
G2 X25.6675 Y9.4283 I-11.4564 J-0.0145
G3 X25.6642 Y9.425 I1.7655 J-1.7701
G2 X21.9346 Y6.9294 I-8.1413 J8.1321
G2 X17.5376 Y6.0579 I-4.3792 J10.5666
G3 X17.5307 I-0.0039 J-2.5
G0 Z3.0
G0 X66.8715 Y17.4365
G0 Z1.0
G1 F50.0 Z-2.0
G2 F150.0 X66.8599 Y17.539 I0.4416 J0.1018
G3 Y17.5745 I-13.5 J0.0184
G2 X66.9938 Y17.8979 I0.456 J0.0006
G3 X67.0109 Y17.915 I-9.5332 J9.5587
G2 X67.1731 Y18.0246 I0.364 J-0.3636
G2 X67.3406 Y18.0569 I0.1669 J-0.4148
G3 X67.3765 I0.0194 J13.5
G2 X67.7016 Y17.9222 I0.0006 J-0.4585
G3 X67.715 Y17.9089 I9.5576 J9.5343
G2 X67.8278 Y17.7434 I-0.3799 J-0.3801
G2 X67.8599 Y17.5732 I-0.4317 J-0.1697
G3 Y17.5415 I13.5 J-0.0158
G2 X67.8282 Y17.3718 I-0.4661 J-0.0006
G2 X67.6285 Y17.1334 I-0.5089 J0.2233
G3 X67.624 Y17.1304 I7.5109 J-11.2177
G2 X67.3821 Y17.057 I-0.2412 J0.3599
G3 X67.3423 I-0.0221 J-13.5
G2 X67.0189 Y17.191 I-0.0006 J0.4559
G3 X67.0016 Y17.2083 I-9.5585 J-9.5333
G2 X66.8925 Y17.3695 I0.3623 J0.3626
G2 X66.8715 Y17.4365 I0.4206 J0.1688
G1 F50.0 X65.897 Y17.2118
G2 F150.0 X65.8599 Y17.5403 I1.416 J0.3265
G3 Y17.5732 I-12.5 J0.0171
G2 X66.2877 Y18.606 I1.456 J0.0018
G3 X66.3035 Y18.6218 I-8.8271 J8.8506
G2 X66.7901 Y18.9484 I1.0714 J-1.0704
G2 X67.3421 Y19.0569 I0.5499 J-1.3386
G3 X67.3753 I0.018 J12.5
G2 X68.4096 Y18.6285 I0.0018 J-1.4585
G3 X68.422 Y18.6161 I8.8496 J8.828
G2 X68.7516 Y18.1264 I-1.0869 J-1.0873
G2 X68.8599 Y17.572 I-1.3555 J-0.5527
G3 Y17.5426 I12.5 J-0.0146
G2 X68.752 Y16.9888 I-1.4661 J-0.0017
G2 X68.1848 Y16.3024 I-1.4327 J0.6063
G3 X68.1807 Y16.2997 I6.9545 J-10.3868
G2 X67.3805 Y16.057 I-0.7978 J1.1906
G3 X67.3436 Y16.0571 I-0.0204 J-12.5
G2 X66.3108 Y16.4848 I-0.0019 J1.4559
G3 X66.2948 Y16.5009 I-8.8505 J-8.8272
G2 X65.9687 Y16.9866 I1.069 J1.0701
G2 X65.897 Y17.2118 I1.3443 J0.5518
G1 F50.0 X63.9482 Y16.7624
G2 F150.0 X63.8599 Y17.5431 I3.3649 J0.776
G3 Y17.5707 I-10.5 J0.0143
G2 X64.8754 Y20.0221 I3.456 J0.0044
G3 X64.8886 Y20.0353 I-7.4147 J7.4345
G2 X66.0239 Y20.7958 I2.4863 J-2.484
G2 X67.3449 Y21.0569 I1.3161 J-3.186
G3 X67.3728 I0.0151 J10.5
G2 X69.8256 Y20.041 I0.0042 J-3.4585
G3 X69.8359 Y20.0306 I7.4337 J7.4156
G2 X70.5989 Y18.8927 I-2.5009 J-2.5018
G2 X70.8599 Y17.5697 I-3.2029 J-1.319
G3 Y17.545 I10.5 J-0.0123
G2 X70.5993 Y16.2224 I-3.4661 J-0.0041
G2 X69.2975 Y14.6406 I-3.2801 J1.3727
G3 X69.294 Y14.6382 I5.8418 J-8.7249
G2 X67.3772 Y14.057 I-1.9112 J2.852
G3 X67.3462 Y14.0571 I-0.0172 J-10.5
G2 X64.8948 Y15.0725 I-0.0046 J3.4559
G3 X64.8813 Y15.086 I-7.4344 J-7.4148
G2 X64.1212 Y16.2205 I2.4826 J2.485
G2 X63.9482 Y16.7624 I3.1918 J1.3179
G1 F50.0 X61.9993 Y16.313
G2 F150.0 X61.8599 Y17.5458 I5.3137 J1.2254
G3 Y17.5682 I-8.5 J0.0116
G2 X63.463 Y21.4382 I5.456 J0.0069
G3 X63.4738 Y21.4489 I-6.0024 J6.0184
G2 X65.2576 Y22.6432 I3.9011 J-3.8976
G2 X67.3478 Y23.0569 I2.0824 J-5.0334
G3 X67.3704 I0.0122 J8.5
G2 X71.2415 Y21.4534 I0.0066 J-5.4585
G3 X71.2499 Y21.445 I6.0177 J6.0031
G2 X72.4463 Y19.6591 I-3.9148 J-3.9162
G2 X72.8599 Y17.5673 I-5.0503 J-2.0854
G3 Y17.5474 I8.5 J-0.0099
G2 X72.4466 Y15.4559 I-5.4661 J-0.0065
G2 X70.4103 Y12.9787 I-5.1274 J2.1392
G3 X70.4074 Y12.9768 I4.7291 J-7.063
G2 X67.3739 Y12.057 I-3.0246 J4.5134
G3 X67.3489 Y12.0571 I-0.0139 J-8.5
G2 X63.4787 Y13.6601 I-0.0072 J5.4559
G3 X63.4678 Y13.671 I-6.0183 J-6.0025
G2 X62.2738 Y15.4543 I3.8961 J3.8999
G2 X61.9993 Y16.313 I5.0392 J2.084
G1 F50.0 X60.0505 Y15.8635
G2 F150.0 X59.8599 Y17.5485 I7.2626 J1.6748
G3 Y17.5656 I-6.5 J0.0089
G2 X62.0507 Y22.8543 I7.456 J0.0094
G3 X62.0589 Y22.8625 I-4.5901 J4.6023
G2 X64.4914 Y24.4906 I5.316 J-5.3111
G2 X67.3507 Y25.0569 I2.8486 J-6.8808
G3 X67.368 I0.0094 J6.5
G2 X72.6574 Y22.8659 I0.0091 J-7.4585
G3 X72.6639 Y22.8595 I4.6018 J4.5906
G2 X74.2936 Y20.4255 I-5.3288 J-5.3307
G2 X74.8599 Y17.565 I-6.8976 J-2.8517
G3 Y17.5497 I6.5 J-0.0076
G2 X74.2939 Y14.6894 I-7.4661 J-0.0088
G2 X71.523 Y11.3168 I-6.9747 J2.9057
G3 X71.5208 Y11.3153 I3.6163 J-5.4011
G2 X67.3707 Y10.0571 I-4.138 J6.1749
G3 X67.3515 I-0.0106 J-6.5
G2 X62.0626 Y12.2478 I-0.0098 J7.4559
G3 X62.0543 Y12.2561 I-4.6023 J-4.5901
G2 X60.4263 Y14.6882 I5.3096 J5.3148
G2 X60.0505 Y15.8635 I6.8867 J2.8501
G1 F50.0 X58.1016 Y15.4141
G2 F150.0 X57.8599 Y17.5513 I9.2114 J2.1243
G3 Y17.5631 I-4.5 J0.0061
G2 X60.6384 Y24.2703 I9.456 J0.012
G3 X60.6441 Y24.276 I-3.1777 J3.1862
G2 X63.7252 Y26.338 I6.7308 J-6.7247
G2 X67.3536 Y27.0569 I3.6148 J-8.7282
G3 X67.3655 I0.0065 J4.5
G2 X74.0734 Y24.2784 I0.0115 J-9.4585
G3 X74.0778 Y24.274 I3.1859 J3.1781
G2 X76.141 Y21.1918 I-6.7427 J-6.7451
G2 X76.8599 Y17.5627 I-8.7449 J-3.6181
G3 Y17.5521 I4.5 J-0.0053
G2 X76.1412 Y13.923 I-9.4661 J-0.0112
G2 X72.6357 Y9.6549 I-8.822 J3.6722
G3 X72.6342 Y9.6539 I2.5036 J-3.7392
G2 X67.3674 Y8.0571 I-5.2514 J7.8363
G3 X67.3541 I-0.0074 J-4.5
G2 X60.6465 Y10.8354 I-0.0125 J9.4559
G3 X60.6408 Y10.8412 I-3.1862 J-3.1778
G2 X58.5789 Y13.9221 I6.7231 J6.7298
G2 X58.1016 Y15.4141 I8.7341 J3.6163
G1 F50.0 X56.1528 Y14.9647
G2 F150.0 X55.8599 Y17.554 I11.1602 J2.5737
G3 Y17.5606 I-2.5 J0.0034
G2 X59.226 Y25.6864 I11.456 J0.0145
G3 X59.2292 Y25.6896 I-1.7654 J1.7701
G2 X62.9589 Y28.1854 I8.1457 J-8.1383
G2 X67.3565 Y29.0569 I4.381 J-10.5756
G3 X67.3631 I0.0036 J2.5
G2 X75.4893 Y25.6909 I0.0139 J-11.4585
G3 X75.4918 Y25.6884 I1.7699 J1.7656
G2 X77.9883 Y21.9582 I-8.1567 J-8.1596
G2 X78.8599 Y17.5603 I-10.5923 J-4.3845
G3 Y17.5545 I2.5 J-0.0029
G2 X77.9885 Y13.1565 I-11.4661 J-0.0136
G2 X73.7484 Y7.993 I-10.6692 J4.4387
G3 X73.7476 Y7.9925 I1.3909 J-2.0774
G2 X67.3641 Y6.0571 I-6.3648 J9.4978
G3 X67.3568 I-0.0041 J-2.5
G2 X59.2304 Y9.4231 I-0.0151 J11.4559
G3 X59.2272 Y9.4263 I-1.7701 J-1.7654
G2 X56.7315 Y13.156 I8.1366 J8.1447
G2 X56.1528 Y14.9647 I10.5816 J4.3824
G0 Z3.0
G0 X66.8715 Y17.4365
G0 Z-1.0
G1 F50.0 Z-3.0
G2 F150.0 X66.8599 Y17.539 I0.4416 J0.1018
G3 Y17.5745 I-13.5 J0.0184
G2 X66.9938 Y17.8979 I0.456 J0.0006
G3 X67.0109 Y17.915 I-9.5332 J9.5587
G2 X67.1731 Y18.0246 I0.364 J-0.3636
G2 X67.3406 Y18.0569 I0.1669 J-0.4148
G3 X67.3765 I0.0194 J13.5
G2 X67.7016 Y17.9222 I0.0006 J-0.4585
G3 X67.715 Y17.9089 I9.5576 J9.5343
G2 X67.8278 Y17.7434 I-0.3799 J-0.3801
G2 X67.8599 Y17.5732 I-0.4317 J-0.1697
G3 Y17.5415 I13.5 J-0.0158
G2 X67.8282 Y17.3718 I-0.4661 J-0.0006
G2 X67.6285 Y17.1334 I-0.5089 J0.2233
G3 X67.624 Y17.1304 I7.5109 J-11.2177
G2 X67.3821 Y17.057 I-0.2412 J0.3599
G3 X67.3423 I-0.0221 J-13.5
G2 X67.0189 Y17.191 I-0.0006 J0.4559
G3 X67.0016 Y17.2083 I-9.5585 J-9.5333
G2 X66.8925 Y17.3695 I0.3623 J0.3626
G2 X66.8715 Y17.4365 I0.4206 J0.1688
G1 F50.0 X65.897 Y17.2118
G2 F150.0 X65.8599 Y17.5403 I1.416 J0.3265
G3 Y17.5732 I-12.5 J0.0171
G2 X66.2877 Y18.606 I1.456 J0.0018
G3 X66.3035 Y18.6218 I-8.8271 J8.8506
G2 X66.7901 Y18.9484 I1.0714 J-1.0704
G2 X67.3421 Y19.0569 I0.5499 J-1.3386
G3 X67.3753 I0.018 J12.5
G2 X68.4096 Y18.6285 I0.0018 J-1.4585
G3 X68.422 Y18.6161 I8.8496 J8.828
G2 X68.7516 Y18.1264 I-1.0869 J-1.0873
G2 X68.8599 Y17.572 I-1.3555 J-0.5527
G3 Y17.5426 I12.5 J-0.0146
G2 X68.752 Y16.9888 I-1.4661 J-0.0017
G2 X68.1848 Y16.3024 I-1.4327 J0.6063
G3 X68.1807 Y16.2997 I6.9545 J-10.3868
G2 X67.3805 Y16.057 I-0.7978 J1.1906
G3 X67.3436 Y16.0571 I-0.0204 J-12.5
G2 X66.3108 Y16.4848 I-0.0019 J1.4559
G3 X66.2948 Y16.5009 I-8.8505 J-8.8272
G2 X65.9687 Y16.9866 I1.069 J1.0701
G2 X65.897 Y17.2118 I1.3443 J0.5518
G1 F50.0 X63.9482 Y16.7624
G2 F150.0 X63.8599 Y17.5431 I3.3649 J0.776
G3 Y17.5707 I-10.5 J0.0143
G2 X64.8754 Y20.0221 I3.456 J0.0044
G3 X64.8886 Y20.0353 I-7.4147 J7.4345
G2 X66.0239 Y20.7958 I2.4863 J-2.484
G2 X67.3449 Y21.0569 I1.3161 J-3.186
G3 X67.3728 I0.0151 J10.5
G2 X69.8256 Y20.041 I0.0042 J-3.4585
G3 X69.8359 Y20.0306 I7.4337 J7.4156
G2 X70.5989 Y18.8927 I-2.5009 J-2.5018
G2 X70.8599 Y17.5697 I-3.2029 J-1.319
G3 Y17.545 I10.5 J-0.0123
G2 X70.5993 Y16.2224 I-3.4661 J-0.0041
G2 X69.2975 Y14.6406 I-3.2801 J1.3727
G3 X69.294 Y14.6382 I5.8418 J-8.7249
G2 X67.3772 Y14.057 I-1.9112 J2.852
G3 X67.3462 Y14.0571 I-0.0172 J-10.5
G2 X64.8948 Y15.0725 I-0.0046 J3.4559
G3 X64.8813 Y15.086 I-7.4344 J-7.4148
G2 X64.1212 Y16.2205 I2.4826 J2.485
G2 X63.9482 Y16.7624 I3.1918 J1.3179
G1 F50.0 X61.9993 Y16.313
G2 F150.0 X61.8599 Y17.5458 I5.3137 J1.2254
G3 Y17.5682 I-8.5 J0.0116
G2 X63.463 Y21.4382 I5.456 J0.0069
G3 X63.4738 Y21.4489 I-6.0024 J6.0184
G2 X65.2576 Y22.6432 I3.9011 J-3.8976
G2 X67.3478 Y23.0569 I2.0824 J-5.0334
G3 X67.3704 I0.0122 J8.5
G2 X71.2415 Y21.4534 I0.0066 J-5.4585
G3 X71.2499 Y21.445 I6.0177 J6.0031
G2 X72.4463 Y19.6591 I-3.9148 J-3.9162
G2 X72.8599 Y17.5673 I-5.0503 J-2.0854
G3 Y17.5474 I8.5 J-0.0099
G2 X72.4466 Y15.4559 I-5.4661 J-0.0065
G2 X70.4103 Y12.9787 I-5.1274 J2.1392
G3 X70.4074 Y12.9768 I4.7291 J-7.063
G2 X67.3739 Y12.057 I-3.0246 J4.5134
G3 X67.3489 Y12.0571 I-0.0139 J-8.5
G2 X63.4787 Y13.6601 I-0.0072 J5.4559
G3 X63.4678 Y13.671 I-6.0183 J-6.0025
G2 X62.2738 Y15.4543 I3.8961 J3.8999
G2 X61.9993 Y16.313 I5.0392 J2.084
G1 F50.0 X60.0505 Y15.8635
G2 F150.0 X59.8599 Y17.5485 I7.2626 J1.6748
G3 Y17.5656 I-6.5 J0.0089
G2 X62.0507 Y22.8543 I7.456 J0.0094
G3 X62.0589 Y22.8625 I-4.5901 J4.6023
G2 X64.4914 Y24.4906 I5.316 J-5.3111
G2 X67.3507 Y25.0569 I2.8486 J-6.8808
G3 X67.368 I0.0094 J6.5
G2 X72.6574 Y22.8659 I0.0091 J-7.4585
G3 X72.6639 Y22.8595 I4.6018 J4.5906
G2 X74.2936 Y20.4255 I-5.3288 J-5.3307
G2 X74.8599 Y17.565 I-6.8976 J-2.8517
G3 Y17.5497 I6.5 J-0.0076
G2 X74.2939 Y14.6894 I-7.4661 J-0.0088
G2 X71.523 Y11.3168 I-6.9747 J2.9057
G3 X71.5208 Y11.3153 I3.6163 J-5.4011
G2 X67.3707 Y10.0571 I-4.138 J6.1749
G3 X67.3515 I-0.0106 J-6.5
G2 X62.0626 Y12.2478 I-0.0098 J7.4559
G3 X62.0543 Y12.2561 I-4.6023 J-4.5901
G2 X60.4263 Y14.6882 I5.3096 J5.3148
G2 X60.0505 Y15.8635 I6.8867 J2.8501
G1 F50.0 X58.1016 Y15.4141
G2 F150.0 X57.8599 Y17.5513 I9.2114 J2.1243
G3 Y17.5631 I-4.5 J0.0061
G2 X60.6384 Y24.2703 I9.456 J0.012
G3 X60.6441 Y24.276 I-3.1777 J3.1862
G2 X63.7252 Y26.338 I6.7308 J-6.7247
G2 X67.3536 Y27.0569 I3.6148 J-8.7282
G3 X67.3655 I0.0065 J4.5
G2 X74.0734 Y24.2784 I0.0115 J-9.4585
G3 X74.0778 Y24.274 I3.1859 J3.1781
G2 X76.141 Y21.1918 I-6.7427 J-6.7451
G2 X76.8599 Y17.5627 I-8.7449 J-3.6181
G3 Y17.5521 I4.5 J-0.0053
G2 X76.1412 Y13.923 I-9.4661 J-0.0112
G2 X72.6357 Y9.6549 I-8.822 J3.6722
G3 X72.6342 Y9.6539 I2.5036 J-3.7392
G2 X67.3674 Y8.0571 I-5.2514 J7.8363
G3 X67.3541 I-0.0074 J-4.5
G2 X60.6465 Y10.8354 I-0.0125 J9.4559
G3 X60.6408 Y10.8412 I-3.1862 J-3.1778
G2 X58.5789 Y13.9221 I6.7231 J6.7298
G2 X58.1016 Y15.4141 I8.7341 J3.6163
G1 F50.0 X56.1528 Y14.9647
G2 F150.0 X55.8599 Y17.554 I11.1602 J2.5737
G3 Y17.5606 I-2.5 J0.0034
G2 X59.226 Y25.6864 I11.456 J0.0145
G3 X59.2292 Y25.6896 I-1.7654 J1.7701
G2 X62.9589 Y28.1854 I8.1457 J-8.1383
G2 X67.3565 Y29.0569 I4.381 J-10.5756
G3 X67.3631 I0.0036 J2.5
G2 X75.4893 Y25.6909 I0.0139 J-11.4585
G3 X75.4918 Y25.6884 I1.7699 J1.7656
G2 X77.9883 Y21.9582 I-8.1567 J-8.1596
G2 X78.8599 Y17.5603 I-10.5923 J-4.3845
G3 Y17.5545 I2.5 J-0.0029
G2 X77.9885 Y13.1565 I-11.4661 J-0.0136
G2 X73.7484 Y7.993 I-10.6692 J4.4387
G3 X73.7476 Y7.9925 I1.3909 J-2.0774
G2 X67.3641 Y6.0571 I-6.3648 J9.4978
G3 X67.3568 I-0.0041 J-2.5
G2 X59.2304 Y9.4231 I-0.0151 J11.4559
G3 X59.2272 Y9.4263 I-1.7701 J-1.7654
G2 X56.7315 Y13.156 I8.1366 J8.1447
G2 X56.1528 Y14.9647 I10.5816 J4.3824
G0 Z3.0
M5
M30
