( Made using CamBam - http://www.cambam.co.uk )
( bearing block 9/10/2013 3:18:32 PM )
( T5 : 5.0 )
G21 G90 G64 G40
G0 Z3.0
( T5 : 5.0 )
T5 M6
( Profile1 )
G17
M3 S1000
G0 X-2.5 Y0.0
G0 Z1.0
G1 F100.0 Z-2.0
G1 F150.0 Y26.3011
G2 X-1.7556 Y28.0809 I2.5 J0.0
G1 X7.0639 Y36.78
G2 X8.8194 Y37.5001 I1.7556 J-1.7799
G1 X70.057
G1 X89.7357 Y52.1737
G2 X91.2301 Y52.6695 I1.4944 J-2.0042
G1 X100.003
G2 X102.503 Y50.1695 I0.0 J-2.5
G1 Y0.0
G2 X100.003 Y-2.5 I-2.5 J0.0
G1 X0.0
G2 X-2.5 Y0.0 I0.0 J2.5
G1 F100.0 Z-4.0
G1 F150.0 Y26.3011
G2 X-1.7556 Y28.0809 I2.5 J0.0
G1 X7.0639 Y36.78
G2 X8.8194 Y37.5001 I1.7556 J-1.7799
G1 X70.057
G1 X89.7357 Y52.1737
G2 X91.2301 Y52.6695 I1.4944 J-2.0042
G1 X100.003
G2 X102.503 Y50.1695 I0.0 J-2.5
G1 Y0.0
G2 X100.003 Y-2.5 I-2.5 J0.0
G1 X0.0
G2 X-2.5 Y0.0 I0.0 J2.5
G1 F100.0 Z-6.0
G1 F150.0 Y26.3011
G2 X-1.7556 Y28.0809 I2.5 J0.0
G1 X7.0639 Y36.78
G2 X8.8194 Y37.5001 I1.7556 J-1.7799
G1 X70.057
G1 X89.7357 Y52.1737
G2 X91.2301 Y52.6695 I1.4944 J-2.0042
G1 X100.003
G2 X102.503 Y50.1695 I0.0 J-2.5
G1 Y0.0
G2 X100.003 Y-2.5 I-2.5 J0.0
G1 X0.0
G2 X-2.5 Y0.0 I0.0 J2.5
G1 F100.0 Z-8.0
G1 F150.0 Y26.3011
G2 X-1.7556 Y28.0809 I2.5 J0.0
G1 X7.0639 Y36.78
G2 X8.8194 Y37.5001 I1.7556 J-1.7799
G1 X70.057
G1 X89.7357 Y52.1737
G2 X91.2301 Y52.6695 I1.4944 J-2.0042
G1 X100.003
G2 X102.503 Y50.1695 I0.0 J-2.5
G1 Y0.0
G2 X100.003 Y-2.5 I-2.5 J0.0
G1 X0.0
G2 X-2.5 Y0.0 I0.0 J2.5
G1 F100.0 Z-10.0
G1 F150.0 Y26.3011
G2 X-1.7556 Y28.0809 I2.5 J0.0
G1 X7.0639 Y36.78
G2 X8.8194 Y37.5001 I1.7556 J-1.7799
G1 X70.057
G1 X89.7357 Y52.1737
G2 X91.2301 Y52.6695 I1.4944 J-2.0042
G1 X100.003
G2 X102.503 Y50.1695 I0.0 J-2.5
G1 Y0.0
G2 X100.003 Y-2.5 I-2.5 J0.0
G1 X0.0
G2 X-2.5 Y0.0 I0.0 J2.5
G1 F100.0 Z-12.0
G1 F150.0 Y26.3011
G2 X-1.7556 Y28.0809 I2.5 J0.0
G1 X7.0639 Y36.78
G2 X8.8194 Y37.5001 I1.7556 J-1.7799
G1 X70.057
G1 X89.7357 Y52.1737
G2 X91.2301 Y52.6695 I1.4944 J-2.0042
G1 X100.003
G2 X102.503 Y50.1695 I0.0 J-2.5
G1 Y0.0
G2 X100.003 Y-2.5 I-2.5 J0.0
G1 X0.0
G2 X-2.5 Y0.0 I0.0 J2.5
G1 F100.0 Z-14.0
G1 F150.0 Y26.3011
G2 X-1.7556 Y28.0809 I2.5 J0.0
G1 X7.0639 Y36.78
G2 X8.8194 Y37.5001 I1.7556 J-1.7799
G1 X70.057
G1 X89.7357 Y52.1737
G2 X91.2301 Y52.6695 I1.4944 J-2.0042
G1 X100.003
G2 X102.503 Y50.1695 I0.0 J-2.5
G1 Y0.0
G2 X100.003 Y-2.5 I-2.5 J0.0
G1 X0.0
G2 X-2.5 Y0.0 I0.0 J2.5
G1 F100.0 Z-16.0
G1 F150.0 Y26.3011
G2 X-1.7556 Y28.0809 I2.5 J0.0
G1 X7.0639 Y36.78
G2 X8.8194 Y37.5001 I1.7556 J-1.7799
G1 X70.057
G1 X89.7357 Y52.1737
G2 X91.2301 Y52.6695 I1.4944 J-2.0042
G1 X100.003
G2 X102.503 Y50.1695 I0.0 J-2.5
G1 Y0.0
G2 X100.003 Y-2.5 I-2.5 J0.0
G1 X0.0
G2 X-2.5 Y0.0 I0.0 J2.5
G1 F100.0 Z-18.0
G1 F150.0 Y26.3011
G2 X-1.7556 Y28.0809 I2.5 J0.0
G1 X7.0639 Y36.78
G2 X8.8194 Y37.5001 I1.7556 J-1.7799
G1 X70.057
G1 X89.7357 Y52.1737
G2 X91.2301 Y52.6695 I1.4944 J-2.0042
G1 X100.003
G2 X102.503 Y50.1695 I0.0 J-2.5
G1 Y0.0
G2 X100.003 Y-2.5 I-2.5 J0.0
G1 X0.0
G2 X-2.5 Y0.0 I0.0 J2.5
G1 F100.0 Z-20.0
G1 F150.0 Y26.3011
G2 X-1.7556 Y28.0809 I2.5 J0.0
G1 X7.0639 Y36.78
G2 X8.8194 Y37.5001 I1.7556 J-1.7799
G1 X70.057
G1 X89.7357 Y52.1737
G2 X91.2301 Y52.6695 I1.4944 J-2.0042
G1 X100.003
G2 X102.503 Y50.1695 I0.0 J-2.5
G1 Y0.0
G2 X100.003 Y-2.5 I-2.5 J0.0
G1 X0.0
G2 X-2.5 Y0.0 I0.0 J2.5
G1 F100.0 Z-22.0
G1 F150.0 Y26.3011
G2 X-1.7556 Y28.0809 I2.5 J0.0
G1 X7.0639 Y36.78
G2 X8.8194 Y37.5001 I1.7556 J-1.7799
G1 X70.057
G1 X89.7357 Y52.1737
G2 X91.2301 Y52.6695 I1.4944 J-2.0042
G1 X100.003
G2 X102.503 Y50.1695 I0.0 J-2.5
G1 Y0.0
G2 X100.003 Y-2.5 I-2.5 J0.0
G1 X0.0
G2 X-2.5 Y0.0 I0.0 J2.5
G0 Z3.0
M5
M30
