( Made using CamBam - http://www.cambam.co.uk )
( side bearing plate camfile 8/31/2013 1:23:56 PM )
( T16 : 1.0 )
G21 G90 G64 G40
G0 Z3.0
( T16 : 1.0 )
T16 M6
( Spot Drill )
G17
M3 S1000
G0 X5.0001 Y67.5
G98
G81 X5.0001 Y67.5 Z-1.0 R3.0 F50.0
G81 X17.9999 Y51.9998 Z-1.0
G81 Y31.9996 Z-1.0
G81 Y11.9998 Z-1.0
G81 X4.9999 Y10.5001 Z-1.0
G81 X31.0 Z-1.0
G81 X64.0073 Z-1.0
G81 X77.0079 Y11.9998 Z-1.0
G81 X90.0086 Y10.5001 Z-1.0
G81 X77.0079 Y31.9996 Z-1.0
G81 Y51.9998 Z-1.0
G81 X90.0085 Y67.5 Z-1.0
G81 X64.0073 Z-1.0
G81 X55.5065 Y62.9978 Z-1.0
G81 Y72.9977 Z-1.0
G81 X39.5006 Z-1.0
G81 Y62.9978 Z-1.0
G81 X31.0 Y67.5 Z-1.0
G81 X39.5006 Y52.9977 Z-1.0
G81 Y42.9976 Z-1.0
G81 X55.5065 Z-1.0
G81 Y52.9977 Z-1.0
G80
G0 Z3.0
M5
M30
