( Made using CamBam - http://www.cambam.co.uk )
( side bearing plate camfile 8/31/2013 2:33:24 PM )
( T4 : 4.0 )
G21 G90 G64 G40
G0 Z3.0
( T4 : 4.0 )
T4 M6
( 4mm Profile 2 )
G17
M3 S1000
G0 X51.509 Y80.0001
G0 Z1.0
G1 F50.0 Z-1.0
G1 F80.0 X59.0073
G1 X59.5085
G1 X95.0088
G2 X97.0088 Y78.0001 I0.0 J-2.0
G1 Y0.0
G2 X95.0088 Y-2.0 I-2.0 J0.0
G1 X59.0073
G2 X57.0073 Y0.0 I0.0 J2.0
G1 Y36.0001
G1 X51.509
G2 X49.509 Y38.0001 I0.0 J2.0
G1 Y78.0001
G2 X51.509 Y80.0001 I2.0 J0.0
G1 F50.0 Z-2.0
G1 F80.0 X59.0073
G1 X59.5085
G1 X95.0088
G2 X97.0088 Y78.0001 I0.0 J-2.0
G1 Y0.0
G2 X95.0088 Y-2.0 I-2.0 J0.0
G1 X59.0073
G2 X57.0073 Y0.0 I0.0 J2.0
G1 Y36.0001
G1 X51.509
G2 X49.509 Y38.0001 I0.0 J2.0
G1 Y78.0001
G2 X51.509 Y80.0001 I2.0 J0.0
G1 F50.0 Z-3.0
G1 F80.0 X59.0073
G1 X59.5085
G1 X95.0088
G2 X97.0088 Y78.0001 I0.0 J-2.0
G1 Y0.0
G2 X95.0088 Y-2.0 I-2.0 J0.0
G1 X59.0073
G2 X57.0073 Y0.0 I0.0 J2.0
G1 Y36.0001
G1 X51.509
G2 X49.509 Y38.0001 I0.0 J2.0
G1 Y78.0001
G2 X51.509 Y80.0001 I2.0 J0.0
G1 F50.0 Z-4.0
G1 F80.0 X59.0073
G1 X59.5085
G1 X95.0088
G2 X97.0088 Y78.0001 I0.0 J-2.0
G1 Y0.0
G2 X95.0088 Y-2.0 I-2.0 J0.0
G1 X59.0073
G2 X57.0073 Y0.0 I0.0 J2.0
G1 Y36.0001
G1 X51.509
G2 X49.509 Y38.0001 I0.0 J2.0
G1 Y78.0001
G2 X51.509 Y80.0001 I2.0 J0.0
G1 F50.0 Z-5.0
G1 F80.0 X59.0073
G1 X59.5085
G1 X95.0088
G2 X97.0088 Y78.0001 I0.0 J-2.0
G1 Y0.0
G2 X95.0088 Y-2.0 I-2.0 J0.0
G1 X59.0073
G2 X57.0073 Y0.0 I0.0 J2.0
G1 Y36.0001
G1 X51.509
G2 X49.509 Y38.0001 I0.0 J2.0
G1 Y78.0001
G2 X51.509 Y80.0001 I2.0 J0.0
G1 F50.0 Z-6.0
G1 F80.0 X59.0073
G1 X59.5085
G1 X95.0088
G2 X97.0088 Y78.0001 I0.0 J-2.0
G1 Y0.0
G2 X95.0088 Y-2.0 I-2.0 J0.0
G1 X59.0073
G2 X57.0073 Y0.0 I0.0 J2.0
G1 Y36.0001
G1 X51.509
G2 X49.509 Y38.0001 I0.0 J2.0
G1 Y78.0001
G2 X51.509 Y80.0001 I2.0 J0.0
G1 F50.0 Z-7.0
G1 F80.0 X59.0073
G1 X59.5085
G1 X95.0088
G2 X97.0088 Y78.0001 I0.0 J-2.0
G1 Y0.0
G2 X95.0088 Y-2.0 I-2.0 J0.0
G1 X59.0073
G2 X57.0073 Y0.0 I0.0 J2.0
G1 Y36.0001
G1 X51.509
G2 X49.509 Y38.0001 I0.0 J2.0
G1 Y78.0001
G2 X51.509 Y80.0001 I2.0 J0.0
G1 F50.0 Z-8.0
G1 F80.0 X59.0073
G1 X59.5085
G1 X95.0088
G2 X97.0088 Y78.0001 I0.0 J-2.0
G1 Y0.0
G2 X95.0088 Y-2.0 I-2.0 J0.0
G1 X59.0073
G2 X57.0073 Y0.0 I0.0 J2.0
G1 Y36.0001
G1 X51.509
G2 X49.509 Y38.0001 I0.0 J2.0
G1 Y78.0001
G2 X51.509 Y80.0001 I2.0 J0.0
G1 F50.0 Z-9.0
G1 F80.0 X59.0073
G1 X59.5085
G1 X95.0088
G2 X97.0088 Y78.0001 I0.0 J-2.0
G1 Y0.0
G2 X95.0088 Y-2.0 I-2.0 J0.0
G1 X59.0073
G2 X57.0073 Y0.0 I0.0 J2.0
G1 Y36.0001
G1 X51.509
G2 X49.509 Y38.0001 I0.0 J2.0
G1 Y78.0001
G2 X51.509 Y80.0001 I2.0 J0.0
G1 F50.0 Z-10.0
G1 F80.0 X59.0073
G1 X59.5085
G1 X95.0088
G2 X97.0088 Y78.0001 I0.0 J-2.0
G1 Y0.0
G2 X95.0088 Y-2.0 I-2.0 J0.0
G1 X59.0073
G2 X57.0073 Y0.0 I0.0 J2.0
G1 Y36.0001
G1 X51.509
G2 X49.509 Y38.0001 I0.0 J2.0
G1 Y78.0001
G2 X51.509 Y80.0001 I2.0 J0.0
G1 F50.0 Z-11.0
G1 F80.0 X59.0073
G1 X59.5085
G1 X95.0088
G2 X97.0088 Y78.0001 I0.0 J-2.0
G1 Y0.0
G2 X95.0088 Y-2.0 I-2.0 J0.0
G1 X59.0073
G2 X57.0073 Y0.0 I0.0 J2.0
G1 Y36.0001
G1 X51.509
G2 X49.509 Y38.0001 I0.0 J2.0
G1 Y78.0001
G2 X51.509 Y80.0001 I2.0 J0.0
G0 Z3.0
M5
M30
