( Made using CamBam - http://www.cambam.co.uk )
( side bearing plate camfile 8/31/2013 1:24:10 PM )
( T9 : 3.0 )
G21 G90 G64 G40
G0 Z3.0
( T9 : 3.0 )
T9 M6
( 3mm Drill )
G17
M3 S1000
G0 X39.5006 Y42.9976
G98
G83 X39.5006 Y42.9976 Z-12.0 Q2.0 R2.0 F50.0
G83 Y52.9977 Z-12.0
G83 Y62.9978 Z-12.0
G83 Y72.9977 Z-12.0
G83 X55.5065 Z-12.0
G83 Y62.9978 Z-12.0
G83 Y52.9977 Z-12.0
G83 Y42.9976 Z-12.0
G80
G0 Z3.0
M5
M30
