( Made using CamBam - http://www.cambam.co.uk )
( side bearing plate camfile 8/31/2013 1:24:48 PM )
( T5 : 5.0 )
G21 G90 G64 G40
G0 Z3.0
( T5 : 5.0 )
T5 M6
( 5mm mill hole pockets )
G17
M3 S1000
G0 X19.9999 Y52.0034
G0 Z1.0
G1 F50.0 Z-1.0
G3 X19.4165 Y53.4117 I-1.9851 J0.0027
G2 X19.412 Y53.4163 I1.7653 J1.7702
G3 X18.0032 Y53.9997 I-1.4061 J-1.4027
G2 X17.9966 I-0.0033 J2.5
G3 X16.588 Y53.4164 I-0.0027 J-1.9859
G2 X16.5833 Y53.4117 I-1.7699 J1.7656
G3 X15.9999 Y52.0034 I1.4017 J-1.4056
G2 Y51.9961 I-2.5 J-0.0033
G3 X16.583 Y50.5884 I1.9832 J-0.0031
G2 X16.5881 Y50.5833 I-1.765 J-1.7705
G3 X17.9968 Y49.9998 I1.4062 J1.4024
G2 X18.0033 I0.0031 J-2.5
G3 X19.4116 Y50.5832 I0.0026 J1.9852
G2 X19.4159 Y50.5875 I1.7703 J-1.7653
G3 X19.9999 Y51.9975 I-1.4052 J1.408
G2 Y52.0034 I2.5 J0.0026
G1 Z-2.0
G3 X19.4165 Y53.4117 I-1.9851 J0.0027
G2 X19.412 Y53.4163 I1.7653 J1.7702
G3 X18.0032 Y53.9997 I-1.4061 J-1.4027
G2 X17.9966 I-0.0033 J2.5
G3 X16.588 Y53.4164 I-0.0027 J-1.9859
G2 X16.5833 Y53.4117 I-1.7699 J1.7656
G3 X15.9999 Y52.0034 I1.4017 J-1.4056
G2 Y51.9961 I-2.5 J-0.0033
G3 X16.583 Y50.5884 I1.9832 J-0.0031
G2 X16.5881 Y50.5833 I-1.765 J-1.7705
G3 X17.9968 Y49.9998 I1.4062 J1.4024
G2 X18.0033 I0.0031 J-2.5
G3 X19.4116 Y50.5832 I0.0026 J1.9852
G2 X19.4159 Y50.5875 I1.7703 J-1.7653
G3 X19.9999 Y51.9975 I-1.4052 J1.408
G2 Y52.0034 I2.5 J0.0026
G1 Z-3.0
G3 X19.4165 Y53.4117 I-1.9851 J0.0027
G2 X19.412 Y53.4163 I1.7653 J1.7702
G3 X18.0032 Y53.9997 I-1.4061 J-1.4027
G2 X17.9966 I-0.0033 J2.5
G3 X16.588 Y53.4164 I-0.0027 J-1.9859
G2 X16.5833 Y53.4117 I-1.7699 J1.7656
G3 X15.9999 Y52.0034 I1.4017 J-1.4056
G2 Y51.9961 I-2.5 J-0.0033
G3 X16.583 Y50.5884 I1.9832 J-0.0031
G2 X16.5881 Y50.5833 I-1.765 J-1.7705
G3 X17.9968 Y49.9998 I1.4062 J1.4024
G2 X18.0033 I0.0031 J-2.5
G3 X19.4116 Y50.5832 I0.0026 J1.9852
G2 X19.4159 Y50.5875 I1.7703 J-1.7653
G3 X19.9999 Y51.9975 I-1.4052 J1.408
G2 Y52.0034 I2.5 J0.0026
G1 Z-4.0
G3 X19.4165 Y53.4117 I-1.9851 J0.0027
G2 X19.412 Y53.4163 I1.7653 J1.7702
G3 X18.0032 Y53.9997 I-1.4061 J-1.4027
G2 X17.9966 I-0.0033 J2.5
G3 X16.588 Y53.4164 I-0.0027 J-1.9859
G2 X16.5833 Y53.4117 I-1.7699 J1.7656
G3 X15.9999 Y52.0034 I1.4017 J-1.4056
G2 Y51.9961 I-2.5 J-0.0033
G3 X16.583 Y50.5884 I1.9832 J-0.0031
G2 X16.5881 Y50.5833 I-1.765 J-1.7705
G3 X17.9968 Y49.9998 I1.4062 J1.4024
G2 X18.0033 I0.0031 J-2.5
G3 X19.4116 Y50.5832 I0.0026 J1.9852
G2 X19.4159 Y50.5875 I1.7703 J-1.7653
G3 X19.9999 Y51.9975 I-1.4052 J1.408
G2 Y52.0034 I2.5 J0.0026
G1 Z-5.0
G3 X19.4165 Y53.4117 I-1.9851 J0.0027
G2 X19.412 Y53.4163 I1.7653 J1.7702
G3 X18.0032 Y53.9997 I-1.4061 J-1.4027
G2 X17.9966 I-0.0033 J2.5
G3 X16.588 Y53.4164 I-0.0027 J-1.9859
G2 X16.5833 Y53.4117 I-1.7699 J1.7656
G3 X15.9999 Y52.0034 I1.4017 J-1.4056
G2 Y51.9961 I-2.5 J-0.0033
G3 X16.583 Y50.5884 I1.9832 J-0.0031
G2 X16.5881 Y50.5833 I-1.765 J-1.7705
G3 X17.9968 Y49.9998 I1.4062 J1.4024
G2 X18.0033 I0.0031 J-2.5
G3 X19.4116 Y50.5832 I0.0026 J1.9852
G2 X19.4159 Y50.5875 I1.7703 J-1.7653
G3 X19.9999 Y51.9975 I-1.4052 J1.408
G2 Y52.0034 I2.5 J0.0026
G1 Z-6.0
G3 X19.4165 Y53.4117 I-1.9851 J0.0027
G2 X19.412 Y53.4163 I1.7653 J1.7702
G3 X18.0032 Y53.9997 I-1.4061 J-1.4027
G2 X17.9966 I-0.0033 J2.5
G3 X16.588 Y53.4164 I-0.0027 J-1.9859
G2 X16.5833 Y53.4117 I-1.7699 J1.7656
G3 X15.9999 Y52.0034 I1.4017 J-1.4056
G2 Y51.9961 I-2.5 J-0.0033
G3 X16.583 Y50.5884 I1.9832 J-0.0031
G2 X16.5881 Y50.5833 I-1.765 J-1.7705
G3 X17.9968 Y49.9998 I1.4062 J1.4024
G2 X18.0033 I0.0031 J-2.5
G3 X19.4116 Y50.5832 I0.0026 J1.9852
G2 X19.4159 Y50.5875 I1.7703 J-1.7653
G3 X19.9999 Y51.9975 I-1.4052 J1.408
G2 Y52.0034 I2.5 J0.0026
G0 Z3.0
G0 X18.203 Y33.9898
G0 Z1.0
G1 Z-1.0
G3 X18.0032 Y33.9996 I-0.1971 J-1.9764
G2 X17.9966 I-0.0033 J2.5
G3 X16.588 Y33.4162 I-0.0027 J-1.9859
G2 X16.5833 Y33.4116 I-1.7699 J1.7656
G3 X15.9999 Y32.0033 I1.4017 J-1.4056
G2 Y31.996 I-2.5 J-0.0033
G3 X16.583 Y30.5883 I1.9832 J-0.0031
G2 X16.5881 Y30.5832 I-1.765 J-1.7705
G3 X17.9968 Y29.9996 I1.4062 J1.4024
G2 X18.0033 I0.0031 J-2.5
G3 X19.4116 Y30.5831 I0.0026 J1.9852
G2 X19.4159 Y30.5873 I1.7703 J-1.7653
G3 X19.9999 Y31.9974 I-1.4052 J1.408
G2 Y32.0033 I2.5 J0.0026
G3 X19.4165 Y33.4116 I-1.9851 J0.0027
G2 X19.412 Y33.4162 I1.7653 J1.7702
G3 X18.203 Y33.9898 I-1.4061 J-1.4027
G1 Z-2.0
G3 X18.0032 Y33.9996 I-0.1971 J-1.9764
G2 X17.9966 I-0.0033 J2.5
G3 X16.588 Y33.4162 I-0.0027 J-1.9859
G2 X16.5833 Y33.4116 I-1.7699 J1.7656
G3 X15.9999 Y32.0033 I1.4017 J-1.4056
G2 Y31.996 I-2.5 J-0.0033
G3 X16.583 Y30.5883 I1.9832 J-0.0031
G2 X16.5881 Y30.5832 I-1.765 J-1.7705
G3 X17.9968 Y29.9996 I1.4062 J1.4024
G2 X18.0033 I0.0031 J-2.5
G3 X19.4116 Y30.5831 I0.0026 J1.9852
G2 X19.4159 Y30.5873 I1.7703 J-1.7653
G3 X19.9999 Y31.9974 I-1.4052 J1.408
G2 Y32.0033 I2.5 J0.0026
G3 X19.4165 Y33.4116 I-1.9851 J0.0027
G2 X19.412 Y33.4162 I1.7653 J1.7702
G3 X18.203 Y33.9898 I-1.4061 J-1.4027
G1 Z-3.0
G3 X18.0032 Y33.9996 I-0.1971 J-1.9764
G2 X17.9966 I-0.0033 J2.5
G3 X16.588 Y33.4162 I-0.0027 J-1.9859
G2 X16.5833 Y33.4116 I-1.7699 J1.7656
G3 X15.9999 Y32.0033 I1.4017 J-1.4056
G2 Y31.996 I-2.5 J-0.0033
G3 X16.583 Y30.5883 I1.9832 J-0.0031
G2 X16.5881 Y30.5832 I-1.765 J-1.7705
G3 X17.9968 Y29.9996 I1.4062 J1.4024
G2 X18.0033 I0.0031 J-2.5
G3 X19.4116 Y30.5831 I0.0026 J1.9852
G2 X19.4159 Y30.5873 I1.7703 J-1.7653
G3 X19.9999 Y31.9974 I-1.4052 J1.408
G2 Y32.0033 I2.5 J0.0026
G3 X19.4165 Y33.4116 I-1.9851 J0.0027
G2 X19.412 Y33.4162 I1.7653 J1.7702
G3 X18.203 Y33.9898 I-1.4061 J-1.4027
G1 Z-4.0
G3 X18.0032 Y33.9996 I-0.1971 J-1.9764
G2 X17.9966 I-0.0033 J2.5
G3 X16.588 Y33.4162 I-0.0027 J-1.9859
G2 X16.5833 Y33.4116 I-1.7699 J1.7656
G3 X15.9999 Y32.0033 I1.4017 J-1.4056
G2 Y31.996 I-2.5 J-0.0033
G3 X16.583 Y30.5883 I1.9832 J-0.0031
G2 X16.5881 Y30.5832 I-1.765 J-1.7705
G3 X17.9968 Y29.9996 I1.4062 J1.4024
G2 X18.0033 I0.0031 J-2.5
G3 X19.4116 Y30.5831 I0.0026 J1.9852
G2 X19.4159 Y30.5873 I1.7703 J-1.7653
G3 X19.9999 Y31.9974 I-1.4052 J1.408
G2 Y32.0033 I2.5 J0.0026
G3 X19.4165 Y33.4116 I-1.9851 J0.0027
G2 X19.412 Y33.4162 I1.7653 J1.7702
G3 X18.203 Y33.9898 I-1.4061 J-1.4027
G1 Z-5.0
G3 X18.0032 Y33.9996 I-0.1971 J-1.9764
G2 X17.9966 I-0.0033 J2.5
G3 X16.588 Y33.4162 I-0.0027 J-1.9859
G2 X16.5833 Y33.4116 I-1.7699 J1.7656
G3 X15.9999 Y32.0033 I1.4017 J-1.4056
G2 Y31.996 I-2.5 J-0.0033
G3 X16.583 Y30.5883 I1.9832 J-0.0031
G2 X16.5881 Y30.5832 I-1.765 J-1.7705
G3 X17.9968 Y29.9996 I1.4062 J1.4024
G2 X18.0033 I0.0031 J-2.5
G3 X19.4116 Y30.5831 I0.0026 J1.9852
G2 X19.4159 Y30.5873 I1.7703 J-1.7653
G3 X19.9999 Y31.9974 I-1.4052 J1.408
G2 Y32.0033 I2.5 J0.0026
G3 X19.4165 Y33.4116 I-1.9851 J0.0027
G2 X19.412 Y33.4162 I1.7653 J1.7702
G3 X18.203 Y33.9898 I-1.4061 J-1.4027
G1 Z-6.0
G3 X18.0032 Y33.9996 I-0.1971 J-1.9764
G2 X17.9966 I-0.0033 J2.5
G3 X16.588 Y33.4162 I-0.0027 J-1.9859
G2 X16.5833 Y33.4116 I-1.7699 J1.7656
G3 X15.9999 Y32.0033 I1.4017 J-1.4056
G2 Y31.996 I-2.5 J-0.0033
G3 X16.583 Y30.5883 I1.9832 J-0.0031
G2 X16.5881 Y30.5832 I-1.765 J-1.7705
G3 X17.9968 Y29.9996 I1.4062 J1.4024
G2 X18.0033 I0.0031 J-2.5
G3 X19.4116 Y30.5831 I0.0026 J1.9852
G2 X19.4159 Y30.5873 I1.7703 J-1.7653
G3 X19.9999 Y31.9974 I-1.4052 J1.408
G2 Y32.0033 I2.5 J0.0026
G3 X19.4165 Y33.4116 I-1.9851 J0.0027
G2 X19.412 Y33.4162 I1.7653 J1.7702
G3 X18.203 Y33.9898 I-1.4061 J-1.4027
G0 Z3.0
G0 X18.0244 Y13.9999
G0 Z1.0
G1 Z-1.0
G3 X18.0037 I-0.0177 J-1.9839
G2 X17.9971 I-0.0037 J2.5
G3 X16.5877 Y13.4162 I-0.0023 J-1.9878
G2 X16.5832 Y13.4117 I-1.7697 J1.7658
G3 X15.9999 Y12.0035 I1.4015 J-1.4054
G2 Y11.997 I-2.5 J-0.0036
G3 X16.5837 Y10.5877 I1.9874 J-0.0024
G2 X16.588 Y10.5833 I-1.7657 J-1.7698
G3 X17.997 Y9.9996 I1.4065 J1.4028
G2 X18.0034 I0.003 J-2.5
G3 X19.4115 Y10.583 I0.0027 J1.9846
G2 X19.4166 Y10.5881 I1.7704 J-1.7651
G3 X19.9999 Y11.9965 I-1.4018 J1.4056
G2 Y12.0031 I2.5 J0.0035
G3 X19.4163 Y13.412 I-1.9865 J0.0025
G2 X19.4116 Y13.4168 I1.7656 J1.77
G3 X18.0244 Y13.9999 I-1.4049 J-1.4008
G1 Z-2.0
G3 X18.0037 I-0.0177 J-1.9839
G2 X17.9971 I-0.0037 J2.5
G3 X16.5877 Y13.4162 I-0.0023 J-1.9878
G2 X16.5832 Y13.4117 I-1.7697 J1.7658
G3 X15.9999 Y12.0035 I1.4015 J-1.4054
G2 Y11.997 I-2.5 J-0.0036
G3 X16.5837 Y10.5877 I1.9874 J-0.0024
G2 X16.588 Y10.5833 I-1.7657 J-1.7698
G3 X17.997 Y9.9996 I1.4065 J1.4028
G2 X18.0034 I0.003 J-2.5
G3 X19.4115 Y10.583 I0.0027 J1.9846
G2 X19.4166 Y10.5881 I1.7704 J-1.7651
G3 X19.9999 Y11.9965 I-1.4018 J1.4056
G2 Y12.0031 I2.5 J0.0035
G3 X19.4163 Y13.412 I-1.9865 J0.0025
G2 X19.4116 Y13.4168 I1.7656 J1.77
G3 X18.0244 Y13.9999 I-1.4049 J-1.4008
G1 Z-3.0
G3 X18.0037 I-0.0177 J-1.9839
G2 X17.9971 I-0.0037 J2.5
G3 X16.5877 Y13.4162 I-0.0023 J-1.9878
G2 X16.5832 Y13.4117 I-1.7697 J1.7658
G3 X15.9999 Y12.0035 I1.4015 J-1.4054
G2 Y11.997 I-2.5 J-0.0036
G3 X16.5837 Y10.5877 I1.9874 J-0.0024
G2 X16.588 Y10.5833 I-1.7657 J-1.7698
G3 X17.997 Y9.9996 I1.4065 J1.4028
G2 X18.0034 I0.003 J-2.5
G3 X19.4115 Y10.583 I0.0027 J1.9846
G2 X19.4166 Y10.5881 I1.7704 J-1.7651
G3 X19.9999 Y11.9965 I-1.4018 J1.4056
G2 Y12.0031 I2.5 J0.0035
G3 X19.4163 Y13.412 I-1.9865 J0.0025
G2 X19.4116 Y13.4168 I1.7656 J1.77
G3 X18.0244 Y13.9999 I-1.4049 J-1.4008
G1 Z-4.0
G3 X18.0037 I-0.0177 J-1.9839
G2 X17.9971 I-0.0037 J2.5
G3 X16.5877 Y13.4162 I-0.0023 J-1.9878
G2 X16.5832 Y13.4117 I-1.7697 J1.7658
G3 X15.9999 Y12.0035 I1.4015 J-1.4054
G2 Y11.997 I-2.5 J-0.0036
G3 X16.5837 Y10.5877 I1.9874 J-0.0024
G2 X16.588 Y10.5833 I-1.7657 J-1.7698
G3 X17.997 Y9.9996 I1.4065 J1.4028
G2 X18.0034 I0.003 J-2.5
G3 X19.4115 Y10.583 I0.0027 J1.9846
G2 X19.4166 Y10.5881 I1.7704 J-1.7651
G3 X19.9999 Y11.9965 I-1.4018 J1.4056
G2 Y12.0031 I2.5 J0.0035
G3 X19.4163 Y13.412 I-1.9865 J0.0025
G2 X19.4116 Y13.4168 I1.7656 J1.77
G3 X18.0244 Y13.9999 I-1.4049 J-1.4008
G1 Z-5.0
G3 X18.0037 I-0.0177 J-1.9839
G2 X17.9971 I-0.0037 J2.5
G3 X16.5877 Y13.4162 I-0.0023 J-1.9878
G2 X16.5832 Y13.4117 I-1.7697 J1.7658
G3 X15.9999 Y12.0035 I1.4015 J-1.4054
G2 Y11.997 I-2.5 J-0.0036
G3 X16.5837 Y10.5877 I1.9874 J-0.0024
G2 X16.588 Y10.5833 I-1.7657 J-1.7698
G3 X17.997 Y9.9996 I1.4065 J1.4028
G2 X18.0034 I0.003 J-2.5
G3 X19.4115 Y10.583 I0.0027 J1.9846
G2 X19.4166 Y10.5881 I1.7704 J-1.7651
G3 X19.9999 Y11.9965 I-1.4018 J1.4056
G2 Y12.0031 I2.5 J0.0035
G3 X19.4163 Y13.412 I-1.9865 J0.0025
G2 X19.4116 Y13.4168 I1.7656 J1.77
G3 X18.0244 Y13.9999 I-1.4049 J-1.4008
G1 Z-6.0
G3 X18.0037 I-0.0177 J-1.9839
G2 X17.9971 I-0.0037 J2.5
G3 X16.5877 Y13.4162 I-0.0023 J-1.9878
G2 X16.5832 Y13.4117 I-1.7697 J1.7658
G3 X15.9999 Y12.0035 I1.4015 J-1.4054
G2 Y11.997 I-2.5 J-0.0036
G3 X16.5837 Y10.5877 I1.9874 J-0.0024
G2 X16.588 Y10.5833 I-1.7657 J-1.7698
G3 X17.997 Y9.9996 I1.4065 J1.4028
G2 X18.0034 I0.003 J-2.5
G3 X19.4115 Y10.583 I0.0027 J1.9846
G2 X19.4166 Y10.5881 I1.7704 J-1.7651
G3 X19.9999 Y11.9965 I-1.4018 J1.4056
G2 Y12.0031 I2.5 J0.0035
G3 X19.4163 Y13.412 I-1.9865 J0.0025
G2 X19.4116 Y13.4168 I1.7656 J1.77
G3 X18.0244 Y13.9999 I-1.4049 J-1.4008
G0 Z3.0
G0 X75.009 Y12.0726
G0 Z1.0
G1 Z-1.0
G3 X75.0079 Y12.003 I1.986 J-0.0672
G2 Y11.9963 I-2.5 J-0.003
G3 X75.5912 Y10.5881 I1.9846 J-0.0029
G2 X75.5959 Y10.5834 I-1.7653 J-1.7703
G3 X77.005 Y9.9996 I1.4067 J1.4032
G2 X77.0111 I0.0029 J-2.5
G3 X78.4199 Y10.5832 I0.0025 J1.9862
G2 X78.4246 Y10.5879 I1.7701 J-1.7654
G3 X79.0082 Y11.9967 I-1.4024 J1.4062
G2 Y12.0032 I2.5 J0.0032
G3 X78.4247 Y13.4119 I-1.9858 J0.0026
G2 X78.4206 Y13.416 I1.7654 J1.7702
G3 X77.0105 Y13.9999 I-1.4079 J-1.4052
G2 X77.005 I-0.0027 J2.5
G3 X75.5955 Y13.4161 I-0.0023 J-1.988
G2 X75.5915 Y13.4122 I-1.7697 J1.7658
G3 X75.009 Y12.0726 I1.4035 J-1.4067
G1 Z-2.0
G3 X75.0079 Y12.003 I1.986 J-0.0672
G2 Y11.9963 I-2.5 J-0.003
G3 X75.5912 Y10.5881 I1.9846 J-0.0029
G2 X75.5959 Y10.5834 I-1.7653 J-1.7703
G3 X77.005 Y9.9996 I1.4067 J1.4032
G2 X77.0111 I0.0029 J-2.5
G3 X78.4199 Y10.5832 I0.0025 J1.9862
G2 X78.4246 Y10.5879 I1.7701 J-1.7654
G3 X79.0082 Y11.9967 I-1.4024 J1.4062
G2 Y12.0032 I2.5 J0.0032
G3 X78.4247 Y13.4119 I-1.9858 J0.0026
G2 X78.4206 Y13.416 I1.7654 J1.7702
G3 X77.0105 Y13.9999 I-1.4079 J-1.4052
G2 X77.005 I-0.0027 J2.5
G3 X75.5955 Y13.4161 I-0.0023 J-1.988
G2 X75.5915 Y13.4122 I-1.7697 J1.7658
G3 X75.009 Y12.0726 I1.4035 J-1.4067
G1 Z-3.0
G3 X75.0079 Y12.003 I1.986 J-0.0672
G2 Y11.9963 I-2.5 J-0.003
G3 X75.5912 Y10.5881 I1.9846 J-0.0029
G2 X75.5959 Y10.5834 I-1.7653 J-1.7703
G3 X77.005 Y9.9996 I1.4067 J1.4032
G2 X77.0111 I0.0029 J-2.5
G3 X78.4199 Y10.5832 I0.0025 J1.9862
G2 X78.4246 Y10.5879 I1.7701 J-1.7654
G3 X79.0082 Y11.9967 I-1.4024 J1.4062
G2 Y12.0032 I2.5 J0.0032
G3 X78.4247 Y13.4119 I-1.9858 J0.0026
G2 X78.4206 Y13.416 I1.7654 J1.7702
G3 X77.0105 Y13.9999 I-1.4079 J-1.4052
G2 X77.005 I-0.0027 J2.5
G3 X75.5955 Y13.4161 I-0.0023 J-1.988
G2 X75.5915 Y13.4122 I-1.7697 J1.7658
G3 X75.009 Y12.0726 I1.4035 J-1.4067
G1 Z-4.0
G3 X75.0079 Y12.003 I1.986 J-0.0672
G2 Y11.9963 I-2.5 J-0.003
G3 X75.5912 Y10.5881 I1.9846 J-0.0029
G2 X75.5959 Y10.5834 I-1.7653 J-1.7703
G3 X77.005 Y9.9996 I1.4067 J1.4032
G2 X77.0111 I0.0029 J-2.5
G3 X78.4199 Y10.5832 I0.0025 J1.9862
G2 X78.4246 Y10.5879 I1.7701 J-1.7654
G3 X79.0082 Y11.9967 I-1.4024 J1.4062
G2 Y12.0032 I2.5 J0.0032
G3 X78.4247 Y13.4119 I-1.9858 J0.0026
G2 X78.4206 Y13.416 I1.7654 J1.7702
G3 X77.0105 Y13.9999 I-1.4079 J-1.4052
G2 X77.005 I-0.0027 J2.5
G3 X75.5955 Y13.4161 I-0.0023 J-1.988
G2 X75.5915 Y13.4122 I-1.7697 J1.7658
G3 X75.009 Y12.0726 I1.4035 J-1.4067
G1 Z-5.0
G3 X75.0079 Y12.003 I1.986 J-0.0672
G2 Y11.9963 I-2.5 J-0.003
G3 X75.5912 Y10.5881 I1.9846 J-0.0029
G2 X75.5959 Y10.5834 I-1.7653 J-1.7703
G3 X77.005 Y9.9996 I1.4067 J1.4032
G2 X77.0111 I0.0029 J-2.5
G3 X78.4199 Y10.5832 I0.0025 J1.9862
G2 X78.4246 Y10.5879 I1.7701 J-1.7654
G3 X79.0082 Y11.9967 I-1.4024 J1.4062
G2 Y12.0032 I2.5 J0.0032
G3 X78.4247 Y13.4119 I-1.9858 J0.0026
G2 X78.4206 Y13.416 I1.7654 J1.7702
G3 X77.0105 Y13.9999 I-1.4079 J-1.4052
G2 X77.005 I-0.0027 J2.5
G3 X75.5955 Y13.4161 I-0.0023 J-1.988
G2 X75.5915 Y13.4122 I-1.7697 J1.7658
G3 X75.009 Y12.0726 I1.4035 J-1.4067
G1 Z-6.0
G3 X75.0079 Y12.003 I1.986 J-0.0672
G2 Y11.9963 I-2.5 J-0.003
G3 X75.5912 Y10.5881 I1.9846 J-0.0029
G2 X75.5959 Y10.5834 I-1.7653 J-1.7703
G3 X77.005 Y9.9996 I1.4067 J1.4032
G2 X77.0111 I0.0029 J-2.5
G3 X78.4199 Y10.5832 I0.0025 J1.9862
G2 X78.4246 Y10.5879 I1.7701 J-1.7654
G3 X79.0082 Y11.9967 I-1.4024 J1.4062
G2 Y12.0032 I2.5 J0.0032
G3 X78.4247 Y13.4119 I-1.9858 J0.0026
G2 X78.4206 Y13.416 I1.7654 J1.7702
G3 X77.0105 Y13.9999 I-1.4079 J-1.4052
G2 X77.005 I-0.0027 J2.5
G3 X75.5955 Y13.4161 I-0.0023 J-1.988
G2 X75.5915 Y13.4122 I-1.7697 J1.7658
G3 X75.009 Y12.0726 I1.4035 J-1.4067
G0 Z3.0
G0 X76.8048 Y30.0095
G0 Z1.0
G1 Z-1.0
G3 X77.0051 Y29.9996 I0.198 J1.9777
G2 X77.0112 I0.0028 J-2.5
G3 X78.4199 Y30.5831 I0.0027 J1.9856
G2 X78.4242 Y30.5875 I1.7702 J-1.7654
G3 X79.0082 Y31.9972 I-1.4044 J1.4076
G2 Y32.003 I2.5 J0.0027
G3 X78.4246 Y33.4117 I-1.9861 J0.0024
G2 X78.4198 Y33.4165 I1.7654 J1.7702
G3 X77.0118 Y33.9996 I-1.4049 J-1.401
G2 X77.0047 I-0.0039 J2.5
G3 X75.5956 Y33.416 I-0.0025 J-1.987
G2 X75.5913 Y33.4117 I-1.7698 J1.7658
G3 X75.0079 Y32.0032 I1.4023 J-1.406
G2 Y31.9972 I-2.5 J-0.0032
G3 X75.5918 Y30.5874 I1.9887 J-0.0022
G2 X75.5957 Y30.5834 I-1.766 J-1.7696
G3 X76.8048 Y30.0095 I1.4071 J1.4037
G1 Z-2.0
G3 X77.0051 Y29.9996 I0.198 J1.9777
G2 X77.0112 I0.0028 J-2.5
G3 X78.4199 Y30.5831 I0.0027 J1.9856
G2 X78.4242 Y30.5875 I1.7702 J-1.7654
G3 X79.0082 Y31.9972 I-1.4044 J1.4076
G2 Y32.003 I2.5 J0.0027
G3 X78.4246 Y33.4117 I-1.9861 J0.0024
G2 X78.4198 Y33.4165 I1.7654 J1.7702
G3 X77.0118 Y33.9996 I-1.4049 J-1.401
G2 X77.0047 I-0.0039 J2.5
G3 X75.5956 Y33.416 I-0.0025 J-1.987
G2 X75.5913 Y33.4117 I-1.7698 J1.7658
G3 X75.0079 Y32.0032 I1.4023 J-1.406
G2 Y31.9972 I-2.5 J-0.0032
G3 X75.5918 Y30.5874 I1.9887 J-0.0022
G2 X75.5957 Y30.5834 I-1.766 J-1.7696
G3 X76.8048 Y30.0095 I1.4071 J1.4037
G1 Z-3.0
G3 X77.0051 Y29.9996 I0.198 J1.9777
G2 X77.0112 I0.0028 J-2.5
G3 X78.4199 Y30.5831 I0.0027 J1.9856
G2 X78.4242 Y30.5875 I1.7702 J-1.7654
G3 X79.0082 Y31.9972 I-1.4044 J1.4076
G2 Y32.003 I2.5 J0.0027
G3 X78.4246 Y33.4117 I-1.9861 J0.0024
G2 X78.4198 Y33.4165 I1.7654 J1.7702
G3 X77.0118 Y33.9996 I-1.4049 J-1.401
G2 X77.0047 I-0.0039 J2.5
G3 X75.5956 Y33.416 I-0.0025 J-1.987
G2 X75.5913 Y33.4117 I-1.7698 J1.7658
G3 X75.0079 Y32.0032 I1.4023 J-1.406
G2 Y31.9972 I-2.5 J-0.0032
G3 X75.5918 Y30.5874 I1.9887 J-0.0022
G2 X75.5957 Y30.5834 I-1.766 J-1.7696
G3 X76.8048 Y30.0095 I1.4071 J1.4037
G1 Z-4.0
G3 X77.0051 Y29.9996 I0.198 J1.9777
G2 X77.0112 I0.0028 J-2.5
G3 X78.4199 Y30.5831 I0.0027 J1.9856
G2 X78.4242 Y30.5875 I1.7702 J-1.7654
G3 X79.0082 Y31.9972 I-1.4044 J1.4076
G2 Y32.003 I2.5 J0.0027
G3 X78.4246 Y33.4117 I-1.9861 J0.0024
G2 X78.4198 Y33.4165 I1.7654 J1.7702
G3 X77.0118 Y33.9996 I-1.4049 J-1.401
G2 X77.0047 I-0.0039 J2.5
G3 X75.5956 Y33.416 I-0.0025 J-1.987
G2 X75.5913 Y33.4117 I-1.7698 J1.7658
G3 X75.0079 Y32.0032 I1.4023 J-1.406
G2 Y31.9972 I-2.5 J-0.0032
G3 X75.5918 Y30.5874 I1.9887 J-0.0022
G2 X75.5957 Y30.5834 I-1.766 J-1.7696
G3 X76.8048 Y30.0095 I1.4071 J1.4037
G1 Z-5.0
G3 X77.0051 Y29.9996 I0.198 J1.9777
G2 X77.0112 I0.0028 J-2.5
G3 X78.4199 Y30.5831 I0.0027 J1.9856
G2 X78.4242 Y30.5875 I1.7702 J-1.7654
G3 X79.0082 Y31.9972 I-1.4044 J1.4076
G2 Y32.003 I2.5 J0.0027
G3 X78.4246 Y33.4117 I-1.9861 J0.0024
G2 X78.4198 Y33.4165 I1.7654 J1.7702
G3 X77.0118 Y33.9996 I-1.4049 J-1.401
G2 X77.0047 I-0.0039 J2.5
G3 X75.5956 Y33.416 I-0.0025 J-1.987
G2 X75.5913 Y33.4117 I-1.7698 J1.7658
G3 X75.0079 Y32.0032 I1.4023 J-1.406
G2 Y31.9972 I-2.5 J-0.0032
G3 X75.5918 Y30.5874 I1.9887 J-0.0022
G2 X75.5957 Y30.5834 I-1.766 J-1.7696
G3 X76.8048 Y30.0095 I1.4071 J1.4037
G1 Z-6.0
G3 X77.0051 Y29.9996 I0.198 J1.9777
G2 X77.0112 I0.0028 J-2.5
G3 X78.4199 Y30.5831 I0.0027 J1.9856
G2 X78.4242 Y30.5875 I1.7702 J-1.7654
G3 X79.0082 Y31.9972 I-1.4044 J1.4076
G2 Y32.003 I2.5 J0.0027
G3 X78.4246 Y33.4117 I-1.9861 J0.0024
G2 X78.4198 Y33.4165 I1.7654 J1.7702
G3 X77.0118 Y33.9996 I-1.4049 J-1.401
G2 X77.0047 I-0.0039 J2.5
G3 X75.5956 Y33.416 I-0.0025 J-1.987
G2 X75.5913 Y33.4117 I-1.7698 J1.7658
G3 X75.0079 Y32.0032 I1.4023 J-1.406
G2 Y31.9972 I-2.5 J-0.0032
G3 X75.5918 Y30.5874 I1.9887 J-0.0022
G2 X75.5957 Y30.5834 I-1.766 J-1.7696
G3 X76.8048 Y30.0095 I1.4071 J1.4037
G0 Z3.0
G0 X76.9849 Y49.9998
G0 Z1.0
G1 Z-1.0
G3 X77.0051 I0.0179 J1.9875
G2 X77.0112 I0.0028 J-2.5
G3 X78.4199 Y50.5833 I0.0027 J1.9856
G2 X78.4242 Y50.5876 I1.7702 J-1.7654
G3 X79.0082 Y51.9974 I-1.4044 J1.4076
G2 Y52.0032 I2.5 J0.0027
G3 X78.4246 Y53.4119 I-1.9861 J0.0024
G2 X78.4198 Y53.4167 I1.7654 J1.7702
G3 X77.0118 Y53.9997 I-1.4049 J-1.401
G2 X77.0047 I-0.0039 J2.5
G3 X75.5956 Y53.4162 I-0.0025 J-1.987
G2 X75.5913 Y53.4119 I-1.7698 J1.7658
G3 X75.0079 Y52.0033 I1.4023 J-1.406
G2 Y51.9974 I-2.5 J-0.0032
G3 X75.5918 Y50.5875 I1.9887 J-0.0022
G2 X75.5957 Y50.5836 I-1.766 J-1.7696
G3 X76.9849 Y49.9998 I1.4071 J1.4037
G1 Z-2.0
G3 X77.0051 I0.0179 J1.9875
G2 X77.0112 I0.0028 J-2.5
G3 X78.4199 Y50.5833 I0.0027 J1.9856
G2 X78.4242 Y50.5876 I1.7702 J-1.7654
G3 X79.0082 Y51.9974 I-1.4044 J1.4076
G2 Y52.0032 I2.5 J0.0027
G3 X78.4246 Y53.4119 I-1.9861 J0.0024
G2 X78.4198 Y53.4167 I1.7654 J1.7702
G3 X77.0118 Y53.9997 I-1.4049 J-1.401
G2 X77.0047 I-0.0039 J2.5
G3 X75.5956 Y53.4162 I-0.0025 J-1.987
G2 X75.5913 Y53.4119 I-1.7698 J1.7658
G3 X75.0079 Y52.0033 I1.4023 J-1.406
G2 Y51.9974 I-2.5 J-0.0032
G3 X75.5918 Y50.5875 I1.9887 J-0.0022
G2 X75.5957 Y50.5836 I-1.766 J-1.7696
G3 X76.9849 Y49.9998 I1.4071 J1.4037
G1 Z-3.0
G3 X77.0051 I0.0179 J1.9875
G2 X77.0112 I0.0028 J-2.5
G3 X78.4199 Y50.5833 I0.0027 J1.9856
G2 X78.4242 Y50.5876 I1.7702 J-1.7654
G3 X79.0082 Y51.9974 I-1.4044 J1.4076
G2 Y52.0032 I2.5 J0.0027
G3 X78.4246 Y53.4119 I-1.9861 J0.0024
G2 X78.4198 Y53.4167 I1.7654 J1.7702
G3 X77.0118 Y53.9997 I-1.4049 J-1.401
G2 X77.0047 I-0.0039 J2.5
G3 X75.5956 Y53.4162 I-0.0025 J-1.987
G2 X75.5913 Y53.4119 I-1.7698 J1.7658
G3 X75.0079 Y52.0033 I1.4023 J-1.406
G2 Y51.9974 I-2.5 J-0.0032
G3 X75.5918 Y50.5875 I1.9887 J-0.0022
G2 X75.5957 Y50.5836 I-1.766 J-1.7696
G3 X76.9849 Y49.9998 I1.4071 J1.4037
G1 Z-4.0
G3 X77.0051 I0.0179 J1.9875
G2 X77.0112 I0.0028 J-2.5
G3 X78.4199 Y50.5833 I0.0027 J1.9856
G2 X78.4242 Y50.5876 I1.7702 J-1.7654
G3 X79.0082 Y51.9974 I-1.4044 J1.4076
G2 Y52.0032 I2.5 J0.0027
G3 X78.4246 Y53.4119 I-1.9861 J0.0024
G2 X78.4198 Y53.4167 I1.7654 J1.7702
G3 X77.0118 Y53.9997 I-1.4049 J-1.401
G2 X77.0047 I-0.0039 J2.5
G3 X75.5956 Y53.4162 I-0.0025 J-1.987
G2 X75.5913 Y53.4119 I-1.7698 J1.7658
G3 X75.0079 Y52.0033 I1.4023 J-1.406
G2 Y51.9974 I-2.5 J-0.0032
G3 X75.5918 Y50.5875 I1.9887 J-0.0022
G2 X75.5957 Y50.5836 I-1.766 J-1.7696
G3 X76.9849 Y49.9998 I1.4071 J1.4037
G1 Z-5.0
G3 X77.0051 I0.0179 J1.9875
G2 X77.0112 I0.0028 J-2.5
G3 X78.4199 Y50.5833 I0.0027 J1.9856
G2 X78.4242 Y50.5876 I1.7702 J-1.7654
G3 X79.0082 Y51.9974 I-1.4044 J1.4076
G2 Y52.0032 I2.5 J0.0027
G3 X78.4246 Y53.4119 I-1.9861 J0.0024
G2 X78.4198 Y53.4167 I1.7654 J1.7702
G3 X77.0118 Y53.9997 I-1.4049 J-1.401
G2 X77.0047 I-0.0039 J2.5
G3 X75.5956 Y53.4162 I-0.0025 J-1.987
G2 X75.5913 Y53.4119 I-1.7698 J1.7658
G3 X75.0079 Y52.0033 I1.4023 J-1.406
G2 Y51.9974 I-2.5 J-0.0032
G3 X75.5918 Y50.5875 I1.9887 J-0.0022
G2 X75.5957 Y50.5836 I-1.766 J-1.7696
G3 X76.9849 Y49.9998 I1.4071 J1.4037
G1 Z-6.0
G3 X77.0051 I0.0179 J1.9875
G2 X77.0112 I0.0028 J-2.5
G3 X78.4199 Y50.5833 I0.0027 J1.9856
G2 X78.4242 Y50.5876 I1.7702 J-1.7654
G3 X79.0082 Y51.9974 I-1.4044 J1.4076
G2 Y52.0032 I2.5 J0.0027
G3 X78.4246 Y53.4119 I-1.9861 J0.0024
G2 X78.4198 Y53.4167 I1.7654 J1.7702
G3 X77.0118 Y53.9997 I-1.4049 J-1.401
G2 X77.0047 I-0.0039 J2.5
G3 X75.5956 Y53.4162 I-0.0025 J-1.987
G2 X75.5913 Y53.4119 I-1.7698 J1.7658
G3 X75.0079 Y52.0033 I1.4023 J-1.406
G2 Y51.9974 I-2.5 J-0.0032
G3 X75.5918 Y50.5875 I1.9887 J-0.0022
G2 X75.5957 Y50.5836 I-1.766 J-1.7696
G3 X76.9849 Y49.9998 I1.4071 J1.4037
G0 Z3.0
M5
M30
