( Made using CamBam - http://www.cambam.co.uk )
( side bearing plate camfile 8/31/2013 2:01:27 PM )
( T6 : 6.0 )
G21 G90 G64 G40
G0 Z3.0
( T6 : 6.0 )
T6 M6
( 5mm Pocket 1 )
G17
M3 S1000
G0 X27.5999 Y39.0257
G0 Z1.0
G1 F50.0 Z-1.0
G1 Y44.9662
G2 X26.4147 Y43.5857 I-9.5805 J7.0258
G2 X24.4482 Y41.9969 I-8.4064 J8.3936
G2 X26.4107 Y40.4113 I-6.4399 J-9.9779
G2 X27.5999 Y39.0257 I-8.3891 J-8.4027
G0 Z3.0
G0 X11.5516 Y41.9969
G0 Z1.0
G1 Z-1.0
G2 X9.5851 Y43.5858 I6.4396 J9.9814
G2 X8.4 Y44.9662 I8.3947 J8.4058
G1 Y39.0256
G2 X9.5892 Y40.4113 I9.578 J-7.0166
G2 X11.5516 Y41.9969 I8.4022 J-8.3916
G1 X12.8505 Y39.9845
G2 X18.0 Y41.4995 I5.1408 J-7.9648
G2 X24.7172 Y38.7175 I0.0083 J-9.4805
G2 X27.5 Y31.9998 I-6.6956 J-6.7088
G2 X24.7176 Y25.2825 I-9.4805 J-0.008
G2 X23.275 Y24.0974 I-6.7093 J6.6967
G1 X29.9999
G1 Y53.9026
G1 X27.3083
G2 X27.5 Y51.9998 I-9.2528 J-1.893
G2 X24.7176 Y45.2827 I-9.4805 J-0.0078
G2 X18.0 Y42.4999 I-6.7093 J6.6967
G2 X11.2823 Y45.2827 I-0.0088 J9.4784
G2 X8.5001 Y52.0001 I6.6975 J6.7089
G2 X8.6918 Y53.9026 I9.4507 J0.0083
G1 X6.0
G1 Y24.0974
G1 X12.7248
G2 X11.2823 Y25.2825 I5.2663 J7.8807
G2 X8.5001 Y31.9998 I6.6975 J6.7089
G2 X11.2827 Y38.7175 I9.4779 J0.0091
G2 X12.8505 Y39.9845 I6.7087 J-6.6978
G1 X11.5516 Y41.9969
G1 Z-2.0
G2 X9.5851 Y43.5858 I6.4396 J9.9814
G2 X8.4 Y44.9662 I8.3947 J8.4058
G1 Y39.0256
G2 X9.5892 Y40.4113 I9.578 J-7.0166
G2 X11.5516 Y41.9969 I8.4022 J-8.3916
G0 Z3.0
G0 X24.4482
G0 Z0.0
G1 Z-2.0
G2 X26.4107 Y40.4113 I-6.4399 J-9.9779
G2 X27.5999 Y39.0257 I-8.3891 J-8.4027
G1 Y44.9662
G2 X26.4147 Y43.5857 I-9.5805 J7.0258
G2 X24.4482 Y41.9969 I-8.4064 J8.3936
G1 X23.1494 Y39.9845
G2 X24.7172 Y38.7175 I-5.1411 J-7.9655
G2 X27.5 Y31.9998 I-6.6956 J-6.7088
G2 X24.7176 Y25.2825 I-9.4805 J-0.008
G2 X23.275 Y24.0974 I-6.7093 J6.6967
G1 X29.9999
G1 Y53.9026
G1 X27.3083
G2 X27.5 Y51.9998 I-9.2528 J-1.893
G2 X24.7176 Y45.2827 I-9.4805 J-0.0078
G2 X18.0 Y42.4999 I-6.7093 J6.6967
G2 X11.2823 Y45.2827 I-0.0088 J9.4784
G2 X8.5001 Y52.0001 I6.6975 J6.7089
G2 X8.6918 Y53.9026 I9.4507 J0.0083
G1 X6.0
G1 Y24.0974
G1 X12.7248
G2 X11.2823 Y25.2825 I5.2663 J7.8807
G2 X8.5001 Y31.9998 I6.6975 J6.7089
G2 X11.2827 Y38.7175 I9.4779 J0.0091
G2 X18.0 Y41.4995 I6.7087 J-6.6978
G2 X23.1494 Y39.9845 I0.0083 J-9.4805
G1 X24.4482 Y41.9969
G1 Z-3.0
G2 X26.4107 Y40.4113 I-6.4399 J-9.9779
G2 X27.5999 Y39.0257 I-8.3891 J-8.4027
G1 Y44.9662
G2 X26.4147 Y43.5857 I-9.5805 J7.0258
G2 X24.4482 Y41.9969 I-8.4064 J8.3936
G0 Z3.0
G0 X11.5516
G0 Z-1.0
G1 Z-3.0
G2 X9.5851 Y43.5858 I6.4396 J9.9814
G2 X8.4 Y44.9662 I8.3947 J8.4058
G1 Y39.0256
G2 X9.5892 Y40.4113 I9.578 J-7.0166
G2 X11.5516 Y41.9969 I8.4022 J-8.3916
G1 X12.8505 Y39.9845
G2 X18.0 Y41.4995 I5.1408 J-7.9648
G2 X24.7172 Y38.7175 I0.0083 J-9.4805
G2 X27.5 Y31.9998 I-6.6956 J-6.7088
G2 X24.7176 Y25.2825 I-9.4805 J-0.008
G2 X23.275 Y24.0974 I-6.7093 J6.6967
G1 X29.9999
G1 Y53.9026
G1 X27.3083
G2 X27.5 Y51.9998 I-9.2528 J-1.893
G2 X24.7176 Y45.2827 I-9.4805 J-0.0078
G2 X18.0 Y42.4999 I-6.7093 J6.6967
G2 X11.2823 Y45.2827 I-0.0088 J9.4784
G2 X8.5001 Y52.0001 I6.6975 J6.7089
G2 X8.6918 Y53.9026 I9.4507 J0.0083
G1 X6.0
G1 Y24.0974
G1 X12.7248
G2 X11.2823 Y25.2825 I5.2663 J7.8807
G2 X8.5001 Y31.9998 I6.6975 J6.7089
G2 X11.2827 Y38.7175 I9.4779 J0.0091
G2 X12.8505 Y39.9845 I6.7087 J-6.6978
G1 X11.5516 Y41.9969
G1 Z-4.0
G2 X9.5851 Y43.5858 I6.4396 J9.9814
G2 X8.4 Y44.9662 I8.3947 J8.4058
G1 Y39.0256
G2 X9.5892 Y40.4113 I9.578 J-7.0166
G2 X11.5516 Y41.9969 I8.4022 J-8.3916
G0 Z3.0
G0 X24.4482
G0 Z-2.0
G1 Z-4.0
G2 X26.4107 Y40.4113 I-6.4399 J-9.9779
G2 X27.5999 Y39.0257 I-8.3891 J-8.4027
G1 Y44.9662
G2 X26.4147 Y43.5857 I-9.5805 J7.0258
G2 X24.4482 Y41.9969 I-8.4064 J8.3936
G1 X23.1494 Y39.9845
G2 X24.7172 Y38.7175 I-5.1411 J-7.9655
G2 X27.5 Y31.9998 I-6.6956 J-6.7088
G2 X24.7176 Y25.2825 I-9.4805 J-0.008
G2 X23.275 Y24.0974 I-6.7093 J6.6967
G1 X29.9999
G1 Y53.9026
G1 X27.3083
G2 X27.5 Y51.9998 I-9.2528 J-1.893
G2 X24.7176 Y45.2827 I-9.4805 J-0.0078
G2 X18.0 Y42.4999 I-6.7093 J6.6967
G2 X11.2823 Y45.2827 I-0.0088 J9.4784
G2 X8.5001 Y52.0001 I6.6975 J6.7089
G2 X8.6918 Y53.9026 I9.4507 J0.0083
G1 X6.0
G1 Y24.0974
G1 X12.7248
G2 X11.2823 Y25.2825 I5.2663 J7.8807
G2 X8.5001 Y31.9998 I6.6975 J6.7089
G2 X11.2827 Y38.7175 I9.4779 J0.0091
G2 X18.0 Y41.4995 I6.7087 J-6.6978
G2 X23.1494 Y39.9845 I0.0083 J-9.4805
G1 X24.4482 Y41.9969
G1 Z-5.0
G2 X26.4107 Y40.4113 I-6.4399 J-9.9779
G2 X27.5999 Y39.0257 I-8.3891 J-8.4027
G1 Y44.9662
G2 X26.4147 Y43.5857 I-9.5805 J7.0258
G2 X24.4482 Y41.9969 I-8.4064 J8.3936
G0 Z3.0
G0 X11.5516
G0 Z-3.0
G1 Z-5.0
G2 X9.5851 Y43.5858 I6.4396 J9.9814
G2 X8.4 Y44.9662 I8.3947 J8.4058
G1 Y39.0256
G2 X9.5892 Y40.4113 I9.578 J-7.0166
G2 X11.5516 Y41.9969 I8.4022 J-8.3916
G1 X12.8505 Y39.9845
G2 X18.0 Y41.4995 I5.1408 J-7.9648
G2 X24.7172 Y38.7175 I0.0083 J-9.4805
G2 X27.5 Y31.9998 I-6.6956 J-6.7088
G2 X24.7176 Y25.2825 I-9.4805 J-0.008
G2 X23.275 Y24.0974 I-6.7093 J6.6967
G1 X29.9999
G1 Y53.9026
G1 X27.3083
G2 X27.5 Y51.9998 I-9.2528 J-1.893
G2 X24.7176 Y45.2827 I-9.4805 J-0.0078
G2 X18.0 Y42.4999 I-6.7093 J6.6967
G2 X11.2823 Y45.2827 I-0.0088 J9.4784
G2 X8.5001 Y52.0001 I6.6975 J6.7089
G2 X8.6918 Y53.9026 I9.4507 J0.0083
G1 X6.0
G1 Y24.0974
G1 X12.7248
G2 X11.2823 Y25.2825 I5.2663 J7.8807
G2 X8.5001 Y31.9998 I6.6975 J6.7089
G2 X11.2827 Y38.7175 I9.4779 J0.0091
G2 X12.8505 Y39.9845 I6.7087 J-6.6978
G1 X11.5516 Y41.9969
G1 Z-6.0
G2 X9.5851 Y43.5858 I6.4396 J9.9814
G2 X8.4 Y44.9662 I8.3947 J8.4058
G1 Y39.0256
G2 X9.5892 Y40.4113 I9.578 J-7.0166
G2 X11.5516 Y41.9969 I8.4022 J-8.3916
G0 Z3.0
G0 X24.4482
G0 Z-4.0
G1 Z-6.0
G2 X26.4107 Y40.4113 I-6.4399 J-9.9779
G2 X27.5999 Y39.0257 I-8.3891 J-8.4027
G1 Y44.9662
G2 X26.4147 Y43.5857 I-9.5805 J7.0258
G2 X24.4482 Y41.9969 I-8.4064 J8.3936
G1 X23.1494 Y39.9845
G2 X24.7172 Y38.7175 I-5.1411 J-7.9655
G2 X27.5 Y31.9998 I-6.6956 J-6.7088
G2 X24.7176 Y25.2825 I-9.4805 J-0.008
G2 X23.275 Y24.0974 I-6.7093 J6.6967
G1 X29.9999
G1 Y53.9026
G1 X27.3083
G2 X27.5 Y51.9998 I-9.2528 J-1.893
G2 X24.7176 Y45.2827 I-9.4805 J-0.0078
G2 X18.0 Y42.4999 I-6.7093 J6.6967
G2 X11.2823 Y45.2827 I-0.0088 J9.4784
G2 X8.5001 Y52.0001 I6.6975 J6.7089
G2 X8.6918 Y53.9026 I9.4507 J0.0083
G1 X6.0
G1 Y24.0974
G1 X12.7248
G2 X11.2823 Y25.2825 I5.2663 J7.8807
G2 X8.5001 Y31.9998 I6.6975 J6.7089
G2 X11.2827 Y38.7175 I9.4779 J0.0091
G2 X18.0 Y41.4995 I6.7087 J-6.6978
G2 X23.1494 Y39.9845 I0.0083 J-9.4805
G1 X24.4482 Y41.9969
G1 Z-7.0
G2 X26.4107 Y40.4113 I-6.4399 J-9.9779
G2 X27.5999 Y39.0257 I-8.3891 J-8.4027
G1 Y44.9662
G2 X26.4147 Y43.5857 I-9.5805 J7.0258
G2 X24.4482 Y41.9969 I-8.4064 J8.3936
G0 Z3.0
G0 X11.5516
G0 Z-5.0
G1 Z-7.0
G2 X9.5851 Y43.5858 I6.4396 J9.9814
G2 X8.4 Y44.9662 I8.3947 J8.4058
G1 Y39.0256
G2 X9.5892 Y40.4113 I9.578 J-7.0166
G2 X11.5516 Y41.9969 I8.4022 J-8.3916
G1 X12.8505 Y39.9845
G2 X18.0 Y41.4995 I5.1408 J-7.9648
G2 X24.7172 Y38.7175 I0.0083 J-9.4805
G2 X27.5 Y31.9998 I-6.6956 J-6.7088
G2 X24.7176 Y25.2825 I-9.4805 J-0.008
G2 X23.275 Y24.0974 I-6.7093 J6.6967
G1 X29.9999
G1 Y53.9026
G1 X27.3083
G2 X27.5 Y51.9998 I-9.2528 J-1.893
G2 X24.7176 Y45.2827 I-9.4805 J-0.0078
G2 X18.0 Y42.4999 I-6.7093 J6.6967
G2 X11.2823 Y45.2827 I-0.0088 J9.4784
G2 X8.5001 Y52.0001 I6.6975 J6.7089
G2 X8.6918 Y53.9026 I9.4507 J0.0083
G1 X6.0
G1 Y24.0974
G1 X12.7248
G2 X11.2823 Y25.2825 I5.2663 J7.8807
G2 X8.5001 Y31.9998 I6.6975 J6.7089
G2 X11.2827 Y38.7175 I9.4779 J0.0091
G2 X12.8505 Y39.9845 I6.7087 J-6.6978
G1 X11.5516 Y41.9969
G1 Z-8.0
G2 X9.5851 Y43.5858 I6.4396 J9.9814
G2 X8.4 Y44.9662 I8.3947 J8.4058
G1 Y39.0256
G2 X9.5892 Y40.4113 I9.578 J-7.0166
G2 X11.5516 Y41.9969 I8.4022 J-8.3916
G0 Z3.0
G0 X24.4482
G0 Z-6.0
G1 Z-8.0
G2 X26.4107 Y40.4113 I-6.4399 J-9.9779
G2 X27.5999 Y39.0257 I-8.3891 J-8.4027
G1 Y44.9662
G2 X26.4147 Y43.5857 I-9.5805 J7.0258
G2 X24.4482 Y41.9969 I-8.4064 J8.3936
G1 X23.1494 Y39.9845
G2 X24.7172 Y38.7175 I-5.1411 J-7.9655
G2 X27.5 Y31.9998 I-6.6956 J-6.7088
G2 X24.7176 Y25.2825 I-9.4805 J-0.008
G2 X23.275 Y24.0974 I-6.7093 J6.6967
G1 X29.9999
G1 Y53.9026
G1 X27.3083
G2 X27.5 Y51.9998 I-9.2528 J-1.893
G2 X24.7176 Y45.2827 I-9.4805 J-0.0078
G2 X18.0 Y42.4999 I-6.7093 J6.6967
G2 X11.2823 Y45.2827 I-0.0088 J9.4784
G2 X8.5001 Y52.0001 I6.6975 J6.7089
G2 X8.6918 Y53.9026 I9.4507 J0.0083
G1 X6.0
G1 Y24.0974
G1 X12.7248
G2 X11.2823 Y25.2825 I5.2663 J7.8807
G2 X8.5001 Y31.9998 I6.6975 J6.7089
G2 X11.2827 Y38.7175 I9.4779 J0.0091
G2 X18.0 Y41.4995 I6.7087 J-6.6978
G2 X23.1494 Y39.9845 I0.0083 J-9.4805
G0 Z3.0
M5
M30
