( Made using CamBam - http://www.cambam.co.uk )
( side bearing plate camfile 8/31/2013 2:01:36 PM )
( T6 : 6.0 )
G21 G90 G64 G40
G0 Z3.0
( T6 : 6.0 )
T6 M6
( 5mm Pocket 2 )
G17
M3 S1000
G0 X86.6085 Y39.025
G0 Z1.0
G1 F50.0 Z-1.0
G1 Y44.9669
G2 X85.4224 Y43.5853 I-9.5812 J7.0252
G2 X83.4563 Y41.997 I-8.4068 J8.3959
G2 X85.4188 Y40.4113 I-6.4393 J-9.9767
G2 X86.6085 Y39.025 I-8.3887 J-8.4025
G0 Z3.0
G0 X70.5594 Y41.9968
G0 Z1.0
G1 Z-1.0
G2 X68.5932 Y43.5854 I6.4394 J9.9811
G2 X67.4072 Y44.9667 I8.3929 J8.4057
G1 Y39.0249
G2 X68.5971 Y40.4115 I9.5794 J-7.0165
G2 X70.5594 Y41.9968 I8.4026 J-8.3932
G1 X71.8582 Y39.9844
G2 X77.0077 Y41.4995 I5.1414 J-7.9661
G2 X83.7253 Y38.7175 I0.0093 J-9.4791
G2 X86.5081 Y31.9997 I-6.6952 J-6.7087
G2 X83.7254 Y25.2822 I-9.4808 J-0.0078
G2 X82.2829 Y24.0974 I-6.7098 J6.6988
G1 X89.0085
G1 Y53.9026
G1 X86.3163
G2 X86.5081 Y52.0 I-9.2588 J-1.894
G2 X83.7254 Y45.2824 I-9.4808 J-0.0078
G2 X77.0082 Y42.4999 I-6.7098 J6.6988
G2 X70.2903 Y45.2825 I-0.0094 J9.478
G2 X67.5077 Y52.0004 I6.6958 J6.7087
G2 X67.6996 Y53.9026 I9.4538 J0.0071
G1 X65.0072
G1 Y24.0974
G1 X71.7325
G2 X70.2903 Y25.2823 I5.2662 J7.8803
G2 X67.5077 Y32.0001 I6.6958 J6.7087
G2 X70.2905 Y38.7176 I9.4789 J0.0083
G2 X71.8582 Y39.9844 I6.7091 J-6.6993
G1 X70.5594 Y41.9968
G1 Z-2.0
G2 X68.5932 Y43.5854 I6.4394 J9.9811
G2 X67.4072 Y44.9667 I8.3929 J8.4057
G1 Y39.0249
G2 X68.5971 Y40.4115 I9.5794 J-7.0165
G2 X70.5594 Y41.9968 I8.4026 J-8.3932
G0 Z3.0
G0 X83.4563 Y41.997
G0 Z0.0
G1 Z-2.0
G2 X85.4188 Y40.4113 I-6.4393 J-9.9767
G2 X86.6085 Y39.025 I-8.3887 J-8.4025
G1 Y44.9669
G2 X85.4224 Y43.5853 I-9.5812 J7.0252
G2 X83.4563 Y41.997 I-8.4068 J8.3959
G1 X82.1574 Y39.9846
G2 X83.7253 Y38.7175 I-5.1404 J-7.9642
G2 X86.5081 Y31.9997 I-6.6952 J-6.7087
G2 X83.7254 Y25.2822 I-9.4808 J-0.0078
G2 X82.2829 Y24.0974 I-6.7098 J6.6988
G1 X89.0085
G1 Y53.9026
G1 X86.3163
G2 X86.5081 Y52.0 I-9.2588 J-1.894
G2 X83.7254 Y45.2824 I-9.4808 J-0.0078
G2 X77.0082 Y42.4999 I-6.7098 J6.6988
G2 X70.2903 Y45.2825 I-0.0094 J9.478
G2 X67.5077 Y52.0004 I6.6958 J6.7087
G2 X67.6996 Y53.9026 I9.4538 J0.0071
G1 X65.0072
G1 Y24.0974
G1 X71.7325
G2 X70.2903 Y25.2823 I5.2662 J7.8803
G2 X67.5077 Y32.0001 I6.6958 J6.7087
G2 X70.2905 Y38.7176 I9.4789 J0.0083
G2 X77.0077 Y41.4995 I6.7091 J-6.6993
G2 X82.1574 Y39.9846 I0.0093 J-9.4791
G1 X83.4563 Y41.997
G1 Z-3.0
G2 X85.4188 Y40.4113 I-6.4393 J-9.9767
G2 X86.6085 Y39.025 I-8.3887 J-8.4025
G1 Y44.9669
G2 X85.4224 Y43.5853 I-9.5812 J7.0252
G2 X83.4563 Y41.997 I-8.4068 J8.3959
G0 Z3.0
G0 X70.5594 Y41.9968
G0 Z-1.0
G1 Z-3.0
G2 X68.5932 Y43.5854 I6.4394 J9.9811
G2 X67.4072 Y44.9667 I8.3929 J8.4057
G1 Y39.0249
G2 X68.5971 Y40.4115 I9.5794 J-7.0165
G2 X70.5594 Y41.9968 I8.4026 J-8.3932
G1 X71.8582 Y39.9844
G2 X77.0077 Y41.4995 I5.1414 J-7.9661
G2 X83.7253 Y38.7175 I0.0093 J-9.4791
G2 X86.5081 Y31.9997 I-6.6952 J-6.7087
G2 X83.7254 Y25.2822 I-9.4808 J-0.0078
G2 X82.2829 Y24.0974 I-6.7098 J6.6988
G1 X89.0085
G1 Y53.9026
G1 X86.3163
G2 X86.5081 Y52.0 I-9.2588 J-1.894
G2 X83.7254 Y45.2824 I-9.4808 J-0.0078
G2 X77.0082 Y42.4999 I-6.7098 J6.6988
G2 X70.2903 Y45.2825 I-0.0094 J9.478
G2 X67.5077 Y52.0004 I6.6958 J6.7087
G2 X67.6996 Y53.9026 I9.4538 J0.0071
G1 X65.0072
G1 Y24.0974
G1 X71.7325
G2 X70.2903 Y25.2823 I5.2662 J7.8803
G2 X67.5077 Y32.0001 I6.6958 J6.7087
G2 X70.2905 Y38.7176 I9.4789 J0.0083
G2 X71.8582 Y39.9844 I6.7091 J-6.6993
G1 X70.5594 Y41.9968
G1 Z-4.0
G2 X68.5932 Y43.5854 I6.4394 J9.9811
G2 X67.4072 Y44.9667 I8.3929 J8.4057
G1 Y39.0249
G2 X68.5971 Y40.4115 I9.5794 J-7.0165
G2 X70.5594 Y41.9968 I8.4026 J-8.3932
G0 Z3.0
G0 X83.4563 Y41.997
G0 Z-2.0
G1 Z-4.0
G2 X85.4188 Y40.4113 I-6.4393 J-9.9767
G2 X86.6085 Y39.025 I-8.3887 J-8.4025
G1 Y44.9669
G2 X85.4224 Y43.5853 I-9.5812 J7.0252
G2 X83.4563 Y41.997 I-8.4068 J8.3959
G1 X82.1574 Y39.9846
G2 X83.7253 Y38.7175 I-5.1404 J-7.9642
G2 X86.5081 Y31.9997 I-6.6952 J-6.7087
G2 X83.7254 Y25.2822 I-9.4808 J-0.0078
G2 X82.2829 Y24.0974 I-6.7098 J6.6988
G1 X89.0085
G1 Y53.9026
G1 X86.3163
G2 X86.5081 Y52.0 I-9.2588 J-1.894
G2 X83.7254 Y45.2824 I-9.4808 J-0.0078
G2 X77.0082 Y42.4999 I-6.7098 J6.6988
G2 X70.2903 Y45.2825 I-0.0094 J9.478
G2 X67.5077 Y52.0004 I6.6958 J6.7087
G2 X67.6996 Y53.9026 I9.4538 J0.0071
G1 X65.0072
G1 Y24.0974
G1 X71.7325
G2 X70.2903 Y25.2823 I5.2662 J7.8803
G2 X67.5077 Y32.0001 I6.6958 J6.7087
G2 X70.2905 Y38.7176 I9.4789 J0.0083
G2 X77.0077 Y41.4995 I6.7091 J-6.6993
G2 X82.1574 Y39.9846 I0.0093 J-9.4791
G1 X83.4563 Y41.997
G1 Z-5.0
G2 X85.4188 Y40.4113 I-6.4393 J-9.9767
G2 X86.6085 Y39.025 I-8.3887 J-8.4025
G1 Y44.9669
G2 X85.4224 Y43.5853 I-9.5812 J7.0252
G2 X83.4563 Y41.997 I-8.4068 J8.3959
G0 Z3.0
G0 X70.5594 Y41.9968
G0 Z-3.0
G1 Z-5.0
G2 X68.5932 Y43.5854 I6.4394 J9.9811
G2 X67.4072 Y44.9667 I8.3929 J8.4057
G1 Y39.0249
G2 X68.5971 Y40.4115 I9.5794 J-7.0165
G2 X70.5594 Y41.9968 I8.4026 J-8.3932
G1 X71.8582 Y39.9844
G2 X77.0077 Y41.4995 I5.1414 J-7.9661
G2 X83.7253 Y38.7175 I0.0093 J-9.4791
G2 X86.5081 Y31.9997 I-6.6952 J-6.7087
G2 X83.7254 Y25.2822 I-9.4808 J-0.0078
G2 X82.2829 Y24.0974 I-6.7098 J6.6988
G1 X89.0085
G1 Y53.9026
G1 X86.3163
G2 X86.5081 Y52.0 I-9.2588 J-1.894
G2 X83.7254 Y45.2824 I-9.4808 J-0.0078
G2 X77.0082 Y42.4999 I-6.7098 J6.6988
G2 X70.2903 Y45.2825 I-0.0094 J9.478
G2 X67.5077 Y52.0004 I6.6958 J6.7087
G2 X67.6996 Y53.9026 I9.4538 J0.0071
G1 X65.0072
G1 Y24.0974
G1 X71.7325
G2 X70.2903 Y25.2823 I5.2662 J7.8803
G2 X67.5077 Y32.0001 I6.6958 J6.7087
G2 X70.2905 Y38.7176 I9.4789 J0.0083
G2 X71.8582 Y39.9844 I6.7091 J-6.6993
G1 X70.5594 Y41.9968
G1 Z-6.0
G2 X68.5932 Y43.5854 I6.4394 J9.9811
G2 X67.4072 Y44.9667 I8.3929 J8.4057
G1 Y39.0249
G2 X68.5971 Y40.4115 I9.5794 J-7.0165
G2 X70.5594 Y41.9968 I8.4026 J-8.3932
G0 Z3.0
G0 X83.4563 Y41.997
G0 Z-4.0
G1 Z-6.0
G2 X85.4188 Y40.4113 I-6.4393 J-9.9767
G2 X86.6085 Y39.025 I-8.3887 J-8.4025
G1 Y44.9669
G2 X85.4224 Y43.5853 I-9.5812 J7.0252
G2 X83.4563 Y41.997 I-8.4068 J8.3959
G1 X82.1574 Y39.9846
G2 X83.7253 Y38.7175 I-5.1404 J-7.9642
G2 X86.5081 Y31.9997 I-6.6952 J-6.7087
G2 X83.7254 Y25.2822 I-9.4808 J-0.0078
G2 X82.2829 Y24.0974 I-6.7098 J6.6988
G1 X89.0085
G1 Y53.9026
G1 X86.3163
G2 X86.5081 Y52.0 I-9.2588 J-1.894
G2 X83.7254 Y45.2824 I-9.4808 J-0.0078
G2 X77.0082 Y42.4999 I-6.7098 J6.6988
G2 X70.2903 Y45.2825 I-0.0094 J9.478
G2 X67.5077 Y52.0004 I6.6958 J6.7087
G2 X67.6996 Y53.9026 I9.4538 J0.0071
G1 X65.0072
G1 Y24.0974
G1 X71.7325
G2 X70.2903 Y25.2823 I5.2662 J7.8803
G2 X67.5077 Y32.0001 I6.6958 J6.7087
G2 X70.2905 Y38.7176 I9.4789 J0.0083
G2 X77.0077 Y41.4995 I6.7091 J-6.6993
G2 X82.1574 Y39.9846 I0.0093 J-9.4791
G1 X83.4563 Y41.997
G1 Z-7.0
G2 X85.4188 Y40.4113 I-6.4393 J-9.9767
G2 X86.6085 Y39.025 I-8.3887 J-8.4025
G1 Y44.9669
G2 X85.4224 Y43.5853 I-9.5812 J7.0252
G2 X83.4563 Y41.997 I-8.4068 J8.3959
G0 Z3.0
G0 X70.5594 Y41.9968
G0 Z-5.0
G1 Z-7.0
G2 X68.5932 Y43.5854 I6.4394 J9.9811
G2 X67.4072 Y44.9667 I8.3929 J8.4057
G1 Y39.0249
G2 X68.5971 Y40.4115 I9.5794 J-7.0165
G2 X70.5594 Y41.9968 I8.4026 J-8.3932
G1 X71.8582 Y39.9844
G2 X77.0077 Y41.4995 I5.1414 J-7.9661
G2 X83.7253 Y38.7175 I0.0093 J-9.4791
G2 X86.5081 Y31.9997 I-6.6952 J-6.7087
G2 X83.7254 Y25.2822 I-9.4808 J-0.0078
G2 X82.2829 Y24.0974 I-6.7098 J6.6988
G1 X89.0085
G1 Y53.9026
G1 X86.3163
G2 X86.5081 Y52.0 I-9.2588 J-1.894
G2 X83.7254 Y45.2824 I-9.4808 J-0.0078
G2 X77.0082 Y42.4999 I-6.7098 J6.6988
G2 X70.2903 Y45.2825 I-0.0094 J9.478
G2 X67.5077 Y52.0004 I6.6958 J6.7087
G2 X67.6996 Y53.9026 I9.4538 J0.0071
G1 X65.0072
G1 Y24.0974
G1 X71.7325
G2 X70.2903 Y25.2823 I5.2662 J7.8803
G2 X67.5077 Y32.0001 I6.6958 J6.7087
G2 X70.2905 Y38.7176 I9.4789 J0.0083
G2 X71.8582 Y39.9844 I6.7091 J-6.6993
G1 X70.5594 Y41.9968
G1 Z-8.0
G2 X68.5932 Y43.5854 I6.4394 J9.9811
G2 X67.4072 Y44.9667 I8.3929 J8.4057
G1 Y39.0249
G2 X68.5971 Y40.4115 I9.5794 J-7.0165
G2 X70.5594 Y41.9968 I8.4026 J-8.3932
G0 Z3.0
G0 X83.4563 Y41.997
G0 Z-6.0
G1 Z-8.0
G2 X85.4188 Y40.4113 I-6.4393 J-9.9767
G2 X86.6085 Y39.025 I-8.3887 J-8.4025
G1 Y44.9669
G2 X85.4224 Y43.5853 I-9.5812 J7.0252
G2 X83.4563 Y41.997 I-8.4068 J8.3959
G1 X82.1574 Y39.9846
G2 X83.7253 Y38.7175 I-5.1404 J-7.9642
G2 X86.5081 Y31.9997 I-6.6952 J-6.7087
G2 X83.7254 Y25.2822 I-9.4808 J-0.0078
G2 X82.2829 Y24.0974 I-6.7098 J6.6988
G1 X89.0085
G1 Y53.9026
G1 X86.3163
G2 X86.5081 Y52.0 I-9.2588 J-1.894
G2 X83.7254 Y45.2824 I-9.4808 J-0.0078
G2 X77.0082 Y42.4999 I-6.7098 J6.6988
G2 X70.2903 Y45.2825 I-0.0094 J9.478
G2 X67.5077 Y52.0004 I6.6958 J6.7087
G2 X67.6996 Y53.9026 I9.4538 J0.0071
G1 X65.0072
G1 Y24.0974
G1 X71.7325
G2 X70.2903 Y25.2823 I5.2662 J7.8803
G2 X67.5077 Y32.0001 I6.6958 J6.7087
G2 X70.2905 Y38.7176 I9.4789 J0.0083
G2 X77.0077 Y41.4995 I6.7091 J-6.6993
G2 X82.1574 Y39.9846 I0.0093 J-9.4791
G0 Z3.0
M5
M30
