( Made using CamBam - http://www.cambam.co.uk )
( side bearing plate camfile 8/31/2013 2:01:42 PM )
( T6 : 6.0 )
G21 G90 G64 G40
G0 Z3.0
( T6 : 6.0 )
T6 M6
( 5mm Profile 1 )
G17
M3 S1000
G0 X46.4981 Y78.0001
G0 Z1.0
G1 F50.0 Z-1.0
G1 F800.0 Y38.0001
G2 X43.4981 Y35.0001 I-3.0 J0.0
G1 X38.9999
G1 Y0.0
G2 X35.9999 Y-3.0 I-3.0 J0.0
G1 X0.0
G2 X-3.0 Y0.0 I0.0 J3.0
G1 Y78.0001
G2 X0.0 Y81.0001 I3.0 J0.0
G1 X35.4986
G1 X35.9999
G1 X43.4981
G2 X46.4981 Y78.0001 I0.0 J-3.0
G1 F50.0 Z-2.0
G1 F800.0 Y38.0001
G2 X43.4981 Y35.0001 I-3.0 J0.0
G1 X38.9999
G1 Y0.0
G2 X35.9999 Y-3.0 I-3.0 J0.0
G1 X0.0
G2 X-3.0 Y0.0 I0.0 J3.0
G1 Y78.0001
G2 X0.0 Y81.0001 I3.0 J0.0
G1 X35.4986
G1 X35.9999
G1 X43.4981
G2 X46.4981 Y78.0001 I0.0 J-3.0
G1 F50.0 Z-3.0
G1 F800.0 Y38.0001
G2 X43.4981 Y35.0001 I-3.0 J0.0
G1 X38.9999
G1 Y0.0
G2 X35.9999 Y-3.0 I-3.0 J0.0
G1 X0.0
G2 X-3.0 Y0.0 I0.0 J3.0
G1 Y78.0001
G2 X0.0 Y81.0001 I3.0 J0.0
G1 X35.4986
G1 X35.9999
G1 X43.4981
G2 X46.4981 Y78.0001 I0.0 J-3.0
G1 F50.0 Z-4.0
G1 F800.0 Y38.0001
G2 X43.4981 Y35.0001 I-3.0 J0.0
G1 X38.9999
G1 Y0.0
G2 X35.9999 Y-3.0 I-3.0 J0.0
G1 X0.0
G2 X-3.0 Y0.0 I0.0 J3.0
G1 Y78.0001
G2 X0.0 Y81.0001 I3.0 J0.0
G1 X35.4986
G1 X35.9999
G1 X43.4981
G2 X46.4981 Y78.0001 I0.0 J-3.0
G1 F50.0 Z-5.0
G1 F800.0 Y38.0001
G2 X43.4981 Y35.0001 I-3.0 J0.0
G1 X38.9999
G1 Y0.0
G2 X35.9999 Y-3.0 I-3.0 J0.0
G1 X0.0
G2 X-3.0 Y0.0 I0.0 J3.0
G1 Y78.0001
G2 X0.0 Y81.0001 I3.0 J0.0
G1 X35.4986
G1 X35.9999
G1 X43.4981
G2 X46.4981 Y78.0001 I0.0 J-3.0
G1 F50.0 Z-6.0
G1 F800.0 Y38.0001
G2 X43.4981 Y35.0001 I-3.0 J0.0
G1 X38.9999
G1 Y0.0
G2 X35.9999 Y-3.0 I-3.0 J0.0
G1 X0.0
G2 X-3.0 Y0.0 I0.0 J3.0
G1 Y78.0001
G2 X0.0 Y81.0001 I3.0 J0.0
G1 X35.4986
G1 X35.9999
G1 X43.4981
G2 X46.4981 Y78.0001 I0.0 J-3.0
G1 F50.0 Z-7.0
G1 F800.0 Y38.0001
G2 X43.4981 Y35.0001 I-3.0 J0.0
G1 X38.9999
G1 Y0.0
G2 X35.9999 Y-3.0 I-3.0 J0.0
G1 X0.0
G2 X-3.0 Y0.0 I0.0 J3.0
G1 Y78.0001
G2 X0.0 Y81.0001 I3.0 J0.0
G1 X35.4986
G1 X35.9999
G1 X43.4981
G2 X46.4981 Y78.0001 I0.0 J-3.0
G1 F50.0 Z-8.0
G1 F800.0 Y38.0001
G2 X43.4981 Y35.0001 I-3.0 J0.0
G1 X38.9999
G1 Y0.0
G2 X35.9999 Y-3.0 I-3.0 J0.0
G1 X0.0
G2 X-3.0 Y0.0 I0.0 J3.0
G1 Y78.0001
G2 X0.0 Y81.0001 I3.0 J0.0
G1 X35.4986
G1 X35.9999
G1 X43.4981
G2 X46.4981 Y78.0001 I0.0 J-3.0
G1 F50.0 Z-9.0
G1 F800.0 Y38.0001
G2 X43.4981 Y35.0001 I-3.0 J0.0
G1 X38.9999
G1 Y0.0
G2 X35.9999 Y-3.0 I-3.0 J0.0
G1 X0.0
G2 X-3.0 Y0.0 I0.0 J3.0
G1 Y78.0001
G2 X0.0 Y81.0001 I3.0 J0.0
G1 X35.4986
G1 X35.9999
G1 X43.4981
G2 X46.4981 Y78.0001 I0.0 J-3.0
G1 F50.0 Z-10.0
G1 F800.0 Y38.0001
G2 X43.4981 Y35.0001 I-3.0 J0.0
G1 X38.9999
G1 Y0.0
G2 X35.9999 Y-3.0 I-3.0 J0.0
G1 X0.0
G2 X-3.0 Y0.0 I0.0 J3.0
G1 Y78.0001
G2 X0.0 Y81.0001 I3.0 J0.0
G1 X35.4986
G1 X35.9999
G1 X43.4981
G2 X46.4981 Y78.0001 I0.0 J-3.0
G1 F50.0 Z-11.0
G1 F800.0 Y38.0001
G2 X43.4981 Y35.0001 I-3.0 J0.0
G1 X38.9999
G1 Y0.0
G2 X35.9999 Y-3.0 I-3.0 J0.0
G1 X0.0
G2 X-3.0 Y0.0 I0.0 J3.0
G1 Y78.0001
G2 X0.0 Y81.0001 I3.0 J0.0
G1 X35.4986
G1 X35.9999
G1 X43.4981
G2 X46.4981 Y78.0001 I0.0 J-3.0
G0 Z3.0
M5
M30
