( Made using CamBam - http://www.cambam.co.uk )
( side bearing plate camfile 8/31/2013 2:33:16 PM )
( T4 : 4.0 )
G21 G90 G64 G40
G0 Z3.0
( T4 : 4.0 )
T4 M6
( 4mm Profile 1 )
G17
M3 S1000
G0 X45.4981 Y78.0001
G0 Z1.0
G1 F50.0 Z-1.0
G1 F80.0 Y38.0001
G2 X43.4981 Y36.0001 I-2.0 J0.0
G1 X37.9999
G1 Y0.0
G2 X35.9999 Y-2.0 I-2.0 J0.0
G1 X0.0
G2 X-2.0 Y0.0 I0.0 J2.0
G1 Y78.0001
G2 X0.0 Y80.0001 I2.0 J0.0
G1 X35.4986
G1 X35.9999
G1 X43.4981
G2 X45.4981 Y78.0001 I0.0 J-2.0
G1 F50.0 Z-2.0
G1 F80.0 Y38.0001
G2 X43.4981 Y36.0001 I-2.0 J0.0
G1 X37.9999
G1 Y0.0
G2 X35.9999 Y-2.0 I-2.0 J0.0
G1 X0.0
G2 X-2.0 Y0.0 I0.0 J2.0
G1 Y78.0001
G2 X0.0 Y80.0001 I2.0 J0.0
G1 X35.4986
G1 X35.9999
G1 X43.4981
G2 X45.4981 Y78.0001 I0.0 J-2.0
G1 F50.0 Z-3.0
G1 F80.0 Y38.0001
G2 X43.4981 Y36.0001 I-2.0 J0.0
G1 X37.9999
G1 Y0.0
G2 X35.9999 Y-2.0 I-2.0 J0.0
G1 X0.0
G2 X-2.0 Y0.0 I0.0 J2.0
G1 Y78.0001
G2 X0.0 Y80.0001 I2.0 J0.0
G1 X35.4986
G1 X35.9999
G1 X43.4981
G2 X45.4981 Y78.0001 I0.0 J-2.0
G1 F50.0 Z-4.0
G1 F80.0 Y38.0001
G2 X43.4981 Y36.0001 I-2.0 J0.0
G1 X37.9999
G1 Y0.0
G2 X35.9999 Y-2.0 I-2.0 J0.0
G1 X0.0
G2 X-2.0 Y0.0 I0.0 J2.0
G1 Y78.0001
G2 X0.0 Y80.0001 I2.0 J0.0
G1 X35.4986
G1 X35.9999
G1 X43.4981
G2 X45.4981 Y78.0001 I0.0 J-2.0
G1 F50.0 Z-5.0
G1 F80.0 Y38.0001
G2 X43.4981 Y36.0001 I-2.0 J0.0
G1 X37.9999
G1 Y0.0
G2 X35.9999 Y-2.0 I-2.0 J0.0
G1 X0.0
G2 X-2.0 Y0.0 I0.0 J2.0
G1 Y78.0001
G2 X0.0 Y80.0001 I2.0 J0.0
G1 X35.4986
G1 X35.9999
G1 X43.4981
G2 X45.4981 Y78.0001 I0.0 J-2.0
G1 F50.0 Z-6.0
G1 F80.0 Y38.0001
G2 X43.4981 Y36.0001 I-2.0 J0.0
G1 X37.9999
G1 Y0.0
G2 X35.9999 Y-2.0 I-2.0 J0.0
G1 X0.0
G2 X-2.0 Y0.0 I0.0 J2.0
G1 Y78.0001
G2 X0.0 Y80.0001 I2.0 J0.0
G1 X35.4986
G1 X35.9999
G1 X43.4981
G2 X45.4981 Y78.0001 I0.0 J-2.0
G1 F50.0 Z-7.0
G1 F80.0 Y38.0001
G2 X43.4981 Y36.0001 I-2.0 J0.0
G1 X37.9999
G1 Y0.0
G2 X35.9999 Y-2.0 I-2.0 J0.0
G1 X0.0
G2 X-2.0 Y0.0 I0.0 J2.0
G1 Y78.0001
G2 X0.0 Y80.0001 I2.0 J0.0
G1 X35.4986
G1 X35.9999
G1 X43.4981
G2 X45.4981 Y78.0001 I0.0 J-2.0
G1 F50.0 Z-8.0
G1 F80.0 Y38.0001
G2 X43.4981 Y36.0001 I-2.0 J0.0
G1 X37.9999
G1 Y0.0
G2 X35.9999 Y-2.0 I-2.0 J0.0
G1 X0.0
G2 X-2.0 Y0.0 I0.0 J2.0
G1 Y78.0001
G2 X0.0 Y80.0001 I2.0 J0.0
G1 X35.4986
G1 X35.9999
G1 X43.4981
G2 X45.4981 Y78.0001 I0.0 J-2.0
G1 F50.0 Z-9.0
G1 F80.0 Y38.0001
G2 X43.4981 Y36.0001 I-2.0 J0.0
G1 X37.9999
G1 Y0.0
G2 X35.9999 Y-2.0 I-2.0 J0.0
G1 X0.0
G2 X-2.0 Y0.0 I0.0 J2.0
G1 Y78.0001
G2 X0.0 Y80.0001 I2.0 J0.0
G1 X35.4986
G1 X35.9999
G1 X43.4981
G2 X45.4981 Y78.0001 I0.0 J-2.0
G1 F50.0 Z-10.0
G1 F80.0 Y38.0001
G2 X43.4981 Y36.0001 I-2.0 J0.0
G1 X37.9999
G1 Y0.0
G2 X35.9999 Y-2.0 I-2.0 J0.0
G1 X0.0
G2 X-2.0 Y0.0 I0.0 J2.0
G1 Y78.0001
G2 X0.0 Y80.0001 I2.0 J0.0
G1 X35.4986
G1 X35.9999
G1 X43.4981
G2 X45.4981 Y78.0001 I0.0 J-2.0
G1 F50.0 Z-11.0
G1 F80.0 Y38.0001
G2 X43.4981 Y36.0001 I-2.0 J0.0
G1 X37.9999
G1 Y0.0
G2 X35.9999 Y-2.0 I-2.0 J0.0
G1 X0.0
G2 X-2.0 Y0.0 I0.0 J2.0
G1 Y78.0001
G2 X0.0 Y80.0001 I2.0 J0.0
G1 X35.4986
G1 X35.9999
G1 X43.4981
G2 X45.4981 Y78.0001 I0.0 J-2.0
G0 Z3.0
M5
M30
