( Made using CamBam - http://www.cambam.co.uk )
( back panel cutouts 3/31/2013 7:25:21 PM )
( T3 : 3.0 )
G21 G90 G64 G40
G0 Z3.0
( T3 : 3.0 )
T3 M6
( Profile1 )
G17
M3 S1000
G0 X28.6669 Y9.7751
G1 F30.0 Z-2.0
G2 F50.0 X28.7467 Y9.6954 I0.0 J-0.0798
G1 Y9.6953
G1 Y9.6954
G2 X28.6669 Y9.6156 I-0.0798 J0.0001
G1 X28.6668
G1 X24.3768
G3 X22.9099 Y8.429 I0.0 J-1.5
G1 X22.8208 Y8.0118
G2 X22.6563 Y7.5413 I-5.7758 J1.7553
G3 X22.6458 Y7.5141 I1.3943 J-0.5531
G2 X22.6359 Y7.4894 I-0.5218 J0.1954
G3 X22.625 Y7.4633 I1.378 J-0.5925
G2 X22.3701 Y6.9459 I-3.7979 J1.549
G3 X22.3692 Y6.9442 I1.2957 J-0.7557
G2 X22.2022 Y6.7023 I-1.6448 J0.9564
G3 X22.1947 Y6.693 I1.1651 J-0.9448
G2 X21.9674 Y6.4719 I-0.9864 J0.7869
G2 X21.6941 Y6.3488 I-0.426 J0.5806
G2 X21.4609 Y6.3252 I-0.2329 J1.1398
G3 X21.4605 I-0.0004 J-1.5
G1 X10.5017
G3 X10.4833 Y6.3251 I0.0 J-1.5
G2 X10.111 Y6.3861 I-0.0133 J1.0856
G2 X9.8541 Y6.5469 I0.2699 J0.7165
G3 X9.8507 Y6.5501 I-1.0319 J-1.0886
G2 X9.6623 Y6.7701 I0.9299 J0.9873
G2 X9.4109 Y7.2262 I2.2534 J1.5392
G2 X9.1462 Y7.9887 I5.1597 J2.2184
G1 X9.0524 Y8.4285
G3 X7.5854 Y9.6156 I-1.467 J-0.3128
G1 X3.3321
G1 X3.3319
G2 X3.2523 Y9.6952 I0.0 J0.0795
G3 Y9.6959 I-1.5 J0.0004
G2 X3.3316 Y9.7751 I0.0792 J0.0
G3 X3.3321 I0.0005 J1.5
G1 X6.9116
G3 X8.3888 Y11.5356 I0.0 J1.5
G2 X9.6972 Y12.7248 I1.3083 J-0.1251
G1 X9.6974
G1 X22.2646
G3 X22.265 I0.0 J1.5
G2 X23.5739 Y11.5362 I0.0003 J-1.3146
G3 X25.051 Y9.7751 I1.4771 J-0.261
G1 X28.6668
G1 X28.6669
G0 Z3.0
G0 X37.2553 Y9.6975
G1 F30.0 Z-2.0
G2 F50.0 X37.3346 Y9.7761 I0.0793 J-0.0007
G3 X37.3352 I0.0005 J1.5
G1 X40.915
G3 X42.3923 Y11.536 I0.0 J1.5
G2 X43.7008 Y12.7258 I1.3084 J-0.1245
G1 X43.701
G1 X56.2684
G3 X56.2688 I0.0 J1.5
G2 X57.5777 Y11.5372 I0.0003 J-1.3146
G3 X59.0548 Y9.7761 I1.4771 J-0.261
G1 X62.6704
G1 X62.6705
G2 X62.7503 Y9.6964 I0.0 J-0.0798
G1 Y9.6963
G1 Y9.6965
G1 Y9.6964
G2 X62.6705 Y9.6166 I-0.0798 J0.0001
G1 X62.6704
G1 X58.3806
G3 X56.9137 Y8.43 I0.0 J-1.5
G1 X56.8246 Y8.0129
G2 X56.6601 Y7.5423 I-5.7758 J1.7553
G3 X56.6496 Y7.5151 I1.3943 J-0.5531
G2 X56.6397 Y7.4904 I-0.5218 J0.1954
G3 X56.6287 Y7.4643 I1.378 J-0.5925
G2 X56.3739 Y6.9469 I-3.7979 J1.549
G3 X56.373 Y6.9453 I1.2957 J-0.7557
G2 X56.206 Y6.7033 I-1.6448 J0.9564
G3 X56.1985 Y6.694 I1.1651 J-0.9448
G2 X55.9712 Y6.4729 I-0.9864 J0.7869
G2 X55.6979 Y6.3498 I-0.426 J0.5806
G2 X55.4647 Y6.3262 I-0.2329 J1.1398
G3 X55.4643 I-0.0004 J-1.5
G1 X44.5055
G3 X44.488 Y6.3261 I0.0 J-1.5
G2 X44.1145 Y6.3871 I-0.0128 J1.0952
G2 X43.8571 Y6.5485 I0.273 J0.7216
G3 X43.8545 Y6.551 I-1.0313 J-1.0893
G2 X43.6658 Y6.7713 I0.9328 J0.9901
G2 X43.4145 Y7.2273 I2.25 J1.537
G2 X43.1498 Y7.9899 I5.1522 J2.2157
G1 X43.0558 Y8.43
G3 X41.5888 Y9.6166 I-1.4669 J-0.3134
G1 X37.3352
G1 X37.335
G2 X37.2553 Y9.6964 I0.0 J0.0797
G3 Y9.6968 I-1.5 J0.0002
G2 Y9.6975 I0.0793 J0.0
G0 Z3.0
G0 X43.2394 Y-6.2689
G1 F30.0 Z-2.0
G2 F50.0 X43.7008 Y-6.1853 I0.4613 J-1.2307
G1 X43.701
G1 X56.2684
G3 X56.2688 I0.0 J1.5
G2 X57.5777 Y-7.374 I0.0003 J-1.3146
G3 X59.0548 Y-9.135 I1.4771 J-0.261
G1 X62.6704
G1 X62.6705
G2 X62.7503 Y-9.2148 I0.0 J-0.0798
G1 Y-9.2147
G1 Y-9.2148
G2 X62.6705 Y-9.2945 I-0.0798 J0.0001
G1 X62.6704
G1 X58.3806
G3 X56.9137 Y-10.4812 I0.0 J-1.5
G1 X56.8246 Y-10.8983
G2 X56.6601 Y-11.3688 I-5.7758 J1.7553
G3 X56.6496 Y-11.396 I1.3943 J-0.5531
G2 X56.6397 Y-11.4208 I-0.5218 J0.1954
G3 X56.6287 Y-11.4468 I1.378 J-0.5925
G2 X56.3739 Y-11.9642 I-3.7979 J1.549
G3 X56.373 Y-11.9659 I1.2957 J-0.7557
G2 X56.206 Y-12.2078 I-1.6448 J0.9564
G3 X56.1985 Y-12.2172 I1.1651 J-0.9448
G2 X55.9712 Y-12.4382 I-0.9864 J0.7869
G2 X55.6979 Y-12.5614 I-0.426 J0.5806
G2 X55.4647 Y-12.5849 I-0.2329 J1.1398
G3 X55.4643 I-0.0004 J-1.5
G1 X44.5055
G3 X44.488 Y-12.585 I0.0 J-1.5
G2 X44.1145 Y-12.524 I-0.0128 J1.0952
G2 X43.8571 Y-12.3627 I0.273 J0.7216
G3 X43.8545 Y-12.3602 I-1.0313 J-1.0893
G2 X43.6658 Y-12.1399 I0.9328 J0.9901
G2 X43.4145 Y-11.6839 I2.25 J1.537
G2 X43.1498 Y-10.9213 I5.1522 J2.2157
G1 X43.0558 Y-10.4812
G3 X41.5888 Y-9.2945 I-1.4669 J-0.3134
G1 X37.3352
G1 X37.335
G2 X37.2553 Y-9.2148 I0.0 J0.0797
G3 Y-9.2144 I-1.5 J0.0002
G2 X37.3346 Y-9.135 I0.0793 J0.0
G3 X37.3352 I0.0005 J1.5
G1 X40.915
G3 X42.3923 Y-7.3751 I0.0 J1.5
G2 X43.2394 Y-6.2689 I1.3084 J-0.1245
G0 Z3.0
G0 X28.7451 Y-9.1997
G1 F30.0 Z-2.0
G2 F50.0 X28.7467 Y-9.2154 I-0.0782 J-0.0158
G1 Y-9.2155
G1 Y-9.2154
G2 X28.6669 Y-9.2952 I-0.0798 J0.0001
G1 X28.6668
G1 X24.3768
G3 X22.9099 Y-10.4819 I0.0 J-1.5
G1 X22.8208 Y-10.899
G2 X22.6563 Y-11.3695 I-5.7758 J1.7553
G3 X22.6458 Y-11.3967 I1.3943 J-0.5531
G2 X22.6359 Y-11.4215 I-0.5218 J0.1954
G3 X22.625 Y-11.4475 I1.378 J-0.5925
G2 X22.3701 Y-11.9649 I-3.7979 J1.549
G3 X22.3692 Y-11.9666 I1.2957 J-0.7557
G2 X22.2022 Y-12.2085 I-1.6448 J0.9564
G3 X22.1947 Y-12.2179 I1.1651 J-0.9448
G2 X21.9674 Y-12.4389 I-0.9864 J0.7869
G2 X21.6941 Y-12.5621 I-0.426 J0.5806
G2 X21.4609 Y-12.5856 I-0.2329 J1.1398
G3 X21.4605 I-0.0004 J-1.5
G1 X10.5017
G3 X10.4833 Y-12.5857 I0.0 J-1.5
G2 X10.111 Y-12.5248 I-0.0133 J1.0856
G2 X9.8541 Y-12.3639 I0.2699 J0.7165
G3 X9.8507 Y-12.3607 I-1.0319 J-1.0886
G2 X9.6623 Y-12.1407 I0.9299 J0.9873
G2 X9.4109 Y-11.6846 I2.2534 J1.5392
G2 X9.1462 Y-10.9221 I5.1597 J2.2184
G1 X9.0524 Y-10.4824
G3 X7.5854 Y-9.2952 I-1.467 J-0.3128
G1 X3.3321
G1 X3.3319
G2 X3.2523 Y-9.2157 I0.0 J0.0795
G3 Y-9.215 I-1.5 J0.0004
G2 X3.3316 Y-9.1357 I0.0792 J0.0
G3 X3.3321 I0.0005 J1.5
G1 X6.9116
G3 X8.3888 Y-7.3752 I0.0 J1.5
G2 X9.6972 Y-6.186 I1.3083 J-0.1251
G1 X9.6974
G1 X22.2646
G3 X22.265 I0.0 J1.5
G2 X23.5739 Y-7.3747 I0.0003 J-1.3146
G3 X25.051 Y-9.1357 I1.4771 J-0.261
G1 X28.6668
G1 X28.6669
G2 X28.7451 Y-9.1997 I0.0 J-0.0798
G0 Z3.0
G0 X71.2553 Y-9.2133
G1 F30.0 Z-2.0
G2 F50.0 X71.3346 Y-9.134 I0.0793 J0.0
G3 X71.3352 I0.0005 J1.5
G1 X74.915
G3 X76.3923 Y-7.3741 I0.0 J1.5
G2 X77.7008 Y-6.1843 I1.3084 J-0.1245
G1 X77.701
G1 X90.2684
G3 X90.2688 I0.0 J1.5
G2 X91.5777 Y-7.3729 I0.0003 J-1.3146
G3 X93.0548 Y-9.134 I1.4771 J-0.261
G1 X96.6704
G1 X96.6705
G2 X96.7503 Y-9.2137 I0.0 J-0.0798
G1 Y-9.2138
G1 Y-9.2137
G2 X96.6705 Y-9.2935 I-0.0798 J0.0001
G1 X96.6704
G1 X92.3806
G3 X90.9137 Y-10.4801 I0.0 J-1.5
G1 X90.8246 Y-10.8973
G2 X90.6601 Y-11.3678 I-5.7758 J1.7553
G3 X90.6496 Y-11.395 I1.3943 J-0.5531
G2 X90.6396 Y-11.4197 I-0.5218 J0.1954
G3 X90.6287 Y-11.4458 I1.378 J-0.5925
G2 X90.3739 Y-11.9632 I-3.7979 J1.549
G3 X90.3729 Y-11.9649 I1.2957 J-0.7557
G2 X90.206 Y-12.2068 I-1.6448 J0.9564
G3 X90.1985 Y-12.2161 I1.1651 J-0.9448
G2 X89.9711 Y-12.4372 I-0.9864 J0.7869
G2 X89.6979 Y-12.5603 I-0.426 J0.5806
G2 X89.4647 Y-12.5839 I-0.2329 J1.1398
G3 X89.4643 I-0.0004 J-1.5
G1 X78.5055
G3 X78.4879 Y-12.584 I0.0 J-1.5
G2 X78.1145 Y-12.523 I-0.0128 J1.0952
G2 X77.8571 Y-12.3616 I0.273 J0.7216
G3 X77.8545 Y-12.3592 I-1.0313 J-1.0893
G2 X77.6657 Y-12.1389 I0.9328 J0.9901
G2 X77.4145 Y-11.6829 I2.25 J1.537
G2 X77.1498 Y-10.9203 I5.1522 J2.2157
G1 X77.0557 Y-10.4801
G3 X75.5888 Y-9.2935 I-1.4669 J-0.3134
G1 X71.3352
G1 X71.335
G2 X71.2553 Y-9.2138 I0.0 J0.0797
G3 Y-9.2133 I-1.5 J0.0002
G0 Z3.0
G0 X78.0786 Y6.4021
G1 F30.0 Z-2.0
G2 F50.0 X77.8571 Y6.5488 I0.3089 J0.707
G3 X77.8545 Y6.5513 I-1.0313 J-1.0893
G2 X77.6657 Y6.7716 I0.9328 J0.9901
G2 X77.4145 Y7.2276 I2.25 J1.537
G2 X77.1498 Y7.9902 I5.1522 J2.2157
G1 X77.0557 Y8.4303
G3 X75.5888 Y9.617 I-1.4669 J-0.3134
G1 X71.3352
G1 X71.335
G2 X71.2553 Y9.6967 I0.0 J0.0797
G3 Y9.6971 I-1.5 J0.0002
G2 X71.3346 Y9.7765 I0.0793 J0.0
G3 X71.3352 I0.0005 J1.5
G1 X74.915
G3 X76.3923 Y11.5364 I0.0 J1.5
G2 X77.7008 Y12.7262 I1.3084 J-0.1245
G1 X77.701
G1 X90.2684
G3 X90.2688 I0.0 J1.5
G2 X91.5777 Y11.5375 I0.0003 J-1.3146
G3 X93.0548 Y9.7765 I1.4771 J-0.261
G1 X96.6704
G1 X96.6705
G2 X96.7503 Y9.6967 I0.0 J-0.0798
G1 Y9.6968
G1 Y9.6967
G2 X96.6705 Y9.617 I-0.0798 J0.0001
G1 X96.6704
G1 X92.3806
G3 X90.9137 Y8.4303 I0.0 J-1.5
G1 X90.8246 Y8.0132
G2 X90.6601 Y7.5427 I-5.7758 J1.7553
G3 X90.6496 Y7.5155 I1.3943 J-0.5531
G2 X90.6396 Y7.4907 I-0.5218 J0.1954
G3 X90.6287 Y7.4647 I1.378 J-0.5925
G2 X90.3739 Y6.9473 I-3.7979 J1.549
G3 X90.3729 Y6.9456 I1.2957 J-0.7557
G2 X90.206 Y6.7037 I-1.6448 J0.9564
G3 X90.1985 Y6.6943 I1.1651 J-0.9448
G2 X89.9711 Y6.4733 I-0.9864 J0.7869
G2 X89.6979 Y6.3501 I-0.426 J0.5806
G2 X89.4647 Y6.3266 I-0.2329 J1.1398
G3 X89.4643 I-0.0004 J-1.5
G1 X78.5055
G3 X78.4879 Y6.3265 I0.0 J-1.5
G2 X78.1145 Y6.3875 I-0.0128 J1.0952
G2 X78.0786 Y6.4021 I0.273 J0.7216
G0 Z3.0
G0 X108.6703 Y8.1101
G1 F30.0 Z-2.0
G2 F50.0 X108.6604 Y8.4737 I6.3652 J0.3554
G3 Y8.4781 I-1.5 J0.0019
G2 X109.6826 Y11.9455 I6.3557 J0.0106
G3 X109.6828 Y11.9458 I-1.2587 J0.8158
G2 X112.1522 Y14.1759 I5.4021 J-3.4996
G1 X117.9685
G2 X120.4378 Y11.9459 I-2.9309 J-5.7277
G3 X120.438 Y11.9457 I1.259 J0.8154
G2 X121.4603 Y8.478 I-5.3364 J-3.4578
G3 Y8.4736 I1.5 J-0.0023
G2 X119.5872 Y3.9517 I-6.3738 J-0.0087
G3 X119.5845 Y3.9491 I1.0592 J-1.0621
G2 X115.0621 Y2.076 I-4.5147 J4.5045
G3 X115.0581 I-0.0018 J-1.5
G2 X110.5364 Y3.9488 I-0.0093 J6.3726
G3 X110.5335 Y3.9517 I-1.0621 J-1.0592
G2 X108.6703 Y8.1101 I4.502 J4.5138
G0 Z3.0
G0 X115.9625 Y-9.3114
G1 F30.0 Z-2.0
G2 F50.0 X115.9932 Y-9.3052 I0.0307 J-0.0733
G3 X115.9936 I0.0004 J1.5
G1 X119.4091
G3 X120.8757 Y-7.4907 I0.0 J1.5
G1 X120.8498 Y-7.3698
G2 X121.2293 Y-6.5739 I1.2898 J-0.1265
G3 X121.2323 Y-6.571 I-1.0536 J1.0677
G2 X122.1716 Y-6.185 I0.9371 J-0.9445
G3 X122.1741 I0.0025 J1.5
G1 X156.8121
G3 X156.8148 I0.0 J1.5
G2 X157.7543 Y-6.571 I0.0024 J-1.3306
G3 X157.7574 Y-6.5741 I1.0564 J1.0649
G2 X158.1371 Y-7.3699 I-0.9099 J-0.9226
G1 X158.1112 Y-7.4907
G3 X159.5779 Y-9.3052 I1.4667 J-0.3145
G1 X162.9933
G2 X163.0732 Y-9.385 I0.0 J-0.0799
G2 X162.9931 Y-9.465 I-0.0803 J0.0002
G1 X158.8992
G3 X157.4326 Y-10.6502 I0.0 J-1.5
G1 X157.3791 Y-10.8992
G2 X157.3432 Y-11.0093 I-2.892 J0.8823
G3 X157.3319 Y-11.0432 I1.4169 J-0.4923
G2 X157.2759 Y-11.2043 I-3.3541 J1.0765
G3 X157.2625 Y-11.2415 I1.4044 J-0.527
G2 X157.2345 Y-11.3157 I-1.3613 J0.4703
G3 X157.2124 Y-11.3731 I1.3886 J-0.5671
G3 X157.1945 Y-11.4163 I1.3766 J-0.5959
G2 X156.9644 Y-11.8972 I-3.5982 J1.4261
G2 X156.7987 Y-12.1523 I-2.2245 J1.2636
G2 X156.7504 Y-12.2141 I-2.3278 J1.768
G2 X156.519 Y-12.4373 I-1.0181 J0.8241
G2 X156.2419 Y-12.5609 I-0.4321 J0.5962
G2 X156.0025 Y-12.5849 I-0.2409 J1.1981
G1 X122.983
G3 X122.9669 Y-12.585 I0.0 J-1.5
G2 X122.5863 Y-12.5236 I-0.0122 J1.1353
G2 X122.3227 Y-12.3599 I0.2862 J0.7548
G2 X122.1287 Y-12.135 I0.9928 J1.0528
G2 X121.8783 Y-11.6837 I2.1766 J1.5023
G3 X121.8767 Y-11.6799 I-1.3765 J-0.596
G2 X121.6114 Y-10.9209 I4.909 J2.1416
G1 X121.5533 Y-10.6502
G3 X120.0867 Y-9.465 I-1.4666 J-0.3149
G1 X115.9937
G1 X115.9936
G1 X115.9937
G2 X115.9137 Y-9.385 I0.0 J0.08
G3 Y-9.3847 I-1.5 J-0.0001
G2 X115.9625 Y-9.3114 I0.0795 J0.0
G0 Z3.0
G0 X134.6271 Y4.6474
G1 F30.0 Z-2.0
G2 F50.0 X133.3572 Y8.4737 I5.1053 J3.8181
G3 Y8.4781 I-1.5 J0.0019
G2 X134.3795 Y11.9455 I6.3557 J0.0106
G3 X134.3796 Y11.9458 I-1.2587 J0.8158
G2 X136.8491 Y14.1759 I5.4021 J-3.4996
G1 X142.6654
G2 X145.1347 Y11.9459 I-2.9309 J-5.7277
G3 X145.1348 Y11.9457 I1.259 J0.8154
G2 X146.1571 Y8.478 I-5.3364 J-3.4578
G3 Y8.4736 I1.5 J-0.0023
G2 X144.284 Y3.9517 I-6.3738 J-0.0087
G3 X144.2814 Y3.9491 I1.0592 J-1.0621
G2 X139.759 Y2.076 I-4.5147 J4.5045
G3 X139.755 I-0.0018 J-1.5
G2 X135.2333 Y3.9488 I-0.0093 J6.3726
G3 X135.2304 Y3.9517 I-1.0621 J-1.0592
G2 X134.6271 Y4.6474 I4.502 J4.5138
G0 Z3.0
G0 X157.7539 Y7.6458
G1 F30.0 Z-2.0
G2 F50.0 X157.701 Y8.4737 I6.3222 J0.8197
G3 Y8.4781 I-1.5 J0.0019
G2 X158.7232 Y11.9455 I6.3557 J0.0106
G3 X158.7234 Y11.9458 I-1.2587 J0.8158
G2 X161.1928 Y14.1759 I5.4021 J-3.4996
G1 X167.0091
G2 X169.4784 Y11.9459 I-2.9309 J-5.7277
G3 X169.4785 Y11.9457 I1.259 J0.8154
G2 X170.5009 Y8.478 I-5.3364 J-3.4578
G3 Y8.4736 I1.5 J-0.0023
G2 X168.6278 Y3.9517 I-6.3738 J-0.0087
G3 X168.6251 Y3.9491 I1.0592 J-1.0621
G2 X164.1027 Y2.076 I-4.5147 J4.5045
G3 X164.0987 I-0.0018 J-1.5
G2 X159.577 Y3.9488 I-0.0093 J6.3726
G3 X159.5741 Y3.9517 I-1.0621 J-1.0592
G2 X157.7539 Y7.6458 I4.502 J4.5138
G0 Z3.0
M5
M30
