( Made using CamBam - http://www.cambam.co.uk )
( stepper spacer 2 12/2/2012 11:55:26 AM )
( T6 : 6.0 )
G21 G90 G64 G40
G0 Z3.0
( T6 : 6.0 )
T6 M6
( Profile1 )
G17
M3 S1000
G0 X12.3865 Y20.9586
G1 F40.0 Z-1.0
G3 F100.0 X14.9466 Y14.7783 I8.7119 J-0.0115
G2 X14.9506 Y14.7744 I-2.1184 J-2.1242
G3 X17.7884 Y12.8754 I6.1975 J6.1914
G3 X21.1324 Y12.2127 I3.3314 J8.0425
G2 X21.1367 I0.0043 J-3.0
G1 X46.1367
G1 Y29.7124
G1 X21.1367
G2 X21.1325 I0.0 J3.0
G3 X14.9522 Y27.1526 I-0.0122 J-8.7112
G2 X14.9482 Y27.1485 I-2.1242 J2.1184
G3 X13.0493 Y24.3112 I6.1891 J-6.1961
G3 X12.3865 Y20.9665 I8.0504 J-3.3332
G2 Y20.9586 I-3.0 J-0.0039
G1 F40.0 Z-2.0
G3 F100.0 X14.9466 Y14.7783 I8.7119 J-0.0115
G2 X14.9506 Y14.7744 I-2.1184 J-2.1242
G3 X17.7884 Y12.8754 I6.1975 J6.1914
G3 X21.1324 Y12.2127 I3.3314 J8.0425
G2 X21.1367 I0.0043 J-3.0
G1 X46.1367
G1 Y29.7124
G1 X21.1367
G2 X21.1325 I0.0 J3.0
G3 X14.9522 Y27.1526 I-0.0122 J-8.7112
G2 X14.9482 Y27.1485 I-2.1242 J2.1184
G3 X13.0493 Y24.3112 I6.1891 J-6.1961
G3 X12.3865 Y20.9665 I8.0504 J-3.3332
G2 Y20.9586 I-3.0 J-0.0039
G1 F40.0 Z-3.0
G3 F100.0 X14.9466 Y14.7783 I8.7119 J-0.0115
G2 X14.9506 Y14.7744 I-2.1184 J-2.1242
G3 X17.7884 Y12.8754 I6.1975 J6.1914
G3 X21.1324 Y12.2127 I3.3314 J8.0425
G2 X21.1367 I0.0043 J-3.0
G1 X46.1367
G1 Y29.7124
G1 X21.1367
G2 X21.1325 I0.0 J3.0
G3 X14.9522 Y27.1526 I-0.0122 J-8.7112
G2 X14.9482 Y27.1485 I-2.1242 J2.1184
G3 X13.0493 Y24.3112 I6.1891 J-6.1961
G3 X12.3865 Y20.9665 I8.0504 J-3.3332
G2 Y20.9586 I-3.0 J-0.0039
G1 F40.0 Z-4.0
G3 F100.0 X14.9466 Y14.7783 I8.7119 J-0.0115
G2 X14.9506 Y14.7744 I-2.1184 J-2.1242
G3 X17.7884 Y12.8754 I6.1975 J6.1914
G3 X21.1324 Y12.2127 I3.3314 J8.0425
G2 X21.1367 I0.0043 J-3.0
G1 X46.1367
G1 Y29.7124
G1 X21.1367
G2 X21.1325 I0.0 J3.0
G3 X14.9522 Y27.1526 I-0.0122 J-8.7112
G2 X14.9482 Y27.1485 I-2.1242 J2.1184
G3 X13.0493 Y24.3112 I6.1891 J-6.1961
G3 X12.3865 Y20.9665 I8.0504 J-3.3332
G2 Y20.9586 I-3.0 J-0.0039
G1 F40.0 Z-5.0
G3 F100.0 X14.9466 Y14.7783 I8.7119 J-0.0115
G2 X14.9506 Y14.7744 I-2.1184 J-2.1242
G3 X17.7884 Y12.8754 I6.1975 J6.1914
G3 X21.1324 Y12.2127 I3.3314 J8.0425
G2 X21.1367 I0.0043 J-3.0
G1 X46.1367
G1 Y29.7124
G1 X21.1367
G2 X21.1325 I0.0 J3.0
G3 X14.9522 Y27.1526 I-0.0122 J-8.7112
G2 X14.9482 Y27.1485 I-2.1242 J2.1184
G3 X13.0493 Y24.3112 I6.1891 J-6.1961
G3 X12.3865 Y20.9665 I8.0504 J-3.3332
G2 Y20.9586 I-3.0 J-0.0039
G1 F40.0 Z-6.0
G3 F100.0 X14.9466 Y14.7783 I8.7119 J-0.0115
G2 X14.9506 Y14.7744 I-2.1184 J-2.1242
G3 X17.7884 Y12.8754 I6.1975 J6.1914
G3 X21.1324 Y12.2127 I3.3314 J8.0425
G2 X21.1367 I0.0043 J-3.0
G1 X46.1367
G1 Y29.7124
G1 X21.1367
G2 X21.1325 I0.0 J3.0
G3 X14.9522 Y27.1526 I-0.0122 J-8.7112
G2 X14.9482 Y27.1485 I-2.1242 J2.1184
G3 X13.0493 Y24.3112 I6.1891 J-6.1961
G3 X12.3865 Y20.9665 I8.0504 J-3.3332
G2 Y20.9586 I-3.0 J-0.0039
G1 F40.0 Z-7.0
G3 F100.0 X14.9466 Y14.7783 I8.7119 J-0.0115
G2 X14.9506 Y14.7744 I-2.1184 J-2.1242
G3 X17.7884 Y12.8754 I6.1975 J6.1914
G3 X21.1324 Y12.2127 I3.3314 J8.0425
G2 X21.1367 I0.0043 J-3.0
G1 X46.1367
G1 Y29.7124
G1 X21.1367
G2 X21.1325 I0.0 J3.0
G3 X14.9522 Y27.1526 I-0.0122 J-8.7112
G2 X14.9482 Y27.1485 I-2.1242 J2.1184
G3 X13.0493 Y24.3112 I6.1891 J-6.1961
G3 X12.3865 Y20.9665 I8.0504 J-3.3332
G2 Y20.9586 I-3.0 J-0.0039
G1 F40.0 Z-8.0
G3 F100.0 X14.9466 Y14.7783 I8.7119 J-0.0115
G2 X14.9506 Y14.7744 I-2.1184 J-2.1242
G3 X17.7884 Y12.8754 I6.1975 J6.1914
G3 X21.1324 Y12.2127 I3.3314 J8.0425
G2 X21.1367 I0.0043 J-3.0
G1 X46.1367
G1 Y29.7124
G1 X21.1367
G2 X21.1325 I0.0 J3.0
G3 X14.9522 Y27.1526 I-0.0122 J-8.7112
G2 X14.9482 Y27.1485 I-2.1242 J2.1184
G3 X13.0493 Y24.3112 I6.1891 J-6.1961
G3 X12.3865 Y20.9665 I8.0504 J-3.3332
G2 Y20.9586 I-3.0 J-0.0039
G1 F40.0 Z-9.0
G3 F100.0 X14.9466 Y14.7783 I8.7119 J-0.0115
G2 X14.9506 Y14.7744 I-2.1184 J-2.1242
G3 X17.7884 Y12.8754 I6.1975 J6.1914
G3 X21.1324 Y12.2127 I3.3314 J8.0425
G2 X21.1367 I0.0043 J-3.0
G1 X46.1367
G1 Y29.7124
G1 X21.1367
G2 X21.1325 I0.0 J3.0
G3 X14.9522 Y27.1526 I-0.0122 J-8.7112
G2 X14.9482 Y27.1485 I-2.1242 J2.1184
G3 X13.0493 Y24.3112 I6.1891 J-6.1961
G3 X12.3865 Y20.9665 I8.0504 J-3.3332
G2 Y20.9586 I-3.0 J-0.0039
G1 F40.0 Z-10.0
G3 F100.0 X14.9466 Y14.7783 I8.7119 J-0.0115
G2 X14.9506 Y14.7744 I-2.1184 J-2.1242
G3 X17.7884 Y12.8754 I6.1975 J6.1914
G3 X21.1324 Y12.2127 I3.3314 J8.0425
G2 X21.1367 I0.0043 J-3.0
G1 X46.1367
G1 Y29.7124
G1 X21.1367
G2 X21.1325 I0.0 J3.0
G3 X14.9522 Y27.1526 I-0.0122 J-8.7112
G2 X14.9482 Y27.1485 I-2.1242 J2.1184
G3 X13.0493 Y24.3112 I6.1891 J-6.1961
G3 X12.3865 Y20.9665 I8.0504 J-3.3332
G2 Y20.9586 I-3.0 J-0.0039
G1 F40.0 Z-11.0
G3 F100.0 X14.9466 Y14.7783 I8.7119 J-0.0115
G2 X14.9506 Y14.7744 I-2.1184 J-2.1242
G3 X17.7884 Y12.8754 I6.1975 J6.1914
G3 X21.1324 Y12.2127 I3.3314 J8.0425
G2 X21.1367 I0.0043 J-3.0
G1 X46.1367
G1 Y29.7124
G1 X21.1367
G2 X21.1325 I0.0 J3.0
G3 X14.9522 Y27.1526 I-0.0122 J-8.7112
G2 X14.9482 Y27.1485 I-2.1242 J2.1184
G3 X13.0493 Y24.3112 I6.1891 J-6.1961
G3 X12.3865 Y20.9665 I8.0504 J-3.3332
G2 Y20.9586 I-3.0 J-0.0039
( Pocket1 )
S1000
G0 Z3.0
G0 X77.2366 Y38.2098
G1 F40.0 Z-1.0
G1 F100.0 X81.2509
G1 Y3.7153
G1 X77.2366
G1 Y38.2098
G1 F40.0 X74.8366
G1 F100.0 Y40.6098
G1 X83.6509
G1 Y1.3153
G1 X74.8366
G1 Y38.2098
G1 F40.0 X72.4366
G1 F100.0 Y43.0098
G1 X86.0509
G1 Y-1.0847
G1 X72.4366
G1 Y38.2098
G0 Z3.0
G0 X77.2366
G1 F40.0 Z-1.4
G1 F100.0 X81.2509
G1 Y3.7153
G1 X77.2366
G1 Y38.2098
G1 F40.0 X74.8366
G1 F100.0 Y40.6098
G1 X83.6509
G1 Y1.3153
G1 X74.8366
G1 Y38.2098
G1 F40.0 X72.4366
G1 F100.0 Y43.0098
G1 X86.0509
G1 Y-1.0847
G1 X72.4366
G1 Y38.2098
( Pocket2 )
S1000
G0 Z3.0
G0 X60.8368 Y40.6098
G1 F40.0 Z-1.0
G1 F100.0 X64.0366
G1 Y1.3153
G1 X60.8368
G1 Y40.6098
G1 F40.0 X58.4368
G1 F100.0 Y43.0098
G1 X66.4366
G1 Y-1.0847
G1 X58.4368
G1 Y40.6098
G1 F40.0 X60.8368
G1 Z-2.0
G1 F100.0 X64.0366
G1 Y1.3153
G1 X60.8368
G1 Y40.6098
G1 F40.0 X58.4368
G1 F100.0 Y43.0098
G1 X66.4366
G1 Y-1.0847
G1 X58.4368
G1 Y40.6098
G1 F40.0 X60.8368
G1 Z-3.0
G1 F100.0 X64.0366
G1 Y1.3153
G1 X60.8368
G1 Y40.6098
G1 F40.0 X58.4368
G1 F100.0 Y43.0098
G1 X66.4366
G1 Y-1.0847
G1 X58.4368
G1 Y40.6098
G1 F40.0 X60.8368
G1 Z-3.3
G1 F100.0 X64.0366
G1 Y1.3153
G1 X60.8368
G1 Y40.6098
G1 F40.0 X58.4368
G1 F100.0 Y43.0098
G1 X66.4366
G1 Y-1.0847
G1 X58.4368
G1 Y40.6098
( Profile2 )
S1000
G0 Z3.0
G0 X-3.0 Y37.8589
G1 F40.0 Z-1.0
G1 F100.0 Y37.859
G2 X4.2542 Y45.1127 I7.2535 J0.0002
G2 X4.2543 I-0.0006 J-7.2535
G1 X4.254
G1 X4.2542
G1 X21.1367
G1 X38.0194
G1 X85.2007
G2 X88.2007 Y42.1127 I0.0 J-3.0
G1 Y-0.1872
G2 X85.2007 Y-3.1872 I-3.0 J0.0
G1 X38.0194
G1 X21.1367
G1 X4.2559
G2 X-0.8756 Y-1.0624 I-0.008 J7.2394
G2 X-3.0 Y4.0684 I5.1173 J5.124
G1 Y37.859
G1 Y37.8589
G1 F40.0 Z-2.0
G1 F100.0 Y37.859
G2 X4.2542 Y45.1127 I7.2535 J0.0002
G2 X4.2543 I-0.0006 J-7.2535
G1 X4.254
G1 X4.2542
G1 X21.1367
G1 X38.0194
G1 X85.2007
G2 X88.2007 Y42.1127 I0.0 J-3.0
G1 Y-0.1872
G2 X85.2007 Y-3.1872 I-3.0 J0.0
G1 X38.0194
G1 X21.1367
G1 X4.2559
G2 X-0.8756 Y-1.0624 I-0.008 J7.2394
G2 X-3.0 Y4.0684 I5.1173 J5.124
G1 Y37.859
G1 Y37.8589
G1 F40.0 Z-3.0
G1 F100.0 Y37.859
G2 X4.2542 Y45.1127 I7.2535 J0.0002
G2 X4.2543 I-0.0006 J-7.2535
G1 X4.254
G1 X4.2542
G1 X21.1367
G1 X38.0194
G1 X85.2007
G2 X88.2007 Y42.1127 I0.0 J-3.0
G1 Y-0.1872
G2 X85.2007 Y-3.1872 I-3.0 J0.0
G1 X38.0194
G1 X21.1367
G1 X4.2559
G2 X-0.8756 Y-1.0624 I-0.008 J7.2394
G2 X-3.0 Y4.0684 I5.1173 J5.124
G1 Y37.859
G1 Y37.8589
G1 F40.0 Z-4.0
G1 F100.0 Y37.859
G2 X4.2542 Y45.1127 I7.2535 J0.0002
G2 X4.2543 I-0.0006 J-7.2535
G1 X4.254
G1 X4.2542
G1 X21.1367
G1 X38.0194
G1 X85.2007
G2 X88.2007 Y42.1127 I0.0 J-3.0
G1 Y-0.1872
G2 X85.2007 Y-3.1872 I-3.0 J0.0
G1 X38.0194
G1 X21.1367
G1 X4.2559
G2 X-0.8756 Y-1.0624 I-0.008 J7.2394
G2 X-3.0 Y4.0684 I5.1173 J5.124
G1 Y37.859
G1 Y37.8589
G1 F40.0 Z-5.0
G1 F100.0 Y37.859
G2 X4.2542 Y45.1127 I7.2535 J0.0002
G2 X4.2543 I-0.0006 J-7.2535
G1 X4.254
G1 X4.2542
G1 X21.1367
G1 X38.0194
G1 X85.2007
G2 X88.2007 Y42.1127 I0.0 J-3.0
G1 Y-0.1872
G2 X85.2007 Y-3.1872 I-3.0 J0.0
G1 X38.0194
G1 X21.1367
G1 X4.2559
G2 X-0.8756 Y-1.0624 I-0.008 J7.2394
G2 X-3.0 Y4.0684 I5.1173 J5.124
G1 Y37.859
G1 Y37.8589
G1 F40.0 Z-6.0
G1 F100.0 Y37.859
G2 X4.2542 Y45.1127 I7.2535 J0.0002
G2 X4.2543 I-0.0006 J-7.2535
G1 X4.254
G1 X4.2542
G1 X21.1367
G1 X38.0194
G1 X85.2007
G2 X88.2007 Y42.1127 I0.0 J-3.0
G1 Y-0.1872
G2 X85.2007 Y-3.1872 I-3.0 J0.0
G1 X38.0194
G1 X21.1367
G1 X4.2559
G2 X-0.8756 Y-1.0624 I-0.008 J7.2394
G2 X-3.0 Y4.0684 I5.1173 J5.124
G1 Y37.859
G1 Y37.8589
G1 F40.0 Z-7.0
G1 F100.0 Y37.859
G2 X4.2542 Y45.1127 I7.2535 J0.0002
G2 X4.2543 I-0.0006 J-7.2535
G1 X4.254
G1 X4.2542
G1 X21.1367
G1 X38.0194
G1 X85.2007
G2 X88.2007 Y42.1127 I0.0 J-3.0
G1 Y-0.1872
G2 X85.2007 Y-3.1872 I-3.0 J0.0
G1 X38.0194
G1 X21.1367
G1 X4.2559
G2 X-0.8756 Y-1.0624 I-0.008 J7.2394
G2 X-3.0 Y4.0684 I5.1173 J5.124
G1 Y37.859
G1 Y37.8589
G1 F40.0 Z-8.0
G1 F100.0 Y37.859
G2 X4.2542 Y45.1127 I7.2535 J0.0002
G2 X4.2543 I-0.0006 J-7.2535
G1 X4.254
G1 X4.2542
G1 X21.1367
G1 X38.0194
G1 X85.2007
G2 X88.2007 Y42.1127 I0.0 J-3.0
G1 Y-0.1872
G2 X85.2007 Y-3.1872 I-3.0 J0.0
G1 X38.0194
G1 X21.1367
G1 X4.2559
G2 X-0.8756 Y-1.0624 I-0.008 J7.2394
G2 X-3.0 Y4.0684 I5.1173 J5.124
G1 Y37.859
G1 Y37.8589
G1 F40.0 Z-9.0
G1 F100.0 Y37.859
G2 X4.2542 Y45.1127 I7.2535 J0.0002
G2 X4.2543 I-0.0006 J-7.2535
G1 X4.254
G1 X4.2542
G1 X21.1367
G1 X38.0194
G1 X85.2007
G2 X88.2007 Y42.1127 I0.0 J-3.0
G1 Y-0.1872
G2 X85.2007 Y-3.1872 I-3.0 J0.0
G1 X38.0194
G1 X21.1367
G1 X4.2559
G2 X-0.8756 Y-1.0624 I-0.008 J7.2394
G2 X-3.0 Y4.0684 I5.1173 J5.124
G1 Y37.859
G1 Y37.8589
G1 F40.0 Z-10.0
G1 F100.0 Y37.859
G2 X4.2542 Y45.1127 I7.2535 J0.0002
G2 X4.2543 I-0.0006 J-7.2535
G1 X4.254
G1 X4.2542
G1 X21.1367
G1 X38.0194
G1 X85.2007
G2 X88.2007 Y42.1127 I0.0 J-3.0
G1 Y-0.1872
G2 X85.2007 Y-3.1872 I-3.0 J0.0
G1 X38.0194
G1 X21.1367
G1 X4.2559
G2 X-0.8756 Y-1.0624 I-0.008 J7.2394
G2 X-3.0 Y4.0684 I5.1173 J5.124
G1 Y37.859
G1 Y37.8589
G1 F40.0 Z-10.5
G1 F100.0 Y37.859
G2 X4.2542 Y45.1127 I7.2535 J0.0002
G2 X4.2543 I-0.0006 J-7.2535
G1 X4.254
G1 X4.2542
G1 X21.1367
G1 X38.0194
G1 X85.2007
G2 X88.2007 Y42.1127 I0.0 J-3.0
G1 Y-0.1872
G2 X85.2007 Y-3.1872 I-3.0 J0.0
G1 X38.0194
G1 X21.1367
G1 X4.2559
G2 X-0.8756 Y-1.0624 I-0.008 J7.2394
G2 X-3.0 Y4.0684 I5.1173 J5.124
G1 Y37.859
G1 Y37.8589
G0 Z3.0
M5
M30
