( Made using CamBam - http://www.cambam.co.uk )
( picker slide - base plate 9/4/2013 2:33:49 PM )
( T4 : 4.0 )
G21 G90 G64 G40
G0 Z3.0
( T4 : 4.0 )
T4 M6
( 4mm Pocket1 )
G17
M3 S1000
G0 X9.7644 Y23.0627
G0 Z1.0
G1 F50.0 Z-1.0
G1 F80.0 Y26.6665
G1 X9.7324
G1 Y23.0627
G1 X9.7644
G1 F50.0 X11.3644
G1 F80.0 Y28.2665
G1 X8.1324
G1 Y21.4627
G1 X11.3644
G1 Y23.0627
G1 F50.0 X9.7644
G1 Z-2.0
G1 F80.0 Y26.6665
G1 X9.7324
G1 Y23.0627
G1 X9.7644
G1 F50.0 X11.3644
G1 F80.0 Y28.2665
G1 X8.1324
G1 Y21.4627
G1 X11.3644
G1 Y23.0627
G1 F50.0 X9.7644
G1 Z-3.0
G1 F80.0 Y26.6665
G1 X9.7324
G1 Y23.0627
G1 X9.7644
G1 F50.0 X11.3644
G1 F80.0 Y28.2665
G1 X8.1324
G1 Y21.4627
G1 X11.3644
G1 Y23.0627
G1 F50.0 X9.7644
G1 Z-4.0
G1 F80.0 Y26.6665
G1 X9.7324
G1 Y23.0627
G1 X9.7644
G1 F50.0 X11.3644
G1 F80.0 Y28.2665
G1 X8.1324
G1 Y21.4627
G1 X11.3644
G1 Y23.0627
G1 F50.0 X9.7644
G1 Z-5.0
G1 F80.0 Y26.6665
G1 X9.7324
G1 Y23.0627
G1 X9.7644
G1 F50.0 X11.3644
G1 F80.0 Y28.2665
G1 X8.1324
G1 Y21.4627
G1 X11.3644
G1 Y23.0627
G1 F50.0 X9.7644
G1 Z-6.0
G1 F80.0 Y26.6665
G1 X9.7324
G1 Y23.0627
G1 X9.7644
G1 F50.0 X11.3644
G1 F80.0 Y28.2665
G1 X8.1324
G1 Y21.4627
G1 X11.3644
G1 Y23.0627
G1 F50.0 X9.7644
G1 Z-6.5
G1 F80.0 Y26.6665
G1 X9.7324
G1 Y23.0627
G1 X9.7644
G1 F50.0 X11.3644
G1 F80.0 Y28.2665
G1 X8.1324
G1 Y21.4627
G1 X11.3644
G1 Y23.0627
G0 Z3.0
G0 X37.9571
G0 Z1.0
G1 F50.0 Z-1.0
G1 F80.0 X37.9894
G1 Y26.6665
G1 X37.9571
G1 Y23.0627
G1 F50.0 X36.3571
G1 F80.0 Y21.4627
G1 X39.5894
G1 Y28.2665
G1 X36.3571
G1 Y23.0627
G1 F50.0 X37.9571
G1 Z-2.0
G1 F80.0 X37.9894
G1 Y26.6665
G1 X37.9571
G1 Y23.0627
G1 F50.0 X36.3571
G1 F80.0 Y21.4627
G1 X39.5894
G1 Y28.2665
G1 X36.3571
G1 Y23.0627
G1 F50.0 X37.9571
G1 Z-3.0
G1 F80.0 X37.9894
G1 Y26.6665
G1 X37.9571
G1 Y23.0627
G1 F50.0 X36.3571
G1 F80.0 Y21.4627
G1 X39.5894
G1 Y28.2665
G1 X36.3571
G1 Y23.0627
G1 F50.0 X37.9571
G1 Z-4.0
G1 F80.0 X37.9894
G1 Y26.6665
G1 X37.9571
G1 Y23.0627
G1 F50.0 X36.3571
G1 F80.0 Y21.4627
G1 X39.5894
G1 Y28.2665
G1 X36.3571
G1 Y23.0627
G1 F50.0 X37.9571
G1 Z-5.0
G1 F80.0 X37.9894
G1 Y26.6665
G1 X37.9571
G1 Y23.0627
G1 F50.0 X36.3571
G1 F80.0 Y21.4627
G1 X39.5894
G1 Y28.2665
G1 X36.3571
G1 Y23.0627
G1 F50.0 X37.9571
G1 Z-6.0
G1 F80.0 X37.9894
G1 Y26.6665
G1 X37.9571
G1 Y23.0627
G1 F50.0 X36.3571
G1 F80.0 Y21.4627
G1 X39.5894
G1 Y28.2665
G1 X36.3571
G1 Y23.0627
G1 F50.0 X37.9571
G1 Z-6.5
G1 F80.0 X37.9894
G1 Y26.6665
G1 X37.9571
G1 Y23.0627
G1 F50.0 X36.3571
G1 F80.0 Y21.4627
G1 X39.5894
G1 Y28.2665
G1 X36.3571
G1 Y23.0627
G0 Z3.0
M5
M30
