( Made using CamBam - http://www.cambam.co.uk )
( picker slide - base plate 9/4/2013 11:51:18 AM )
( T4 : 4.0 )
G21 G90 G64 G40
G0 Z3.0
( T4 : 4.0 )
T4 M6
( 4mm Pocket2 )
G17
M3 S1000
G0 X10.2 Y10.0077
G0 Z1.0
G1 F50.0 Z-1.0
G3 F80.0 X10.1472 Y10.1352 I-0.1797 J0.0002
G2 X10.1354 Y10.147 I4.8025 J4.8142
G3 X10.0086 Y10.1995 I-0.1265 J-0.1262
G2 X9.9903 I-0.0086 J6.8
G3 X9.8653 Y10.1477 I-0.0003 J-0.1761
G2 X9.8514 Y10.1339 I-4.815 J4.8017
G3 X9.8 Y10.0096 I0.1236 J-0.124
G2 Y9.9918 I-6.8 J-0.0099
G3 X9.8528 Y9.8642 I0.1799 J-0.0002
G2 X9.8642 Y9.8528 I-4.8025 J-4.8141
G3 X9.9918 Y9.8 I0.1274 J0.1271
G2 X10.0093 I0.0083 J-6.8
G3 X10.1349 Y9.852 I0.0002 J0.177
G2 X10.1485 Y9.8656 I4.8148 J-4.8018
G3 X10.2 Y9.99 I-0.1238 J0.1242
G2 Y10.0077 I6.8 J0.0098
G1 F50.0 X11.8 Y10.0058
G3 F80.0 X11.2772 Y11.2679 I-1.7797 J0.0021
G2 X11.2682 Y11.2769 I3.6725 J3.6814
G3 X10.0066 Y11.7995 I-1.2593 J-1.2562
G2 X9.9926 I-0.0065 J5.2
G3 X8.7324 Y11.2775 I-0.0026 J-1.7761
G2 X8.7218 Y11.2669 I-3.6821 J3.6719
G3 X8.2 Y10.0073 I1.2533 J-1.257
G2 Y9.9937 I-5.2 J-0.0076
G3 X8.7228 Y8.7315 I1.7799 J-0.0021
G2 X8.7315 Y8.7228 I-3.6725 J-3.6814
G3 X9.9938 Y8.2 I1.2601 J1.2572
G2 X10.0072 I0.0063 J-5.2
G3 X11.2678 Y8.7221 I0.0024 J1.777
G2 X11.2782 Y8.7325 I3.6819 J-3.672
G3 X11.8 Y9.9923 I-1.2535 J1.2572
G2 Y10.0058 I5.2 J0.0075
G1 F50.0 X13.4 Y10.004
G3 F80.0 X12.4072 Y12.4006 I-3.3797 J0.004
G2 X12.4009 Y12.4069 I2.5425 J2.5487
G3 X10.0046 Y13.3995 I-2.3921 J-2.3861
G2 X9.9949 I-0.0045 J3.6
G3 X7.5994 Y12.4073 I-0.0049 J-3.3761
G2 X7.5921 Y12.4 I-2.5491 J2.5421
G3 X6.6 Y10.005 I2.383 J-2.3901
G2 Y9.9955 I-3.6 J-0.0052
G3 X7.5928 Y7.5987 I3.3799 J-0.0039
G2 X7.5988 Y7.5927 I-2.5425 J-2.5486
G3 X9.9957 Y6.6 I2.3928 J2.3872
G2 X10.005 I0.0044 J-3.6
G3 X12.4007 Y7.5923 I0.0046 J3.377
G2 X12.4079 Y7.5995 I2.549 J-2.5421
G3 X13.4 Y9.9946 I-2.3832 J2.3902
G2 Y10.004 I3.6 J0.0052
G1 F50.0 X15.0 Y10.0021
G3 F80.0 X13.5372 Y13.5334 I-4.9797 J0.0058
G2 X13.5337 Y13.5369 I1.4125 J1.4159
G3 X10.0026 Y14.9995 I-3.5249 J-3.5161
G2 X9.9972 I-0.0025 J2.0
G3 X6.4665 Y13.5371 I-0.0072 J-4.9761
G2 X6.4624 Y13.5331 I-1.4162 J1.4123
G3 X5.0 Y10.0027 I3.5126 J-3.5231
G2 Y9.9974 I-2.0 J-0.0029
G3 X6.4628 Y6.466 I4.9799 J-0.0058
G2 X6.4662 Y6.4627 I-1.4125 J-1.4159
G3 X9.9976 Y5.0 I3.5254 J3.5173
G2 X10.0028 I0.0024 J-2.0
G3 X13.5336 Y6.4625 I0.0068 J4.9769
G2 X13.5376 Y6.4664 I1.4161 J-1.4123
G3 X15.0 Y9.9969 I-3.5129 J3.5233
G2 Y10.0021 I2.0 J0.0029
G0 Z3.0
G0 X10.2 Y10.0077
G0 Z0.0
G1 F50.0 Z-2.0
G3 F80.0 X10.1472 Y10.1352 I-0.1797 J0.0002
G2 X10.1354 Y10.147 I4.8025 J4.8142
G3 X10.0086 Y10.1995 I-0.1265 J-0.1262
G2 X9.9903 I-0.0086 J6.8
G3 X9.8653 Y10.1477 I-0.0003 J-0.1761
G2 X9.8514 Y10.1339 I-4.815 J4.8017
G3 X9.8 Y10.0096 I0.1236 J-0.124
G2 Y9.9918 I-6.8 J-0.0099
G3 X9.8528 Y9.8642 I0.1799 J-0.0002
G2 X9.8642 Y9.8528 I-4.8025 J-4.8141
G3 X9.9918 Y9.8 I0.1274 J0.1271
G2 X10.0093 I0.0083 J-6.8
G3 X10.1349 Y9.852 I0.0002 J0.177
G2 X10.1485 Y9.8656 I4.8148 J-4.8018
G3 X10.2 Y9.99 I-0.1238 J0.1242
G2 Y10.0077 I6.8 J0.0098
G1 F50.0 X11.8 Y10.0058
G3 F80.0 X11.2772 Y11.2679 I-1.7797 J0.0021
G2 X11.2682 Y11.2769 I3.6725 J3.6814
G3 X10.0066 Y11.7995 I-1.2593 J-1.2562
G2 X9.9926 I-0.0065 J5.2
G3 X8.7324 Y11.2775 I-0.0026 J-1.7761
G2 X8.7218 Y11.2669 I-3.6821 J3.6719
G3 X8.2 Y10.0073 I1.2533 J-1.257
G2 Y9.9937 I-5.2 J-0.0076
G3 X8.7228 Y8.7315 I1.7799 J-0.0021
G2 X8.7315 Y8.7228 I-3.6725 J-3.6814
G3 X9.9938 Y8.2 I1.2601 J1.2572
G2 X10.0072 I0.0063 J-5.2
G3 X11.2678 Y8.7221 I0.0024 J1.777
G2 X11.2782 Y8.7325 I3.6819 J-3.672
G3 X11.8 Y9.9923 I-1.2535 J1.2572
G2 Y10.0058 I5.2 J0.0075
G1 F50.0 X13.4 Y10.004
G3 F80.0 X12.4072 Y12.4006 I-3.3797 J0.004
G2 X12.4009 Y12.4069 I2.5425 J2.5487
G3 X10.0046 Y13.3995 I-2.3921 J-2.3861
G2 X9.9949 I-0.0045 J3.6
G3 X7.5994 Y12.4073 I-0.0049 J-3.3761
G2 X7.5921 Y12.4 I-2.5491 J2.5421
G3 X6.6 Y10.005 I2.383 J-2.3901
G2 Y9.9955 I-3.6 J-0.0052
G3 X7.5928 Y7.5987 I3.3799 J-0.0039
G2 X7.5988 Y7.5927 I-2.5425 J-2.5486
G3 X9.9957 Y6.6 I2.3928 J2.3872
G2 X10.005 I0.0044 J-3.6
G3 X12.4007 Y7.5923 I0.0046 J3.377
G2 X12.4079 Y7.5995 I2.549 J-2.5421
G3 X13.4 Y9.9946 I-2.3832 J2.3902
G2 Y10.004 I3.6 J0.0052
G1 F50.0 X15.0 Y10.0021
G3 F80.0 X13.5372 Y13.5334 I-4.9797 J0.0058
G2 X13.5337 Y13.5369 I1.4125 J1.4159
G3 X10.0026 Y14.9995 I-3.5249 J-3.5161
G2 X9.9972 I-0.0025 J2.0
G3 X6.4665 Y13.5371 I-0.0072 J-4.9761
G2 X6.4624 Y13.5331 I-1.4162 J1.4123
G3 X5.0 Y10.0027 I3.5126 J-3.5231
G2 Y9.9974 I-2.0 J-0.0029
G3 X6.4628 Y6.466 I4.9799 J-0.0058
G2 X6.4662 Y6.4627 I-1.4125 J-1.4159
G3 X9.9976 Y5.0 I3.5254 J3.5173
G2 X10.0028 I0.0024 J-2.0
G3 X13.5336 Y6.4625 I0.0068 J4.9769
G2 X13.5376 Y6.4664 I1.4161 J-1.4123
G3 X15.0 Y9.9969 I-3.5129 J3.5233
G2 Y10.0021 I2.0 J0.0029
G0 Z3.0
G0 X10.2 Y10.0077
G0 Z-1.0
G1 F50.0 Z-3.0
G3 F80.0 X10.1472 Y10.1352 I-0.1797 J0.0002
G2 X10.1354 Y10.147 I4.8025 J4.8142
G3 X10.0086 Y10.1995 I-0.1265 J-0.1262
G2 X9.9903 I-0.0086 J6.8
G3 X9.8653 Y10.1477 I-0.0003 J-0.1761
G2 X9.8514 Y10.1339 I-4.815 J4.8017
G3 X9.8 Y10.0096 I0.1236 J-0.124
G2 Y9.9918 I-6.8 J-0.0099
G3 X9.8528 Y9.8642 I0.1799 J-0.0002
G2 X9.8642 Y9.8528 I-4.8025 J-4.8141
G3 X9.9918 Y9.8 I0.1274 J0.1271
G2 X10.0093 I0.0083 J-6.8
G3 X10.1349 Y9.852 I0.0002 J0.177
G2 X10.1485 Y9.8656 I4.8148 J-4.8018
G3 X10.2 Y9.99 I-0.1238 J0.1242
G2 Y10.0077 I6.8 J0.0098
G1 F50.0 X11.8 Y10.0058
G3 F80.0 X11.2772 Y11.2679 I-1.7797 J0.0021
G2 X11.2682 Y11.2769 I3.6725 J3.6814
G3 X10.0066 Y11.7995 I-1.2593 J-1.2562
G2 X9.9926 I-0.0065 J5.2
G3 X8.7324 Y11.2775 I-0.0026 J-1.7761
G2 X8.7218 Y11.2669 I-3.6821 J3.6719
G3 X8.2 Y10.0073 I1.2533 J-1.257
G2 Y9.9937 I-5.2 J-0.0076
G3 X8.7228 Y8.7315 I1.7799 J-0.0021
G2 X8.7315 Y8.7228 I-3.6725 J-3.6814
G3 X9.9938 Y8.2 I1.2601 J1.2572
G2 X10.0072 I0.0063 J-5.2
G3 X11.2678 Y8.7221 I0.0024 J1.777
G2 X11.2782 Y8.7325 I3.6819 J-3.672
G3 X11.8 Y9.9923 I-1.2535 J1.2572
G2 Y10.0058 I5.2 J0.0075
G1 F50.0 X13.4 Y10.004
G3 F80.0 X12.4072 Y12.4006 I-3.3797 J0.004
G2 X12.4009 Y12.4069 I2.5425 J2.5487
G3 X10.0046 Y13.3995 I-2.3921 J-2.3861
G2 X9.9949 I-0.0045 J3.6
G3 X7.5994 Y12.4073 I-0.0049 J-3.3761
G2 X7.5921 Y12.4 I-2.5491 J2.5421
G3 X6.6 Y10.005 I2.383 J-2.3901
G2 Y9.9955 I-3.6 J-0.0052
G3 X7.5928 Y7.5987 I3.3799 J-0.0039
G2 X7.5988 Y7.5927 I-2.5425 J-2.5486
G3 X9.9957 Y6.6 I2.3928 J2.3872
G2 X10.005 I0.0044 J-3.6
G3 X12.4007 Y7.5923 I0.0046 J3.377
G2 X12.4079 Y7.5995 I2.549 J-2.5421
G3 X13.4 Y9.9946 I-2.3832 J2.3902
G2 Y10.004 I3.6 J0.0052
G1 F50.0 X15.0 Y10.0021
G3 F80.0 X13.5372 Y13.5334 I-4.9797 J0.0058
G2 X13.5337 Y13.5369 I1.4125 J1.4159
G3 X10.0026 Y14.9995 I-3.5249 J-3.5161
G2 X9.9972 I-0.0025 J2.0
G3 X6.4665 Y13.5371 I-0.0072 J-4.9761
G2 X6.4624 Y13.5331 I-1.4162 J1.4123
G3 X5.0 Y10.0027 I3.5126 J-3.5231
G2 Y9.9974 I-2.0 J-0.0029
G3 X6.4628 Y6.466 I4.9799 J-0.0058
G2 X6.4662 Y6.4627 I-1.4125 J-1.4159
G3 X9.9976 Y5.0 I3.5254 J3.5173
G2 X10.0028 I0.0024 J-2.0
G3 X13.5336 Y6.4625 I0.0068 J4.9769
G2 X13.5376 Y6.4664 I1.4161 J-1.4123
G3 X15.0 Y9.9969 I-3.5129 J3.5233
G2 Y10.0021 I2.0 J0.0029
G0 Z3.0
G0 X10.2 Y10.0077
G0 Z-2.0
G1 F50.0 Z-4.0
G3 F80.0 X10.1472 Y10.1352 I-0.1797 J0.0002
G2 X10.1354 Y10.147 I4.8025 J4.8142
G3 X10.0086 Y10.1995 I-0.1265 J-0.1262
G2 X9.9903 I-0.0086 J6.8
G3 X9.8653 Y10.1477 I-0.0003 J-0.1761
G2 X9.8514 Y10.1339 I-4.815 J4.8017
G3 X9.8 Y10.0096 I0.1236 J-0.124
G2 Y9.9918 I-6.8 J-0.0099
G3 X9.8528 Y9.8642 I0.1799 J-0.0002
G2 X9.8642 Y9.8528 I-4.8025 J-4.8141
G3 X9.9918 Y9.8 I0.1274 J0.1271
G2 X10.0093 I0.0083 J-6.8
G3 X10.1349 Y9.852 I0.0002 J0.177
G2 X10.1485 Y9.8656 I4.8148 J-4.8018
G3 X10.2 Y9.99 I-0.1238 J0.1242
G2 Y10.0077 I6.8 J0.0098
G1 F50.0 X11.8 Y10.0058
G3 F80.0 X11.2772 Y11.2679 I-1.7797 J0.0021
G2 X11.2682 Y11.2769 I3.6725 J3.6814
G3 X10.0066 Y11.7995 I-1.2593 J-1.2562
G2 X9.9926 I-0.0065 J5.2
G3 X8.7324 Y11.2775 I-0.0026 J-1.7761
G2 X8.7218 Y11.2669 I-3.6821 J3.6719
G3 X8.2 Y10.0073 I1.2533 J-1.257
G2 Y9.9937 I-5.2 J-0.0076
G3 X8.7228 Y8.7315 I1.7799 J-0.0021
G2 X8.7315 Y8.7228 I-3.6725 J-3.6814
G3 X9.9938 Y8.2 I1.2601 J1.2572
G2 X10.0072 I0.0063 J-5.2
G3 X11.2678 Y8.7221 I0.0024 J1.777
G2 X11.2782 Y8.7325 I3.6819 J-3.672
G3 X11.8 Y9.9923 I-1.2535 J1.2572
G2 Y10.0058 I5.2 J0.0075
G1 F50.0 X13.4 Y10.004
G3 F80.0 X12.4072 Y12.4006 I-3.3797 J0.004
G2 X12.4009 Y12.4069 I2.5425 J2.5487
G3 X10.0046 Y13.3995 I-2.3921 J-2.3861
G2 X9.9949 I-0.0045 J3.6
G3 X7.5994 Y12.4073 I-0.0049 J-3.3761
G2 X7.5921 Y12.4 I-2.5491 J2.5421
G3 X6.6 Y10.005 I2.383 J-2.3901
G2 Y9.9955 I-3.6 J-0.0052
G3 X7.5928 Y7.5987 I3.3799 J-0.0039
G2 X7.5988 Y7.5927 I-2.5425 J-2.5486
G3 X9.9957 Y6.6 I2.3928 J2.3872
G2 X10.005 I0.0044 J-3.6
G3 X12.4007 Y7.5923 I0.0046 J3.377
G2 X12.4079 Y7.5995 I2.549 J-2.5421
G3 X13.4 Y9.9946 I-2.3832 J2.3902
G2 Y10.004 I3.6 J0.0052
G1 F50.0 X15.0 Y10.0021
G3 F80.0 X13.5372 Y13.5334 I-4.9797 J0.0058
G2 X13.5337 Y13.5369 I1.4125 J1.4159
G3 X10.0026 Y14.9995 I-3.5249 J-3.5161
G2 X9.9972 I-0.0025 J2.0
G3 X6.4665 Y13.5371 I-0.0072 J-4.9761
G2 X6.4624 Y13.5331 I-1.4162 J1.4123
G3 X5.0 Y10.0027 I3.5126 J-3.5231
G2 Y9.9974 I-2.0 J-0.0029
G3 X6.4628 Y6.466 I4.9799 J-0.0058
G2 X6.4662 Y6.4627 I-1.4125 J-1.4159
G3 X9.9976 Y5.0 I3.5254 J3.5173
G2 X10.0028 I0.0024 J-2.0
G3 X13.5336 Y6.4625 I0.0068 J4.9769
G2 X13.5376 Y6.4664 I1.4161 J-1.4123
G3 X15.0 Y9.9969 I-3.5129 J3.5233
G2 Y10.0021 I2.0 J0.0029
G0 Z3.0
G0 X10.2 Y10.0077
G0 Z-3.0
G1 F50.0 Z-5.0
G3 F80.0 X10.1472 Y10.1352 I-0.1797 J0.0002
G2 X10.1354 Y10.147 I4.8025 J4.8142
G3 X10.0086 Y10.1995 I-0.1265 J-0.1262
G2 X9.9903 I-0.0086 J6.8
G3 X9.8653 Y10.1477 I-0.0003 J-0.1761
G2 X9.8514 Y10.1339 I-4.815 J4.8017
G3 X9.8 Y10.0096 I0.1236 J-0.124
G2 Y9.9918 I-6.8 J-0.0099
G3 X9.8528 Y9.8642 I0.1799 J-0.0002
G2 X9.8642 Y9.8528 I-4.8025 J-4.8141
G3 X9.9918 Y9.8 I0.1274 J0.1271
G2 X10.0093 I0.0083 J-6.8
G3 X10.1349 Y9.852 I0.0002 J0.177
G2 X10.1485 Y9.8656 I4.8148 J-4.8018
G3 X10.2 Y9.99 I-0.1238 J0.1242
G2 Y10.0077 I6.8 J0.0098
G1 F50.0 X11.8 Y10.0058
G3 F80.0 X11.2772 Y11.2679 I-1.7797 J0.0021
G2 X11.2682 Y11.2769 I3.6725 J3.6814
G3 X10.0066 Y11.7995 I-1.2593 J-1.2562
G2 X9.9926 I-0.0065 J5.2
G3 X8.7324 Y11.2775 I-0.0026 J-1.7761
G2 X8.7218 Y11.2669 I-3.6821 J3.6719
G3 X8.2 Y10.0073 I1.2533 J-1.257
G2 Y9.9937 I-5.2 J-0.0076
G3 X8.7228 Y8.7315 I1.7799 J-0.0021
G2 X8.7315 Y8.7228 I-3.6725 J-3.6814
G3 X9.9938 Y8.2 I1.2601 J1.2572
G2 X10.0072 I0.0063 J-5.2
G3 X11.2678 Y8.7221 I0.0024 J1.777
G2 X11.2782 Y8.7325 I3.6819 J-3.672
G3 X11.8 Y9.9923 I-1.2535 J1.2572
G2 Y10.0058 I5.2 J0.0075
G1 F50.0 X13.4 Y10.004
G3 F80.0 X12.4072 Y12.4006 I-3.3797 J0.004
G2 X12.4009 Y12.4069 I2.5425 J2.5487
G3 X10.0046 Y13.3995 I-2.3921 J-2.3861
G2 X9.9949 I-0.0045 J3.6
G3 X7.5994 Y12.4073 I-0.0049 J-3.3761
G2 X7.5921 Y12.4 I-2.5491 J2.5421
G3 X6.6 Y10.005 I2.383 J-2.3901
G2 Y9.9955 I-3.6 J-0.0052
G3 X7.5928 Y7.5987 I3.3799 J-0.0039
G2 X7.5988 Y7.5927 I-2.5425 J-2.5486
G3 X9.9957 Y6.6 I2.3928 J2.3872
G2 X10.005 I0.0044 J-3.6
G3 X12.4007 Y7.5923 I0.0046 J3.377
G2 X12.4079 Y7.5995 I2.549 J-2.5421
G3 X13.4 Y9.9946 I-2.3832 J2.3902
G2 Y10.004 I3.6 J0.0052
G1 F50.0 X15.0 Y10.0021
G3 F80.0 X13.5372 Y13.5334 I-4.9797 J0.0058
G2 X13.5337 Y13.5369 I1.4125 J1.4159
G3 X10.0026 Y14.9995 I-3.5249 J-3.5161
G2 X9.9972 I-0.0025 J2.0
G3 X6.4665 Y13.5371 I-0.0072 J-4.9761
G2 X6.4624 Y13.5331 I-1.4162 J1.4123
G3 X5.0 Y10.0027 I3.5126 J-3.5231
G2 Y9.9974 I-2.0 J-0.0029
G3 X6.4628 Y6.466 I4.9799 J-0.0058
G2 X6.4662 Y6.4627 I-1.4125 J-1.4159
G3 X9.9976 Y5.0 I3.5254 J3.5173
G2 X10.0028 I0.0024 J-2.0
G3 X13.5336 Y6.4625 I0.0068 J4.9769
G2 X13.5376 Y6.4664 I1.4161 J-1.4123
G3 X15.0 Y9.9969 I-3.5129 J3.5233
G2 Y10.0021 I2.0 J0.0029
G0 Z3.0
G0 X10.2 Y10.0077
G0 Z-4.0
G1 F50.0 Z-6.0
G3 F80.0 X10.1472 Y10.1352 I-0.1797 J0.0002
G2 X10.1354 Y10.147 I4.8025 J4.8142
G3 X10.0086 Y10.1995 I-0.1265 J-0.1262
G2 X9.9903 I-0.0086 J6.8
G3 X9.8653 Y10.1477 I-0.0003 J-0.1761
G2 X9.8514 Y10.1339 I-4.815 J4.8017
G3 X9.8 Y10.0096 I0.1236 J-0.124
G2 Y9.9918 I-6.8 J-0.0099
G3 X9.8528 Y9.8642 I0.1799 J-0.0002
G2 X9.8642 Y9.8528 I-4.8025 J-4.8141
G3 X9.9918 Y9.8 I0.1274 J0.1271
G2 X10.0093 I0.0083 J-6.8
G3 X10.1349 Y9.852 I0.0002 J0.177
G2 X10.1485 Y9.8656 I4.8148 J-4.8018
G3 X10.2 Y9.99 I-0.1238 J0.1242
G2 Y10.0077 I6.8 J0.0098
G1 F50.0 X11.8 Y10.0058
G3 F80.0 X11.2772 Y11.2679 I-1.7797 J0.0021
G2 X11.2682 Y11.2769 I3.6725 J3.6814
G3 X10.0066 Y11.7995 I-1.2593 J-1.2562
G2 X9.9926 I-0.0065 J5.2
G3 X8.7324 Y11.2775 I-0.0026 J-1.7761
G2 X8.7218 Y11.2669 I-3.6821 J3.6719
G3 X8.2 Y10.0073 I1.2533 J-1.257
G2 Y9.9937 I-5.2 J-0.0076
G3 X8.7228 Y8.7315 I1.7799 J-0.0021
G2 X8.7315 Y8.7228 I-3.6725 J-3.6814
G3 X9.9938 Y8.2 I1.2601 J1.2572
G2 X10.0072 I0.0063 J-5.2
G3 X11.2678 Y8.7221 I0.0024 J1.777
G2 X11.2782 Y8.7325 I3.6819 J-3.672
G3 X11.8 Y9.9923 I-1.2535 J1.2572
G2 Y10.0058 I5.2 J0.0075
G1 F50.0 X13.4 Y10.004
G3 F80.0 X12.4072 Y12.4006 I-3.3797 J0.004
G2 X12.4009 Y12.4069 I2.5425 J2.5487
G3 X10.0046 Y13.3995 I-2.3921 J-2.3861
G2 X9.9949 I-0.0045 J3.6
G3 X7.5994 Y12.4073 I-0.0049 J-3.3761
G2 X7.5921 Y12.4 I-2.5491 J2.5421
G3 X6.6 Y10.005 I2.383 J-2.3901
G2 Y9.9955 I-3.6 J-0.0052
G3 X7.5928 Y7.5987 I3.3799 J-0.0039
G2 X7.5988 Y7.5927 I-2.5425 J-2.5486
G3 X9.9957 Y6.6 I2.3928 J2.3872
G2 X10.005 I0.0044 J-3.6
G3 X12.4007 Y7.5923 I0.0046 J3.377
G2 X12.4079 Y7.5995 I2.549 J-2.5421
G3 X13.4 Y9.9946 I-2.3832 J2.3902
G2 Y10.004 I3.6 J0.0052
G1 F50.0 X15.0 Y10.0021
G3 F80.0 X13.5372 Y13.5334 I-4.9797 J0.0058
G2 X13.5337 Y13.5369 I1.4125 J1.4159
G3 X10.0026 Y14.9995 I-3.5249 J-3.5161
G2 X9.9972 I-0.0025 J2.0
G3 X6.4665 Y13.5371 I-0.0072 J-4.9761
G2 X6.4624 Y13.5331 I-1.4162 J1.4123
G3 X5.0 Y10.0027 I3.5126 J-3.5231
G2 Y9.9974 I-2.0 J-0.0029
G3 X6.4628 Y6.466 I4.9799 J-0.0058
G2 X6.4662 Y6.4627 I-1.4125 J-1.4159
G3 X9.9976 Y5.0 I3.5254 J3.5173
G2 X10.0028 I0.0024 J-2.0
G3 X13.5336 Y6.4625 I0.0068 J4.9769
G2 X13.5376 Y6.4664 I1.4161 J-1.4123
G3 X15.0 Y9.9969 I-3.5129 J3.5233
G2 Y10.0021 I2.0 J0.0029
G0 Z3.0
G0 X10.2 Y10.0077
G0 Z-5.0
G1 F50.0 Z-6.5
G3 F80.0 X10.1472 Y10.1352 I-0.1797 J0.0002
G2 X10.1354 Y10.147 I4.8025 J4.8142
G3 X10.0086 Y10.1995 I-0.1265 J-0.1262
G2 X9.9903 I-0.0086 J6.8
G3 X9.8653 Y10.1477 I-0.0003 J-0.1761
G2 X9.8514 Y10.1339 I-4.815 J4.8017
G3 X9.8 Y10.0096 I0.1236 J-0.124
G2 Y9.9918 I-6.8 J-0.0099
G3 X9.8528 Y9.8642 I0.1799 J-0.0002
G2 X9.8642 Y9.8528 I-4.8025 J-4.8141
G3 X9.9918 Y9.8 I0.1274 J0.1271
G2 X10.0093 I0.0083 J-6.8
G3 X10.1349 Y9.852 I0.0002 J0.177
G2 X10.1485 Y9.8656 I4.8148 J-4.8018
G3 X10.2 Y9.99 I-0.1238 J0.1242
G2 Y10.0077 I6.8 J0.0098
G1 F50.0 X11.8 Y10.0058
G3 F80.0 X11.2772 Y11.2679 I-1.7797 J0.0021
G2 X11.2682 Y11.2769 I3.6725 J3.6814
G3 X10.0066 Y11.7995 I-1.2593 J-1.2562
G2 X9.9926 I-0.0065 J5.2
G3 X8.7324 Y11.2775 I-0.0026 J-1.7761
G2 X8.7218 Y11.2669 I-3.6821 J3.6719
G3 X8.2 Y10.0073 I1.2533 J-1.257
G2 Y9.9937 I-5.2 J-0.0076
G3 X8.7228 Y8.7315 I1.7799 J-0.0021
G2 X8.7315 Y8.7228 I-3.6725 J-3.6814
G3 X9.9938 Y8.2 I1.2601 J1.2572
G2 X10.0072 I0.0063 J-5.2
G3 X11.2678 Y8.7221 I0.0024 J1.777
G2 X11.2782 Y8.7325 I3.6819 J-3.672
G3 X11.8 Y9.9923 I-1.2535 J1.2572
G2 Y10.0058 I5.2 J0.0075
G1 F50.0 X13.4 Y10.004
G3 F80.0 X12.4072 Y12.4006 I-3.3797 J0.004
G2 X12.4009 Y12.4069 I2.5425 J2.5487
G3 X10.0046 Y13.3995 I-2.3921 J-2.3861
G2 X9.9949 I-0.0045 J3.6
G3 X7.5994 Y12.4073 I-0.0049 J-3.3761
G2 X7.5921 Y12.4 I-2.5491 J2.5421
G3 X6.6 Y10.005 I2.383 J-2.3901
G2 Y9.9955 I-3.6 J-0.0052
G3 X7.5928 Y7.5987 I3.3799 J-0.0039
G2 X7.5988 Y7.5927 I-2.5425 J-2.5486
G3 X9.9957 Y6.6 I2.3928 J2.3872
G2 X10.005 I0.0044 J-3.6
G3 X12.4007 Y7.5923 I0.0046 J3.377
G2 X12.4079 Y7.5995 I2.549 J-2.5421
G3 X13.4 Y9.9946 I-2.3832 J2.3902
G2 Y10.004 I3.6 J0.0052
G1 F50.0 X15.0 Y10.0021
G3 F80.0 X13.5372 Y13.5334 I-4.9797 J0.0058
G2 X13.5337 Y13.5369 I1.4125 J1.4159
G3 X10.0026 Y14.9995 I-3.5249 J-3.5161
G2 X9.9972 I-0.0025 J2.0
G3 X6.4665 Y13.5371 I-0.0072 J-4.9761
G2 X6.4624 Y13.5331 I-1.4162 J1.4123
G3 X5.0 Y10.0027 I3.5126 J-3.5231
G2 Y9.9974 I-2.0 J-0.0029
G3 X6.4628 Y6.466 I4.9799 J-0.0058
G2 X6.4662 Y6.4627 I-1.4125 J-1.4159
G3 X9.9976 Y5.0 I3.5254 J3.5173
G2 X10.0028 I0.0024 J-2.0
G3 X13.5336 Y6.4625 I0.0068 J4.9769
G2 X13.5376 Y6.4664 I1.4161 J-1.4123
G3 X15.0 Y9.9969 I-3.5129 J3.5233
G2 Y10.0021 I2.0 J0.0029
G0 Z3.0
G0 X38.0244 Y10.0093
G0 Z1.0
G1 F50.0 Z-1.0
G3 F80.0 Y10.0091 I0.1761 J0.0001
G2 Y9.9913 I-6.8 J-0.0094
G3 X38.0769 Y9.8647 I0.1786 J-0.0002
G2 X38.0889 Y9.8527 I-4.8019 J-4.8147
G3 X38.2162 Y9.8 I0.1271 J0.1268
G2 X38.2335 I0.0086 J-6.8
G3 X38.3604 Y9.8525 I0.0002 J0.1788
G2 X38.3734 Y9.8655 I4.8142 J-4.8024
G3 X38.425 Y9.9901 I-0.124 J0.1243
G2 Y10.0079 I6.8 J0.0096
G3 X38.3723 Y10.135 I-0.1793 J0.0002
G2 X38.3599 Y10.1474 I4.8023 J4.8143
G3 X38.2341 Y10.1995 I-0.1256 J-0.1252
G2 X38.2154 I-0.0093 J6.8
G3 X38.0895 Y10.1473 I-0.0002 J-0.1775
G2 X38.0762 Y10.1341 I-4.8145 J4.8022
G3 X38.0244 Y10.0093 I0.1243 J-0.1247
G1 F50.0 X36.4244 Y10.0088
G3 F80.0 Y10.0069 I1.7761 J0.0006
G2 Y9.9933 I-5.2 J-0.0072
G3 X36.947 Y8.7318 I1.7786 J-0.0022
G2 X36.9562 Y8.7227 I-3.6721 J-3.6818
G3 X38.2183 Y8.2 I1.2598 J1.2569
G2 X38.2315 I0.0066 J-5.2
G3 X39.4931 Y8.7225 I0.0023 J1.7788
G2 X39.5031 Y8.7325 I3.6815 J-3.6724
G3 X40.025 Y9.9924 I-1.2537 J1.2574
G2 Y10.0059 I5.2 J0.0074
G3 X39.5022 Y11.2678 I-1.7793 J0.0021
G2 X39.4928 Y11.2773 I3.6723 J3.6816
G3 X38.232 Y11.7995 I-1.2584 J-1.2551
G2 X38.2176 I-0.0071 J5.2
G3 X36.9566 Y11.2772 I-0.0025 J-1.7775
G2 X36.9465 Y11.2671 I-3.6817 J3.6722
G3 X36.4244 Y10.0088 I1.254 J-1.2577
G1 F50.0 X34.8244 Y10.0083
G3 F80.0 Y10.0047 I3.3761 J0.0011
G2 Y9.9953 I-3.6 J-0.005
G3 X35.8172 Y7.5989 I3.3786 J-0.0042
G2 X35.8235 Y7.5926 I-2.5422 J-2.549
G3 X38.2203 Y6.6 I2.3925 J2.387
G2 X38.2295 I0.0046 J-3.6
G3 X40.6259 Y7.5926 I0.0043 J3.3788
G2 X40.6328 Y7.5994 I2.5487 J-2.5425
G3 X41.625 Y9.9946 I-2.3834 J2.3904
G2 Y10.004 I3.6 J0.0051
G3 X40.6322 Y12.4006 I-3.3793 J0.004
G2 X40.6257 Y12.4071 I2.5424 J2.5488
G3 X38.2298 Y13.3995 I-2.3913 J-2.385
G2 X38.2199 I-0.0049 J3.6
G3 X35.8238 Y12.4072 I-0.0047 J-3.3775
G2 X35.8168 Y12.4001 I-2.5488 J2.5423
G3 X34.8244 Y10.0083 I2.3837 J-2.3908
G1 F50.0 X33.2244 Y10.0078
G3 F80.0 Y10.0025 I4.9761 J0.0016
G2 Y9.9973 I-2.0 J-0.0028
G3 X34.6873 Y6.4661 I4.9786 J-0.0061
G2 X34.6908 Y6.4626 I-1.4123 J-1.4161
G3 X38.2223 Y5.0 I3.5252 J3.517
G2 X38.2274 I0.0025 J-2.0
G3 X41.7586 Y6.4626 I0.0063 J4.9788
G2 X41.7625 Y6.4664 I1.4159 J-1.4125
G3 X43.225 Y9.9969 I-3.5131 J3.5235
G2 Y10.0021 I2.0 J0.0028
G3 X41.7622 Y13.5334 I-4.9793 J0.0059
G2 X41.7585 Y13.537 I1.4124 J1.416
G3 X38.2276 Y14.9995 I-3.5241 J-3.5149
G2 X38.2221 I-0.0027 J2.0
G3 X34.691 Y13.5371 I-0.0069 J-4.9775
G2 X34.6871 Y13.5332 I-1.416 J1.4124
G3 X33.2244 Y10.0078 I3.5134 J-3.5238
G0 Z3.0
G0 X38.0244 Y10.0093
G0 Z0.0
G1 F50.0 Z-2.0
G3 F80.0 Y10.0091 I0.1761 J0.0001
G2 Y9.9913 I-6.8 J-0.0094
G3 X38.0769 Y9.8647 I0.1786 J-0.0002
G2 X38.0889 Y9.8527 I-4.8019 J-4.8147
G3 X38.2162 Y9.8 I0.1271 J0.1268
G2 X38.2335 I0.0086 J-6.8
G3 X38.3604 Y9.8525 I0.0002 J0.1788
G2 X38.3734 Y9.8655 I4.8142 J-4.8024
G3 X38.425 Y9.9901 I-0.124 J0.1243
G2 Y10.0079 I6.8 J0.0096
G3 X38.3723 Y10.135 I-0.1793 J0.0002
G2 X38.3599 Y10.1474 I4.8023 J4.8143
G3 X38.2341 Y10.1995 I-0.1256 J-0.1252
G2 X38.2154 I-0.0093 J6.8
G3 X38.0895 Y10.1473 I-0.0002 J-0.1775
G2 X38.0762 Y10.1341 I-4.8145 J4.8022
G3 X38.0244 Y10.0093 I0.1243 J-0.1247
G1 F50.0 X36.4244 Y10.0088
G3 F80.0 Y10.0069 I1.7761 J0.0006
G2 Y9.9933 I-5.2 J-0.0072
G3 X36.947 Y8.7318 I1.7786 J-0.0022
G2 X36.9562 Y8.7227 I-3.6721 J-3.6818
G3 X38.2183 Y8.2 I1.2598 J1.2569
G2 X38.2315 I0.0066 J-5.2
G3 X39.4931 Y8.7225 I0.0023 J1.7788
G2 X39.5031 Y8.7325 I3.6815 J-3.6724
G3 X40.025 Y9.9924 I-1.2537 J1.2574
G2 Y10.0059 I5.2 J0.0074
G3 X39.5022 Y11.2678 I-1.7793 J0.0021
G2 X39.4928 Y11.2773 I3.6723 J3.6816
G3 X38.232 Y11.7995 I-1.2584 J-1.2551
G2 X38.2176 I-0.0071 J5.2
G3 X36.9566 Y11.2772 I-0.0025 J-1.7775
G2 X36.9465 Y11.2671 I-3.6817 J3.6722
G3 X36.4244 Y10.0088 I1.254 J-1.2577
G1 F50.0 X34.8244 Y10.0083
G3 F80.0 Y10.0047 I3.3761 J0.0011
G2 Y9.9953 I-3.6 J-0.005
G3 X35.8172 Y7.5989 I3.3786 J-0.0042
G2 X35.8235 Y7.5926 I-2.5422 J-2.549
G3 X38.2203 Y6.6 I2.3925 J2.387
G2 X38.2295 I0.0046 J-3.6
G3 X40.6259 Y7.5926 I0.0043 J3.3788
G2 X40.6328 Y7.5994 I2.5487 J-2.5425
G3 X41.625 Y9.9946 I-2.3834 J2.3904
G2 Y10.004 I3.6 J0.0051
G3 X40.6322 Y12.4006 I-3.3793 J0.004
G2 X40.6257 Y12.4071 I2.5424 J2.5488
G3 X38.2298 Y13.3995 I-2.3913 J-2.385
G2 X38.2199 I-0.0049 J3.6
G3 X35.8238 Y12.4072 I-0.0047 J-3.3775
G2 X35.8168 Y12.4001 I-2.5488 J2.5423
G3 X34.8244 Y10.0083 I2.3837 J-2.3908
G1 F50.0 X33.2244 Y10.0078
G3 F80.0 Y10.0025 I4.9761 J0.0016
G2 Y9.9973 I-2.0 J-0.0028
G3 X34.6873 Y6.4661 I4.9786 J-0.0061
G2 X34.6908 Y6.4626 I-1.4123 J-1.4161
G3 X38.2223 Y5.0 I3.5252 J3.517
G2 X38.2274 I0.0025 J-2.0
G3 X41.7586 Y6.4626 I0.0063 J4.9788
G2 X41.7625 Y6.4664 I1.4159 J-1.4125
G3 X43.225 Y9.9969 I-3.5131 J3.5235
G2 Y10.0021 I2.0 J0.0028
G3 X41.7622 Y13.5334 I-4.9793 J0.0059
G2 X41.7585 Y13.537 I1.4124 J1.416
G3 X38.2276 Y14.9995 I-3.5241 J-3.5149
G2 X38.2221 I-0.0027 J2.0
G3 X34.691 Y13.5371 I-0.0069 J-4.9775
G2 X34.6871 Y13.5332 I-1.416 J1.4124
G3 X33.2244 Y10.0078 I3.5134 J-3.5238
G0 Z3.0
G0 X38.0244 Y10.0093
G0 Z-1.0
G1 F50.0 Z-3.0
G3 F80.0 Y10.0091 I0.1761 J0.0001
G2 Y9.9913 I-6.8 J-0.0094
G3 X38.0769 Y9.8647 I0.1786 J-0.0002
G2 X38.0889 Y9.8527 I-4.8019 J-4.8147
G3 X38.2162 Y9.8 I0.1271 J0.1268
G2 X38.2335 I0.0086 J-6.8
G3 X38.3604 Y9.8525 I0.0002 J0.1788
G2 X38.3734 Y9.8655 I4.8142 J-4.8024
G3 X38.425 Y9.9901 I-0.124 J0.1243
G2 Y10.0079 I6.8 J0.0096
G3 X38.3723 Y10.135 I-0.1793 J0.0002
G2 X38.3599 Y10.1474 I4.8023 J4.8143
G3 X38.2341 Y10.1995 I-0.1256 J-0.1252
G2 X38.2154 I-0.0093 J6.8
G3 X38.0895 Y10.1473 I-0.0002 J-0.1775
G2 X38.0762 Y10.1341 I-4.8145 J4.8022
G3 X38.0244 Y10.0093 I0.1243 J-0.1247
G1 F50.0 X36.4244 Y10.0088
G3 F80.0 Y10.0069 I1.7761 J0.0006
G2 Y9.9933 I-5.2 J-0.0072
G3 X36.947 Y8.7318 I1.7786 J-0.0022
G2 X36.9562 Y8.7227 I-3.6721 J-3.6818
G3 X38.2183 Y8.2 I1.2598 J1.2569
G2 X38.2315 I0.0066 J-5.2
G3 X39.4931 Y8.7225 I0.0023 J1.7788
G2 X39.5031 Y8.7325 I3.6815 J-3.6724
G3 X40.025 Y9.9924 I-1.2537 J1.2574
G2 Y10.0059 I5.2 J0.0074
G3 X39.5022 Y11.2678 I-1.7793 J0.0021
G2 X39.4928 Y11.2773 I3.6723 J3.6816
G3 X38.232 Y11.7995 I-1.2584 J-1.2551
G2 X38.2176 I-0.0071 J5.2
G3 X36.9566 Y11.2772 I-0.0025 J-1.7775
G2 X36.9465 Y11.2671 I-3.6817 J3.6722
G3 X36.4244 Y10.0088 I1.254 J-1.2577
G1 F50.0 X34.8244 Y10.0083
G3 F80.0 Y10.0047 I3.3761 J0.0011
G2 Y9.9953 I-3.6 J-0.005
G3 X35.8172 Y7.5989 I3.3786 J-0.0042
G2 X35.8235 Y7.5926 I-2.5422 J-2.549
G3 X38.2203 Y6.6 I2.3925 J2.387
G2 X38.2295 I0.0046 J-3.6
G3 X40.6259 Y7.5926 I0.0043 J3.3788
G2 X40.6328 Y7.5994 I2.5487 J-2.5425
G3 X41.625 Y9.9946 I-2.3834 J2.3904
G2 Y10.004 I3.6 J0.0051
G3 X40.6322 Y12.4006 I-3.3793 J0.004
G2 X40.6257 Y12.4071 I2.5424 J2.5488
G3 X38.2298 Y13.3995 I-2.3913 J-2.385
G2 X38.2199 I-0.0049 J3.6
G3 X35.8238 Y12.4072 I-0.0047 J-3.3775
G2 X35.8168 Y12.4001 I-2.5488 J2.5423
G3 X34.8244 Y10.0083 I2.3837 J-2.3908
G1 F50.0 X33.2244 Y10.0078
G3 F80.0 Y10.0025 I4.9761 J0.0016
G2 Y9.9973 I-2.0 J-0.0028
G3 X34.6873 Y6.4661 I4.9786 J-0.0061
G2 X34.6908 Y6.4626 I-1.4123 J-1.4161
G3 X38.2223 Y5.0 I3.5252 J3.517
G2 X38.2274 I0.0025 J-2.0
G3 X41.7586 Y6.4626 I0.0063 J4.9788
G2 X41.7625 Y6.4664 I1.4159 J-1.4125
G3 X43.225 Y9.9969 I-3.5131 J3.5235
G2 Y10.0021 I2.0 J0.0028
G3 X41.7622 Y13.5334 I-4.9793 J0.0059
G2 X41.7585 Y13.537 I1.4124 J1.416
G3 X38.2276 Y14.9995 I-3.5241 J-3.5149
G2 X38.2221 I-0.0027 J2.0
G3 X34.691 Y13.5371 I-0.0069 J-4.9775
G2 X34.6871 Y13.5332 I-1.416 J1.4124
G3 X33.2244 Y10.0078 I3.5134 J-3.5238
G0 Z3.0
G0 X38.0244 Y10.0093
G0 Z-2.0
G1 F50.0 Z-4.0
G3 F80.0 Y10.0091 I0.1761 J0.0001
G2 Y9.9913 I-6.8 J-0.0094
G3 X38.0769 Y9.8647 I0.1786 J-0.0002
G2 X38.0889 Y9.8527 I-4.8019 J-4.8147
G3 X38.2162 Y9.8 I0.1271 J0.1268
G2 X38.2335 I0.0086 J-6.8
G3 X38.3604 Y9.8525 I0.0002 J0.1788
G2 X38.3734 Y9.8655 I4.8142 J-4.8024
G3 X38.425 Y9.9901 I-0.124 J0.1243
G2 Y10.0079 I6.8 J0.0096
G3 X38.3723 Y10.135 I-0.1793 J0.0002
G2 X38.3599 Y10.1474 I4.8023 J4.8143
G3 X38.2341 Y10.1995 I-0.1256 J-0.1252
G2 X38.2154 I-0.0093 J6.8
G3 X38.0895 Y10.1473 I-0.0002 J-0.1775
G2 X38.0762 Y10.1341 I-4.8145 J4.8022
G3 X38.0244 Y10.0093 I0.1243 J-0.1247
G1 F50.0 X36.4244 Y10.0088
G3 F80.0 Y10.0069 I1.7761 J0.0006
G2 Y9.9933 I-5.2 J-0.0072
G3 X36.947 Y8.7318 I1.7786 J-0.0022
G2 X36.9562 Y8.7227 I-3.6721 J-3.6818
G3 X38.2183 Y8.2 I1.2598 J1.2569
G2 X38.2315 I0.0066 J-5.2
G3 X39.4931 Y8.7225 I0.0023 J1.7788
G2 X39.5031 Y8.7325 I3.6815 J-3.6724
G3 X40.025 Y9.9924 I-1.2537 J1.2574
G2 Y10.0059 I5.2 J0.0074
G3 X39.5022 Y11.2678 I-1.7793 J0.0021
G2 X39.4928 Y11.2773 I3.6723 J3.6816
G3 X38.232 Y11.7995 I-1.2584 J-1.2551
G2 X38.2176 I-0.0071 J5.2
G3 X36.9566 Y11.2772 I-0.0025 J-1.7775
G2 X36.9465 Y11.2671 I-3.6817 J3.6722
G3 X36.4244 Y10.0088 I1.254 J-1.2577
G1 F50.0 X34.8244 Y10.0083
G3 F80.0 Y10.0047 I3.3761 J0.0011
G2 Y9.9953 I-3.6 J-0.005
G3 X35.8172 Y7.5989 I3.3786 J-0.0042
G2 X35.8235 Y7.5926 I-2.5422 J-2.549
G3 X38.2203 Y6.6 I2.3925 J2.387
G2 X38.2295 I0.0046 J-3.6
G3 X40.6259 Y7.5926 I0.0043 J3.3788
G2 X40.6328 Y7.5994 I2.5487 J-2.5425
G3 X41.625 Y9.9946 I-2.3834 J2.3904
G2 Y10.004 I3.6 J0.0051
G3 X40.6322 Y12.4006 I-3.3793 J0.004
G2 X40.6257 Y12.4071 I2.5424 J2.5488
G3 X38.2298 Y13.3995 I-2.3913 J-2.385
G2 X38.2199 I-0.0049 J3.6
G3 X35.8238 Y12.4072 I-0.0047 J-3.3775
G2 X35.8168 Y12.4001 I-2.5488 J2.5423
G3 X34.8244 Y10.0083 I2.3837 J-2.3908
G1 F50.0 X33.2244 Y10.0078
G3 F80.0 Y10.0025 I4.9761 J0.0016
G2 Y9.9973 I-2.0 J-0.0028
G3 X34.6873 Y6.4661 I4.9786 J-0.0061
G2 X34.6908 Y6.4626 I-1.4123 J-1.4161
G3 X38.2223 Y5.0 I3.5252 J3.517
G2 X38.2274 I0.0025 J-2.0
G3 X41.7586 Y6.4626 I0.0063 J4.9788
G2 X41.7625 Y6.4664 I1.4159 J-1.4125
G3 X43.225 Y9.9969 I-3.5131 J3.5235
G2 Y10.0021 I2.0 J0.0028
G3 X41.7622 Y13.5334 I-4.9793 J0.0059
G2 X41.7585 Y13.537 I1.4124 J1.416
G3 X38.2276 Y14.9995 I-3.5241 J-3.5149
G2 X38.2221 I-0.0027 J2.0
G3 X34.691 Y13.5371 I-0.0069 J-4.9775
G2 X34.6871 Y13.5332 I-1.416 J1.4124
G3 X33.2244 Y10.0078 I3.5134 J-3.5238
G0 Z3.0
G0 X38.0244 Y10.0093
G0 Z-3.0
G1 F50.0 Z-5.0
G3 F80.0 Y10.0091 I0.1761 J0.0001
G2 Y9.9913 I-6.8 J-0.0094
G3 X38.0769 Y9.8647 I0.1786 J-0.0002
G2 X38.0889 Y9.8527 I-4.8019 J-4.8147
G3 X38.2162 Y9.8 I0.1271 J0.1268
G2 X38.2335 I0.0086 J-6.8
G3 X38.3604 Y9.8525 I0.0002 J0.1788
G2 X38.3734 Y9.8655 I4.8142 J-4.8024
G3 X38.425 Y9.9901 I-0.124 J0.1243
G2 Y10.0079 I6.8 J0.0096
G3 X38.3723 Y10.135 I-0.1793 J0.0002
G2 X38.3599 Y10.1474 I4.8023 J4.8143
G3 X38.2341 Y10.1995 I-0.1256 J-0.1252
G2 X38.2154 I-0.0093 J6.8
G3 X38.0895 Y10.1473 I-0.0002 J-0.1775
G2 X38.0762 Y10.1341 I-4.8145 J4.8022
G3 X38.0244 Y10.0093 I0.1243 J-0.1247
G1 F50.0 X36.4244 Y10.0088
G3 F80.0 Y10.0069 I1.7761 J0.0006
G2 Y9.9933 I-5.2 J-0.0072
G3 X36.947 Y8.7318 I1.7786 J-0.0022
G2 X36.9562 Y8.7227 I-3.6721 J-3.6818
G3 X38.2183 Y8.2 I1.2598 J1.2569
G2 X38.2315 I0.0066 J-5.2
G3 X39.4931 Y8.7225 I0.0023 J1.7788
G2 X39.5031 Y8.7325 I3.6815 J-3.6724
G3 X40.025 Y9.9924 I-1.2537 J1.2574
G2 Y10.0059 I5.2 J0.0074
G3 X39.5022 Y11.2678 I-1.7793 J0.0021
G2 X39.4928 Y11.2773 I3.6723 J3.6816
G3 X38.232 Y11.7995 I-1.2584 J-1.2551
G2 X38.2176 I-0.0071 J5.2
G3 X36.9566 Y11.2772 I-0.0025 J-1.7775
G2 X36.9465 Y11.2671 I-3.6817 J3.6722
G3 X36.4244 Y10.0088 I1.254 J-1.2577
G1 F50.0 X34.8244 Y10.0083
G3 F80.0 Y10.0047 I3.3761 J0.0011
G2 Y9.9953 I-3.6 J-0.005
G3 X35.8172 Y7.5989 I3.3786 J-0.0042
G2 X35.8235 Y7.5926 I-2.5422 J-2.549
G3 X38.2203 Y6.6 I2.3925 J2.387
G2 X38.2295 I0.0046 J-3.6
G3 X40.6259 Y7.5926 I0.0043 J3.3788
G2 X40.6328 Y7.5994 I2.5487 J-2.5425
G3 X41.625 Y9.9946 I-2.3834 J2.3904
G2 Y10.004 I3.6 J0.0051
G3 X40.6322 Y12.4006 I-3.3793 J0.004
G2 X40.6257 Y12.4071 I2.5424 J2.5488
G3 X38.2298 Y13.3995 I-2.3913 J-2.385
G2 X38.2199 I-0.0049 J3.6
G3 X35.8238 Y12.4072 I-0.0047 J-3.3775
G2 X35.8168 Y12.4001 I-2.5488 J2.5423
G3 X34.8244 Y10.0083 I2.3837 J-2.3908
G1 F50.0 X33.2244 Y10.0078
G3 F80.0 Y10.0025 I4.9761 J0.0016
G2 Y9.9973 I-2.0 J-0.0028
G3 X34.6873 Y6.4661 I4.9786 J-0.0061
G2 X34.6908 Y6.4626 I-1.4123 J-1.4161
G3 X38.2223 Y5.0 I3.5252 J3.517
G2 X38.2274 I0.0025 J-2.0
G3 X41.7586 Y6.4626 I0.0063 J4.9788
G2 X41.7625 Y6.4664 I1.4159 J-1.4125
G3 X43.225 Y9.9969 I-3.5131 J3.5235
G2 Y10.0021 I2.0 J0.0028
G3 X41.7622 Y13.5334 I-4.9793 J0.0059
G2 X41.7585 Y13.537 I1.4124 J1.416
G3 X38.2276 Y14.9995 I-3.5241 J-3.5149
G2 X38.2221 I-0.0027 J2.0
G3 X34.691 Y13.5371 I-0.0069 J-4.9775
G2 X34.6871 Y13.5332 I-1.416 J1.4124
G3 X33.2244 Y10.0078 I3.5134 J-3.5238
G0 Z3.0
G0 X38.0244 Y10.0093
G0 Z-4.0
G1 F50.0 Z-6.0
G3 F80.0 Y10.0091 I0.1761 J0.0001
G2 Y9.9913 I-6.8 J-0.0094
G3 X38.0769 Y9.8647 I0.1786 J-0.0002
G2 X38.0889 Y9.8527 I-4.8019 J-4.8147
G3 X38.2162 Y9.8 I0.1271 J0.1268
G2 X38.2335 I0.0086 J-6.8
G3 X38.3604 Y9.8525 I0.0002 J0.1788
G2 X38.3734 Y9.8655 I4.8142 J-4.8024
G3 X38.425 Y9.9901 I-0.124 J0.1243
G2 Y10.0079 I6.8 J0.0096
G3 X38.3723 Y10.135 I-0.1793 J0.0002
G2 X38.3599 Y10.1474 I4.8023 J4.8143
G3 X38.2341 Y10.1995 I-0.1256 J-0.1252
G2 X38.2154 I-0.0093 J6.8
G3 X38.0895 Y10.1473 I-0.0002 J-0.1775
G2 X38.0762 Y10.1341 I-4.8145 J4.8022
G3 X38.0244 Y10.0093 I0.1243 J-0.1247
G1 F50.0 X36.4244 Y10.0088
G3 F80.0 Y10.0069 I1.7761 J0.0006
G2 Y9.9933 I-5.2 J-0.0072
G3 X36.947 Y8.7318 I1.7786 J-0.0022
G2 X36.9562 Y8.7227 I-3.6721 J-3.6818
G3 X38.2183 Y8.2 I1.2598 J1.2569
G2 X38.2315 I0.0066 J-5.2
G3 X39.4931 Y8.7225 I0.0023 J1.7788
G2 X39.5031 Y8.7325 I3.6815 J-3.6724
G3 X40.025 Y9.9924 I-1.2537 J1.2574
G2 Y10.0059 I5.2 J0.0074
G3 X39.5022 Y11.2678 I-1.7793 J0.0021
G2 X39.4928 Y11.2773 I3.6723 J3.6816
G3 X38.232 Y11.7995 I-1.2584 J-1.2551
G2 X38.2176 I-0.0071 J5.2
G3 X36.9566 Y11.2772 I-0.0025 J-1.7775
G2 X36.9465 Y11.2671 I-3.6817 J3.6722
G3 X36.4244 Y10.0088 I1.254 J-1.2577
G1 F50.0 X34.8244 Y10.0083
G3 F80.0 Y10.0047 I3.3761 J0.0011
G2 Y9.9953 I-3.6 J-0.005
G3 X35.8172 Y7.5989 I3.3786 J-0.0042
G2 X35.8235 Y7.5926 I-2.5422 J-2.549
G3 X38.2203 Y6.6 I2.3925 J2.387
G2 X38.2295 I0.0046 J-3.6
G3 X40.6259 Y7.5926 I0.0043 J3.3788
G2 X40.6328 Y7.5994 I2.5487 J-2.5425
G3 X41.625 Y9.9946 I-2.3834 J2.3904
G2 Y10.004 I3.6 J0.0051
G3 X40.6322 Y12.4006 I-3.3793 J0.004
G2 X40.6257 Y12.4071 I2.5424 J2.5488
G3 X38.2298 Y13.3995 I-2.3913 J-2.385
G2 X38.2199 I-0.0049 J3.6
G3 X35.8238 Y12.4072 I-0.0047 J-3.3775
G2 X35.8168 Y12.4001 I-2.5488 J2.5423
G3 X34.8244 Y10.0083 I2.3837 J-2.3908
G1 F50.0 X33.2244 Y10.0078
G3 F80.0 Y10.0025 I4.9761 J0.0016
G2 Y9.9973 I-2.0 J-0.0028
G3 X34.6873 Y6.4661 I4.9786 J-0.0061
G2 X34.6908 Y6.4626 I-1.4123 J-1.4161
G3 X38.2223 Y5.0 I3.5252 J3.517
G2 X38.2274 I0.0025 J-2.0
G3 X41.7586 Y6.4626 I0.0063 J4.9788
G2 X41.7625 Y6.4664 I1.4159 J-1.4125
G3 X43.225 Y9.9969 I-3.5131 J3.5235
G2 Y10.0021 I2.0 J0.0028
G3 X41.7622 Y13.5334 I-4.9793 J0.0059
G2 X41.7585 Y13.537 I1.4124 J1.416
G3 X38.2276 Y14.9995 I-3.5241 J-3.5149
G2 X38.2221 I-0.0027 J2.0
G3 X34.691 Y13.5371 I-0.0069 J-4.9775
G2 X34.6871 Y13.5332 I-1.416 J1.4124
G3 X33.2244 Y10.0078 I3.5134 J-3.5238
G0 Z3.0
G0 X38.0244 Y10.0093
G0 Z-5.0
G1 F50.0 Z-6.5
G3 F80.0 Y10.0091 I0.1761 J0.0001
G2 Y9.9913 I-6.8 J-0.0094
G3 X38.0769 Y9.8647 I0.1786 J-0.0002
G2 X38.0889 Y9.8527 I-4.8019 J-4.8147
G3 X38.2162 Y9.8 I0.1271 J0.1268
G2 X38.2335 I0.0086 J-6.8
G3 X38.3604 Y9.8525 I0.0002 J0.1788
G2 X38.3734 Y9.8655 I4.8142 J-4.8024
G3 X38.425 Y9.9901 I-0.124 J0.1243
G2 Y10.0079 I6.8 J0.0096
G3 X38.3723 Y10.135 I-0.1793 J0.0002
G2 X38.3599 Y10.1474 I4.8023 J4.8143
G3 X38.2341 Y10.1995 I-0.1256 J-0.1252
G2 X38.2154 I-0.0093 J6.8
G3 X38.0895 Y10.1473 I-0.0002 J-0.1775
G2 X38.0762 Y10.1341 I-4.8145 J4.8022
G3 X38.0244 Y10.0093 I0.1243 J-0.1247
G1 F50.0 X36.4244 Y10.0088
G3 F80.0 Y10.0069 I1.7761 J0.0006
G2 Y9.9933 I-5.2 J-0.0072
G3 X36.947 Y8.7318 I1.7786 J-0.0022
G2 X36.9562 Y8.7227 I-3.6721 J-3.6818
G3 X38.2183 Y8.2 I1.2598 J1.2569
G2 X38.2315 I0.0066 J-5.2
G3 X39.4931 Y8.7225 I0.0023 J1.7788
G2 X39.5031 Y8.7325 I3.6815 J-3.6724
G3 X40.025 Y9.9924 I-1.2537 J1.2574
G2 Y10.0059 I5.2 J0.0074
G3 X39.5022 Y11.2678 I-1.7793 J0.0021
G2 X39.4928 Y11.2773 I3.6723 J3.6816
G3 X38.232 Y11.7995 I-1.2584 J-1.2551
G2 X38.2176 I-0.0071 J5.2
G3 X36.9566 Y11.2772 I-0.0025 J-1.7775
G2 X36.9465 Y11.2671 I-3.6817 J3.6722
G3 X36.4244 Y10.0088 I1.254 J-1.2577
G1 F50.0 X34.8244 Y10.0083
G3 F80.0 Y10.0047 I3.3761 J0.0011
G2 Y9.9953 I-3.6 J-0.005
G3 X35.8172 Y7.5989 I3.3786 J-0.0042
G2 X35.8235 Y7.5926 I-2.5422 J-2.549
G3 X38.2203 Y6.6 I2.3925 J2.387
G2 X38.2295 I0.0046 J-3.6
G3 X40.6259 Y7.5926 I0.0043 J3.3788
G2 X40.6328 Y7.5994 I2.5487 J-2.5425
G3 X41.625 Y9.9946 I-2.3834 J2.3904
G2 Y10.004 I3.6 J0.0051
G3 X40.6322 Y12.4006 I-3.3793 J0.004
G2 X40.6257 Y12.4071 I2.5424 J2.5488
G3 X38.2298 Y13.3995 I-2.3913 J-2.385
G2 X38.2199 I-0.0049 J3.6
G3 X35.8238 Y12.4072 I-0.0047 J-3.3775
G2 X35.8168 Y12.4001 I-2.5488 J2.5423
G3 X34.8244 Y10.0083 I2.3837 J-2.3908
G1 F50.0 X33.2244 Y10.0078
G3 F80.0 Y10.0025 I4.9761 J0.0016
G2 Y9.9973 I-2.0 J-0.0028
G3 X34.6873 Y6.4661 I4.9786 J-0.0061
G2 X34.6908 Y6.4626 I-1.4123 J-1.4161
G3 X38.2223 Y5.0 I3.5252 J3.517
G2 X38.2274 I0.0025 J-2.0
G3 X41.7586 Y6.4626 I0.0063 J4.9788
G2 X41.7625 Y6.4664 I1.4159 J-1.4125
G3 X43.225 Y9.9969 I-3.5131 J3.5235
G2 Y10.0021 I2.0 J0.0028
G3 X41.7622 Y13.5334 I-4.9793 J0.0059
G2 X41.7585 Y13.537 I1.4124 J1.416
G3 X38.2276 Y14.9995 I-3.5241 J-3.5149
G2 X38.2221 I-0.0027 J2.0
G3 X34.691 Y13.5371 I-0.0069 J-4.9775
G2 X34.6871 Y13.5332 I-1.416 J1.4124
G3 X33.2244 Y10.0078 I3.5134 J-3.5238
G0 Z3.0
M5
M30
