( Made using CamBam - http://www.cambam.co.uk )
( picker slide - base plate 9/4/2013 11:51:28 AM )
( T4 : 4.0 )
G21 G90 G64 G40
G0 Z3.0
( T4 : 4.0 )
T4 M6
( 4mm bearing profile )
G17
M3 S1000
G0 X16.0001 Y10.0021
G0 Z1.0
G1 F50.0 Z-1.0
G3 F80.0 X14.2444 Y14.2406 I-5.9768 J0.0071
G2 X14.2407 Y14.2443 I1.4125 J1.4159
G3 X10.0029 Y15.9996 I-4.2292 J-4.2173
G2 X9.9977 I-0.0029 J2.0
G3 X5.7591 Y14.244 I-0.0072 J-5.9768
G2 X5.7554 Y14.2403 I-1.4159 J1.4125
G3 X4.0 Y10.0026 I4.2169 J-4.2292
G2 Y9.9974 I-2.0 J-0.0029
G3 X5.7558 Y5.7589 I5.9768 J-0.0071
G2 X5.7595 Y5.7551 I-1.4125 J-1.4159
G3 X9.9972 Y3.9999 I4.2292 J4.2173
G2 X10.0025 I0.0029 J-2.0
G3 X14.241 Y5.7555 I0.0072 J5.9768
G2 X14.2447 Y5.7592 I1.4159 J-1.4125
G3 X16.0001 Y9.9969 I-4.2169 J4.2292
G2 Y10.0021 I2.0 J0.0029
G1 F50.0 Z-2.0
G3 F80.0 X14.2444 Y14.2406 I-5.9768 J0.0071
G2 X14.2407 Y14.2443 I1.4125 J1.4159
G3 X10.0029 Y15.9996 I-4.2292 J-4.2173
G2 X9.9977 I-0.0029 J2.0
G3 X5.7591 Y14.244 I-0.0072 J-5.9768
G2 X5.7554 Y14.2403 I-1.4159 J1.4125
G3 X4.0 Y10.0026 I4.2169 J-4.2292
G2 Y9.9974 I-2.0 J-0.0029
G3 X5.7558 Y5.7589 I5.9768 J-0.0071
G2 X5.7595 Y5.7551 I-1.4125 J-1.4159
G3 X9.9972 Y3.9999 I4.2292 J4.2173
G2 X10.0025 I0.0029 J-2.0
G3 X14.241 Y5.7555 I0.0072 J5.9768
G2 X14.2447 Y5.7592 I1.4159 J-1.4125
G3 X16.0001 Y9.9969 I-4.2169 J4.2292
G2 Y10.0021 I2.0 J0.0029
G1 F50.0 Z-3.0
G3 F80.0 X14.2444 Y14.2406 I-5.9768 J0.0071
G2 X14.2407 Y14.2443 I1.4125 J1.4159
G3 X10.0029 Y15.9996 I-4.2292 J-4.2173
G2 X9.9977 I-0.0029 J2.0
G3 X5.7591 Y14.244 I-0.0072 J-5.9768
G2 X5.7554 Y14.2403 I-1.4159 J1.4125
G3 X4.0 Y10.0026 I4.2169 J-4.2292
G2 Y9.9974 I-2.0 J-0.0029
G3 X5.7558 Y5.7589 I5.9768 J-0.0071
G2 X5.7595 Y5.7551 I-1.4125 J-1.4159
G3 X9.9972 Y3.9999 I4.2292 J4.2173
G2 X10.0025 I0.0029 J-2.0
G3 X14.241 Y5.7555 I0.0072 J5.9768
G2 X14.2447 Y5.7592 I1.4159 J-1.4125
G3 X16.0001 Y9.9969 I-4.2169 J4.2292
G2 Y10.0021 I2.0 J0.0029
G1 F50.0 Z-4.0
G3 F80.0 X14.2444 Y14.2406 I-5.9768 J0.0071
G2 X14.2407 Y14.2443 I1.4125 J1.4159
G3 X10.0029 Y15.9996 I-4.2292 J-4.2173
G2 X9.9977 I-0.0029 J2.0
G3 X5.7591 Y14.244 I-0.0072 J-5.9768
G2 X5.7554 Y14.2403 I-1.4159 J1.4125
G3 X4.0 Y10.0026 I4.2169 J-4.2292
G2 Y9.9974 I-2.0 J-0.0029
G3 X5.7558 Y5.7589 I5.9768 J-0.0071
G2 X5.7595 Y5.7551 I-1.4125 J-1.4159
G3 X9.9972 Y3.9999 I4.2292 J4.2173
G2 X10.0025 I0.0029 J-2.0
G3 X14.241 Y5.7555 I0.0072 J5.9768
G2 X14.2447 Y5.7592 I1.4159 J-1.4125
G3 X16.0001 Y9.9969 I-4.2169 J4.2292
G2 Y10.0021 I2.0 J0.0029
G1 F50.0 Z-5.0
G3 F80.0 X14.2444 Y14.2406 I-5.9768 J0.0071
G2 X14.2407 Y14.2443 I1.4125 J1.4159
G3 X10.0029 Y15.9996 I-4.2292 J-4.2173
G2 X9.9977 I-0.0029 J2.0
G3 X5.7591 Y14.244 I-0.0072 J-5.9768
G2 X5.7554 Y14.2403 I-1.4159 J1.4125
G3 X4.0 Y10.0026 I4.2169 J-4.2292
G2 Y9.9974 I-2.0 J-0.0029
G3 X5.7558 Y5.7589 I5.9768 J-0.0071
G2 X5.7595 Y5.7551 I-1.4125 J-1.4159
G3 X9.9972 Y3.9999 I4.2292 J4.2173
G2 X10.0025 I0.0029 J-2.0
G3 X14.241 Y5.7555 I0.0072 J5.9768
G2 X14.2447 Y5.7592 I1.4159 J-1.4125
G3 X16.0001 Y9.9969 I-4.2169 J4.2292
G2 Y10.0021 I2.0 J0.0029
G0 Z3.0
G0 X32.2247 Y10.0086
G0 Z1.0
G1 F50.0 Z-1.0
G3 F80.0 Y10.0026 I5.9725 J0.0024
G2 Y9.9973 I-2.0 J-0.0028
G3 X33.9804 Y5.7589 I5.9764 J-0.0072
G2 X33.9838 Y5.7555 I-1.4125 J-1.416
G3 X38.2224 Y3.9999 I4.2313 J4.2214
G2 X38.2277 I0.0024 J-2.0
G3 X42.4657 Y5.7552 I0.0086 J5.973
G2 X42.4697 Y5.7592 I1.4162 J-1.4122
G3 X44.2251 Y9.9969 I-4.2171 J4.2293
G2 Y10.0021 I2.0 J0.0028
G3 X42.4694 Y14.2406 I-5.9764 J0.0072
G2 X42.466 Y14.244 I1.4125 J1.416
G3 X38.2273 Y15.9996 I-4.2313 J-4.2214
G2 X38.222 I-0.0024 J2.0
G3 X33.9841 Y14.2443 I-0.0086 J-5.973
G2 X33.9801 Y14.2403 I-1.4162 J1.4122
G3 X32.2247 Y10.0086 I4.2171 J-4.2293
G1 F50.0 Z-2.0
G3 F80.0 Y10.0026 I5.9725 J0.0024
G2 Y9.9973 I-2.0 J-0.0028
G3 X33.9804 Y5.7589 I5.9764 J-0.0072
G2 X33.9838 Y5.7555 I-1.4125 J-1.416
G3 X38.2224 Y3.9999 I4.2313 J4.2214
G2 X38.2277 I0.0024 J-2.0
G3 X42.4657 Y5.7552 I0.0086 J5.973
G2 X42.4697 Y5.7592 I1.4162 J-1.4122
G3 X44.2251 Y9.9969 I-4.2171 J4.2293
G2 Y10.0021 I2.0 J0.0028
G3 X42.4694 Y14.2406 I-5.9764 J0.0072
G2 X42.466 Y14.244 I1.4125 J1.416
G3 X38.2273 Y15.9996 I-4.2313 J-4.2214
G2 X38.222 I-0.0024 J2.0
G3 X33.9841 Y14.2443 I-0.0086 J-5.973
G2 X33.9801 Y14.2403 I-1.4162 J1.4122
G3 X32.2247 Y10.0086 I4.2171 J-4.2293
G1 F50.0 Z-3.0
G3 F80.0 Y10.0026 I5.9725 J0.0024
G2 Y9.9973 I-2.0 J-0.0028
G3 X33.9804 Y5.7589 I5.9764 J-0.0072
G2 X33.9838 Y5.7555 I-1.4125 J-1.416
G3 X38.2224 Y3.9999 I4.2313 J4.2214
G2 X38.2277 I0.0024 J-2.0
G3 X42.4657 Y5.7552 I0.0086 J5.973
G2 X42.4697 Y5.7592 I1.4162 J-1.4122
G3 X44.2251 Y9.9969 I-4.2171 J4.2293
G2 Y10.0021 I2.0 J0.0028
G3 X42.4694 Y14.2406 I-5.9764 J0.0072
G2 X42.466 Y14.244 I1.4125 J1.416
G3 X38.2273 Y15.9996 I-4.2313 J-4.2214
G2 X38.222 I-0.0024 J2.0
G3 X33.9841 Y14.2443 I-0.0086 J-5.973
G2 X33.9801 Y14.2403 I-1.4162 J1.4122
G3 X32.2247 Y10.0086 I4.2171 J-4.2293
G1 F50.0 Z-4.0
G3 F80.0 Y10.0026 I5.9725 J0.0024
G2 Y9.9973 I-2.0 J-0.0028
G3 X33.9804 Y5.7589 I5.9764 J-0.0072
G2 X33.9838 Y5.7555 I-1.4125 J-1.416
G3 X38.2224 Y3.9999 I4.2313 J4.2214
G2 X38.2277 I0.0024 J-2.0
G3 X42.4657 Y5.7552 I0.0086 J5.973
G2 X42.4697 Y5.7592 I1.4162 J-1.4122
G3 X44.2251 Y9.9969 I-4.2171 J4.2293
G2 Y10.0021 I2.0 J0.0028
G3 X42.4694 Y14.2406 I-5.9764 J0.0072
G2 X42.466 Y14.244 I1.4125 J1.416
G3 X38.2273 Y15.9996 I-4.2313 J-4.2214
G2 X38.222 I-0.0024 J2.0
G3 X33.9841 Y14.2443 I-0.0086 J-5.973
G2 X33.9801 Y14.2403 I-1.4162 J1.4122
G3 X32.2247 Y10.0086 I4.2171 J-4.2293
G1 F50.0 Z-5.0
G3 F80.0 Y10.0026 I5.9725 J0.0024
G2 Y9.9973 I-2.0 J-0.0028
G3 X33.9804 Y5.7589 I5.9764 J-0.0072
G2 X33.9838 Y5.7555 I-1.4125 J-1.416
G3 X38.2224 Y3.9999 I4.2313 J4.2214
G2 X38.2277 I0.0024 J-2.0
G3 X42.4657 Y5.7552 I0.0086 J5.973
G2 X42.4697 Y5.7592 I1.4162 J-1.4122
G3 X44.2251 Y9.9969 I-4.2171 J4.2293
G2 Y10.0021 I2.0 J0.0028
G3 X42.4694 Y14.2406 I-5.9764 J0.0072
G2 X42.466 Y14.244 I1.4125 J1.416
G3 X38.2273 Y15.9996 I-4.2313 J-4.2214
G2 X38.222 I-0.0024 J2.0
G3 X33.9841 Y14.2443 I-0.0086 J-5.973
G2 X33.9801 Y14.2403 I-1.4162 J1.4122
G3 X32.2247 Y10.0086 I4.2171 J-4.2293
G0 Z3.0
M5
M30
