( Made using CamBam - http://www.cambam.co.uk )
( picker slide - base plate 9/4/2013 11:51:36 AM )
( T4 : 4.0 )
G21 G90 G64 G40
G0 Z3.0
( T4 : 4.0 )
T4 M6
( 4mm cutout )
G17
M3 S1000
G0 X0.0 Y34.2003
G0 Z1.0
G1 F50.0 Z-1.0
G1 F80.0 X20.0
G2 X22.0 Y32.2003 I0.0 J-2.0
G1 Y10.001
G2 X18.4853 Y1.5147 I-11.968 J-0.0144
G2 X10.0 Y-2.0 I-8.4713 J8.4517
G2 X1.5148 Y1.5145 I-0.0132 J11.9684
G2 X-2.0 Y10.001 I8.4536 J8.4723
G1 Y32.2003
G2 X0.0 Y34.2003 I2.0 J0.0
G1 F50.0 Z-2.0
G1 F80.0 X20.0
G2 X22.0 Y32.2003 I0.0 J-2.0
G1 Y10.001
G2 X18.4853 Y1.5147 I-11.968 J-0.0144
G2 X10.0 Y-2.0 I-8.4713 J8.4517
G2 X1.5148 Y1.5145 I-0.0132 J11.9684
G2 X-2.0 Y10.001 I8.4536 J8.4723
G1 Y32.2003
G2 X0.0 Y34.2003 I2.0 J0.0
G1 F50.0 Z-3.0
G1 F80.0 X20.0
G2 X22.0 Y32.2003 I0.0 J-2.0
G1 Y10.001
G2 X18.4853 Y1.5147 I-11.968 J-0.0144
G2 X10.0 Y-2.0 I-8.4713 J8.4517
G2 X1.5148 Y1.5145 I-0.0132 J11.9684
G2 X-2.0 Y10.001 I8.4536 J8.4723
G1 Y32.2003
G2 X0.0 Y34.2003 I2.0 J0.0
G1 F50.0 Z-4.0
G1 F80.0 X20.0
G2 X22.0 Y32.2003 I0.0 J-2.0
G1 Y10.001
G2 X18.4853 Y1.5147 I-11.968 J-0.0144
G2 X10.0 Y-2.0 I-8.4713 J8.4517
G2 X1.5148 Y1.5145 I-0.0132 J11.9684
G2 X-2.0 Y10.001 I8.4536 J8.4723
G1 Y32.2003
G2 X0.0 Y34.2003 I2.0 J0.0
G1 F50.0 Z-5.0
G1 F80.0 X20.0
G2 X22.0 Y32.2003 I0.0 J-2.0
G1 Y10.001
G2 X18.4853 Y1.5147 I-11.968 J-0.0144
G2 X10.0 Y-2.0 I-8.4713 J8.4517
G2 X1.5148 Y1.5145 I-0.0132 J11.9684
G2 X-2.0 Y10.001 I8.4536 J8.4723
G1 Y32.2003
G2 X0.0 Y34.2003 I2.0 J0.0
G1 F50.0 Z-6.0
G1 F80.0 X20.0
G2 X22.0 Y32.2003 I0.0 J-2.0
G1 Y10.001
G2 X18.4853 Y1.5147 I-11.968 J-0.0144
G2 X10.0 Y-2.0 I-8.4713 J8.4517
G2 X1.5148 Y1.5145 I-0.0132 J11.9684
G2 X-2.0 Y10.001 I8.4536 J8.4723
G1 Y32.2003
G2 X0.0 Y34.2003 I2.0 J0.0
G1 F50.0 Z-6.5
G1 F80.0 X20.0
G2 X22.0 Y32.2003 I0.0 J-2.0
G1 Y10.001
G2 X18.4853 Y1.5147 I-11.968 J-0.0144
G2 X10.0 Y-2.0 I-8.4713 J8.4517
G2 X1.5148 Y1.5145 I-0.0132 J11.9684
G2 X-2.0 Y10.001 I8.4536 J8.4723
G1 Y32.2003
G2 X0.0 Y34.2003 I2.0 J0.0
G0 Z3.0
G0 X26.2295 Y32.3416
G0 Z1.0
G1 F50.0 Z-1.0
G2 F80.0 X28.2245 Y34.2003 I1.995 J-0.1414
G1 X48.225
G2 X50.225 Y32.2003 I0.0 J-2.0
G1 Y10.001
G2 X46.7101 Y1.5145 I-11.9676 J-0.0145
G2 X38.2248 Y-2.0 I-8.4721 J8.4541
G2 X29.7396 Y1.5144 I-0.0122 J11.9711
G2 X26.2245 Y10.001 I8.4513 J8.4718
G1 Y32.2003
G2 X26.2295 Y32.3416 I2.0 J0.0
G1 F50.0 Z-2.0
G2 F80.0 X28.2245 Y34.2003 I1.995 J-0.1414
G1 X48.225
G2 X50.225 Y32.2003 I0.0 J-2.0
G1 Y10.001
G2 X46.7101 Y1.5145 I-11.9676 J-0.0145
G2 X38.2248 Y-2.0 I-8.4721 J8.4541
G2 X29.7396 Y1.5144 I-0.0122 J11.9711
G2 X26.2245 Y10.001 I8.4513 J8.4718
G1 Y32.2003
G2 X26.2295 Y32.3416 I2.0 J0.0
G1 F50.0 Z-3.0
G2 F80.0 X28.2245 Y34.2003 I1.995 J-0.1414
G1 X48.225
G2 X50.225 Y32.2003 I0.0 J-2.0
G1 Y10.001
G2 X46.7101 Y1.5145 I-11.9676 J-0.0145
G2 X38.2248 Y-2.0 I-8.4721 J8.4541
G2 X29.7396 Y1.5144 I-0.0122 J11.9711
G2 X26.2245 Y10.001 I8.4513 J8.4718
G1 Y32.2003
G2 X26.2295 Y32.3416 I2.0 J0.0
G1 F50.0 Z-4.0
G2 F80.0 X28.2245 Y34.2003 I1.995 J-0.1414
G1 X48.225
G2 X50.225 Y32.2003 I0.0 J-2.0
G1 Y10.001
G2 X46.7101 Y1.5145 I-11.9676 J-0.0145
G2 X38.2248 Y-2.0 I-8.4721 J8.4541
G2 X29.7396 Y1.5144 I-0.0122 J11.9711
G2 X26.2245 Y10.001 I8.4513 J8.4718
G1 Y32.2003
G2 X26.2295 Y32.3416 I2.0 J0.0
G1 F50.0 Z-5.0
G2 F80.0 X28.2245 Y34.2003 I1.995 J-0.1414
G1 X48.225
G2 X50.225 Y32.2003 I0.0 J-2.0
G1 Y10.001
G2 X46.7101 Y1.5145 I-11.9676 J-0.0145
G2 X38.2248 Y-2.0 I-8.4721 J8.4541
G2 X29.7396 Y1.5144 I-0.0122 J11.9711
G2 X26.2245 Y10.001 I8.4513 J8.4718
G1 Y32.2003
G2 X26.2295 Y32.3416 I2.0 J0.0
G1 F50.0 Z-6.0
G2 F80.0 X28.2245 Y34.2003 I1.995 J-0.1414
G1 X48.225
G2 X50.225 Y32.2003 I0.0 J-2.0
G1 Y10.001
G2 X46.7101 Y1.5145 I-11.9676 J-0.0145
G2 X38.2248 Y-2.0 I-8.4721 J8.4541
G2 X29.7396 Y1.5144 I-0.0122 J11.9711
G2 X26.2245 Y10.001 I8.4513 J8.4718
G1 Y32.2003
G2 X26.2295 Y32.3416 I2.0 J0.0
G1 F50.0 Z-6.5
G2 F80.0 X28.2245 Y34.2003 I1.995 J-0.1414
G1 X48.225
G2 X50.225 Y32.2003 I0.0 J-2.0
G1 Y10.001
G2 X46.7101 Y1.5145 I-11.9676 J-0.0145
G2 X38.2248 Y-2.0 I-8.4721 J8.4541
G2 X29.7396 Y1.5144 I-0.0122 J11.9711
G2 X26.2245 Y10.001 I8.4513 J8.4718
G1 Y32.2003
G2 X26.2295 Y32.3416 I2.0 J0.0
G0 Z3.0
M5
M30
