( Made using CamBam - http://www.cambam.co.uk )
( base end plates 9/14/2013 6:12:50 PM )
( T4 : 4.0 )
G21 G90 G64 G40
G0 Z3.0
( T4 : 4.0 )
T4 M6
( Profile1 )
G17
M3 S1000
G0 X-0.8262 Y-0.8273
G0 Z1.0
G1 F50.0 Z-1.0
G2 F120.0 X-2.0 Y1.9997 I2.8183 J2.8273
G1 Y1.9999
G1 Y57.9999
G2 Y58.0016 I2.0 J0.0
G2 X-0.8273 Y60.826 I3.9959 J-0.0034
G2 X2.0001 Y62.0 I2.8273 J-2.8176
G1 X37.9999
G2 X38.0016 I0.0 J-2.0
G2 X40.826 Y60.8273 I-0.0034 J-3.9959
G2 X42.0 Y57.9999 I-2.8176 J-2.8273
G1 Y57.9998
G1 Y57.9999
G1 Y1.9999
G2 Y1.9985 I-2.0 J0.0
G2 X40.827 Y-0.8265 I-3.9948 J0.0027
G2 X38.0002 Y-2.0 I-2.8273 J2.819
G1 X37.9999
G1 X2.0001
G2 X1.9988 I0.0 J2.0
G2 X-0.8262 Y-0.8273 I0.0026 J3.9951
G1 F50.0 Z-2.0
G2 F120.0 X-2.0 Y1.9997 I2.8183 J2.8273
G1 Y1.9999
G1 Y57.9999
G2 Y58.0016 I2.0 J0.0
G2 X-0.8273 Y60.826 I3.9959 J-0.0034
G2 X2.0001 Y62.0 I2.8273 J-2.8176
G1 X37.9999
G2 X38.0016 I0.0 J-2.0
G2 X40.826 Y60.8273 I-0.0034 J-3.9959
G2 X42.0 Y57.9999 I-2.8176 J-2.8273
G1 Y57.9998
G1 Y57.9999
G1 Y1.9999
G2 Y1.9985 I-2.0 J0.0
G2 X40.827 Y-0.8265 I-3.9948 J0.0027
G2 X38.0002 Y-2.0 I-2.8273 J2.819
G1 X37.9999
G1 X2.0001
G2 X1.9988 I0.0 J2.0
G2 X-0.8262 Y-0.8273 I0.0026 J3.9951
G1 F50.0 Z-3.0
G2 F120.0 X-2.0 Y1.9997 I2.8183 J2.8273
G1 Y1.9999
G1 Y57.9999
G2 Y58.0016 I2.0 J0.0
G2 X-0.8273 Y60.826 I3.9959 J-0.0034
G2 X2.0001 Y62.0 I2.8273 J-2.8176
G1 X37.9999
G2 X38.0016 I0.0 J-2.0
G2 X40.826 Y60.8273 I-0.0034 J-3.9959
G2 X42.0 Y57.9999 I-2.8176 J-2.8273
G1 Y57.9998
G1 Y57.9999
G1 Y1.9999
G2 Y1.9985 I-2.0 J0.0
G2 X40.827 Y-0.8265 I-3.9948 J0.0027
G2 X38.0002 Y-2.0 I-2.8273 J2.819
G1 X37.9999
G1 X2.0001
G2 X1.9988 I0.0 J2.0
G2 X-0.8262 Y-0.8273 I0.0026 J3.9951
G1 F50.0 Z-4.0
G2 F120.0 X-2.0 Y1.9997 I2.8183 J2.8273
G1 Y1.9999
G1 Y57.9999
G2 Y58.0016 I2.0 J0.0
G2 X-0.8273 Y60.826 I3.9959 J-0.0034
G2 X2.0001 Y62.0 I2.8273 J-2.8176
G1 X37.9999
G2 X38.0016 I0.0 J-2.0
G2 X40.826 Y60.8273 I-0.0034 J-3.9959
G2 X42.0 Y57.9999 I-2.8176 J-2.8273
G1 Y57.9998
G1 Y57.9999
G1 Y1.9999
G2 Y1.9985 I-2.0 J0.0
G2 X40.827 Y-0.8265 I-3.9948 J0.0027
G2 X38.0002 Y-2.0 I-2.8273 J2.819
G1 X37.9999
G1 X2.0001
G2 X1.9988 I0.0 J2.0
G2 X-0.8262 Y-0.8273 I0.0026 J3.9951
G1 F50.0 Z-4.5
G2 F120.0 X-2.0 Y1.9997 I2.8183 J2.8273
G1 Y1.9999
G1 Y57.9999
G2 Y58.0016 I2.0 J0.0
G2 X-0.8273 Y60.826 I3.9959 J-0.0034
G2 X2.0001 Y62.0 I2.8273 J-2.8176
G1 X37.9999
G2 X38.0016 I0.0 J-2.0
G2 X40.826 Y60.8273 I-0.0034 J-3.9959
G2 X42.0 Y57.9999 I-2.8176 J-2.8273
G1 Y57.9998
G1 Y57.9999
G1 Y1.9999
G2 Y1.9985 I-2.0 J0.0
G2 X40.827 Y-0.8265 I-3.9948 J0.0027
G2 X38.0002 Y-2.0 I-2.8273 J2.819
G1 X37.9999
G1 X2.0001
G2 X1.9988 I0.0 J2.0
G2 X-0.8262 Y-0.8273 I0.0026 J3.9951
( Profile2 )
S1000
G0 Z3.0
G0 X45.1736
G0 Z1.0
G1 F50.0 Z-1.0
G2 F120.0 X43.9998 Y1.9997 I2.8183 J2.8273
G1 Y1.9999
G1 Y57.9999
G2 Y58.0016 I2.0 J0.0
G2 X45.1724 Y60.826 I3.9959 J-0.0034
G2 X47.9999 Y62.0 I2.8273 J-2.8176
G1 X47.9998
G1 X47.9999
G1 X84.0002
G2 X84.002 I0.0 J-2.0
G2 X86.8268 Y60.8267 I-0.0036 J-3.996
G2 X88.0004 Y58.0015 I-2.8216 J-2.8285
G2 Y57.9999 I-2.0 J-0.0016
G1 Y1.9999
G2 X86.8264 Y-0.8273 I-3.9909 J-0.0001
G2 X84.0007 Y-2.0 I-2.8267 J2.8204
G2 X84.0002 I-0.0005 J2.0
G1 X47.9998
G2 X47.9985 I0.0 J2.0
G2 X45.1736 Y-0.8273 I0.0026 J3.9951
G1 F50.0 Z-2.0
G2 F120.0 X43.9998 Y1.9997 I2.8183 J2.8273
G1 Y1.9999
G1 Y57.9999
G2 Y58.0016 I2.0 J0.0
G2 X45.1724 Y60.826 I3.9959 J-0.0034
G2 X47.9999 Y62.0 I2.8273 J-2.8176
G1 X47.9998
G1 X47.9999
G1 X84.0002
G2 X84.002 I0.0 J-2.0
G2 X86.8268 Y60.8267 I-0.0036 J-3.996
G2 X88.0004 Y58.0015 I-2.8216 J-2.8285
G2 Y57.9999 I-2.0 J-0.0016
G1 Y1.9999
G2 X86.8264 Y-0.8273 I-3.9909 J-0.0001
G2 X84.0007 Y-2.0 I-2.8267 J2.8204
G2 X84.0002 I-0.0005 J2.0
G1 X47.9998
G2 X47.9985 I0.0 J2.0
G2 X45.1736 Y-0.8273 I0.0026 J3.9951
G1 F50.0 Z-3.0
G2 F120.0 X43.9998 Y1.9997 I2.8183 J2.8273
G1 Y1.9999
G1 Y57.9999
G2 Y58.0016 I2.0 J0.0
G2 X45.1724 Y60.826 I3.9959 J-0.0034
G2 X47.9999 Y62.0 I2.8273 J-2.8176
G1 X47.9998
G1 X47.9999
G1 X84.0002
G2 X84.002 I0.0 J-2.0
G2 X86.8268 Y60.8267 I-0.0036 J-3.996
G2 X88.0004 Y58.0015 I-2.8216 J-2.8285
G2 Y57.9999 I-2.0 J-0.0016
G1 Y1.9999
G2 X86.8264 Y-0.8273 I-3.9909 J-0.0001
G2 X84.0007 Y-2.0 I-2.8267 J2.8204
G2 X84.0002 I-0.0005 J2.0
G1 X47.9998
G2 X47.9985 I0.0 J2.0
G2 X45.1736 Y-0.8273 I0.0026 J3.9951
G1 F50.0 Z-4.0
G2 F120.0 X43.9998 Y1.9997 I2.8183 J2.8273
G1 Y1.9999
G1 Y57.9999
G2 Y58.0016 I2.0 J0.0
G2 X45.1724 Y60.826 I3.9959 J-0.0034
G2 X47.9999 Y62.0 I2.8273 J-2.8176
G1 X47.9998
G1 X47.9999
G1 X84.0002
G2 X84.002 I0.0 J-2.0
G2 X86.8268 Y60.8267 I-0.0036 J-3.996
G2 X88.0004 Y58.0015 I-2.8216 J-2.8285
G2 Y57.9999 I-2.0 J-0.0016
G1 Y1.9999
G2 X86.8264 Y-0.8273 I-3.9909 J-0.0001
G2 X84.0007 Y-2.0 I-2.8267 J2.8204
G2 X84.0002 I-0.0005 J2.0
G1 X47.9998
G2 X47.9985 I0.0 J2.0
G2 X45.1736 Y-0.8273 I0.0026 J3.9951
G1 F50.0 Z-4.5
G2 F120.0 X43.9998 Y1.9997 I2.8183 J2.8273
G1 Y1.9999
G1 Y57.9999
G2 Y58.0016 I2.0 J0.0
G2 X45.1724 Y60.826 I3.9959 J-0.0034
G2 X47.9999 Y62.0 I2.8273 J-2.8176
G1 X47.9998
G1 X47.9999
G1 X84.0002
G2 X84.002 I0.0 J-2.0
G2 X86.8268 Y60.8267 I-0.0036 J-3.996
G2 X88.0004 Y58.0015 I-2.8216 J-2.8285
G2 Y57.9999 I-2.0 J-0.0016
G1 Y1.9999
G2 X86.8264 Y-0.8273 I-3.9909 J-0.0001
G2 X84.0007 Y-2.0 I-2.8267 J2.8204
G2 X84.0002 I-0.0005 J2.0
G1 X47.9998
G2 X47.9985 I0.0 J2.0
G2 X45.1736 Y-0.8273 I0.0026 J3.9951
G0 Z3.0
M5
M30
