( Made using CamBam - http://www.cambam.co.uk )
( base end plates 9/14/2013 5:23:13 PM )
( T11 : 5.0 )
G21 G90 G64 G40
G0 Z3.0
( T11 : 5.0 )
T11 M6
( 5mm Drill )
G17
M3 S1000
G0 X9.9999 Y50.0
G98
G83 X9.9999 Y50.0 Z-7.0 Q2.0 R2.0 F50.0
G83 X30.0001 Z-7.0
G83 Y30.0 Z-7.0
G83 Y10.0 Z-7.0
G83 X9.9999 Z-7.0
G83 Y29.9998 Z-7.0
G83 X56.0002 Z-7.0
G83 Y9.9999 Z-7.0
G83 X76.0004 Z-7.0
G83 Y30.0 Z-7.0
G83 Y50.0 Z-7.0
G83 X56.0002 Z-7.0
G80
G0 Z3.0
M5
M30
