( Made using CamBam - http://www.cambam.co.uk )
( base end plates 9/14/2013 5:23:08 PM )
( T16 : 1.0 )
G21 G90 G64 G40
G0 Z3.0
( T16 : 1.0 )
T16 M6
( Spot Drill )
G17
M3 S1000
G0 X9.9999 Y50.0
G98
G81 X9.9999 Y50.0 Z-1.5 R2.0 F50.0
G81 X30.0001 Z-1.5
G81 Y30.0 Z-1.5
G81 Y10.0 Z-1.5
G81 X9.9999 Z-1.5
G81 Y29.9998 Z-1.5
G81 X56.0002 Z-1.5
G81 Y9.9999 Z-1.5
G81 X76.0004 Z-1.5
G81 Y30.0 Z-1.5
G81 Y50.0 Z-1.5
G81 X56.0002 Z-1.5
G80
G0 Z3.0
M5
M30
