( Made using CamBam - http://www.cambam.co.uk )
( base plate 10/26/2013 7:46:48 PM )
( T3 : 2.9 )
G21 G90 G91.1 G64 G40
G0 Z3.0
( T3 : 2.9 )
T3 M6
( Profile1 )
G17
M3 S1000
G0 X31.0042 Y6.5084
G0 Z1.0
G1 F50.0 Z-4.0
G1 F150.0 Y31.5017
G3 X30.9509 Y31.555 I-0.0541 J-0.0008
G1 X8.9578
G3 X8.9042 Y31.5014 I0.0009 J-0.0545
G1 Y6.5085
G3 X8.9577 Y6.455 I0.0543 J0.0008
G1 X30.9508
G3 X31.0042 Y6.5084 I-0.0008 J0.0542
G0 Z3.0
G0 X36.9224 Y6.5085
G0 Z1.0
G1 F50.0 Z-4.0
G3 F150.0 X36.9759 Y6.455 I0.0543 J0.0008
G1 X58.9691
G3 X59.0225 Y6.5084 I-0.0008 J0.0542
G1 Y31.5017
G3 X58.9691 Y31.555 I-0.0541 J-0.0008
G1 X36.9761
G3 X36.9224 Y31.5014 I0.0009 J-0.0545
G1 Y6.5085
G0 Z3.0
G0 X64.9409
G0 Z1.0
G1 F50.0 Z-4.0
G3 F150.0 X64.9944 Y6.455 I0.0543 J0.0008
G1 X86.9875
G3 X87.0409 Y6.5084 I-0.0008 J0.0542
G1 Y31.5017
G3 X86.9876 Y31.555 I-0.0541 J-0.0008
G1 X64.9945
G3 X64.9409 Y31.5014 I0.0009 J-0.0545
G1 Y6.5085
G0 Z3.0
G0 X92.9593 Y6.5089
G0 Z1.0
G1 F50.0 Z-4.0
G3 F150.0 X93.0132 Y6.455 I0.0548 J0.0009
G1 X115.0059
G3 X115.0593 Y6.5084 I-0.0008 J0.0542
G1 Y31.5017
G3 X115.006 Y31.555 I-0.0541 J-0.0008
G1 X93.0131
G3 X92.9593 Y31.5013 I0.0009 J-0.0546
G1 Y6.5089
G0 Z3.0
G0 X120.9776 Y6.5092
G0 Z1.0
G1 F50.0 Z-4.0
G3 F150.0 X121.0315 Y6.4554 I0.0548 J0.0009
G1 X143.0242
G3 X143.0776 Y6.5088 I-0.0008 J0.0542
G1 Y31.5017
G3 X143.0243 Y31.555 I-0.0541 J-0.0008
G1 X121.0313
G3 X120.9776 Y31.5013 I0.0009 J-0.0546
G1 Y6.5092
G0 Z3.0
G0 X148.9959
G0 Z1.0
G1 F50.0 Z-4.0
G1 F150.0 Y6.5089
G3 X149.0497 Y6.455 I0.0548 J0.0009
G1 X171.0425
G3 X171.0959 Y6.5084 I-0.0008 J0.0542
G1 Y31.5017
G3 X171.0426 Y31.555 I-0.0541 J-0.0008
G1 X149.0496
G3 X148.9959 Y31.5013 I0.0009 J-0.0546
G1 Y6.5092
G0 Z3.0
M5
M30
