( Made using CamBam - http://www.cambam.co.uk )
( base plate 10/26/2013 8:09:36 PM )
( T3 : 3.0 )
G21 G90 G91.1 G64 G40
G0 Z3.0
( T3 : 3.0 )
T3 M6
( Pocket1 )
G17
M3 S1000
G0 X22.218 Y5.005
G0 Z1.0
G1 F50.0 Z-2.5
G3 F150.0 X21.612 Y5.1517 I-1.8751 J-6.4219
G3 X20.3868 Y5.295 I-1.5865 J-8.2535
G1 X20.2859 Y5.2991
G2 X20.2807 Y5.2993 I0.1098 J2.6978
G3 X19.9714 Y5.3049 I-0.2691 J-6.3103
G2 X19.9536 I-0.0172 J2.6999
G3 X18.6409 Y5.2106 I-0.002 J-9.1584
G2 X18.6365 Y5.2099 I-0.3864 J2.6722
G3 X17.6904 Y5.0051 I0.9614 J-6.7277
G3 X18.2963 Y4.8584 I1.8751 J6.4219
G3 X19.5216 Y4.7151 I1.5865 J8.2535
G1 X19.6224 Y4.711
G2 X19.6276 Y4.7108 I-0.1098 J-2.6978
G3 X19.937 Y4.7052 I0.2691 J6.3103
G2 X19.9547 I0.0172 J-2.6999
G3 X21.2674 Y4.7995 I0.002 J9.1584
G2 X21.2718 Y4.8001 I0.3864 J-2.6722
G3 X22.218 Y5.005 I-0.9614 J6.7277
G1 F50.0 X22.5548 Y3.8532
G3 F150.0 X22.8372 Y3.9415 I-2.2444 J7.6746
G3 X23.6481 Y4.289 I-1.7084 J5.1061
G3 X24.0337 Y4.531 I-1.7744 J3.2567
G3 X24.34 Y4.8089 I-1.0988 J1.5187
G2 X24.3415 Y4.8106 I1.1244 J-0.9928
G3 X24.4118 Y4.907 I-0.4734 J0.4193
G2 X24.4244 Y4.9277 I1.2897 J-0.766
G3 X24.4491 Y4.9821 I-0.2036 J0.1254
G2 X24.4497 Y4.9842 I1.4323 J-0.4456
G3 X24.454 Y5.0073 I-0.0927 J0.029
G3 X24.4491 Y5.0291 I-0.0711 J-0.0047
G3 X24.3595 Y5.1771 I-0.5557 J-0.2351
G2 X24.355 Y5.1826 I1.1588 J0.9525
G3 X24.2223 Y5.3236 I-1.0513 J-0.8559
G2 X24.2204 Y5.3254 I1.0164 J1.1031
G3 X23.9708 Y5.5241 I-1.4634 J-1.5827
G2 X23.9632 Y5.5293 I0.8446 J1.2396
G3 X23.5372 Y5.779 I-1.896 J-2.7464
G2 X23.5328 Y5.7811 I0.6607 J1.3467
G3 X22.847 Y6.0652 I-2.4712 J-4.996
G3 X21.8391 Y6.33 I-2.5042 J-7.4821
G3 X20.4369 Y6.4939 I-1.8135 J-9.4318
G1 X20.3347 Y6.4981
G2 X20.3318 Y6.4982 I0.061 J1.4988
G3 X19.9637 Y6.5049 I-0.3202 J-7.5092
G2 X19.9538 I-0.0096 J1.5
G3 X18.4692 Y6.3982 I-0.0022 J-10.3584
G2 X18.4667 Y6.3979 I-0.2147 J1.4846
G3 X17.0711 Y6.0685 I1.1312 J-7.9157
G3 X16.2603 Y5.721 I1.7084 J-5.1061
G3 X15.8747 Y5.4791 I1.7744 J-3.2567
G3 X15.5683 Y5.2012 I1.0988 J-1.5187
G2 X15.5668 Y5.1994 I-1.1244 J0.9928
G3 X15.4965 Y5.1031 I0.4734 J-0.4193
G2 X15.484 Y5.0824 I-1.2897 J0.766
G3 X15.4592 Y5.028 I0.2036 J-0.1254
G2 X15.4586 Y5.0259 I-1.4323 J0.4456
G3 X15.4543 Y5.0027 I0.0927 J-0.029
G3 X15.4592 Y4.981 I0.0711 J0.0047
G3 X15.5488 Y4.833 I0.5557 J0.2351
G2 X15.5533 Y4.8275 I-1.1588 J-0.9525
G3 X15.686 Y4.6864 I1.0513 J0.8559
G2 X15.6879 Y4.6847 I-1.0164 J-1.1031
G3 X15.9375 Y4.486 I1.4634 J1.5827
G2 X15.9451 Y4.4808 I-0.8446 J-1.2396
G3 X16.3712 Y4.2311 I1.896 J2.7464
G2 X16.3755 Y4.2289 I-0.6607 J-1.3467
G3 X17.0613 Y3.9449 I2.4712 J4.996
G3 X18.0692 Y3.6801 I2.5042 J7.4821
G3 X19.4714 Y3.5161 I1.8135 J9.4318
G1 X19.5736 Y3.512
G2 X19.5765 Y3.5119 I-0.061 J-1.4988
G3 X19.9446 Y3.5052 I0.3202 J7.5092
G2 X19.9545 I0.0096 J-1.5
G3 X21.4391 Y3.6118 I0.0022 J10.3584
G2 X21.4416 Y3.6122 I0.2147 J-1.4846
G3 X22.5548 Y3.8532 I-1.1312 J7.9157
G1 F50.0 X22.218 Y5.005
G1 Z-5.0
G3 F150.0 X21.612 Y5.1517 I-1.8751 J-6.4219
G3 X20.3868 Y5.295 I-1.5865 J-8.2535
G1 X20.2859 Y5.2991
G2 X20.2807 Y5.2993 I0.1098 J2.6978
G3 X19.9714 Y5.3049 I-0.2691 J-6.3103
G2 X19.9536 I-0.0172 J2.6999
G3 X18.6409 Y5.2106 I-0.002 J-9.1584
G2 X18.6365 Y5.2099 I-0.3864 J2.6722
G3 X17.6904 Y5.0051 I0.9614 J-6.7277
G3 X18.2963 Y4.8584 I1.8751 J6.4219
G3 X19.5216 Y4.7151 I1.5865 J8.2535
G1 X19.6224 Y4.711
G2 X19.6276 Y4.7108 I-0.1098 J-2.6978
G3 X19.937 Y4.7052 I0.2691 J6.3103
G2 X19.9547 I0.0172 J-2.6999
G3 X21.2674 Y4.7995 I0.002 J9.1584
G2 X21.2718 Y4.8001 I0.3864 J-2.6722
G3 X22.218 Y5.005 I-0.9614 J6.7277
G1 F50.0 X22.5548 Y3.8532
G3 F150.0 X22.8372 Y3.9415 I-2.2444 J7.6746
G3 X23.6481 Y4.289 I-1.7084 J5.1061
G3 X24.0337 Y4.531 I-1.7744 J3.2567
G3 X24.34 Y4.8089 I-1.0988 J1.5187
G2 X24.3415 Y4.8106 I1.1244 J-0.9928
G3 X24.4118 Y4.907 I-0.4734 J0.4193
G2 X24.4244 Y4.9277 I1.2897 J-0.766
G3 X24.4491 Y4.9821 I-0.2036 J0.1254
G2 X24.4497 Y4.9842 I1.4323 J-0.4456
G3 X24.454 Y5.0073 I-0.0927 J0.029
G3 X24.4491 Y5.0291 I-0.0711 J-0.0047
G3 X24.3595 Y5.1771 I-0.5557 J-0.2351
G2 X24.355 Y5.1826 I1.1588 J0.9525
G3 X24.2223 Y5.3236 I-1.0513 J-0.8559
G2 X24.2204 Y5.3254 I1.0164 J1.1031
G3 X23.9708 Y5.5241 I-1.4634 J-1.5827
G2 X23.9632 Y5.5293 I0.8446 J1.2396
G3 X23.5372 Y5.779 I-1.896 J-2.7464
G2 X23.5328 Y5.7811 I0.6607 J1.3467
G3 X22.847 Y6.0652 I-2.4712 J-4.996
G3 X21.8391 Y6.33 I-2.5042 J-7.4821
G3 X20.4369 Y6.4939 I-1.8135 J-9.4318
G1 X20.3347 Y6.4981
G2 X20.3318 Y6.4982 I0.061 J1.4988
G3 X19.9637 Y6.5049 I-0.3202 J-7.5092
G2 X19.9538 I-0.0096 J1.5
G3 X18.4692 Y6.3982 I-0.0022 J-10.3584
G2 X18.4667 Y6.3979 I-0.2147 J1.4846
G3 X17.0711 Y6.0685 I1.1312 J-7.9157
G3 X16.2603 Y5.721 I1.7084 J-5.1061
G3 X15.8747 Y5.4791 I1.7744 J-3.2567
G3 X15.5683 Y5.2012 I1.0988 J-1.5187
G2 X15.5668 Y5.1994 I-1.1244 J0.9928
G3 X15.4965 Y5.1031 I0.4734 J-0.4193
G2 X15.484 Y5.0824 I-1.2897 J0.766
G3 X15.4592 Y5.028 I0.2036 J-0.1254
G2 X15.4586 Y5.0259 I-1.4323 J0.4456
G3 X15.4543 Y5.0027 I0.0927 J-0.029
G3 X15.4592 Y4.981 I0.0711 J0.0047
G3 X15.5488 Y4.833 I0.5557 J0.2351
G2 X15.5533 Y4.8275 I-1.1588 J-0.9525
G3 X15.686 Y4.6864 I1.0513 J0.8559
G2 X15.6879 Y4.6847 I-1.0164 J-1.1031
G3 X15.9375 Y4.486 I1.4634 J1.5827
G2 X15.9451 Y4.4808 I-0.8446 J-1.2396
G3 X16.3712 Y4.2311 I1.896 J2.7464
G2 X16.3755 Y4.2289 I-0.6607 J-1.3467
G3 X17.0613 Y3.9449 I2.4712 J4.996
G3 X18.0692 Y3.6801 I2.5042 J7.4821
G3 X19.4714 Y3.5161 I1.8135 J9.4318
G1 X19.5736 Y3.512
G2 X19.5765 Y3.5119 I-0.061 J-1.4988
G3 X19.9446 Y3.5052 I0.3202 J7.5092
G2 X19.9545 I0.0096 J-1.5
G3 X21.4391 Y3.6118 I0.0022 J10.3584
G2 X21.4416 Y3.6122 I0.2147 J-1.4846
G3 X22.5548 Y3.8532 I-1.1312 J7.9157
G0 Z3.0
G0 X45.7086 Y5.0054
G0 Z1.0
G1 F50.0 Z-2.5
G3 F150.0 X46.3146 Y4.8588 I1.8741 J6.4175
G3 X47.5399 Y4.7154 I1.5866 J8.2543
G1 X47.6407 Y4.7113
G2 X47.6459 Y4.7111 I-0.1098 J-2.6978
G3 X47.9552 Y4.7055 I0.2691 J6.3103
G2 X47.9729 Y4.7056 I0.0172 J-2.6999
G3 X49.2858 Y4.7999 I0.0016 J9.1654
G2 X49.29 Y4.8005 I0.3863 J-2.6722
G3 X50.2364 Y5.0054 I-0.9624 J6.7321
G3 X49.6306 Y5.152 I-1.8681 J-6.396
G3 X48.405 Y5.2953 I-1.5871 J-8.259
G1 X48.3042 Y5.2994
G2 X48.299 Y5.2996 I0.1098 J2.6978
G3 X47.9897 Y5.3053 I-0.2689 J-6.3066
G2 X47.9721 Y5.3052 I-0.0173 J2.6999
G3 X46.6589 Y5.2109 I-0.0012 J-9.1752
G2 X46.6551 Y5.2104 I-0.3861 J2.6723
G3 X45.7086 Y5.0054 I0.965 J-6.746
G1 F50.0 X45.372 Y6.1573
G3 F150.0 X45.0893 Y6.0689 I2.2481 J-7.6929
G3 X44.2784 Y5.7215 I1.7131 J-5.1174
G3 X43.8928 Y5.4795 I1.7769 J-3.2606
G3 X43.5866 Y5.2017 I1.0976 J-1.5172
G2 X43.5848 Y5.1997 I-1.1245 J0.9928
G3 X43.5149 Y5.1039 I0.4696 J-0.4161
G2 X43.5019 Y5.0824 I-1.2899 J0.7656
G3 X43.4777 Y5.0291 I0.199 J-0.1227
G2 X43.4767 Y5.0258 I-1.4325 J0.4449
G3 X43.4726 Y5.0036 I0.0881 J-0.0276
G3 X43.4776 Y4.9814 I0.0728 J0.0046
G3 X43.5674 Y4.8331 I0.5589 J0.2371
G2 X43.5714 Y4.8281 I-1.159 J-0.9522
G3 X43.7045 Y4.6866 I1.0581 J0.8618
G2 X43.7061 Y4.6851 I-1.0167 J-1.1028
G3 X43.9559 Y4.4863 I1.4659 J1.5856
G2 X43.9632 Y4.4813 I-0.8448 J-1.2395
G3 X44.3896 Y4.2314 I1.9 J2.7526
G2 X44.3937 Y4.2294 I-0.6609 J-1.3466
G3 X45.0796 Y3.9452 I2.4742 J5.0029
G3 X46.0875 Y3.6804 I2.5031 J7.4777
G3 X47.4897 Y3.5165 I1.8137 J9.4326
G1 X47.5919 Y3.5123
G2 X47.5948 Y3.5122 I-0.061 J-1.4988
G3 X47.9629 Y3.5055 I0.3202 J7.5092
G2 X47.9727 Y3.5056 I0.0096 J-1.5
G3 X49.4575 Y3.6122 I0.0018 J10.3654
G2 X49.4598 Y3.6125 I0.2146 J-1.4846
G3 X50.8556 Y3.9419 I-1.1323 J7.92
G3 X51.6664 Y4.2895 I-1.7088 J5.1065
G3 X52.0521 Y4.5315 I-1.7721 J3.2524
G3 X52.3581 Y4.8091 I-1.0945 J1.5135
G2 X52.36 Y4.8113 I1.1247 J-0.9925
G3 X52.43 Y4.9072 I-0.4699 J0.4163
G2 X52.4428 Y4.9285 I1.2899 J-0.7656
G3 X52.4672 Y4.9821 I-0.2005 J0.1235
G2 X52.4681 Y4.9849 I1.4324 J-0.4451
G3 X52.4723 Y5.0075 I-0.0907 J0.0284
G3 X52.4672 Y5.0299 I-0.0744 J-0.0049
G3 X52.3775 Y5.178 I-0.5595 J-0.2377
G2 X52.3735 Y5.1829 I1.1591 J0.9521
G3 X52.2405 Y5.3243 I-1.0567 J-0.8606
G2 X52.2386 Y5.326 I1.0166 J1.1029
G3 X51.9893 Y5.5245 I-1.4591 J-1.5778
G2 X51.9815 Y5.5298 I0.8444 J1.2397
G3 X51.5555 Y5.7794 I-1.8942 J-2.7437
G2 X51.551 Y5.7817 I0.6606 J1.3467
G3 X50.8653 Y6.0656 I-2.4661 J-4.985
G3 X49.8575 Y6.3303 I-2.497 J-7.4562
G3 X48.4552 Y6.4943 I-1.814 J-9.4374
G1 X48.353 Y6.4984
G2 X48.3501 Y6.4986 I0.061 J1.4988
G3 X47.982 Y6.5052 I-0.3201 J-7.5055
G2 X47.9722 I-0.0096 J1.5
G3 X46.4873 Y6.3986 I-0.0013 J-10.3752
G2 X46.4852 Y6.3983 I-0.2145 J1.4846
G3 X45.372 Y6.1573 I1.1349 J-7.9339
G1 F50.0 X45.7086 Y5.0054
G1 Z-5.0
G3 F150.0 X46.3146 Y4.8588 I1.8741 J6.4175
G3 X47.5399 Y4.7154 I1.5866 J8.2543
G1 X47.6407 Y4.7113
G2 X47.6459 Y4.7111 I-0.1098 J-2.6978
G3 X47.9552 Y4.7055 I0.2691 J6.3103
G2 X47.9729 Y4.7056 I0.0172 J-2.6999
G3 X49.2858 Y4.7999 I0.0016 J9.1654
G2 X49.29 Y4.8005 I0.3863 J-2.6722
G3 X50.2364 Y5.0054 I-0.9624 J6.7321
G3 X49.6306 Y5.152 I-1.8681 J-6.396
G3 X48.405 Y5.2953 I-1.5871 J-8.259
G1 X48.3042 Y5.2994
G2 X48.299 Y5.2996 I0.1098 J2.6978
G3 X47.9897 Y5.3053 I-0.2689 J-6.3066
G2 X47.9721 Y5.3052 I-0.0173 J2.6999
G3 X46.6589 Y5.2109 I-0.0012 J-9.1752
G2 X46.6551 Y5.2104 I-0.3861 J2.6723
G3 X45.7086 Y5.0054 I0.965 J-6.746
G1 F50.0 X45.372 Y6.1573
G3 F150.0 X45.0893 Y6.0689 I2.2481 J-7.6929
G3 X44.2784 Y5.7215 I1.7131 J-5.1174
G3 X43.8928 Y5.4795 I1.7769 J-3.2606
G3 X43.5866 Y5.2017 I1.0976 J-1.5172
G2 X43.5848 Y5.1997 I-1.1245 J0.9928
G3 X43.5149 Y5.1039 I0.4696 J-0.4161
G2 X43.5019 Y5.0824 I-1.2899 J0.7656
G3 X43.4777 Y5.0291 I0.199 J-0.1227
G2 X43.4767 Y5.0258 I-1.4325 J0.4449
G3 X43.4726 Y5.0036 I0.0881 J-0.0276
G3 X43.4776 Y4.9814 I0.0728 J0.0046
G3 X43.5674 Y4.8331 I0.5589 J0.2371
G2 X43.5714 Y4.8281 I-1.159 J-0.9522
G3 X43.7045 Y4.6866 I1.0581 J0.8618
G2 X43.7061 Y4.6851 I-1.0167 J-1.1028
G3 X43.9559 Y4.4863 I1.4659 J1.5856
G2 X43.9632 Y4.4813 I-0.8448 J-1.2395
G3 X44.3896 Y4.2314 I1.9 J2.7526
G2 X44.3937 Y4.2294 I-0.6609 J-1.3466
G3 X45.0796 Y3.9452 I2.4742 J5.0029
G3 X46.0875 Y3.6804 I2.5031 J7.4777
G3 X47.4897 Y3.5165 I1.8137 J9.4326
G1 X47.5919 Y3.5123
G2 X47.5948 Y3.5122 I-0.061 J-1.4988
G3 X47.9629 Y3.5055 I0.3202 J7.5092
G2 X47.9727 Y3.5056 I0.0096 J-1.5
G3 X49.4575 Y3.6122 I0.0018 J10.3654
G2 X49.4598 Y3.6125 I0.2146 J-1.4846
G3 X50.8556 Y3.9419 I-1.1323 J7.92
G3 X51.6664 Y4.2895 I-1.7088 J5.1065
G3 X52.0521 Y4.5315 I-1.7721 J3.2524
G3 X52.3581 Y4.8091 I-1.0945 J1.5135
G2 X52.36 Y4.8113 I1.1247 J-0.9925
G3 X52.43 Y4.9072 I-0.4699 J0.4163
G2 X52.4428 Y4.9285 I1.2899 J-0.7656
G3 X52.4672 Y4.9821 I-0.2005 J0.1235
G2 X52.4681 Y4.9849 I1.4324 J-0.4451
G3 X52.4723 Y5.0075 I-0.0907 J0.0284
G3 X52.4672 Y5.0299 I-0.0744 J-0.0049
G3 X52.3775 Y5.178 I-0.5595 J-0.2377
G2 X52.3735 Y5.1829 I1.1591 J0.9521
G3 X52.2405 Y5.3243 I-1.0567 J-0.8606
G2 X52.2386 Y5.326 I1.0166 J1.1029
G3 X51.9893 Y5.5245 I-1.4591 J-1.5778
G2 X51.9815 Y5.5298 I0.8444 J1.2397
G3 X51.5555 Y5.7794 I-1.8942 J-2.7437
G2 X51.551 Y5.7817 I0.6606 J1.3467
G3 X50.8653 Y6.0656 I-2.4661 J-4.985
G3 X49.8575 Y6.3303 I-2.497 J-7.4562
G3 X48.4552 Y6.4943 I-1.814 J-9.4374
G1 X48.353 Y6.4984
G2 X48.3501 Y6.4986 I0.061 J1.4988
G3 X47.982 Y6.5052 I-0.3201 J-7.5055
G2 X47.9722 I-0.0096 J1.5
G3 X46.4873 Y6.3986 I-0.0013 J-10.3752
G2 X46.4852 Y6.3983 I-0.2145 J1.4846
G3 X45.372 Y6.1573 I1.1349 J-7.9339
G0 Z3.0
G0 X73.7271 Y5.0051
G0 Z1.0
G1 F50.0 Z-2.5
G3 F150.0 X74.333 Y4.8584 I1.8751 J6.4219
G3 X75.5583 Y4.7151 I1.5865 J8.2535
G1 X75.6591 Y4.711
G2 X75.6643 Y4.7108 I-0.1098 J-2.6978
G3 X75.9737 Y4.7052 I0.2691 J6.3103
G2 X75.9915 I0.0172 J-2.6999
G3 X77.3041 Y4.7995 I0.002 J9.1584
G2 X77.3085 Y4.8001 I0.3864 J-2.6722
G3 X78.2547 Y5.005 I-0.9614 J6.7277
G3 X77.6487 Y5.1517 I-1.8751 J-6.4219
G3 X76.4235 Y5.295 I-1.5865 J-8.2535
G1 X76.3226 Y5.2991
G2 X76.3174 Y5.2993 I0.1098 J2.6978
G3 X76.0081 Y5.3049 I-0.2691 J-6.3103
G2 X75.9903 I-0.0172 J2.6999
G3 X74.6777 Y5.2106 I-0.002 J-9.1584
G2 X74.6732 Y5.2099 I-0.3864 J2.6722
G3 X73.7271 Y5.0051 I0.9614 J-6.7277
G1 F50.0 X73.3903 Y6.1568
G3 F150.0 X73.1078 Y6.0685 I2.2444 J-7.6746
G3 X72.297 Y5.721 I1.7084 J-5.1061
G3 X71.9114 Y5.4791 I1.7744 J-3.2567
G3 X71.6051 Y5.2012 I1.0988 J-1.5187
G2 X71.6035 Y5.1994 I-1.1244 J0.9928
G3 X71.5332 Y5.1031 I0.4734 J-0.4193
G2 X71.5207 Y5.0824 I-1.2897 J0.766
G3 X71.496 Y5.028 I0.2036 J-0.1254
G2 X71.4953 Y5.0259 I-1.4323 J0.4456
G3 X71.4911 Y5.0027 I0.0927 J-0.029
G3 X71.496 Y4.981 I0.0711 J0.0047
G3 X71.5855 Y4.833 I0.5557 J0.2351
G2 X71.59 Y4.8275 I-1.1588 J-0.9525
G3 X71.7227 Y4.6864 I1.0513 J0.8559
G2 X71.7246 Y4.6847 I-1.0164 J-1.1031
G3 X71.9742 Y4.486 I1.4634 J1.5827
G2 X71.9818 Y4.4808 I-0.8446 J-1.2396
G3 X72.4079 Y4.2311 I1.896 J2.7464
G2 X72.4122 Y4.2289 I-0.6607 J-1.3467
G3 X73.098 Y3.9449 I2.4712 J4.996
G3 X74.106 Y3.6801 I2.5042 J7.4821
G3 X75.5081 Y3.5161 I1.8135 J9.4318
G1 X75.6103 Y3.512
G2 X75.6132 Y3.5119 I-0.061 J-1.4988
G3 X75.9813 Y3.5052 I0.3202 J7.5092
G2 X75.9912 I0.0096 J-1.5
G3 X77.4758 Y3.6118 I0.0022 J10.3584
G2 X77.4783 Y3.6122 I0.2147 J-1.4846
G3 X78.8739 Y3.9415 I-1.1312 J7.9157
G3 X79.6848 Y4.289 I-1.7084 J5.1061
G3 X80.0704 Y4.531 I-1.7744 J3.2567
G3 X80.3767 Y4.8089 I-1.0988 J1.5187
G2 X80.3782 Y4.8106 I1.1244 J-0.9928
G3 X80.4486 Y4.907 I-0.4734 J0.4193
G2 X80.4611 Y4.9277 I1.2897 J-0.766
G3 X80.4858 Y4.9821 I-0.2036 J0.1254
G2 X80.4865 Y4.9842 I1.4323 J-0.4456
G3 X80.4907 Y5.0073 I-0.0927 J0.029
G3 X80.4858 Y5.0291 I-0.0711 J-0.0047
G3 X80.3962 Y5.1771 I-0.5557 J-0.2351
G2 X80.3917 Y5.1826 I1.1588 J0.9525
G3 X80.2591 Y5.3236 I-1.0513 J-0.8559
G2 X80.2572 Y5.3254 I1.0164 J1.1031
G3 X80.0075 Y5.5241 I-1.4634 J-1.5827
G2 X79.9999 Y5.5293 I0.8446 J1.2396
G3 X79.5739 Y5.779 I-1.896 J-2.7464
G2 X79.5696 Y5.7811 I0.6607 J1.3467
G3 X78.8838 Y6.0652 I-2.4712 J-4.996
G3 X77.8758 Y6.33 I-2.5042 J-7.4821
G3 X76.4736 Y6.4939 I-1.8135 J-9.4318
G1 X76.3714 Y6.4981
G2 X76.3685 Y6.4982 I0.061 J1.4988
G3 X76.0004 Y6.5049 I-0.3202 J-7.5092
G2 X75.9906 I-0.0096 J1.5
G3 X74.5059 Y6.3982 I-0.0022 J-10.3584
G2 X74.5035 Y6.3979 I-0.2147 J1.4846
G3 X73.3903 Y6.1568 I1.1312 J-7.9157
G1 F50.0 X73.7271 Y5.0051
G1 Z-5.0
G3 F150.0 X74.333 Y4.8584 I1.8751 J6.4219
G3 X75.5583 Y4.7151 I1.5865 J8.2535
G1 X75.6591 Y4.711
G2 X75.6643 Y4.7108 I-0.1098 J-2.6978
G3 X75.9737 Y4.7052 I0.2691 J6.3103
G2 X75.9915 I0.0172 J-2.6999
G3 X77.3041 Y4.7995 I0.002 J9.1584
G2 X77.3085 Y4.8001 I0.3864 J-2.6722
G3 X78.2547 Y5.005 I-0.9614 J6.7277
G3 X77.6487 Y5.1517 I-1.8751 J-6.4219
G3 X76.4235 Y5.295 I-1.5865 J-8.2535
G1 X76.3226 Y5.2991
G2 X76.3174 Y5.2993 I0.1098 J2.6978
G3 X76.0081 Y5.3049 I-0.2691 J-6.3103
G2 X75.9903 I-0.0172 J2.6999
G3 X74.6777 Y5.2106 I-0.002 J-9.1584
G2 X74.6732 Y5.2099 I-0.3864 J2.6722
G3 X73.7271 Y5.0051 I0.9614 J-6.7277
G1 F50.0 X73.3903 Y6.1568
G3 F150.0 X73.1078 Y6.0685 I2.2444 J-7.6746
G3 X72.297 Y5.721 I1.7084 J-5.1061
G3 X71.9114 Y5.4791 I1.7744 J-3.2567
G3 X71.6051 Y5.2012 I1.0988 J-1.5187
G2 X71.6035 Y5.1994 I-1.1244 J0.9928
G3 X71.5332 Y5.1031 I0.4734 J-0.4193
G2 X71.5207 Y5.0824 I-1.2897 J0.766
G3 X71.496 Y5.028 I0.2036 J-0.1254
G2 X71.4953 Y5.0259 I-1.4323 J0.4456
G3 X71.4911 Y5.0027 I0.0927 J-0.029
G3 X71.496 Y4.981 I0.0711 J0.0047
G3 X71.5855 Y4.833 I0.5557 J0.2351
G2 X71.59 Y4.8275 I-1.1588 J-0.9525
G3 X71.7227 Y4.6864 I1.0513 J0.8559
G2 X71.7246 Y4.6847 I-1.0164 J-1.1031
G3 X71.9742 Y4.486 I1.4634 J1.5827
G2 X71.9818 Y4.4808 I-0.8446 J-1.2396
G3 X72.4079 Y4.2311 I1.896 J2.7464
G2 X72.4122 Y4.2289 I-0.6607 J-1.3467
G3 X73.098 Y3.9449 I2.4712 J4.996
G3 X74.106 Y3.6801 I2.5042 J7.4821
G3 X75.5081 Y3.5161 I1.8135 J9.4318
G1 X75.6103 Y3.512
G2 X75.6132 Y3.5119 I-0.061 J-1.4988
G3 X75.9813 Y3.5052 I0.3202 J7.5092
G2 X75.9912 I0.0096 J-1.5
G3 X77.4758 Y3.6118 I0.0022 J10.3584
G2 X77.4783 Y3.6122 I0.2147 J-1.4846
G3 X78.8739 Y3.9415 I-1.1312 J7.9157
G3 X79.6848 Y4.289 I-1.7084 J5.1061
G3 X80.0704 Y4.531 I-1.7744 J3.2567
G3 X80.3767 Y4.8089 I-1.0988 J1.5187
G2 X80.3782 Y4.8106 I1.1244 J-0.9928
G3 X80.4486 Y4.907 I-0.4734 J0.4193
G2 X80.4611 Y4.9277 I1.2897 J-0.766
G3 X80.4858 Y4.9821 I-0.2036 J0.1254
G2 X80.4865 Y4.9842 I1.4323 J-0.4456
G3 X80.4907 Y5.0073 I-0.0927 J0.029
G3 X80.4858 Y5.0291 I-0.0711 J-0.0047
G3 X80.3962 Y5.1771 I-0.5557 J-0.2351
G2 X80.3917 Y5.1826 I1.1588 J0.9525
G3 X80.2591 Y5.3236 I-1.0513 J-0.8559
G2 X80.2572 Y5.3254 I1.0164 J1.1031
G3 X80.0075 Y5.5241 I-1.4634 J-1.5827
G2 X79.9999 Y5.5293 I0.8446 J1.2396
G3 X79.5739 Y5.779 I-1.896 J-2.7464
G2 X79.5696 Y5.7811 I0.6607 J1.3467
G3 X78.8838 Y6.0652 I-2.4712 J-4.996
G3 X77.8758 Y6.33 I-2.5042 J-7.4821
G3 X76.4736 Y6.4939 I-1.8135 J-9.4318
G1 X76.3714 Y6.4981
G2 X76.3685 Y6.4982 I0.061 J1.4988
G3 X76.0004 Y6.5049 I-0.3202 J-7.5092
G2 X75.9906 I-0.0096 J1.5
G3 X74.5059 Y6.3982 I-0.0022 J-10.3584
G2 X74.5035 Y6.3979 I-0.2147 J1.4846
G3 X73.3903 Y6.1568 I1.1312 J-7.9157
G0 Z3.0
G0 X101.7455 Y5.0054
G0 Z1.0
G1 F50.0 Z-2.5
G3 F150.0 X102.3514 Y4.8588 I1.8741 J6.4175
G3 X103.5767 Y4.7154 I1.5866 J8.2543
G1 X103.6776 Y4.7113
G2 X103.6828 Y4.7111 I-0.1098 J-2.6978
G3 X103.9921 Y4.7055 I0.2691 J6.3103
G2 X104.0098 Y4.7056 I0.0172 J-2.6999
G3 X105.3227 Y4.7999 I0.0016 J9.1654
G2 X105.3269 Y4.8005 I0.3863 J-2.6722
G3 X106.2733 Y5.0054 I-0.9624 J6.7321
G3 X105.6675 Y5.152 I-1.8681 J-6.396
G3 X104.4419 Y5.2953 I-1.5871 J-8.259
G1 X104.3411 Y5.2994
G2 X104.3359 Y5.2996 I0.1098 J2.6978
G3 X104.0266 Y5.3053 I-0.2689 J-6.3066
G2 X104.009 Y5.3052 I-0.0173 J2.6999
G3 X102.6958 Y5.2109 I-0.0012 J-9.1752
G2 X102.692 Y5.2104 I-0.3861 J2.6723
G3 X101.7455 Y5.0054 I0.965 J-6.746
G1 F50.0 X101.4091 Y3.8536
G3 F150.0 X102.1244 Y3.6804 I2.2105 J7.5694
G3 X103.5266 Y3.5165 I1.8137 J9.4326
G1 X103.6288 Y3.5123
G2 X103.6317 Y3.5122 I-0.061 J-1.4988
G3 X103.9998 Y3.5055 I0.3202 J7.5092
G2 X104.0096 Y3.5056 I0.0096 J-1.5
G3 X105.4944 Y3.6122 I0.0018 J10.3654
G2 X105.4967 Y3.6125 I0.2146 J-1.4846
G3 X106.8925 Y3.9419 I-1.1323 J7.92
G3 X107.7033 Y4.2895 I-1.7088 J5.1065
G3 X108.089 Y4.5315 I-1.7721 J3.2524
G3 X108.3949 Y4.8091 I-1.0945 J1.5135
G2 X108.3969 Y4.8113 I1.1247 J-0.9925
G3 X108.4668 Y4.9072 I-0.4699 J0.4163
G2 X108.4797 Y4.9285 I1.2899 J-0.7656
G3 X108.5041 Y4.9821 I-0.2005 J0.1235
G2 X108.505 Y4.9849 I1.4324 J-0.4451
G3 X108.5091 Y5.0075 I-0.0907 J0.0284
G3 X108.5041 Y5.0299 I-0.0744 J-0.0049
G3 X108.4144 Y5.178 I-0.5595 J-0.2377
G2 X108.4104 Y5.1829 I1.1591 J0.9521
G3 X108.2773 Y5.3243 I-1.0567 J-0.8606
G2 X108.2755 Y5.326 I1.0166 J1.1029
G3 X108.0262 Y5.5245 I-1.4591 J-1.5778
G2 X108.0184 Y5.5298 I0.8444 J1.2397
G3 X107.5924 Y5.7794 I-1.8942 J-2.7437
G2 X107.5879 Y5.7817 I0.6606 J1.3467
G3 X106.9022 Y6.0656 I-2.4661 J-4.985
G3 X105.8944 Y6.3303 I-2.497 J-7.4562
G3 X104.4921 Y6.4943 I-1.814 J-9.4374
G1 X104.3899 Y6.4984
G2 X104.387 Y6.4986 I0.061 J1.4988
G3 X104.0189 Y6.5052 I-0.3201 J-7.5055
G2 X104.0091 I-0.0096 J1.5
G3 X102.5242 Y6.3986 I-0.0013 J-10.3752
G2 X102.5221 Y6.3983 I-0.2145 J1.4846
G3 X101.1261 Y6.0689 I1.1349 J-7.9339
G3 X100.3153 Y5.7215 I1.7131 J-5.1174
G3 X99.9297 Y5.4795 I1.7769 J-3.2606
G3 X99.6235 Y5.2017 I1.0976 J-1.5172
G2 X99.6217 Y5.1997 I-1.1245 J0.9928
G3 X99.5518 Y5.1039 I0.4696 J-0.4161
G2 X99.5388 Y5.0824 I-1.2899 J0.7656
G3 X99.5146 Y5.0291 I0.199 J-0.1227
G2 X99.5136 Y5.0258 I-1.4325 J0.4449
G3 X99.5095 Y5.0036 I0.0881 J-0.0276
G3 X99.5145 Y4.9814 I0.0728 J0.0046
G3 X99.6043 Y4.8331 I0.5589 J0.2371
G2 X99.6083 Y4.8281 I-1.159 J-0.9522
G3 X99.7414 Y4.6866 I1.0581 J0.8618
G2 X99.743 Y4.6851 I-1.0167 J-1.1028
G3 X99.9928 Y4.4863 I1.4659 J1.5856
G2 X100.0001 Y4.4813 I-0.8448 J-1.2395
G3 X100.4265 Y4.2314 I1.9 J2.7526
G2 X100.4306 Y4.2294 I-0.6609 J-1.3466
G3 X101.1165 Y3.9452 I2.4742 J5.0029
G3 X101.4091 Y3.8536 I2.5031 J7.4777
G1 F50.0 X101.7455 Y5.0054
G1 Z-5.0
G3 F150.0 X102.3514 Y4.8588 I1.8741 J6.4175
G3 X103.5767 Y4.7154 I1.5866 J8.2543
G1 X103.6776 Y4.7113
G2 X103.6828 Y4.7111 I-0.1098 J-2.6978
G3 X103.9921 Y4.7055 I0.2691 J6.3103
G2 X104.0098 Y4.7056 I0.0172 J-2.6999
G3 X105.3227 Y4.7999 I0.0016 J9.1654
G2 X105.3269 Y4.8005 I0.3863 J-2.6722
G3 X106.2733 Y5.0054 I-0.9624 J6.7321
G3 X105.6675 Y5.152 I-1.8681 J-6.396
G3 X104.4419 Y5.2953 I-1.5871 J-8.259
G1 X104.3411 Y5.2994
G2 X104.3359 Y5.2996 I0.1098 J2.6978
G3 X104.0266 Y5.3053 I-0.2689 J-6.3066
G2 X104.009 Y5.3052 I-0.0173 J2.6999
G3 X102.6958 Y5.2109 I-0.0012 J-9.1752
G2 X102.692 Y5.2104 I-0.3861 J2.6723
G3 X101.7455 Y5.0054 I0.965 J-6.746
G1 F50.0 X101.4091 Y3.8536
G3 F150.0 X102.1244 Y3.6804 I2.2105 J7.5694
G3 X103.5266 Y3.5165 I1.8137 J9.4326
G1 X103.6288 Y3.5123
G2 X103.6317 Y3.5122 I-0.061 J-1.4988
G3 X103.9998 Y3.5055 I0.3202 J7.5092
G2 X104.0096 Y3.5056 I0.0096 J-1.5
G3 X105.4944 Y3.6122 I0.0018 J10.3654
G2 X105.4967 Y3.6125 I0.2146 J-1.4846
G3 X106.8925 Y3.9419 I-1.1323 J7.92
G3 X107.7033 Y4.2895 I-1.7088 J5.1065
G3 X108.089 Y4.5315 I-1.7721 J3.2524
G3 X108.3949 Y4.8091 I-1.0945 J1.5135
G2 X108.3969 Y4.8113 I1.1247 J-0.9925
G3 X108.4668 Y4.9072 I-0.4699 J0.4163
G2 X108.4797 Y4.9285 I1.2899 J-0.7656
G3 X108.5041 Y4.9821 I-0.2005 J0.1235
G2 X108.505 Y4.9849 I1.4324 J-0.4451
G3 X108.5091 Y5.0075 I-0.0907 J0.0284
G3 X108.5041 Y5.0299 I-0.0744 J-0.0049
G3 X108.4144 Y5.178 I-0.5595 J-0.2377
G2 X108.4104 Y5.1829 I1.1591 J0.9521
G3 X108.2773 Y5.3243 I-1.0567 J-0.8606
G2 X108.2755 Y5.326 I1.0166 J1.1029
G3 X108.0262 Y5.5245 I-1.4591 J-1.5778
G2 X108.0184 Y5.5298 I0.8444 J1.2397
G3 X107.5924 Y5.7794 I-1.8942 J-2.7437
G2 X107.5879 Y5.7817 I0.6606 J1.3467
G3 X106.9022 Y6.0656 I-2.4661 J-4.985
G3 X105.8944 Y6.3303 I-2.497 J-7.4562
G3 X104.4921 Y6.4943 I-1.814 J-9.4374
G1 X104.3899 Y6.4984
G2 X104.387 Y6.4986 I0.061 J1.4988
G3 X104.0189 Y6.5052 I-0.3201 J-7.5055
G2 X104.0091 I-0.0096 J1.5
G3 X102.5242 Y6.3986 I-0.0013 J-10.3752
G2 X102.5221 Y6.3983 I-0.2145 J1.4846
G3 X101.1261 Y6.0689 I1.1349 J-7.9339
G3 X100.3153 Y5.7215 I1.7131 J-5.1174
G3 X99.9297 Y5.4795 I1.7769 J-3.2606
G3 X99.6235 Y5.2017 I1.0976 J-1.5172
G2 X99.6217 Y5.1997 I-1.1245 J0.9928
G3 X99.5518 Y5.1039 I0.4696 J-0.4161
G2 X99.5388 Y5.0824 I-1.2899 J0.7656
G3 X99.5146 Y5.0291 I0.199 J-0.1227
G2 X99.5136 Y5.0258 I-1.4325 J0.4449
G3 X99.5095 Y5.0036 I0.0881 J-0.0276
G3 X99.5145 Y4.9814 I0.0728 J0.0046
G3 X99.6043 Y4.8331 I0.5589 J0.2371
G2 X99.6083 Y4.8281 I-1.159 J-0.9522
G3 X99.7414 Y4.6866 I1.0581 J0.8618
G2 X99.743 Y4.6851 I-1.0167 J-1.1028
G3 X99.9928 Y4.4863 I1.4659 J1.5856
G2 X100.0001 Y4.4813 I-0.8448 J-1.2395
G3 X100.4265 Y4.2314 I1.9 J2.7526
G2 X100.4306 Y4.2294 I-0.6609 J-1.3466
G3 X101.1165 Y3.9452 I2.4742 J5.0029
G3 X101.4091 Y3.8536 I2.5031 J7.4777
G0 Z3.0
G0 X129.7636 Y5.0054
G0 Z1.0
G1 F50.0 Z-2.5
G3 F150.0 X130.3698 Y4.8586 I1.8763 J6.4245
G3 X131.5951 Y4.7153 I1.5873 J8.2598
G1 X131.6959 Y4.7112
G2 X131.7011 Y4.7109 I-0.1098 J-2.6978
G3 X132.0104 Y4.7053 I0.2691 J6.3122
G2 X132.0282 Y4.7054 I0.0172 J-2.6999
G3 X133.3407 Y4.7997 I0.0021 J9.1539
G2 X133.3454 Y4.8003 I0.3865 J-2.6722
G3 X134.2916 Y5.0053 I-0.9603 J6.7212
G3 X133.6854 Y5.152 I-1.8754 J-6.4218
G3 X132.4602 Y5.2953 I-1.5865 J-8.2535
G1 X132.3593 Y5.2994
G2 X132.3541 Y5.2996 I0.1098 J2.6978
G3 X132.0448 Y5.3053 I-0.2691 J-6.3103
G2 X132.027 Y5.3052 I-0.0172 J2.6999
G3 X130.7144 Y5.2109 I-0.002 J-9.1584
G2 X130.7099 Y5.2103 I-0.3864 J2.6722
G3 X129.7636 Y5.0054 I0.9614 J-6.7277
G1 F50.0 X129.4267 Y6.1571
G3 F150.0 X129.1445 Y6.0689 I2.2446 J-7.6746
G3 X128.3337 Y5.7214 I1.7084 J-5.1061
G3 X127.9481 Y5.4795 I1.7744 J-3.2567
G3 X127.6418 Y5.2015 I1.0988 J-1.5187
G2 X127.6402 Y5.1998 I-1.1244 J0.9928
G3 X127.5699 Y5.1034 I0.4734 J-0.4193
G2 X127.5574 Y5.0827 I-1.2897 J0.766
G3 X127.5327 Y5.0283 I0.2036 J-0.1254
G2 X127.532 Y5.0263 I-1.4323 J0.4456
G3 X127.5278 Y5.003 I0.0927 J-0.029
G3 X127.5326 Y4.9814 I0.0704 J0.0046
G3 X127.6223 Y4.8333 I0.5556 J0.2349
G2 X127.6267 Y4.8278 I-1.1588 J-0.9525
G3 X127.7595 Y4.6867 I1.0523 J0.8567
G2 X127.7613 Y4.685 I-1.0165 J-1.1031
G3 X128.0111 Y4.4862 I1.4654 J1.585
G2 X128.0185 Y4.4811 I-0.8447 J-1.2395
G3 X128.4447 Y4.2313 I1.8989 J2.7508
G2 X128.4488 Y4.2293 I-0.6609 J-1.3466
G3 X129.1348 Y3.9451 I2.4753 J5.005
G3 X130.1427 Y3.6803 I2.5051 J7.4848
G3 X131.5449 Y3.5163 I1.8144 J9.4382
G1 X131.6471 Y3.5122
G2 X131.6499 Y3.512 I-0.061 J-1.4988
G3 X132.018 Y3.5054 I0.3202 J7.5111
G2 X132.0279 I0.0096 J-1.5
G3 X133.5125 Y3.612 I0.0024 J10.3539
G2 X133.5151 Y3.6124 I0.2147 J-1.4846
G3 X134.9107 Y3.9418 I-1.13 J7.9092
G3 X135.7215 Y4.2893 I-1.7065 J5.101
G3 X136.1071 Y4.5313 I-1.7722 J3.2529
G3 X136.4133 Y4.8091 I-1.0969 J1.5164
G2 X136.4149 Y4.8109 I1.1245 J-0.9927
G3 X136.4853 Y4.9073 I-0.4738 J0.4196
G2 X136.4977 Y4.9279 I1.2897 J-0.766
G3 X136.5226 Y4.9825 I-0.2044 J0.1259
G2 X136.5231 Y4.9843 I1.4323 J-0.4457
G3 X136.5274 Y5.0078 I-0.0939 J0.0294
G3 X136.5225 Y5.0294 I-0.0711 J-0.0047
G3 X136.4329 Y5.1774 I-0.5557 J-0.2351
G2 X136.4285 Y5.1829 I1.1588 J0.9525
G3 X136.2958 Y5.324 I-1.0513 J-0.8559
G2 X136.2939 Y5.3257 I1.0164 J1.1031
G3 X136.0442 Y5.5244 I-1.4634 J-1.5827
G2 X136.0367 Y5.5296 I0.8446 J1.2396
G3 X135.6106 Y5.7793 I-1.896 J-2.7464
G2 X135.6063 Y5.7815 I0.6607 J1.3467
G3 X134.9205 Y6.0655 I-2.4712 J-4.996
G3 X133.9125 Y6.3303 I-2.5042 J-7.4821
G3 X132.5103 Y6.4943 I-1.8135 J-9.4318
G1 X132.4081 Y6.4984
G2 X132.4053 Y6.4986 I0.061 J1.4988
G3 X132.0372 Y6.5052 I-0.3202 J-7.5092
G2 X132.0273 I-0.0096 J1.5
G3 X130.5426 Y6.3986 I-0.0022 J-10.3584
G2 X130.5402 Y6.3982 I-0.2147 J1.4846
G3 X129.4267 Y6.1571 I1.1312 J-7.9157
G1 F50.0 X129.7636 Y5.0054
G1 Z-5.0
G3 F150.0 X130.3698 Y4.8586 I1.8763 J6.4245
G3 X131.5951 Y4.7153 I1.5873 J8.2598
G1 X131.6959 Y4.7112
G2 X131.7011 Y4.7109 I-0.1098 J-2.6978
G3 X132.0104 Y4.7053 I0.2691 J6.3122
G2 X132.0282 Y4.7054 I0.0172 J-2.6999
G3 X133.3407 Y4.7997 I0.0021 J9.1539
G2 X133.3454 Y4.8003 I0.3865 J-2.6722
G3 X134.2916 Y5.0053 I-0.9603 J6.7212
G3 X133.6854 Y5.152 I-1.8754 J-6.4218
G3 X132.4602 Y5.2953 I-1.5865 J-8.2535
G1 X132.3593 Y5.2994
G2 X132.3541 Y5.2996 I0.1098 J2.6978
G3 X132.0448 Y5.3053 I-0.2691 J-6.3103
G2 X132.027 Y5.3052 I-0.0172 J2.6999
G3 X130.7144 Y5.2109 I-0.002 J-9.1584
G2 X130.7099 Y5.2103 I-0.3864 J2.6722
G3 X129.7636 Y5.0054 I0.9614 J-6.7277
G1 F50.0 X129.4267 Y6.1571
G3 F150.0 X129.1445 Y6.0689 I2.2446 J-7.6746
G3 X128.3337 Y5.7214 I1.7084 J-5.1061
G3 X127.9481 Y5.4795 I1.7744 J-3.2567
G3 X127.6418 Y5.2015 I1.0988 J-1.5187
G2 X127.6402 Y5.1998 I-1.1244 J0.9928
G3 X127.5699 Y5.1034 I0.4734 J-0.4193
G2 X127.5574 Y5.0827 I-1.2897 J0.766
G3 X127.5327 Y5.0283 I0.2036 J-0.1254
G2 X127.532 Y5.0263 I-1.4323 J0.4456
G3 X127.5278 Y5.003 I0.0927 J-0.029
G3 X127.5326 Y4.9814 I0.0704 J0.0046
G3 X127.6223 Y4.8333 I0.5556 J0.2349
G2 X127.6267 Y4.8278 I-1.1588 J-0.9525
G3 X127.7595 Y4.6867 I1.0523 J0.8567
G2 X127.7613 Y4.685 I-1.0165 J-1.1031
G3 X128.0111 Y4.4862 I1.4654 J1.585
G2 X128.0185 Y4.4811 I-0.8447 J-1.2395
G3 X128.4447 Y4.2313 I1.8989 J2.7508
G2 X128.4488 Y4.2293 I-0.6609 J-1.3466
G3 X129.1348 Y3.9451 I2.4753 J5.005
G3 X130.1427 Y3.6803 I2.5051 J7.4848
G3 X131.5449 Y3.5163 I1.8144 J9.4382
G1 X131.6471 Y3.5122
G2 X131.6499 Y3.512 I-0.061 J-1.4988
G3 X132.018 Y3.5054 I0.3202 J7.5111
G2 X132.0279 I0.0096 J-1.5
G3 X133.5125 Y3.612 I0.0024 J10.3539
G2 X133.5151 Y3.6124 I0.2147 J-1.4846
G3 X134.9107 Y3.9418 I-1.13 J7.9092
G3 X135.7215 Y4.2893 I-1.7065 J5.101
G3 X136.1071 Y4.5313 I-1.7722 J3.2529
G3 X136.4133 Y4.8091 I-1.0969 J1.5164
G2 X136.4149 Y4.8109 I1.1245 J-0.9927
G3 X136.4853 Y4.9073 I-0.4738 J0.4196
G2 X136.4977 Y4.9279 I1.2897 J-0.766
G3 X136.5226 Y4.9825 I-0.2044 J0.1259
G2 X136.5231 Y4.9843 I1.4323 J-0.4457
G3 X136.5274 Y5.0078 I-0.0939 J0.0294
G3 X136.5225 Y5.0294 I-0.0711 J-0.0047
G3 X136.4329 Y5.1774 I-0.5557 J-0.2351
G2 X136.4285 Y5.1829 I1.1588 J0.9525
G3 X136.2958 Y5.324 I-1.0513 J-0.8559
G2 X136.2939 Y5.3257 I1.0164 J1.1031
G3 X136.0442 Y5.5244 I-1.4634 J-1.5827
G2 X136.0367 Y5.5296 I0.8446 J1.2396
G3 X135.6106 Y5.7793 I-1.896 J-2.7464
G2 X135.6063 Y5.7815 I0.6607 J1.3467
G3 X134.9205 Y6.0655 I-2.4712 J-4.996
G3 X133.9125 Y6.3303 I-2.5042 J-7.4821
G3 X132.5103 Y6.4943 I-1.8135 J-9.4318
G1 X132.4081 Y6.4984
G2 X132.4053 Y6.4986 I0.061 J1.4988
G3 X132.0372 Y6.5052 I-0.3202 J-7.5092
G2 X132.0273 I-0.0096 J1.5
G3 X130.5426 Y6.3986 I-0.0022 J-10.3584
G2 X130.5402 Y6.3982 I-0.2147 J1.4846
G3 X129.4267 Y6.1571 I1.1312 J-7.9157
G0 Z3.0
G0 X157.7823 Y5.0051
G0 Z1.0
G1 F50.0 Z-2.5
G3 F150.0 X158.3882 Y4.8584 I1.8751 J6.4219
G3 X159.6135 Y4.7151 I1.5865 J8.2535
G1 X159.7143 Y4.711
G2 X159.7195 Y4.7108 I-0.1098 J-2.6978
G3 X160.0288 Y4.7052 I0.2691 J6.3103
G2 X160.0466 I0.0172 J-2.6999
G3 X161.3593 Y4.7995 I0.002 J9.1584
G2 X161.3637 Y4.8001 I0.3864 J-2.6722
G3 X162.3098 Y5.005 I-0.9614 J6.7277
G3 X161.7039 Y5.1517 I-1.8751 J-6.4219
G3 X160.4786 Y5.295 I-1.5865 J-8.2535
G1 X160.3778 Y5.2991
G2 X160.3726 Y5.2993 I0.1098 J2.6978
G3 X160.0633 Y5.3049 I-0.2691 J-6.3103
G2 X160.0455 I-0.0172 J2.6999
G3 X158.7328 Y5.2106 I-0.002 J-9.1584
G2 X158.7284 Y5.2099 I-0.3864 J2.6722
G3 X157.7823 Y5.0051 I0.9614 J-6.7277
G1 F50.0 X157.4454 Y6.1568
G3 F150.0 X157.163 Y6.0685 I2.2444 J-7.6746
G3 X156.3521 Y5.721 I1.7084 J-5.1061
G3 X155.9665 Y5.4791 I1.7744 J-3.2567
G3 X155.6602 Y5.2012 I1.0988 J-1.5187
G2 X155.6587 Y5.1994 I-1.1244 J0.9928
G3 X155.5884 Y5.1031 I0.4734 J-0.4193
G2 X155.5758 Y5.0824 I-1.2897 J0.766
G3 X155.5511 Y5.028 I0.2036 J-0.1254
G2 X155.5505 Y5.0259 I-1.4323 J0.4456
G3 X155.5462 Y5.0027 I0.0927 J-0.029
G3 X155.5511 Y4.981 I0.0711 J0.0047
G3 X155.6407 Y4.833 I0.5557 J0.2351
G2 X155.6452 Y4.8275 I-1.1588 J-0.9525
G3 X155.7779 Y4.6864 I1.0513 J0.8559
G2 X155.7798 Y4.6847 I-1.0164 J-1.1031
G3 X156.0294 Y4.486 I1.4634 J1.5827
G2 X156.037 Y4.4808 I-0.8446 J-1.2396
G3 X156.463 Y4.2311 I1.896 J2.7464
G2 X156.4674 Y4.2289 I-0.6607 J-1.3467
G3 X157.1532 Y3.9449 I2.4712 J4.996
G3 X158.1611 Y3.6801 I2.5042 J7.4821
G3 X159.5633 Y3.5161 I1.8135 J9.4318
G1 X159.6655 Y3.512
G2 X159.6684 Y3.5119 I-0.061 J-1.4988
G3 X160.0365 Y3.5052 I0.3202 J7.5092
G2 X160.0464 I0.0096 J-1.5
G3 X161.531 Y3.6118 I0.0022 J10.3584
G2 X161.5335 Y3.6122 I0.2147 J-1.4846
G3 X162.9291 Y3.9415 I-1.1312 J7.9157
G3 X163.7399 Y4.289 I-1.7084 J5.1061
G3 X164.1256 Y4.531 I-1.7744 J3.2567
G3 X164.4319 Y4.8089 I-1.0988 J1.5187
G2 X164.4334 Y4.8106 I1.1244 J-0.9928
G3 X164.5037 Y4.907 I-0.4734 J0.4193
G2 X164.5162 Y4.9277 I1.2897 J-0.766
G3 X164.541 Y4.9821 I-0.2036 J0.1254
G2 X164.5416 Y4.9842 I1.4323 J-0.4456
G3 X164.5459 Y5.0073 I-0.0927 J0.029
G3 X164.541 Y5.0291 I-0.0711 J-0.0047
G3 X164.4514 Y5.1771 I-0.5557 J-0.2351
G2 X164.4469 Y5.1826 I1.1588 J0.9525
G3 X164.3142 Y5.3236 I-1.0513 J-0.8559
G2 X164.3123 Y5.3254 I1.0164 J1.1031
G3 X164.0627 Y5.5241 I-1.4634 J-1.5827
G2 X164.0551 Y5.5293 I0.8446 J1.2396
G3 X163.629 Y5.779 I-1.896 J-2.7464
G2 X163.6247 Y5.7811 I0.6607 J1.3467
G3 X162.9389 Y6.0652 I-2.4712 J-4.996
G3 X161.931 Y6.33 I-2.5042 J-7.4821
G3 X160.5288 Y6.4939 I-1.8135 J-9.4318
G1 X160.4266 Y6.4981
G2 X160.4237 Y6.4982 I0.061 J1.4988
G3 X160.0556 Y6.5049 I-0.3202 J-7.5092
G2 X160.0457 I-0.0096 J1.5
G3 X158.5611 Y6.3982 I-0.0022 J-10.3584
G2 X158.5586 Y6.3979 I-0.2147 J1.4846
G3 X157.4454 Y6.1568 I1.1312 J-7.9157
G1 F50.0 X157.7823 Y5.0051
G1 Z-5.0
G3 F150.0 X158.3882 Y4.8584 I1.8751 J6.4219
G3 X159.6135 Y4.7151 I1.5865 J8.2535
G1 X159.7143 Y4.711
G2 X159.7195 Y4.7108 I-0.1098 J-2.6978
G3 X160.0288 Y4.7052 I0.2691 J6.3103
G2 X160.0466 I0.0172 J-2.6999
G3 X161.3593 Y4.7995 I0.002 J9.1584
G2 X161.3637 Y4.8001 I0.3864 J-2.6722
G3 X162.3098 Y5.005 I-0.9614 J6.7277
G3 X161.7039 Y5.1517 I-1.8751 J-6.4219
G3 X160.4786 Y5.295 I-1.5865 J-8.2535
G1 X160.3778 Y5.2991
G2 X160.3726 Y5.2993 I0.1098 J2.6978
G3 X160.0633 Y5.3049 I-0.2691 J-6.3103
G2 X160.0455 I-0.0172 J2.6999
G3 X158.7328 Y5.2106 I-0.002 J-9.1584
G2 X158.7284 Y5.2099 I-0.3864 J2.6722
G3 X157.7823 Y5.0051 I0.9614 J-6.7277
G1 F50.0 X157.4454 Y6.1568
G3 F150.0 X157.163 Y6.0685 I2.2444 J-7.6746
G3 X156.3521 Y5.721 I1.7084 J-5.1061
G3 X155.9665 Y5.4791 I1.7744 J-3.2567
G3 X155.6602 Y5.2012 I1.0988 J-1.5187
G2 X155.6587 Y5.1994 I-1.1244 J0.9928
G3 X155.5884 Y5.1031 I0.4734 J-0.4193
G2 X155.5758 Y5.0824 I-1.2897 J0.766
G3 X155.5511 Y5.028 I0.2036 J-0.1254
G2 X155.5505 Y5.0259 I-1.4323 J0.4456
G3 X155.5462 Y5.0027 I0.0927 J-0.029
G3 X155.5511 Y4.981 I0.0711 J0.0047
G3 X155.6407 Y4.833 I0.5557 J0.2351
G2 X155.6452 Y4.8275 I-1.1588 J-0.9525
G3 X155.7779 Y4.6864 I1.0513 J0.8559
G2 X155.7798 Y4.6847 I-1.0164 J-1.1031
G3 X156.0294 Y4.486 I1.4634 J1.5827
G2 X156.037 Y4.4808 I-0.8446 J-1.2396
G3 X156.463 Y4.2311 I1.896 J2.7464
G2 X156.4674 Y4.2289 I-0.6607 J-1.3467
G3 X157.1532 Y3.9449 I2.4712 J4.996
G3 X158.1611 Y3.6801 I2.5042 J7.4821
G3 X159.5633 Y3.5161 I1.8135 J9.4318
G1 X159.6655 Y3.512
G2 X159.6684 Y3.5119 I-0.061 J-1.4988
G3 X160.0365 Y3.5052 I0.3202 J7.5092
G2 X160.0464 I0.0096 J-1.5
G3 X161.531 Y3.6118 I0.0022 J10.3584
G2 X161.5335 Y3.6122 I0.2147 J-1.4846
G3 X162.9291 Y3.9415 I-1.1312 J7.9157
G3 X163.7399 Y4.289 I-1.7084 J5.1061
G3 X164.1256 Y4.531 I-1.7744 J3.2567
G3 X164.4319 Y4.8089 I-1.0988 J1.5187
G2 X164.4334 Y4.8106 I1.1244 J-0.9928
G3 X164.5037 Y4.907 I-0.4734 J0.4193
G2 X164.5162 Y4.9277 I1.2897 J-0.766
G3 X164.541 Y4.9821 I-0.2036 J0.1254
G2 X164.5416 Y4.9842 I1.4323 J-0.4456
G3 X164.5459 Y5.0073 I-0.0927 J0.029
G3 X164.541 Y5.0291 I-0.0711 J-0.0047
G3 X164.4514 Y5.1771 I-0.5557 J-0.2351
G2 X164.4469 Y5.1826 I1.1588 J0.9525
G3 X164.3142 Y5.3236 I-1.0513 J-0.8559
G2 X164.3123 Y5.3254 I1.0164 J1.1031
G3 X164.0627 Y5.5241 I-1.4634 J-1.5827
G2 X164.0551 Y5.5293 I0.8446 J1.2396
G3 X163.629 Y5.779 I-1.896 J-2.7464
G2 X163.6247 Y5.7811 I0.6607 J1.3467
G3 X162.9389 Y6.0652 I-2.4712 J-4.996
G3 X161.931 Y6.33 I-2.5042 J-7.4821
G3 X160.5288 Y6.4939 I-1.8135 J-9.4318
G1 X160.4266 Y6.4981
G2 X160.4237 Y6.4982 I0.061 J1.4988
G3 X160.0556 Y6.5049 I-0.3202 J-7.5092
G2 X160.0457 I-0.0096 J1.5
G3 X158.5611 Y6.3982 I-0.0022 J-10.3584
G2 X158.5586 Y6.3979 I-0.2147 J1.4846
G3 X157.4454 Y6.1568 I1.1312 J-7.9157
G0 Z3.0
M5
M30
