( Made using CamBam - http://www.cambam.co.uk )
( base plate 10/26/2013 7:20:47 PM )
( T3 : 3.0 )
G21 G90 G91.1 G64 G40
G0 Z3.0
( T3 : 3.0 )
T3 M6
( Profile1 )
G17
M3 S1000
G0 X30.9542 Y6.509
G0 Z1.0
G1 F50.0 Z-4.0
G1 F150.0 Y31.5012
G3 X30.9503 Y31.505 I-0.0041 J-0.0002
G1 X8.9584
G3 X8.9542 Y31.5008 I0.0002 J-0.0045
G1 Y6.5091
G3 X8.9582 Y6.505 I0.0043 J0.0002
G1 X30.9502
G3 X30.9542 Y6.509 I-0.0002 J0.0042
G0 Z3.0
G0 X36.9724 Y6.5091
G0 Z1.0
G1 F50.0 Z-4.0
G3 F150.0 X36.9765 Y6.505 I0.0043 J0.0002
G1 X58.9685
G3 X58.9725 Y6.509 I-0.0002 J0.0042
G1 Y31.5012
G3 X58.9686 Y31.505 I-0.0041 J-0.0002
G1 X36.9767
G3 X36.9724 Y31.5008 I0.0002 J-0.0045
G1 Y6.5091
G0 Z3.0
G0 X64.9909
G0 Z1.0
G1 F50.0 Z-4.0
G3 F150.0 X64.995 Y6.505 I0.0043 J0.0002
G1 X86.9869
G3 X86.9909 Y6.509 I-0.0002 J0.0042
G1 Y31.5012
G3 X86.987 Y31.505 I-0.0041 J-0.0002
G1 X64.9951
G3 X64.9909 Y31.5008 I0.0002 J-0.0045
G1 Y6.5091
G0 Z3.0
G0 X93.0093 Y6.5095
G0 Z1.0
G1 F50.0 Z-4.0
G3 F150.0 X93.0138 Y6.505 I0.0048 J0.0003
G1 X115.0054
G3 X115.0093 Y6.509 I-0.0002 J0.0042
G1 Y31.5012
G3 X115.0054 Y31.505 I-0.0041 J-0.0002
G1 X93.0137
G3 X93.0093 Y31.5007 I0.0003 J-0.0046
G1 Y6.5095
G0 Z3.0
G0 X121.0276 Y6.5099
G0 Z1.0
G1 F50.0 Z-4.0
G3 F150.0 X121.0321 Y6.5054 I0.0048 J0.0003
G1 X143.0236
G3 X143.0276 Y6.5094 I-0.0002 J0.0042
G1 Y31.5012
G3 X143.0237 Y31.505 I-0.0041 J-0.0002
G1 X121.032
G3 X121.0276 Y31.5007 I0.0003 J-0.0046
G1 Y6.5099
G0 Z3.0
G0 X149.0459
G0 Z1.0
G1 F50.0 Z-4.0
G1 F150.0 Y6.5095
G3 X149.0504 Y6.505 I0.0048 J0.0003
G1 X171.0419
G3 X171.0459 Y6.509 I-0.0002 J0.0042
G1 Y31.5012
G3 X171.042 Y31.505 I-0.0041 J-0.0002
G1 X149.0502
G3 X149.0459 Y31.5007 I0.0003 J-0.0046
G1 Y6.5099
G0 Z3.0
M5
M30
