( Made using CamBam - http://www.cambam.co.uk )
( base plate 10/26/2013 7:20:54 PM )
( T4 : 4.0 )
G21 G90 G91.1 G64 G40
G0 Z3.0
( T4 : 4.0 )
T4 M6
( Profile1 )
G17
M3 S1000
G0 X182.0 Y66.0001
G0 Z1.0
G1 F50.0 Z-3.0
G1 F150.0 Y3.9999
G2 Y3.9991 I-2.0 J0.0
G2 X180.2392 Y-0.2392 I-5.987 J0.0024
G2 X176.0004 Y-2.0 I-4.2401 J4.2249
G2 X175.9999 I-0.0004 J2.0
G1 X3.9999
G2 X3.9991 I0.0 J2.0
G2 X-0.2392 Y-0.2392 I0.0026 J5.9874
G2 X-2.0 Y3.9991 I4.2263 J4.2408
G2 Y3.9999 I2.0 J0.0008
G1 Y66.0001
G2 Y66.001 I2.0 J0.0
G2 X-0.2392 Y70.2392 I5.9874 J-0.0026
G2 X3.9991 Y72.0 I4.2408 J-4.2263
G2 X3.9999 I0.0008 J-2.0
G1 X175.9999
G2 X176.0011 I0.0 J-2.0
G2 X180.239 Y70.2395 I-0.0035 J-5.9893
G2 X182.0 Y66.001 I-4.2263 J-4.2411
G2 Y66.0001 I-2.0 J-0.0009
G1 F50.0 Z-6.0
G1 F150.0 Y3.9999
G2 Y3.9991 I-2.0 J0.0
G2 X180.2392 Y-0.2392 I-5.987 J0.0024
G2 X176.0004 Y-2.0 I-4.2401 J4.2249
G2 X175.9999 I-0.0004 J2.0
G1 X3.9999
G2 X3.9991 I0.0 J2.0
G2 X-0.2392 Y-0.2392 I0.0026 J5.9874
G2 X-2.0 Y3.9991 I4.2263 J4.2408
G2 Y3.9999 I2.0 J0.0008
G1 Y66.0001
G2 Y66.001 I2.0 J0.0
G2 X-0.2392 Y70.2392 I5.9874 J-0.0026
G2 X3.9991 Y72.0 I4.2408 J-4.2263
G2 X3.9999 I0.0008 J-2.0
G1 X175.9999
G2 X176.0011 I0.0 J-2.0
G2 X180.239 Y70.2395 I-0.0035 J-5.9893
G2 X182.0 Y66.001 I-4.2263 J-4.2411
G2 Y66.0001 I-2.0 J-0.0009
G1 F50.0 Z-9.0
G1 F150.0 Y3.9999
G2 Y3.9991 I-2.0 J0.0
G2 X180.2392 Y-0.2392 I-5.987 J0.0024
G2 X176.0004 Y-2.0 I-4.2401 J4.2249
G2 X175.9999 I-0.0004 J2.0
G1 X3.9999
G2 X3.9991 I0.0 J2.0
G2 X-0.2392 Y-0.2392 I0.0026 J5.9874
G2 X-2.0 Y3.9991 I4.2263 J4.2408
G2 Y3.9999 I2.0 J0.0008
G1 Y66.0001
G2 Y66.001 I2.0 J0.0
G2 X-0.2392 Y70.2392 I5.9874 J-0.0026
G2 X3.9991 Y72.0 I4.2408 J-4.2263
G2 X3.9999 I0.0008 J-2.0
G1 X175.9999
G2 X176.0011 I0.0 J-2.0
G2 X180.239 Y70.2395 I-0.0035 J-5.9893
G2 X182.0 Y66.001 I-4.2263 J-4.2411
G2 Y66.0001 I-2.0 J-0.0009
G1 F50.0 Z-12.0
G1 F150.0 Y3.9999
G2 Y3.9991 I-2.0 J0.0
G2 X180.2392 Y-0.2392 I-5.987 J0.0024
G2 X176.0004 Y-2.0 I-4.2401 J4.2249
G2 X175.9999 I-0.0004 J2.0
G1 X3.9999
G2 X3.9991 I0.0 J2.0
G2 X-0.2392 Y-0.2392 I0.0026 J5.9874
G2 X-2.0 Y3.9991 I4.2263 J4.2408
G2 Y3.9999 I2.0 J0.0008
G1 Y66.0001
G2 Y66.001 I2.0 J0.0
G2 X-0.2392 Y70.2392 I5.9874 J-0.0026
G2 X3.9991 Y72.0 I4.2408 J-4.2263
G2 X3.9999 I0.0008 J-2.0
G1 X175.9999
G2 X176.0011 I0.0 J-2.0
G2 X180.239 Y70.2395 I-0.0035 J-5.9893
G2 X182.0 Y66.001 I-4.2263 J-4.2411
G2 Y66.0001 I-2.0 J-0.0009
G0 Z3.0
M5
M30
