( Made using CamBam - http://www.cambam.co.uk )
( base plate 10/26/2013 7:20:42 PM )
( T6 : 6.0 )
G21 G90 G91.1 G64 G40
G0 Z3.0
( T6 : 6.0 )
T6 M6
( Pocket1 )
G17
M3 S1000
G0 X21.0542 Y25.8812
G0 Z1.0
G1 F50.0 Z-3.5
G2 F200.0 X19.9542 Y27.5316 I8.9001 J7.1238
G2 X18.8542 Y25.8812 I-10.0001 J5.4734
G1 Y16.405
G1 X21.0542
G1 Y25.8812
G1 F50.0 X24.3331 Y28.5058
G2 F200.0 X22.7542 Y33.005 I5.6211 J4.4993
G1 Y57.7111
G1 X17.1541
G1 Y33.005
G2 X14.6542 Y27.5507 I-7.2 J0.0
G1 Y12.205
G1 X25.2542
G1 Y27.5507
G2 X24.3331 Y28.5058 I4.7001 J5.4543
G0 Z3.0
G0 X27.6121 Y31.1304
G0 Z1.0
G1 F50.0 Z-3.5
G2 F200.0 X26.9542 Y33.005 I2.3421 J1.8747
G1 Y61.9111
G1 X12.9541
G1 Y33.005
G2 X10.4542 Y30.047 I-3.0 J0.0
G1 Y8.005
G1 X29.4542
G1 Y30.047
G2 X27.6121 Y31.1304 I0.5001 J2.958
G0 Z3.0
G0 X46.8724 Y25.8812
G0 Z1.0
G1 F50.0 Z-3.5
G1 F200.0 Y16.405
G1 X49.0725
G1 Y25.8814
G2 X47.9725 Y27.5318 I8.9002 J7.1236
G2 X46.8724 Y25.8812 I-10.0002 J5.4733
G1 F50.0 X43.5935 Y28.5058
G2 F200.0 X42.6724 Y27.5507 I-5.6211 J4.4993
G1 Y12.205
G1 X53.2725
G1 Y27.5509
G2 X50.7727 Y33.005 I4.7002 J5.4542
G1 Y57.7111
G1 X45.1724
G1 Y33.005
G2 X43.5935 Y28.5058 I-7.2 J0.0
G0 Z3.0
G0 X40.3145 Y31.1304
G0 Z1.0
G1 F50.0 Z-3.5
G2 F200.0 X38.4724 Y30.047 I-2.3421 J1.8747
G1 Y8.005
G1 X57.4725
G1 Y30.047
G2 X54.9727 Y33.005 I0.5002 J2.958
G1 Y61.9111
G1 X40.9724
G1 Y33.005
G2 X40.3145 Y31.1304 I-3.0 J0.0
G0 Z3.0
G0 X74.8909 Y25.8814
G0 Z1.0
G1 F50.0 Z-3.5
G1 F200.0 Y16.405
G1 X77.0909
G1 Y25.8812
G2 X75.9908 Y27.5318 I8.9001 J7.1238
G2 X74.8909 Y25.8814 I-10.0002 J5.4733
G0 Z3.0
G0 X71.6118 Y28.5059
G0 Z1.0
G1 F50.0 Z-3.5
G2 F200.0 X70.6909 Y27.5509 I-5.6212 J4.4991
G1 Y12.205
G1 X81.2909
G1 Y27.5507
G2 X78.791 Y33.005 I4.7001 J5.4543
G1 Y57.7111
G1 X73.1906
G1 Y33.005
G2 X71.6118 Y28.5059 I-7.2 J0.0
G1 F50.0 X68.3328 Y31.1304
G2 F200.0 X66.4909 Y30.047 I-2.3422 J1.8746
G1 Y8.005
G1 X85.4909
G1 Y30.047
G2 X82.991 Y33.005 I0.5001 J2.958
G1 Y61.9111
G1 X68.9906
G1 Y33.005
G2 X68.3328 Y31.1304 I-3.0 J0.0
G0 Z3.0
G0 X102.9093 Y25.8817
G0 Z1.0
G1 F50.0 Z-3.5
G1 F200.0 Y16.405
G1 X105.1093
G1 Y25.881
G2 X104.0091 Y27.5318 I8.8999 J7.124
G2 X102.9093 Y25.8817 I-10.0002 J5.4733
G1 F50.0 X98.7093
G1 F200.0 Y12.205
G1 X109.3093
G1 Y27.5506
G2 X106.8092 Y33.005 I4.6999 J5.4544
G1 Y57.7111
G1 X101.2089
G1 Y33.005
G2 X98.7093 Y27.551 I-7.2 J0.0
G1 Y25.8817
G1 F50.0 X94.5093
G1 F200.0 Y8.005
G1 X113.5093
G1 Y30.047
G2 X111.0092 Y33.005 I0.4999 J2.9581
G1 Y61.9111
G1 X97.0089
G1 Y33.005
G2 X94.5093 Y30.0471 I-3.0 J0.0
G1 Y25.8817
G0 Z3.0
G0 X130.9276 Y25.8814
G0 Z1.0
G1 F50.0 Z-3.5
G1 F200.0 Y16.4054
G1 X133.1276
G1 Y25.881
G2 X132.0274 Y27.5316 I8.8999 J7.124
G2 X130.9276 Y25.8814 I-10.0001 J5.4734
G0 Z3.0
G0 X126.7276
G0 Z1.0
G1 F50.0 Z-3.5
G1 F200.0 Y12.2054
G1 X137.3276
G1 Y27.5506
G2 X134.8275 Y33.005 I4.6999 J5.4544
G1 Y57.7111
G1 X129.2273
G1 Y33.005
G2 X126.7276 Y27.5509 I-7.2 J0.0
G1 Y25.8814
G0 Z3.0
G0 X122.5276
G0 Z1.0
G1 F50.0 Z-3.5
G1 F200.0 Y8.0054
G1 X141.5276
G1 Y30.047
G2 X139.0275 Y33.005 I0.4999 J2.9581
G1 Y61.9111
G1 X125.0273
G1 Y33.005
G2 X122.5276 Y30.047 I-3.0 J0.0
G1 Y25.8814
G0 Z3.0
G0 X158.9459
G0 Z1.0
G1 F50.0 Z-3.5
G1 F200.0 Y16.405
G1 X161.1459
G1 Y25.8814
G2 X160.0459 Y27.5319 I8.9002 J7.1236
G2 X158.9459 Y25.8814 I-10.0003 J5.4731
G0 Z3.0
G0 X154.7459
G0 Z1.0
G1 F50.0 Z-3.5
G1 F200.0 Y12.205
G1 X165.3459
G1 Y27.5509
G2 X162.8461 Y33.005 I4.7002 J5.4542
G1 Y57.7111
G1 X157.2456
G1 Y33.005
G2 X154.7459 Y27.5509 I-7.2 J0.0
G1 Y25.8814
G0 Z3.0
G0 X150.5459
G0 Z1.0
G1 F50.0 Z-3.5
G1 F200.0 Y8.005
G1 X169.5459
G1 Y30.047
G2 X167.0461 Y33.005 I0.5002 J2.958
G1 Y61.9111
G1 X153.0456
G1 Y33.005
G2 X150.5459 Y30.047 I-3.0 J0.0
G1 Y25.8814
( Pocket2 )
S1000
G0 Z3.0
G0 X21.0542 Y16.405
G0 Z-2.5
G1 F50.0 Z-4.0
G1 F250.0 Y21.605
G1 X18.8542
G1 Y16.405
G1 X21.0542
G1 F50.0 X25.2542
G1 F250.0 Y25.805
G1 X14.6542
G1 Y12.205
G1 X25.2542
G1 Y16.405
G1 F50.0 X29.4542
G1 F250.0 Y30.005
G1 X10.4542
G1 Y8.005
G1 X29.4542
G1 Y16.405
G0 Z3.0
G0 X46.8724
G0 Z-2.5
G1 F50.0 Z-4.0
G1 F250.0 X49.0725
G1 Y21.605
G1 X46.8724
G1 Y16.405
G1 F50.0 Y12.205
G1 F250.0 X53.2725
G1 Y25.805
G1 X42.6724
G1 Y12.205
G1 X46.8724
G1 F50.0 Y8.005
G1 F250.0 X57.4725
G1 Y30.005
G1 X38.4724
G1 Y8.005
G1 X46.8724
G0 Z3.0
G0 X74.8909 Y16.405
G0 Z-2.5
G1 F50.0 Z-4.0
G1 F250.0 X77.0909
G1 Y21.605
G1 X74.8909
G1 Y16.405
G0 Z3.0
G0 X70.6909
G0 Z1.0
G1 F50.0 Z-4.0
G1 F250.0 Y12.205
G1 X81.2909
G1 Y25.805
G1 X70.6909
G1 Y16.405
G0 Z3.0
G0 X66.4909
G0 Z1.0
G1 F50.0 Z-4.0
G1 F250.0 Y8.005
G1 X85.4909
G1 Y30.005
G1 X66.4909
G1 Y16.405
G0 Z3.0
G0 X102.9093
G0 Z-2.5
G1 F50.0 Z-4.0
G1 F250.0 X105.1093
G1 Y21.605
G1 X102.9093
G1 Y16.405
G1 F50.0 Y12.205
G1 F250.0 X109.3093
G1 Y25.805
G1 X98.7093
G1 Y12.205
G1 X102.9093
G1 F50.0 Y8.005
G1 F250.0 X113.5093
G1 Y30.005
G1 X94.5093
G1 Y8.005
G1 X102.9093
G0 Z3.0
G0 X130.9276 Y16.4054
G0 Z-2.5
G1 F50.0 Z-4.0
G1 F250.0 X133.1276
G1 Y21.605
G1 X130.9276
G1 Y16.4054
G0 Z3.0
G0 X126.7276
G0 Z1.0
G1 F50.0 Z-4.0
G1 F250.0 Y12.2054
G1 X137.3276
G1 Y25.805
G1 X126.7276
G1 Y16.4054
G0 Z3.0
G0 X122.5276
G0 Z1.0
G1 F50.0 Z-4.0
G1 F250.0 Y8.0054
G1 X141.5276
G1 Y30.005
G1 X122.5276
G1 Y16.4054
G0 Z3.0
G0 X158.9459
G0 Z1.0
G1 F50.0 Z-4.0
G1 F250.0 Y16.405
G1 X161.1459
G1 Y21.605
G1 X158.9459
G1 Y16.4054
G0 Z3.0
G0 X154.7459
G0 Z1.0
G1 F50.0 Z-4.0
G1 F250.0 Y12.205
G1 X165.3459
G1 Y25.805
G1 X154.7459
G1 Y16.4054
G0 Z3.0
G0 X150.5459
G0 Z1.0
G1 F50.0 Z-4.0
G1 F250.0 Y8.005
G1 X169.5459
G1 Y30.005
G1 X150.5459
G1 Y16.4054
G0 Z3.0
M5
M30
