( Made using CamBam - http://www.cambam.co.uk )
( base plate 10/26/2013 8:12:13 PM )
( T16 : 1.0 )
G21 G90 G91.1 G64 G40
G0 Z3.0
( T16 : 1.0 )
T16 M6
( Spot Drill )
G17
M3 S1000
G0 X5.9198 Y59.3777
G98
G81 X5.9198 Y59.3777 Z-1.0 R3.0 F50.0
G81 Y41.2117 Z-1.0
G81 X3.8133 Y28.0882 Z-1.0
G81 Y9.9222 Z-1.0
G81 X33.9217 Y41.2117 Z-1.0
G81 Y59.3777 Z-1.0
G81 X61.9236 Z-1.0
G81 Y41.2117 Z-1.0
G81 X89.9255 Z-1.0
G81 Y59.3777 Z-1.0
G81 X117.9274 Z-1.0
G81 Y41.2117 Z-1.0
G81 X145.9293 Z-1.0
G81 Y59.3777 Z-1.0
G81 X173.9312 Z-1.0
G81 Y41.2117 Z-1.0
G81 X176.2752 Y28.0882 Z-1.0
G81 Y9.9222 Z-1.0
G80
G0 Z3.0
M5
M30
