( Made using CamBam - http://www.cambam.co.uk )
( base plate 10/26/2013 8:12:23 PM )
( T9 : 3.0 )
G21 G90 G91.1 G64 G40
G0 Z3.0
( T9 : 3.0 )
T9 M6
( 3.3mm Drill )
G17
M3 S1000
G0 X5.9198 Y59.3777
G98
G83 X5.9198 Y59.3777 Z-14.0 Q7.0 R3.0 F50.0
G83 Y41.2117 Z-14.0
G83 X33.9217 Z-14.0
G83 Y59.3777 Z-14.0
G83 X61.9236 Z-14.0
G83 Y41.2117 Z-14.0
G83 X89.9255 Z-14.0
G83 Y59.3777 Z-14.0
G83 X117.9274 Z-14.0
G83 Y41.2117 Z-14.0
G83 X145.9293 Z-14.0
G83 Y59.3777 Z-14.0
G83 X173.9312 Z-14.0
G83 Y41.2117 Z-14.0
G80
G0 Z3.0
M5
M30
