( Made using CamBam - http://www.cambam.co.uk )
( picker slide - delrin block 9/4/2013 11:43:55 AM )
( T16 : 1.0 )
G21 G90 G64 G40
G0 Z3.0
( T16 : 1.0 )
T16 M6
( Spot Drill )
G17
M3 S1000
G0 X6.002 Y21.896
G98
G81 X6.002 Y21.896 Z-0.5 R3.0 F50.0
G81 X14.0726 Y8.549 Z-0.5
G81 X22.0018 Y5.9945 Z-0.5
G81 X33.521 Z-0.5
G81 X41.5919 Y8.549 Z-0.5
G81 X49.5212 Y5.9945 Z-0.5
G81 Y21.9949 Z-0.5
G81 X33.521 Y21.896 Z-0.5
G81 X22.0018 Y21.9949 Z-0.5
G81 X6.002 Y5.9945 Z-0.5
G80
G0 Z3.0
M5
M30
