( Made using CamBam - http://www.cambam.co.uk )
( picker slide - delrin block 9/4/2013 11:44:06 AM )
( T8 : 2.0 )
G21 G90 G64 G40
G0 Z3.0
( T8 : 2.0 )
T8 M6
( 2mm drill )
G17
M3 S1000
G0 X6.002 Y21.896
G98
G83 X6.002 Y21.896 Z-13.0 Q1.0 R2.0 F50.0
G83 Y5.9945 Z-13.0
G83 X22.0018 Z-13.0
G83 X33.521 Z-13.0
G83 Y21.896 Z-13.0
G83 X22.0018 Y21.9949 Z-13.0
G83 X49.5212 Z-13.0
G83 Y5.9945 Z-13.0
G80
G0 Z3.0
M5
M30
