( Made using CamBam - http://www.cambam.co.uk )
( picker slide - delrin block 9/4/2013 11:44:26 AM )
( T4 : 4.0 )
G21 G90 G64 G40
G0 Z3.0
( T4 : 4.0 )
T4 M6
( 4mm pocket )
G17
M3 S1000
G0 X4.5018 Y4.4932
G0 Z1.0
G1 F50.0 Z-2.0
G1 F80.0 X4.4
G1 Y4.4
G1 X4.5018
G1 Y4.4932
G1 F50.0 Y5.2932
G1 F80.0 X4.0001
G2 X3.772 Y5.3004 I0.0 J3.6
G1 X3.6
G1 Y4.0001
G1 Y3.6
G1 X5.3018
G1 Y4.0001
G1 Y5.2932
G1 X4.5018
G1 F50.0 Y6.8932
G1 F80.0 X4.0001
G2 X3.8301 Y6.9004 I0.0 J2.0
G1 X2.0
G1 Y4.0001
G1 Y2.641
G1 Y2.0
G1 X6.9018
G1 Y3.0944
G1 Y4.0001
G1 Y5.9937
G1 Y5.9938
G1 Y5.9937
G3 X6.002 Y6.8932 I-0.8996 J-0.0001
G2 X6.0015 I-0.0005 J2.0
G1 X4.5018
G1 F50.0 Y4.4932
G1 Z-4.0
G1 F80.0 X4.4
G1 Y4.4
G1 X4.5018
G1 Y4.4932
G1 F50.0 Y5.2932
G1 F80.0 X4.0001
G2 X3.772 Y5.3004 I0.0 J3.6
G1 X3.6
G1 Y4.0001
G1 Y3.6
G1 X5.3018
G1 Y4.0001
G1 Y5.2932
G1 X4.5018
G1 F50.0 Y6.8932
G1 F80.0 X4.0001
G2 X3.8301 Y6.9004 I0.0 J2.0
G1 X2.0
G1 Y4.0001
G1 Y2.641
G1 Y2.0
G1 X6.9018
G1 Y3.0944
G1 Y4.0001
G1 Y5.9937
G1 Y5.9938
G1 Y5.9937
G3 X6.002 Y6.8932 I-0.8996 J-0.0001
G2 X6.0015 I-0.0005 J2.0
G1 X4.5018
G1 F50.0 Y4.4932
G1 Z-6.0
G1 F80.0 X4.4
G1 Y4.4
G1 X4.5018
G1 Y4.4932
G1 F50.0 Y5.2932
G1 F80.0 X4.0001
G2 X3.772 Y5.3004 I0.0 J3.6
G1 X3.6
G1 Y4.0001
G1 Y3.6
G1 X5.3018
G1 Y4.0001
G1 Y5.2932
G1 X4.5018
G1 F50.0 Y6.8932
G1 F80.0 X4.0001
G2 X3.8301 Y6.9004 I0.0 J2.0
G1 X2.0
G1 Y4.0001
G1 Y2.641
G1 Y2.0
G1 X6.9018
G1 Y3.0944
G1 Y4.0001
G1 Y5.9937
G1 Y5.9938
G1 Y5.9937
G3 X6.002 Y6.8932 I-0.8996 J-0.0001
G2 X6.0015 I-0.0005 J2.0
G1 X4.5018
G1 F50.0 Y4.4932
G1 Z-8.0
G1 F80.0 X4.4
G1 Y4.4
G1 X4.5018
G1 Y4.4932
G1 F50.0 Y5.2932
G1 F80.0 X4.0001
G2 X3.772 Y5.3004 I0.0 J3.6
G1 X3.6
G1 Y4.0001
G1 Y3.6
G1 X5.3018
G1 Y4.0001
G1 Y5.2932
G1 X4.5018
G1 F50.0 Y6.8932
G1 F80.0 X4.0001
G2 X3.8301 Y6.9004 I0.0 J2.0
G1 X2.0
G1 Y4.0001
G1 Y2.641
G1 Y2.0
G1 X6.9018
G1 Y3.0944
G1 Y4.0001
G1 Y5.9937
G1 Y5.9938
G1 Y5.9937
G3 X6.002 Y6.8932 I-0.8996 J-0.0001
G2 X6.0015 I-0.0005 J2.0
G1 X4.5018
G0 Z3.0
G0 X4.5015 Y23.4941
G0 Z1.0
G1 F50.0 Z-2.0
G1 F80.0 Y23.5959
G1 X4.4007
G1 Y23.4941
G1 X4.5015
G1 F50.0 Y22.6941
G1 F80.0 X5.3017
G1 X5.3013 Y24.3959
G1 X4.0008
G1 X3.6007
G1 Y22.6941
G1 X4.0008
G1 X4.5015
G1 F50.0 Y21.0941
G1 F80.0 X6.0015
G2 X6.0021 I0.0 J-2.0
G3 X6.9018 Y21.9934 I0.0003 J0.8994
G1 X6.9011 Y25.7152
G2 Y25.7156 I2.0 J0.0004
G1 Y25.9959
G1 X4.0008
G1 X2.6415
G1 X2.0007
G1 Y21.0941
G1 X2.1366
G1 X4.0008
G1 X4.5015
G1 F50.0 Y23.4941
G1 Z-4.0
G1 F80.0 Y23.5959
G1 X4.4007
G1 Y23.4941
G1 X4.5015
G1 F50.0 Y22.6941
G1 F80.0 X5.3017
G1 X5.3013 Y24.3959
G1 X4.0008
G1 X3.6007
G1 Y22.6941
G1 X4.0008
G1 X4.5015
G1 F50.0 Y21.0941
G1 F80.0 X6.0015
G2 X6.0021 I0.0 J-2.0
G3 X6.9018 Y21.9934 I0.0003 J0.8994
G1 X6.9011 Y25.7152
G2 Y25.7156 I2.0 J0.0004
G1 Y25.9959
G1 X4.0008
G1 X2.6415
G1 X2.0007
G1 Y21.0941
G1 X2.1366
G1 X4.0008
G1 X4.5015
G1 F50.0 Y23.4941
G1 Z-6.0
G1 F80.0 Y23.5959
G1 X4.4007
G1 Y23.4941
G1 X4.5015
G1 F50.0 Y22.6941
G1 F80.0 X5.3017
G1 X5.3013 Y24.3959
G1 X4.0008
G1 X3.6007
G1 Y22.6941
G1 X4.0008
G1 X4.5015
G1 F50.0 Y21.0941
G1 F80.0 X6.0015
G2 X6.0021 I0.0 J-2.0
G3 X6.9018 Y21.9934 I0.0003 J0.8994
G1 X6.9011 Y25.7152
G2 Y25.7156 I2.0 J0.0004
G1 Y25.9959
G1 X4.0008
G1 X2.6415
G1 X2.0007
G1 Y21.0941
G1 X2.1366
G1 X4.0008
G1 X4.5015
G1 F50.0 Y23.4941
G1 Z-8.0
G1 F80.0 Y23.5959
G1 X4.4007
G1 Y23.4941
G1 X4.5015
G1 F50.0 Y22.6941
G1 F80.0 X5.3017
G1 X5.3013 Y24.3959
G1 X4.0008
G1 X3.6007
G1 Y22.6941
G1 X4.0008
G1 X4.5015
G1 F50.0 Y21.0941
G1 F80.0 X6.0015
G2 X6.0021 I0.0 J-2.0
G3 X6.9018 Y21.9934 I0.0003 J0.8994
G1 X6.9011 Y25.7152
G2 Y25.7156 I2.0 J0.0004
G1 Y25.9959
G1 X4.0008
G1 X2.6415
G1 X2.0007
G1 Y21.0941
G1 X2.1366
G1 X4.0008
G1 X4.5015
G0 Z3.0
G0 X23.5018 Y23.4955
G0 Z1.0
G1 F50.0 Z-2.0
G1 F80.0 X24.0035
G1 X25.5965
G1 X27.5193
G2 X27.6294 Y23.4941 I0.0 J-4.4
G1 X29.6556
G1 X31.5197
G1 X32.0208
G1 X32.0207 Y23.5959
G1 X31.5197
G1 X30.1603
G1 X28.0033
G1 X27.5193
G1 X23.5018
G1 Y23.4955
G1 F50.0 Y22.6955
G1 F80.0 X24.0035
G1 X25.5965
G1 X27.5193
G2 X27.6188 Y22.6941 I0.0 J-3.6
G1 X29.6556
G1 X31.5197
G1 X32.8209
G1 X32.8206 Y24.3959
G1 X31.5197
G1 X30.1603
G1 X28.0033
G1 X27.5193
G1 X22.7018
G1 Y23.9958
G1 Y22.6955
G1 X23.5018
G1 F50.0 Y21.0955
G1 F80.0 X24.0035
G1 X25.5965
G1 X27.5193
G2 X27.5935 Y21.0941 I0.0 J-2.0
G1 X29.6556
G1 X31.5197
G1 X33.5206
G2 X33.5213 I0.0 J-2.0
G3 X34.421 Y21.9934 I0.0003 J0.8994
G1 X34.4203 Y25.7152
G2 Y25.7156 I2.0 J0.0004
G1 Y25.9959
G1 X31.5197
G1 X30.1603
G1 X28.0033
G1 X27.5193
G1 X21.1018
G1 Y25.6184
G1 Y23.9958
G1 Y21.9949
G3 X22.0013 Y21.0955 I0.8994 J0.0
G1 X22.0012
G1 X22.0013
G1 X23.5018
G1 F50.0 Y23.4955
G1 Z-4.0
G1 F80.0 X24.0035
G1 X25.5965
G1 X27.5193
G2 X27.6294 Y23.4941 I0.0 J-4.4
G1 X29.6556
G1 X31.5197
G1 X32.0208
G1 X32.0207 Y23.5959
G1 X31.5197
G1 X30.1603
G1 X28.0033
G1 X27.5193
G1 X23.5018
G1 Y23.4955
G1 F50.0 Y22.6955
G1 F80.0 X24.0035
G1 X25.5965
G1 X27.5193
G2 X27.6188 Y22.6941 I0.0 J-3.6
G1 X29.6556
G1 X31.5197
G1 X32.8209
G1 X32.8206 Y24.3959
G1 X31.5197
G1 X30.1603
G1 X28.0033
G1 X27.5193
G1 X22.7018
G1 Y23.9958
G1 Y22.6955
G1 X23.5018
G1 F50.0 Y21.0955
G1 F80.0 X24.0035
G1 X25.5965
G1 X27.5193
G2 X27.5935 Y21.0941 I0.0 J-2.0
G1 X29.6556
G1 X31.5197
G1 X33.5206
G2 X33.5213 I0.0 J-2.0
G3 X34.421 Y21.9934 I0.0003 J0.8994
G1 X34.4203 Y25.7152
G2 Y25.7156 I2.0 J0.0004
G1 Y25.9959
G1 X31.5197
G1 X30.1603
G1 X28.0033
G1 X27.5193
G1 X21.1018
G1 Y25.6184
G1 Y23.9958
G1 Y21.9949
G3 X22.0013 Y21.0955 I0.8994 J0.0
G1 X22.0012
G1 X22.0013
G1 X23.5018
G1 F50.0 Y23.4955
G1 Z-6.0
G1 F80.0 X24.0035
G1 X25.5965
G1 X27.5193
G2 X27.6294 Y23.4941 I0.0 J-4.4
G1 X29.6556
G1 X31.5197
G1 X32.0208
G1 X32.0207 Y23.5959
G1 X31.5197
G1 X30.1603
G1 X28.0033
G1 X27.5193
G1 X23.5018
G1 Y23.4955
G1 F50.0 Y22.6955
G1 F80.0 X24.0035
G1 X25.5965
G1 X27.5193
G2 X27.6188 Y22.6941 I0.0 J-3.6
G1 X29.6556
G1 X31.5197
G1 X32.8209
G1 X32.8206 Y24.3959
G1 X31.5197
G1 X30.1603
G1 X28.0033
G1 X27.5193
G1 X22.7018
G1 Y23.9958
G1 Y22.6955
G1 X23.5018
G1 F50.0 Y21.0955
G1 F80.0 X24.0035
G1 X25.5965
G1 X27.5193
G2 X27.5935 Y21.0941 I0.0 J-2.0
G1 X29.6556
G1 X31.5197
G1 X33.5206
G2 X33.5213 I0.0 J-2.0
G3 X34.421 Y21.9934 I0.0003 J0.8994
G1 X34.4203 Y25.7152
G2 Y25.7156 I2.0 J0.0004
G1 Y25.9959
G1 X31.5197
G1 X30.1603
G1 X28.0033
G1 X27.5193
G1 X21.1018
G1 Y25.6184
G1 Y23.9958
G1 Y21.9949
G3 X22.0013 Y21.0955 I0.8994 J0.0
G1 X22.0012
G1 X22.0013
G1 X23.5018
G1 F50.0 Y23.4955
G1 Z-8.0
G1 F80.0 X24.0035
G1 X25.5965
G1 X27.5193
G2 X27.6294 Y23.4941 I0.0 J-4.4
G1 X29.6556
G1 X31.5197
G1 X32.0208
G1 X32.0207 Y23.5959
G1 X31.5197
G1 X30.1603
G1 X28.0033
G1 X27.5193
G1 X23.5018
G1 Y23.4955
G1 F50.0 Y22.6955
G1 F80.0 X24.0035
G1 X25.5965
G1 X27.5193
G2 X27.6188 Y22.6941 I0.0 J-3.6
G1 X29.6556
G1 X31.5197
G1 X32.8209
G1 X32.8206 Y24.3959
G1 X31.5197
G1 X30.1603
G1 X28.0033
G1 X27.5193
G1 X22.7018
G1 Y23.9958
G1 Y22.6955
G1 X23.5018
G1 F50.0 Y21.0955
G1 F80.0 X24.0035
G1 X25.5965
G1 X27.5193
G2 X27.5935 Y21.0941 I0.0 J-2.0
G1 X29.6556
G1 X31.5197
G1 X33.5206
G2 X33.5213 I0.0 J-2.0
G3 X34.421 Y21.9934 I0.0003 J0.8994
G1 X34.4203 Y25.7152
G2 Y25.7156 I2.0 J0.0004
G1 Y25.9959
G1 X31.5197
G1 X30.1603
G1 X28.0033
G1 X27.5193
G1 X21.1018
G1 Y25.6184
G1 Y23.9958
G1 Y21.9949
G3 X22.0013 Y21.0955 I0.8994 J0.0
G1 X22.0012
G1 X22.0013
G1 X23.5018
G0 Z3.0
G0 Y4.4939
G0 Z1.0
G1 F50.0 Z-2.0
G1 F80.0 Y4.4
G1 X24.0022
G1 X25.3612
G1 X27.5186
G1 X28.0019
G1 X32.021
G1 Y4.4932
G1 X31.519
G2 X31.2668 Y4.5004 I0.0 J4.4
G1 X28.0019
G2 X27.8918 Y4.5018 I0.0 J4.4
G1 X24.2661
G2 X24.0022 Y4.4939 I-0.2639 J4.3921
G1 X23.5018
G1 F50.0 Y5.2939
G1 F80.0 X22.7018
G1 Y4.0001
G1 Y3.6
G1 X24.0022
G1 X25.3612
G1 X27.5186
G1 X28.0019
G1 X32.821
G1 Y4.0001
G1 Y5.2932
G1 X31.519
G2 X31.2909 Y5.3004 I0.0 J3.6
G1 X28.0019
G2 X27.9023 Y5.3018 I0.0 J3.6
G1 X24.2409
G2 X24.0022 Y5.2939 I-0.2387 J3.5921
G1 X23.5018
G1 F50.0 Y6.8939
G1 F80.0 X22.0012
G1 X22.0009
G3 X21.1018 Y5.9948 I-0.0001 J-0.8989
G1 Y5.9945
G1 Y4.0001
G1 Y3.0951
G1 Y2.0
G1 X24.0022
G1 X25.3612
G1 X27.5186
G1 X28.0019
G1 X34.421
G1 Y3.0944
G1 Y4.0001
G1 Y5.9937
G1 Y5.9938
G1 Y5.9937
G3 X33.5213 Y6.8932 I-0.8995 J0.0
G2 X33.5206 I-0.0007 J2.0
G1 X31.519
G2 X31.349 Y6.9004 I0.0 J2.0
G1 X28.0019
G2 X27.9277 Y6.9018 I0.0 J2.0
G1 X24.18
G2 X24.0022 Y6.8939 I-0.1779 J1.9921
G1 X23.5018
G1 F50.0 Y4.4939
G1 Z-4.0
G1 F80.0 Y4.4
G1 X24.0022
G1 X25.3612
G1 X27.5186
G1 X28.0019
G1 X32.021
G1 Y4.4932
G1 X31.519
G2 X31.2668 Y4.5004 I0.0 J4.4
G1 X28.0019
G2 X27.8918 Y4.5018 I0.0 J4.4
G1 X24.2661
G2 X24.0022 Y4.4939 I-0.2639 J4.3921
G1 X23.5018
G1 F50.0 Y5.2939
G1 F80.0 X22.7018
G1 Y4.0001
G1 Y3.6
G1 X24.0022
G1 X25.3612
G1 X27.5186
G1 X28.0019
G1 X32.821
G1 Y4.0001
G1 Y5.2932
G1 X31.519
G2 X31.2909 Y5.3004 I0.0 J3.6
G1 X28.0019
G2 X27.9023 Y5.3018 I0.0 J3.6
G1 X24.2409
G2 X24.0022 Y5.2939 I-0.2387 J3.5921
G1 X23.5018
G1 F50.0 Y6.8939
G1 F80.0 X22.0012
G1 X22.0009
G3 X21.1018 Y5.9948 I-0.0001 J-0.8989
G1 Y5.9945
G1 Y4.0001
G1 Y3.0951
G1 Y2.0
G1 X24.0022
G1 X25.3612
G1 X27.5186
G1 X28.0019
G1 X34.421
G1 Y3.0944
G1 Y4.0001
G1 Y5.9937
G1 Y5.9938
G1 Y5.9937
G3 X33.5213 Y6.8932 I-0.8995 J0.0
G2 X33.5206 I-0.0007 J2.0
G1 X31.519
G2 X31.349 Y6.9004 I0.0 J2.0
G1 X28.0019
G2 X27.9277 Y6.9018 I0.0 J2.0
G1 X24.18
G2 X24.0022 Y6.8939 I-0.1779 J1.9921
G1 X23.5018
G1 F50.0 Y4.4939
G1 Z-6.0
G1 F80.0 Y4.4
G1 X24.0022
G1 X25.3612
G1 X27.5186
G1 X28.0019
G1 X32.021
G1 Y4.4932
G1 X31.519
G2 X31.2668 Y4.5004 I0.0 J4.4
G1 X28.0019
G2 X27.8918 Y4.5018 I0.0 J4.4
G1 X24.2661
G2 X24.0022 Y4.4939 I-0.2639 J4.3921
G1 X23.5018
G1 F50.0 Y5.2939
G1 F80.0 X22.7018
G1 Y4.0001
G1 Y3.6
G1 X24.0022
G1 X25.3612
G1 X27.5186
G1 X28.0019
G1 X32.821
G1 Y4.0001
G1 Y5.2932
G1 X31.519
G2 X31.2909 Y5.3004 I0.0 J3.6
G1 X28.0019
G2 X27.9023 Y5.3018 I0.0 J3.6
G1 X24.2409
G2 X24.0022 Y5.2939 I-0.2387 J3.5921
G1 X23.5018
G1 F50.0 Y6.8939
G1 F80.0 X22.0012
G1 X22.0009
G3 X21.1018 Y5.9948 I-0.0001 J-0.8989
G1 Y5.9945
G1 Y4.0001
G1 Y3.0951
G1 Y2.0
G1 X24.0022
G1 X25.3612
G1 X27.5186
G1 X28.0019
G1 X34.421
G1 Y3.0944
G1 Y4.0001
G1 Y5.9937
G1 Y5.9938
G1 Y5.9937
G3 X33.5213 Y6.8932 I-0.8995 J0.0
G2 X33.5206 I-0.0007 J2.0
G1 X31.519
G2 X31.349 Y6.9004 I0.0 J2.0
G1 X28.0019
G2 X27.9277 Y6.9018 I0.0 J2.0
G1 X24.18
G2 X24.0022 Y6.8939 I-0.1779 J1.9921
G1 X23.5018
G1 F50.0 Y4.4939
G1 Z-8.0
G1 F80.0 Y4.4
G1 X24.0022
G1 X25.3612
G1 X27.5186
G1 X28.0019
G1 X32.021
G1 Y4.4932
G1 X31.519
G2 X31.2668 Y4.5004 I0.0 J4.4
G1 X28.0019
G2 X27.8918 Y4.5018 I0.0 J4.4
G1 X24.2661
G2 X24.0022 Y4.4939 I-0.2639 J4.3921
G1 X23.5018
G1 F50.0 Y5.2939
G1 F80.0 X22.7018
G1 Y4.0001
G1 Y3.6
G1 X24.0022
G1 X25.3612
G1 X27.5186
G1 X28.0019
G1 X32.821
G1 Y4.0001
G1 Y5.2932
G1 X31.519
G2 X31.2909 Y5.3004 I0.0 J3.6
G1 X28.0019
G2 X27.9023 Y5.3018 I0.0 J3.6
G1 X24.2409
G2 X24.0022 Y5.2939 I-0.2387 J3.5921
G1 X23.5018
G1 F50.0 Y6.8939
G1 F80.0 X22.0012
G1 X22.0009
G3 X21.1018 Y5.9948 I-0.0001 J-0.8989
G1 Y5.9945
G1 Y4.0001
G1 Y3.0951
G1 Y2.0
G1 X24.0022
G1 X25.3612
G1 X27.5186
G1 X28.0019
G1 X34.421
G1 Y3.0944
G1 Y4.0001
G1 Y5.9937
G1 Y5.9938
G1 Y5.9937
G3 X33.5213 Y6.8932 I-0.8995 J0.0
G2 X33.5206 I-0.0007 J2.0
G1 X31.519
G2 X31.349 Y6.9004 I0.0 J2.0
G1 X28.0019
G2 X27.9277 Y6.9018 I0.0 J2.0
G1 X24.18
G2 X24.0022 Y6.8939 I-0.1779 J1.9921
G1 X23.5018
G0 Z3.0
G0 X51.0213 Y4.4939
G0 Z1.0
G1 F50.0 Z-2.0
G1 F80.0 Y4.4
G1 X51.1213
G1 Y4.4939
G1 X51.0213
G1 F50.0 Y5.2939
G1 F80.0 X50.2213
G1 Y4.0001
G1 Y3.6
G1 X51.5216
G1 X51.9213
G1 Y5.3018
G1 X51.7603
G2 X51.5216 Y5.2939 I-0.2387 J3.5921
G1 X51.0213
G1 F50.0 Y6.8939
G1 F80.0 X49.5207
G1 X49.5203
G3 X48.6213 Y5.9948 I-0.0001 J-0.8989
G1 Y5.9945
G1 Y4.0001
G1 Y3.0951
G1 Y2.0
G1 X51.5216
G1 X52.8807
G1 X53.5213
G1 Y6.9018
G1 X51.6994
G2 X51.5216 Y6.8939 I-0.1779 J1.9921
G1 X51.0213
G1 F50.0 Y4.4939
G1 Z-4.0
G1 F80.0 Y4.4
G1 X51.1213
G1 Y4.4939
G1 X51.0213
G1 F50.0 Y5.2939
G1 F80.0 X50.2213
G1 Y4.0001
G1 Y3.6
G1 X51.5216
G1 X51.9213
G1 Y5.3018
G1 X51.7603
G2 X51.5216 Y5.2939 I-0.2387 J3.5921
G1 X51.0213
G1 F50.0 Y6.8939
G1 F80.0 X49.5207
G1 X49.5203
G3 X48.6213 Y5.9948 I-0.0001 J-0.8989
G1 Y5.9945
G1 Y4.0001
G1 Y3.0951
G1 Y2.0
G1 X51.5216
G1 X52.8807
G1 X53.5213
G1 Y6.9018
G1 X51.6994
G2 X51.5216 Y6.8939 I-0.1779 J1.9921
G1 X51.0213
G1 F50.0 Y4.4939
G1 Z-6.0
G1 F80.0 Y4.4
G1 X51.1213
G1 Y4.4939
G1 X51.0213
G1 F50.0 Y5.2939
G1 F80.0 X50.2213
G1 Y4.0001
G1 Y3.6
G1 X51.5216
G1 X51.9213
G1 Y5.3018
G1 X51.7603
G2 X51.5216 Y5.2939 I-0.2387 J3.5921
G1 X51.0213
G1 F50.0 Y6.8939
G1 F80.0 X49.5207
G1 X49.5203
G3 X48.6213 Y5.9948 I-0.0001 J-0.8989
G1 Y5.9945
G1 Y4.0001
G1 Y3.0951
G1 Y2.0
G1 X51.5216
G1 X52.8807
G1 X53.5213
G1 Y6.9018
G1 X51.6994
G2 X51.5216 Y6.8939 I-0.1779 J1.9921
G1 X51.0213
G1 F50.0 Y4.4939
G1 Z-8.0
G1 F80.0 Y4.4
G1 X51.1213
G1 Y4.4939
G1 X51.0213
G1 F50.0 Y5.2939
G1 F80.0 X50.2213
G1 Y4.0001
G1 Y3.6
G1 X51.5216
G1 X51.9213
G1 Y5.3018
G1 X51.7603
G2 X51.5216 Y5.2939 I-0.2387 J3.5921
G1 X51.0213
G1 F50.0 Y6.8939
G1 F80.0 X49.5207
G1 X49.5203
G3 X48.6213 Y5.9948 I-0.0001 J-0.8989
G1 Y5.9945
G1 Y4.0001
G1 Y3.0951
G1 Y2.0
G1 X51.5216
G1 X52.8807
G1 X53.5213
G1 Y6.9018
G1 X51.6994
G2 X51.5216 Y6.8939 I-0.1779 J1.9921
G1 X51.0213
G0 Z3.0
G0 Y23.4955
G0 Z1.0
G1 F50.0 Z-2.0
G1 F80.0 X51.1227
G1 Y23.5959
G1 X51.0213
G1 Y23.4955
G1 F50.0 Y22.6955
G1 F80.0 X51.523
G1 X51.9227
G1 Y23.9958
G1 Y24.3959
G1 X50.2213
G1 Y23.9958
G1 Y22.6955
G1 X51.0213
G1 F50.0 Y21.0955
G1 F80.0 X51.523
G1 X53.116
G1 X53.5227
G1 Y23.9958
G1 Y25.3552
G1 Y25.9959
G1 X48.6213
G1 Y25.6184
G1 Y23.9958
G1 Y21.9949
G3 X49.5207 Y21.0955 I0.8994 J0.0
G1 X51.0213
G1 F50.0 Y23.4955
G1 Z-4.0
G1 F80.0 X51.1227
G1 Y23.5959
G1 X51.0213
G1 Y23.4955
G1 F50.0 Y22.6955
G1 F80.0 X51.523
G1 X51.9227
G1 Y23.9958
G1 Y24.3959
G1 X50.2213
G1 Y23.9958
G1 Y22.6955
G1 X51.0213
G1 F50.0 Y21.0955
G1 F80.0 X51.523
G1 X53.116
G1 X53.5227
G1 Y23.9958
G1 Y25.3552
G1 Y25.9959
G1 X48.6213
G1 Y25.6184
G1 Y23.9958
G1 Y21.9949
G3 X49.5207 Y21.0955 I0.8994 J0.0
G1 X51.0213
G1 F50.0 Y23.4955
G1 Z-6.0
G1 F80.0 X51.1227
G1 Y23.5959
G1 X51.0213
G1 Y23.4955
G1 F50.0 Y22.6955
G1 F80.0 X51.523
G1 X51.9227
G1 Y23.9958
G1 Y24.3959
G1 X50.2213
G1 Y23.9958
G1 Y22.6955
G1 X51.0213
G1 F50.0 Y21.0955
G1 F80.0 X51.523
G1 X53.116
G1 X53.5227
G1 Y23.9958
G1 Y25.3552
G1 Y25.9959
G1 X48.6213
G1 Y25.6184
G1 Y23.9958
G1 Y21.9949
G3 X49.5207 Y21.0955 I0.8994 J0.0
G1 X51.0213
G1 F50.0 Y23.4955
G1 Z-8.0
G1 F80.0 X51.1227
G1 Y23.5959
G1 X51.0213
G1 Y23.4955
G1 F50.0 Y22.6955
G1 F80.0 X51.523
G1 X51.9227
G1 Y23.9958
G1 Y24.3959
G1 X50.2213
G1 Y23.9958
G1 Y22.6955
G1 X51.0213
G1 F50.0 Y21.0955
G1 F80.0 X51.523
G1 X53.116
G1 X53.5227
G1 Y23.9958
G1 Y25.3552
G1 Y25.9959
G1 X48.6213
G1 Y25.6184
G1 Y23.9958
G1 Y21.9949
G3 X49.5207 Y21.0955 I0.8994 J0.0
G1 X51.0213
G0 Z3.0
M5
M30
