( Made using CamBam - http://www.cambam.co.uk )
( picker slide - delrin block 9/4/2013 11:44:36 AM )
( T4 : 4.0 )
G21 G90 G64 G40
G0 Z3.0
( T4 : 4.0 )
T4 M6
( 4mm cutout )
G17
M3 S1000
G0 X24.0022 Y1.9946
G0 Z1.0
G1 F50.0 Z-2.0
G1 F100.0 X4.002
G2 X2.002 Y3.9946 I0.0 J2.0
G1 Y23.9947
G2 X4.002 Y25.9947 I2.0 J0.0
G1 X24.0022
G2 X26.0022 Y23.9947 I0.0 J-2.0
G1 Y3.9946
G2 X24.0022 Y1.9946 I-2.0 J0.0
G1 F50.0 Z-4.0
G1 F100.0 X4.002
G2 X2.002 Y3.9946 I0.0 J2.0
G1 Y23.9947
G2 X4.002 Y25.9947 I2.0 J0.0
G1 X24.0022
G2 X26.0022 Y23.9947 I0.0 J-2.0
G1 Y3.9946
G2 X24.0022 Y1.9946 I-2.0 J0.0
G1 F50.0 Z-6.0
G1 F100.0 X4.002
G2 X2.002 Y3.9946 I0.0 J2.0
G1 Y23.9947
G2 X4.002 Y25.9947 I2.0 J0.0
G1 X24.0022
G2 X26.0022 Y23.9947 I0.0 J-2.0
G1 Y3.9946
G2 X24.0022 Y1.9946 I-2.0 J0.0
G1 F50.0 Z-8.0
G1 F100.0 X4.002
G2 X2.002 Y3.9946 I0.0 J2.0
G1 Y23.9947
G2 X4.002 Y25.9947 I2.0 J0.0
G1 X24.0022
G2 X26.0022 Y23.9947 I0.0 J-2.0
G1 Y3.9946
G2 X24.0022 Y1.9946 I-2.0 J0.0
G1 F50.0 Z-10.0
G1 F100.0 X4.002
G2 X2.002 Y3.9946 I0.0 J2.0
G1 Y23.9947
G2 X4.002 Y25.9947 I2.0 J0.0
G1 X24.0022
G2 X26.0022 Y23.9947 I0.0 J-2.0
G1 Y3.9946
G2 X24.0022 Y1.9946 I-2.0 J0.0
G1 F50.0 Z-12.0
G1 F100.0 X4.002
G2 X2.002 Y3.9946 I0.0 J2.0
G1 Y23.9947
G2 X4.002 Y25.9947 I2.0 J0.0
G1 X24.0022
G2 X26.0022 Y23.9947 I0.0 J-2.0
G1 Y3.9946
G2 X24.0022 Y1.9946 I-2.0 J0.0
G0 Z3.0
G0 X29.5883 Y3.4805
G0 Z1.0
G1 F50.0 Z-2.0
G2 F100.0 X29.5211 Y3.9946 I1.9328 J0.5141
G1 Y23.9947
G2 X31.5211 Y25.9947 I2.0 J0.0
G1 X51.5216
G2 X53.5216 Y23.9947 I0.0 J-2.0
G1 Y3.9946
G2 X51.5216 Y1.9946 I-2.0 J0.0
G1 X31.5211
G2 X29.5883 Y3.4805 I0.0 J2.0
G1 F50.0 Z-4.0
G2 F100.0 X29.5211 Y3.9946 I1.9328 J0.5141
G1 Y23.9947
G2 X31.5211 Y25.9947 I2.0 J0.0
G1 X51.5216
G2 X53.5216 Y23.9947 I0.0 J-2.0
G1 Y3.9946
G2 X51.5216 Y1.9946 I-2.0 J0.0
G1 X31.5211
G2 X29.5883 Y3.4805 I0.0 J2.0
G1 F50.0 Z-6.0
G2 F100.0 X29.5211 Y3.9946 I1.9328 J0.5141
G1 Y23.9947
G2 X31.5211 Y25.9947 I2.0 J0.0
G1 X51.5216
G2 X53.5216 Y23.9947 I0.0 J-2.0
G1 Y3.9946
G2 X51.5216 Y1.9946 I-2.0 J0.0
G1 X31.5211
G2 X29.5883 Y3.4805 I0.0 J2.0
G1 F50.0 Z-8.0
G2 F100.0 X29.5211 Y3.9946 I1.9328 J0.5141
G1 Y23.9947
G2 X31.5211 Y25.9947 I2.0 J0.0
G1 X51.5216
G2 X53.5216 Y23.9947 I0.0 J-2.0
G1 Y3.9946
G2 X51.5216 Y1.9946 I-2.0 J0.0
G1 X31.5211
G2 X29.5883 Y3.4805 I0.0 J2.0
G1 F50.0 Z-10.0
G2 F100.0 X29.5211 Y3.9946 I1.9328 J0.5141
G1 Y23.9947
G2 X31.5211 Y25.9947 I2.0 J0.0
G1 X51.5216
G2 X53.5216 Y23.9947 I0.0 J-2.0
G1 Y3.9946
G2 X51.5216 Y1.9946 I-2.0 J0.0
G1 X31.5211
G2 X29.5883 Y3.4805 I0.0 J2.0
G1 F50.0 Z-12.0
G2 F100.0 X29.5211 Y3.9946 I1.9328 J0.5141
G1 Y23.9947
G2 X31.5211 Y25.9947 I2.0 J0.0
G1 X51.5216
G2 X53.5216 Y23.9947 I0.0 J-2.0
G1 Y3.9946
G2 X51.5216 Y1.9946 I-2.0 J0.0
G1 X31.5211
G2 X29.5883 Y3.4805 I0.0 J2.0
G0 Z3.0
M5
M30
