( Made using CamBam - http://www.cambam.co.uk )
( picker slide - delrin block2 9/4/2013 11:46:51 AM )
( T4 : 4.0 )
G21 G90 G64 G40
G0 Z3.0
( T4 : 4.0 )
T4 M6
( Pocket1 )
G17
M3 S1000
G0 X10.7997 Y10.0073
G0 Z1.0
G1 F50.0 Z-2.0
G3 F100.0 X10.5706 Y10.5604 I-0.7795 J0.0011
G2 X10.5596 Y10.5714 I3.6716 J3.6823
G3 X10.0061 Y10.8007 I-0.5525 J-0.5508
G2 X9.9933 Y10.8008 I-0.0062 J5.2
G3 X9.4404 Y10.5716 I-0.001 J-0.7793
G2 X9.4297 Y10.561 I-3.6829 J3.671
G3 X9.1999 Y10.0063 I0.5523 J-0.5537
G2 Y9.9938 I-5.2 J-0.0062
G3 X9.4301 Y9.438 I0.7838 J-0.001
G2 X9.4392 Y9.4288 I-3.6729 J-3.681
G3 X9.9938 Y9.1991 I0.5536 J0.5521
G2 X10.0068 I0.0061 J-5.2
G3 X10.5599 Y9.4282 I0.001 J0.7794
G2 X10.5703 Y9.4387 I3.6827 J-3.6712
G3 X10.7997 Y9.9926 I-0.5514 J0.5528
G2 Y10.0073 I5.2 J0.0075
G1 F50.0 X12.3997 Y10.0051
G3 F100.0 X11.7003 Y11.6934 I-2.3795 J0.0033
G2 X11.6927 Y11.701 I2.5419 J2.5493
G3 X10.0042 Y12.4007 I-1.6857 J-1.6805
G2 X9.9953 I-0.0043 J3.6
G3 X8.3072 Y11.7012 I-0.003 J-2.3793
G2 X8.2998 Y11.6938 I-2.5497 J2.5415
G3 X7.5999 Y10.0044 I1.6822 J-1.6865
G2 Y9.9957 I-3.6 J-0.0043
G3 X8.2999 Y8.3054 I2.3838 J-0.0029
G2 X8.3063 Y8.299 I-2.5428 J-2.5484
G3 X9.9957 Y7.5991 I1.6866 J1.6819
G2 X10.0047 I0.0042 J-3.6
G3 X11.693 Y8.2986 I0.0032 J2.3794
G2 X11.7003 Y8.3059 I2.5496 J-2.5416
G3 X12.3997 Y9.9949 I-1.6813 J1.6856
G2 Y10.0051 I3.6 J0.0052
G1 F50.0 X13.9997 Y10.0029
G3 F100.0 X12.8301 Y12.8264 I-3.9795 J0.0055
G2 X12.8258 Y12.8306 I1.4122 J1.4163
G3 X10.0023 Y14.0007 I-2.8188 J-2.8101
G2 X9.9974 I-0.0024 J2.0
G3 X7.174 Y12.8307 I-0.0051 J-3.9793
G2 X7.1699 Y12.8266 I-1.4165 J1.4119
G3 X5.9999 Y10.0025 I2.8121 J-2.8194
G2 Y9.9976 I-2.0 J-0.0024
G3 X7.1698 Y7.1728 I3.9837 J-0.0048
G2 X7.1733 Y7.1693 I-1.4127 J-1.4158
G3 X9.9976 Y5.9991 I2.8195 J2.8116
G2 X10.0026 I0.0024 J-2.0
G3 X12.8262 Y7.169 I0.0053 J3.9794
G2 X12.8302 Y7.1731 I1.4164 J-1.412
G3 X13.9997 Y9.9972 I-2.8112 J2.8184
G2 Y10.0029 I2.0 J0.0029
G0 Z3.0
G0 X10.7997 Y10.0073
G0 Z-1.0
G1 F50.0 Z-4.0
G3 F100.0 X10.5706 Y10.5604 I-0.7795 J0.0011
G2 X10.5596 Y10.5714 I3.6716 J3.6823
G3 X10.0061 Y10.8007 I-0.5525 J-0.5508
G2 X9.9933 Y10.8008 I-0.0062 J5.2
G3 X9.4404 Y10.5716 I-0.001 J-0.7793
G2 X9.4297 Y10.561 I-3.6829 J3.671
G3 X9.1999 Y10.0063 I0.5523 J-0.5537
G2 Y9.9938 I-5.2 J-0.0062
G3 X9.4301 Y9.438 I0.7838 J-0.001
G2 X9.4392 Y9.4288 I-3.6729 J-3.681
G3 X9.9938 Y9.1991 I0.5536 J0.5521
G2 X10.0068 I0.0061 J-5.2
G3 X10.5599 Y9.4282 I0.001 J0.7794
G2 X10.5703 Y9.4387 I3.6827 J-3.6712
G3 X10.7997 Y9.9926 I-0.5514 J0.5528
G2 Y10.0073 I5.2 J0.0075
G1 F50.0 X12.3997 Y10.0051
G3 F100.0 X11.7003 Y11.6934 I-2.3795 J0.0033
G2 X11.6927 Y11.701 I2.5419 J2.5493
G3 X10.0042 Y12.4007 I-1.6857 J-1.6805
G2 X9.9953 I-0.0043 J3.6
G3 X8.3072 Y11.7012 I-0.003 J-2.3793
G2 X8.2998 Y11.6938 I-2.5497 J2.5415
G3 X7.5999 Y10.0044 I1.6822 J-1.6865
G2 Y9.9957 I-3.6 J-0.0043
G3 X8.2999 Y8.3054 I2.3838 J-0.0029
G2 X8.3063 Y8.299 I-2.5428 J-2.5484
G3 X9.9957 Y7.5991 I1.6866 J1.6819
G2 X10.0047 I0.0042 J-3.6
G3 X11.693 Y8.2986 I0.0032 J2.3794
G2 X11.7003 Y8.3059 I2.5496 J-2.5416
G3 X12.3997 Y9.9949 I-1.6813 J1.6856
G2 Y10.0051 I3.6 J0.0052
G1 F50.0 X13.9997 Y10.0029
G3 F100.0 X12.8301 Y12.8264 I-3.9795 J0.0055
G2 X12.8258 Y12.8306 I1.4122 J1.4163
G3 X10.0023 Y14.0007 I-2.8188 J-2.8101
G2 X9.9974 I-0.0024 J2.0
G3 X7.174 Y12.8307 I-0.0051 J-3.9793
G2 X7.1699 Y12.8266 I-1.4165 J1.4119
G3 X5.9999 Y10.0025 I2.8121 J-2.8194
G2 Y9.9976 I-2.0 J-0.0024
G3 X7.1698 Y7.1728 I3.9837 J-0.0048
G2 X7.1733 Y7.1693 I-1.4127 J-1.4158
G3 X9.9976 Y5.9991 I2.8195 J2.8116
G2 X10.0026 I0.0024 J-2.0
G3 X12.8262 Y7.169 I0.0053 J3.9794
G2 X12.8302 Y7.1731 I1.4164 J-1.412
G3 X13.9997 Y9.9972 I-2.8112 J2.8184
G2 Y10.0029 I2.0 J0.0029
G0 Z3.0
G0 X10.7997 Y10.0073
G0 Z-3.0
G1 F50.0 Z-5.0
G3 F100.0 X10.5706 Y10.5604 I-0.7795 J0.0011
G2 X10.5596 Y10.5714 I3.6716 J3.6823
G3 X10.0061 Y10.8007 I-0.5525 J-0.5508
G2 X9.9933 Y10.8008 I-0.0062 J5.2
G3 X9.4404 Y10.5716 I-0.001 J-0.7793
G2 X9.4297 Y10.561 I-3.6829 J3.671
G3 X9.1999 Y10.0063 I0.5523 J-0.5537
G2 Y9.9938 I-5.2 J-0.0062
G3 X9.4301 Y9.438 I0.7838 J-0.001
G2 X9.4392 Y9.4288 I-3.6729 J-3.681
G3 X9.9938 Y9.1991 I0.5536 J0.5521
G2 X10.0068 I0.0061 J-5.2
G3 X10.5599 Y9.4282 I0.001 J0.7794
G2 X10.5703 Y9.4387 I3.6827 J-3.6712
G3 X10.7997 Y9.9926 I-0.5514 J0.5528
G2 Y10.0073 I5.2 J0.0075
G1 F50.0 X12.3997 Y10.0051
G3 F100.0 X11.7003 Y11.6934 I-2.3795 J0.0033
G2 X11.6927 Y11.701 I2.5419 J2.5493
G3 X10.0042 Y12.4007 I-1.6857 J-1.6805
G2 X9.9953 I-0.0043 J3.6
G3 X8.3072 Y11.7012 I-0.003 J-2.3793
G2 X8.2998 Y11.6938 I-2.5497 J2.5415
G3 X7.5999 Y10.0044 I1.6822 J-1.6865
G2 Y9.9957 I-3.6 J-0.0043
G3 X8.2999 Y8.3054 I2.3838 J-0.0029
G2 X8.3063 Y8.299 I-2.5428 J-2.5484
G3 X9.9957 Y7.5991 I1.6866 J1.6819
G2 X10.0047 I0.0042 J-3.6
G3 X11.693 Y8.2986 I0.0032 J2.3794
G2 X11.7003 Y8.3059 I2.5496 J-2.5416
G3 X12.3997 Y9.9949 I-1.6813 J1.6856
G2 Y10.0051 I3.6 J0.0052
G1 F50.0 X13.9997 Y10.0029
G3 F100.0 X12.8301 Y12.8264 I-3.9795 J0.0055
G2 X12.8258 Y12.8306 I1.4122 J1.4163
G3 X10.0023 Y14.0007 I-2.8188 J-2.8101
G2 X9.9974 I-0.0024 J2.0
G3 X7.174 Y12.8307 I-0.0051 J-3.9793
G2 X7.1699 Y12.8266 I-1.4165 J1.4119
G3 X5.9999 Y10.0025 I2.8121 J-2.8194
G2 Y9.9976 I-2.0 J-0.0024
G3 X7.1698 Y7.1728 I3.9837 J-0.0048
G2 X7.1733 Y7.1693 I-1.4127 J-1.4158
G3 X9.9976 Y5.9991 I2.8195 J2.8116
G2 X10.0026 I0.0024 J-2.0
G3 X12.8262 Y7.169 I0.0053 J3.9794
G2 X12.8302 Y7.1731 I1.4164 J-1.412
G3 X13.9997 Y9.9972 I-2.8112 J2.8184
G2 Y10.0029 I2.0 J0.0029
G0 Z3.0
M5
M30
