( Made using CamBam - http://www.cambam.co.uk )
( vertical slide - backplate 11/29/2012 4:49:36 PM )
( T4 : 4.0 )
G21 G90 G64 G40
G0 Z3.0
( T4 : 4.0 )
T4 M6
( Profile1 )
G17
M3 S1000
G0 X-2.0 Y0.0
G1 F40.0 Z0.0
G1 F80.0 Y44.0001 Z-0.0798
G2 X0.0 Y46.0001 Z-0.0855 I2.0 J0.0
G1 X87.5003 Z-0.2443
G2 X89.5003 Y44.0001 Z-0.25 I0.0 J-2.0
G1 Y0.0 Z-0.3298
G2 X87.5003 Y-2.0 Z-0.3355 I-2.0 J0.0
G1 X0.0 Z-0.4943
G2 X-2.0 Y0.0 Z-0.5 I0.0 J2.0
G1 Y44.0001 Z-0.5798
G2 X0.0 Y46.0001 Z-0.5855 I2.0 J0.0
G1 X87.5003 Z-0.7443
G2 X89.5003 Y44.0001 Z-0.75 I0.0 J-2.0
G1 Y0.0 Z-0.8298
G2 X87.5003 Y-2.0 Z-0.8355 I-2.0 J0.0
G1 X0.0 Z-0.9943
G2 X-2.0 Y0.0 Z-1.0 I0.0 J2.0
G1 Y44.0001 Z-1.0798
G2 X0.0 Y46.0001 Z-1.0855 I2.0 J0.0
G1 X87.5003 Z-1.2443
G2 X89.5003 Y44.0001 Z-1.25 I0.0 J-2.0
G1 Y0.0 Z-1.3298
G2 X87.5003 Y-2.0 Z-1.3355 I-2.0 J0.0
G1 X0.0 Z-1.4943
G2 X-2.0 Y0.0 Z-1.5 I0.0 J2.0
G1 Y44.0001 Z-1.5798
G2 X0.0 Y46.0001 Z-1.5855 I2.0 J0.0
G1 X87.5003 Z-1.7443
G2 X89.5003 Y44.0001 Z-1.75 I0.0 J-2.0
G1 Y0.0 Z-1.8298
G2 X87.5003 Y-2.0 Z-1.8355 I-2.0 J0.0
G1 X0.0 Z-1.9943
G2 X-2.0 Y0.0 Z-2.0 I0.0 J2.0
G1 Y44.0001 Z-2.0798
G2 X0.0 Y46.0001 Z-2.0855 I2.0 J0.0
G1 X87.5003 Z-2.2443
G2 X89.5003 Y44.0001 Z-2.25 I0.0 J-2.0
G1 Y0.0 Z-2.3298
G2 X87.5003 Y-2.0 Z-2.3355 I-2.0 J0.0
G1 X0.0 Z-2.4943
G2 X-2.0 Y0.0 Z-2.5 I0.0 J2.0
G1 Y44.0001 Z-2.5798
G2 X0.0 Y46.0001 Z-2.5855 I2.0 J0.0
G1 X87.5003 Z-2.7443
G2 X89.5003 Y44.0001 Z-2.75 I0.0 J-2.0
G1 Y0.0 Z-2.8298
G2 X87.5003 Y-2.0 Z-2.8355 I-2.0 J0.0
G1 X0.0 Z-2.9943
G2 X-2.0 Y0.0 Z-3.0 I0.0 J2.0
G1 Y44.0001 Z-3.0798
G2 X0.0 Y46.0001 Z-3.0855 I2.0 J0.0
G1 X87.5003 Z-3.2443
G2 X89.5003 Y44.0001 Z-3.25 I0.0 J-2.0
G1 Y0.0 Z-3.3298
G2 X87.5003 Y-2.0 Z-3.3355 I-2.0 J0.0
G1 X0.0 Z-3.4943
G2 X-2.0 Y0.0 Z-3.5 I0.0 J2.0
G1 Y44.0001 Z-3.5798
G2 X0.0 Y46.0001 Z-3.5855 I2.0 J0.0
G1 X87.5003 Z-3.7443
G2 X89.5003 Y44.0001 Z-3.75 I0.0 J-2.0
G1 Y0.0 Z-3.8298
G2 X87.5003 Y-2.0 Z-3.8355 I-2.0 J0.0
G1 X0.0 Z-3.9943
G2 X-2.0 Y0.0 Z-4.0 I0.0 J2.0
G1 Y44.0001 Z-4.0798
G2 X0.0 Y46.0001 Z-4.0855 I2.0 J0.0
G1 X87.5003 Z-4.2443
G2 X89.5003 Y44.0001 Z-4.25 I0.0 J-2.0
G1 Y0.0 Z-4.3298
G2 X87.5003 Y-2.0 Z-4.3355 I-2.0 J0.0
G1 X0.0 Z-4.4943
G2 X-2.0 Y0.0 Z-4.5 I0.0 J2.0
G1 Y44.0001
G2 X0.0 Y46.0001 I2.0 J0.0
G1 X87.5003
G2 X89.5003 Y44.0001 I0.0 J-2.0
G1 Y0.0
G2 X87.5003 Y-2.0 I-2.0 J0.0
G1 X0.0
G2 X-2.0 Y0.0 I0.0 J2.0
G0 Z3.0
M5
M30
