( Made using CamBam - http://www.cambam.co.uk )
( vertical slide - backplate 11/29/2012 4:49:33 PM )
( T4 : 4.0 )
G21 G90 G64 G40
G0 Z3.0
( T4 : 4.0 )
T4 M6
( Pocket1 )
G17
M3 S1000
G0 X11.2496 Y10.9996
G1 F40.0 Z-0.5
G3 F80.0 X12.2499 Y12.0 I-0.0004 J1.0007
G3 X11.2498 Y12.9999 I-1.0001 J-0.0002
G1 X11.2497
G3 X10.25 Y12.0001 I0.0001 J-0.9998
G2 Y11.9997 I-2.0 J-0.0001
G3 X11.2496 Y10.9996 I1.0 J-0.0001
G1 F40.0 Z-1.0
G3 F80.0 X12.2499 Y12.0 I-0.0004 J1.0007
G3 X11.2498 Y12.9999 I-1.0001 J-0.0002
G1 X11.2497
G3 X10.25 Y12.0001 I0.0001 J-0.9998
G2 Y11.9997 I-2.0 J-0.0001
G3 X11.2496 Y10.9996 I1.0 J-0.0001
G1 F40.0 Z-1.5
G3 F80.0 X12.2499 Y12.0 I-0.0004 J1.0007
G3 X11.2498 Y12.9999 I-1.0001 J-0.0002
G1 X11.2497
G3 X10.25 Y12.0001 I0.0001 J-0.9998
G2 Y11.9997 I-2.0 J-0.0001
G3 X11.2496 Y10.9996 I1.0 J-0.0001
G1 F40.0 Z-2.0
G3 F80.0 X12.2499 Y12.0 I-0.0004 J1.0007
G3 X11.2498 Y12.9999 I-1.0001 J-0.0002
G1 X11.2497
G3 X10.25 Y12.0001 I0.0001 J-0.9998
G2 Y11.9997 I-2.0 J-0.0001
G3 X11.2496 Y10.9996 I1.0 J-0.0001
G1 F40.0 Z-2.5
G3 F80.0 X12.2499 Y12.0 I-0.0004 J1.0007
G3 X11.2498 Y12.9999 I-1.0001 J-0.0002
G1 X11.2497
G3 X10.25 Y12.0001 I0.0001 J-0.9998
G2 Y11.9997 I-2.0 J-0.0001
G3 X11.2496 Y10.9996 I1.0 J-0.0001
G0 Z3.0
G0 X11.25 Y30.9998
G1 F40.0 Z-0.5
G1 F80.0 X11.2501
G3 X12.2496 Y31.9997 I-0.0002 J0.9998
G2 Y32.0006 I2.0 J0.0004
G3 X11.2503 Y33.0001 I-0.9993 J0.0002
G1 X11.2501
G3 X10.25 Y32.0001 I-0.0001 J-1.0
G1 Y31.9999
G3 X11.2501 Y30.9998 I1.0001 J-0.0001
G1 X11.25
G1 F40.0 Z-1.0
G1 F80.0 X11.2501
G3 X12.2496 Y31.9997 I-0.0002 J0.9998
G2 Y32.0006 I2.0 J0.0004
G3 X11.2503 Y33.0001 I-0.9993 J0.0002
G1 X11.2501
G3 X10.25 Y32.0001 I-0.0001 J-1.0
G1 Y31.9999
G3 X11.2501 Y30.9998 I1.0001 J-0.0001
G1 X11.25
G1 F40.0 Z-1.5
G1 F80.0 X11.2501
G3 X12.2496 Y31.9997 I-0.0002 J0.9998
G2 Y32.0006 I2.0 J0.0004
G3 X11.2503 Y33.0001 I-0.9993 J0.0002
G1 X11.2501
G3 X10.25 Y32.0001 I-0.0001 J-1.0
G1 Y31.9999
G3 X11.2501 Y30.9998 I1.0001 J-0.0001
G1 X11.25
G1 F40.0 Z-2.0
G1 F80.0 X11.2501
G3 X12.2496 Y31.9997 I-0.0002 J0.9998
G2 Y32.0006 I2.0 J0.0004
G3 X11.2503 Y33.0001 I-0.9993 J0.0002
G1 X11.2501
G3 X10.25 Y32.0001 I-0.0001 J-1.0
G1 Y31.9999
G3 X11.2501 Y30.9998 I1.0001 J-0.0001
G1 X11.25
G1 F40.0 Z-2.5
G1 F80.0 X11.2501
G3 X12.2496 Y31.9997 I-0.0002 J0.9998
G2 Y32.0006 I2.0 J0.0004
G3 X11.2503 Y33.0001 I-0.9993 J0.0002
G1 X11.2501
G3 X10.25 Y32.0001 I-0.0001 J-1.0
G1 Y31.9999
G3 X11.2501 Y30.9998 I1.0001 J-0.0001
G1 X11.25
G0 Z3.0
G0 X75.2503 Y31.9847
G1 F40.0 Z-0.5
G3 F80.0 X76.2503 Y30.9998 I1.0002 J0.0154
G3 X76.2504 I0.0002 J1.0003
G1 X76.2502
G3 X76.2503 I0.0 J1.0001
G3 X77.2503 Y32.0 I-0.0001 J1.0001
G3 X76.2503 Y33.0001 I-1.0001 J0.0
G1 X76.2502
G1 X76.2503
G3 X75.2501 Y32.0001 I0.0 J-1.0002
G1 Y32.0
G1 Y32.0001
G3 X75.2503 Y31.9847 I1.0003 J0.0001
G1 F40.0 Z-1.0
G3 F80.0 X76.2503 Y30.9998 I1.0002 J0.0154
G3 X76.2504 I0.0002 J1.0003
G1 X76.2502
G3 X76.2503 I0.0 J1.0001
G3 X77.2503 Y32.0 I-0.0001 J1.0001
G3 X76.2503 Y33.0001 I-1.0001 J0.0
G1 X76.2502
G1 X76.2503
G3 X75.2501 Y32.0001 I0.0 J-1.0002
G1 Y32.0
G1 Y32.0001
G3 X75.2503 Y31.9847 I1.0003 J0.0001
G1 F40.0 Z-1.5
G3 F80.0 X76.2503 Y30.9998 I1.0002 J0.0154
G3 X76.2504 I0.0002 J1.0003
G1 X76.2502
G3 X76.2503 I0.0 J1.0001
G3 X77.2503 Y32.0 I-0.0001 J1.0001
G3 X76.2503 Y33.0001 I-1.0001 J0.0
G1 X76.2502
G1 X76.2503
G3 X75.2501 Y32.0001 I0.0 J-1.0002
G1 Y32.0
G1 Y32.0001
G3 X75.2503 Y31.9847 I1.0003 J0.0001
G1 F40.0 Z-2.0
G3 F80.0 X76.2503 Y30.9998 I1.0002 J0.0154
G3 X76.2504 I0.0002 J1.0003
G1 X76.2502
G3 X76.2503 I0.0 J1.0001
G3 X77.2503 Y32.0 I-0.0001 J1.0001
G3 X76.2503 Y33.0001 I-1.0001 J0.0
G1 X76.2502
G1 X76.2503
G3 X75.2501 Y32.0001 I0.0 J-1.0002
G1 Y32.0
G1 Y32.0001
G3 X75.2503 Y31.9847 I1.0003 J0.0001
G1 F40.0 Z-2.5
G3 F80.0 X76.2503 Y30.9998 I1.0002 J0.0154
G3 X76.2504 I0.0002 J1.0003
G1 X76.2502
G3 X76.2503 I0.0 J1.0001
G3 X77.2503 Y32.0 I-0.0001 J1.0001
G3 X76.2503 Y33.0001 I-1.0001 J0.0
G1 X76.2502
G1 X76.2503
G3 X75.2501 Y32.0001 I0.0 J-1.0002
G1 Y32.0
G1 Y32.0001
G3 X75.2503 Y31.9847 I1.0003 J0.0001
G0 Z3.0
G0 X76.2002 Y12.9985
G1 F40.0 Z-0.5
G3 F80.0 X75.2503 Y11.9999 I0.05 J-0.9986
G1 Y12.0
G1 Y11.9999
G3 X76.2502 Y10.9996 I1.0003 J0.0
G3 X77.2499 Y12.0 I-0.0006 J1.0004
G3 X76.2502 Y12.9998 I-0.9998 J0.0
G3 X76.2002 Y12.9985 I0.0 J-0.9999
G1 F40.0 Z-1.0
G3 F80.0 X75.2503 Y11.9999 I0.05 J-0.9986
G1 Y12.0
G1 Y11.9999
G3 X76.2502 Y10.9996 I1.0003 J0.0
G3 X77.2499 Y12.0 I-0.0006 J1.0004
G3 X76.2502 Y12.9998 I-0.9998 J0.0
G3 X76.2002 Y12.9985 I0.0 J-0.9999
G1 F40.0 Z-1.5
G3 F80.0 X75.2503 Y11.9999 I0.05 J-0.9986
G1 Y12.0
G1 Y11.9999
G3 X76.2502 Y10.9996 I1.0003 J0.0
G3 X77.2499 Y12.0 I-0.0006 J1.0004
G3 X76.2502 Y12.9998 I-0.9998 J0.0
G3 X76.2002 Y12.9985 I0.0 J-0.9999
G1 F40.0 Z-2.0
G3 F80.0 X75.2503 Y11.9999 I0.05 J-0.9986
G1 Y12.0
G1 Y11.9999
G3 X76.2502 Y10.9996 I1.0003 J0.0
G3 X77.2499 Y12.0 I-0.0006 J1.0004
G3 X76.2502 Y12.9998 I-0.9998 J0.0
G3 X76.2002 Y12.9985 I0.0 J-0.9999
G1 F40.0 Z-2.5
G3 F80.0 X75.2503 Y11.9999 I0.05 J-0.9986
G1 Y12.0
G1 Y11.9999
G3 X76.2502 Y10.9996 I1.0003 J0.0
G3 X77.2499 Y12.0 I-0.0006 J1.0004
G3 X76.2502 Y12.9998 I-0.9998 J0.0
G3 X76.2002 Y12.9985 I0.0 J-0.9999
G0 Z3.0
M5
M30
