( Made using CamBam - http://www.cambam.co.uk )
( stepper mount - bearing 9/20/2013 4:08:09 PM )
( T4 : 3.8 )
G21 G90 G64 G40
G0 Z3.0
( T4 : 3.8 )
T4 M6
( Pocket1 )
G17
M3 S1000
G0 X50.17 Y71.6421
G0 Z1.0
G1 F50.0 Z-1.0
G3 F120.0 X49.5695 Y72.2426 I-0.6007 J-0.0002
G1 X49.5694
G1 X49.5696
G1 X49.5695
G1 X35.9616
G1 X35.9615
G1 X35.9616
G3 X35.361 Y71.6421 I0.0001 J-0.6007
G3 X35.9616 Y71.0417 I0.6007 J0.0002
G1 X35.9615
G1 X35.9616
G1 X49.5695
G1 X49.5696
G1 X49.5694
G1 X49.5695
G3 X50.17 Y71.6421 I-0.0001 J0.6007
G1 F50.0 Z-2.0
G3 F120.0 X49.5695 Y72.2426 I-0.6007 J-0.0002
G1 X49.5694
G1 X49.5696
G1 X49.5695
G1 X35.9616
G1 X35.9615
G1 X35.9616
G3 X35.361 Y71.6421 I0.0001 J-0.6007
G3 X35.9616 Y71.0417 I0.6007 J0.0002
G1 X35.9615
G1 X35.9616
G1 X49.5695
G1 X49.5696
G1 X49.5694
G1 X49.5695
G3 X50.17 Y71.6421 I-0.0001 J0.6007
G1 F50.0 Z-3.0
G3 F120.0 X49.5695 Y72.2426 I-0.6007 J-0.0002
G1 X49.5694
G1 X49.5696
G1 X49.5695
G1 X35.9616
G1 X35.9615
G1 X35.9616
G3 X35.361 Y71.6421 I0.0001 J-0.6007
G3 X35.9616 Y71.0417 I0.6007 J0.0002
G1 X35.9615
G1 X35.9616
G1 X49.5695
G1 X49.5696
G1 X49.5694
G1 X49.5695
G3 X50.17 Y71.6421 I-0.0001 J0.6007
G1 F50.0 Z-4.0
G3 F120.0 X49.5695 Y72.2426 I-0.6007 J-0.0002
G1 X49.5694
G1 X49.5696
G1 X49.5695
G1 X35.9616
G1 X35.9615
G1 X35.9616
G3 X35.361 Y71.6421 I0.0001 J-0.6007
G3 X35.9616 Y71.0417 I0.6007 J0.0002
G1 X35.9615
G1 X35.9616
G1 X49.5695
G1 X49.5696
G1 X49.5694
G1 X49.5695
G3 X50.17 Y71.6421 I-0.0001 J0.6007
G1 F50.0 Z-5.0
G3 F120.0 X49.5695 Y72.2426 I-0.6007 J-0.0002
G1 X49.5694
G1 X49.5696
G1 X49.5695
G1 X35.9616
G1 X35.9615
G1 X35.9616
G3 X35.361 Y71.6421 I0.0001 J-0.6007
G3 X35.9616 Y71.0417 I0.6007 J0.0002
G1 X35.9615
G1 X35.9616
G1 X49.5695
G1 X49.5696
G1 X49.5694
G1 X49.5695
G3 X50.17 Y71.6421 I-0.0001 J0.6007
G1 F50.0 Z-6.0
G3 F120.0 X49.5695 Y72.2426 I-0.6007 J-0.0002
G1 X49.5694
G1 X49.5696
G1 X49.5695
G1 X35.9616
G1 X35.9615
G1 X35.9616
G3 X35.361 Y71.6421 I0.0001 J-0.6007
G3 X35.9616 Y71.0417 I0.6007 J0.0002
G1 X35.9615
G1 X35.9616
G1 X49.5695
G1 X49.5696
G1 X49.5694
G1 X49.5695
G3 X50.17 Y71.6421 I-0.0001 J0.6007
G1 F50.0 Z-6.5
G3 F120.0 X49.5695 Y72.2426 I-0.6007 J-0.0002
G1 X49.5694
G1 X49.5696
G1 X49.5695
G1 X35.9616
G1 X35.9615
G1 X35.9616
G3 X35.361 Y71.6421 I0.0001 J-0.6007
G3 X35.9616 Y71.0417 I0.6007 J0.0002
G1 X35.9615
G1 X35.9616
G1 X49.5695
G1 X49.5696
G1 X49.5694
G1 X49.5695
G3 X50.17 Y71.6421 I-0.0001 J0.6007
G0 Z3.0
G0 X49.5806 Y40.1872
G0 Z1.0
G1 F50.0 Z-1.0
G3 F120.0 X49.5695 Y40.1874 I-0.0113 J-0.6006
G1 X49.5694
G1 X49.5696
G1 X49.5695
G1 X35.9616
G1 X35.9615
G1 X35.9616
G3 X35.361 Y39.5869 I0.0001 J-0.6007
G3 X35.9616 Y38.9865 I0.6007 J0.0002
G1 X35.9615
G1 X35.9616
G1 X49.5695
G1 X49.5696
G1 X49.5694
G1 X49.5695
G3 X50.17 Y39.5869 I-0.0001 J0.6007
G3 X49.5806 Y40.1872 I-0.6007 J-0.0002
G1 F50.0 Z-2.0
G3 F120.0 X49.5695 Y40.1874 I-0.0113 J-0.6006
G1 X49.5694
G1 X49.5696
G1 X49.5695
G1 X35.9616
G1 X35.9615
G1 X35.9616
G3 X35.361 Y39.5869 I0.0001 J-0.6007
G3 X35.9616 Y38.9865 I0.6007 J0.0002
G1 X35.9615
G1 X35.9616
G1 X49.5695
G1 X49.5696
G1 X49.5694
G1 X49.5695
G3 X50.17 Y39.5869 I-0.0001 J0.6007
G3 X49.5806 Y40.1872 I-0.6007 J-0.0002
G1 F50.0 Z-3.0
G3 F120.0 X49.5695 Y40.1874 I-0.0113 J-0.6006
G1 X49.5694
G1 X49.5696
G1 X49.5695
G1 X35.9616
G1 X35.9615
G1 X35.9616
G3 X35.361 Y39.5869 I0.0001 J-0.6007
G3 X35.9616 Y38.9865 I0.6007 J0.0002
G1 X35.9615
G1 X35.9616
G1 X49.5695
G1 X49.5696
G1 X49.5694
G1 X49.5695
G3 X50.17 Y39.5869 I-0.0001 J0.6007
G3 X49.5806 Y40.1872 I-0.6007 J-0.0002
G1 F50.0 Z-4.0
G3 F120.0 X49.5695 Y40.1874 I-0.0113 J-0.6006
G1 X49.5694
G1 X49.5696
G1 X49.5695
G1 X35.9616
G1 X35.9615
G1 X35.9616
G3 X35.361 Y39.5869 I0.0001 J-0.6007
G3 X35.9616 Y38.9865 I0.6007 J0.0002
G1 X35.9615
G1 X35.9616
G1 X49.5695
G1 X49.5696
G1 X49.5694
G1 X49.5695
G3 X50.17 Y39.5869 I-0.0001 J0.6007
G3 X49.5806 Y40.1872 I-0.6007 J-0.0002
G1 F50.0 Z-5.0
G3 F120.0 X49.5695 Y40.1874 I-0.0113 J-0.6006
G1 X49.5694
G1 X49.5696
G1 X49.5695
G1 X35.9616
G1 X35.9615
G1 X35.9616
G3 X35.361 Y39.5869 I0.0001 J-0.6007
G3 X35.9616 Y38.9865 I0.6007 J0.0002
G1 X35.9615
G1 X35.9616
G1 X49.5695
G1 X49.5696
G1 X49.5694
G1 X49.5695
G3 X50.17 Y39.5869 I-0.0001 J0.6007
G3 X49.5806 Y40.1872 I-0.6007 J-0.0002
G1 F50.0 Z-6.0
G3 F120.0 X49.5695 Y40.1874 I-0.0113 J-0.6006
G1 X49.5694
G1 X49.5696
G1 X49.5695
G1 X35.9616
G1 X35.9615
G1 X35.9616
G3 X35.361 Y39.5869 I0.0001 J-0.6007
G3 X35.9616 Y38.9865 I0.6007 J0.0002
G1 X35.9615
G1 X35.9616
G1 X49.5695
G1 X49.5696
G1 X49.5694
G1 X49.5695
G3 X50.17 Y39.5869 I-0.0001 J0.6007
G3 X49.5806 Y40.1872 I-0.6007 J-0.0002
G1 F50.0 Z-6.5
G3 F120.0 X49.5695 Y40.1874 I-0.0113 J-0.6006
G1 X49.5694
G1 X49.5696
G1 X49.5695
G1 X35.9616
G1 X35.9615
G1 X35.9616
G3 X35.361 Y39.5869 I0.0001 J-0.6007
G3 X35.9616 Y38.9865 I0.6007 J0.0002
G1 X35.9615
G1 X35.9616
G1 X49.5695
G1 X49.5696
G1 X49.5694
G1 X49.5695
G3 X50.17 Y39.5869 I-0.0001 J0.6007
G3 X49.5806 Y40.1872 I-0.6007 J-0.0002
G0 Z3.0
G0 X49.4181 Y8.1304
G0 Z1.0
G1 F50.0 Z-1.0
G3 F120.0 X49.4151 I-0.003 J-0.6007
G1 X49.4152
G1 X49.4151
G1 X35.8072
G1 X35.8071
G1 X35.8073
G1 X35.8072
G3 X35.2067 Y7.5299 I0.0001 J-0.6007
G3 X35.8072 Y6.9295 I0.6007 J0.0002
G1 X35.8073
G1 X35.8071
G1 X35.8072
G1 X49.4151
G1 X49.4152
G1 X49.4151
G3 X50.0157 Y7.5299 I-0.0001 J0.6007
G3 X49.4181 Y8.1304 I-0.6007 J-0.0002
G1 F50.0 Z-2.0
G3 F120.0 X49.4151 I-0.003 J-0.6007
G1 X49.4152
G1 X49.4151
G1 X35.8072
G1 X35.8071
G1 X35.8073
G1 X35.8072
G3 X35.2067 Y7.5299 I0.0001 J-0.6007
G3 X35.8072 Y6.9295 I0.6007 J0.0002
G1 X35.8073
G1 X35.8071
G1 X35.8072
G1 X49.4151
G1 X49.4152
G1 X49.4151
G3 X50.0157 Y7.5299 I-0.0001 J0.6007
G3 X49.4181 Y8.1304 I-0.6007 J-0.0002
G1 F50.0 Z-3.0
G3 F120.0 X49.4151 I-0.003 J-0.6007
G1 X49.4152
G1 X49.4151
G1 X35.8072
G1 X35.8071
G1 X35.8073
G1 X35.8072
G3 X35.2067 Y7.5299 I0.0001 J-0.6007
G3 X35.8072 Y6.9295 I0.6007 J0.0002
G1 X35.8073
G1 X35.8071
G1 X35.8072
G1 X49.4151
G1 X49.4152
G1 X49.4151
G3 X50.0157 Y7.5299 I-0.0001 J0.6007
G3 X49.4181 Y8.1304 I-0.6007 J-0.0002
G1 F50.0 Z-4.0
G3 F120.0 X49.4151 I-0.003 J-0.6007
G1 X49.4152
G1 X49.4151
G1 X35.8072
G1 X35.8071
G1 X35.8073
G1 X35.8072
G3 X35.2067 Y7.5299 I0.0001 J-0.6007
G3 X35.8072 Y6.9295 I0.6007 J0.0002
G1 X35.8073
G1 X35.8071
G1 X35.8072
G1 X49.4151
G1 X49.4152
G1 X49.4151
G3 X50.0157 Y7.5299 I-0.0001 J0.6007
G3 X49.4181 Y8.1304 I-0.6007 J-0.0002
G1 F50.0 Z-5.0
G3 F120.0 X49.4151 I-0.003 J-0.6007
G1 X49.4152
G1 X49.4151
G1 X35.8072
G1 X35.8071
G1 X35.8073
G1 X35.8072
G3 X35.2067 Y7.5299 I0.0001 J-0.6007
G3 X35.8072 Y6.9295 I0.6007 J0.0002
G1 X35.8073
G1 X35.8071
G1 X35.8072
G1 X49.4151
G1 X49.4152
G1 X49.4151
G3 X50.0157 Y7.5299 I-0.0001 J0.6007
G3 X49.4181 Y8.1304 I-0.6007 J-0.0002
G1 F50.0 Z-6.0
G3 F120.0 X49.4151 I-0.003 J-0.6007
G1 X49.4152
G1 X49.4151
G1 X35.8072
G1 X35.8071
G1 X35.8073
G1 X35.8072
G3 X35.2067 Y7.5299 I0.0001 J-0.6007
G3 X35.8072 Y6.9295 I0.6007 J0.0002
G1 X35.8073
G1 X35.8071
G1 X35.8072
G1 X49.4151
G1 X49.4152
G1 X49.4151
G3 X50.0157 Y7.5299 I-0.0001 J0.6007
G3 X49.4181 Y8.1304 I-0.6007 J-0.0002
G1 F50.0 Z-6.5
G3 F120.0 X49.4151 I-0.003 J-0.6007
G1 X49.4152
G1 X49.4151
G1 X35.8072
G1 X35.8071
G1 X35.8073
G1 X35.8072
G3 X35.2067 Y7.5299 I0.0001 J-0.6007
G3 X35.8072 Y6.9295 I0.6007 J0.0002
G1 X35.8073
G1 X35.8071
G1 X35.8072
G1 X49.4151
G1 X49.4152
G1 X49.4151
G3 X50.0157 Y7.5299 I-0.0001 J0.6007
G3 X49.4181 Y8.1304 I-0.6007 J-0.0002
G0 Z3.0
G0 X14.4234 Y39.2196
G0 Z1.0
G1 F50.0 Z-1.0
G3 F120.0 X14.5598 Y39.5793 I-0.404 J0.3589
G2 Y39.5937 I4.94 J0.007
G3 X14.4012 Y39.9766 I-0.5396 J0.0008
G2 X14.3911 Y39.9867 I3.488 J3.4982
G3 X14.0067 Y40.146 I-0.3837 J-0.3826
G2 X13.9951 I-0.006 J4.94
G3 X13.6087 Y39.9859 I-0.0006 J-0.5449
G2 X13.6001 Y39.9773 I-3.497 J3.4892
G3 X13.4408 Y39.5927 I0.3829 J-0.3839
G2 Y39.5801 I-4.94 J-0.0065
G3 X13.6002 Y39.1953 I0.5424 J-0.0007
G2 X13.61 Y39.1855 I-3.4883 J-3.4979
G3 X13.9932 Y39.0268 I0.3823 J0.3812
G2 X14.0068 I0.0075 J-4.94
G3 X14.3911 Y39.186 I0.0007 J0.5419
G2 X14.401 Y39.1959 I3.4979 J-3.4883
G3 X14.4234 Y39.2196 I-0.3815 J0.3826
G1 F50.0 X15.5597 Y38.2101
G3 F120.0 X16.0798 Y39.5814 I-1.5403 J1.3684
G2 Y39.5914 I3.42 J0.0048
G3 X15.4744 Y41.053 I-2.0596 J0.0031
G2 X15.4674 Y41.06 I2.4147 J2.4219
G3 X14.0049 Y41.666 I-1.46 J-1.4559
G2 X13.9968 I-0.0042 J3.42
G3 X12.5327 Y41.0595 I-0.0024 J-2.0649
G2 X12.5268 Y41.0536 I-2.421 J2.4156
G3 X11.9208 Y39.5907 I1.4562 J-1.4602
G2 Y39.582 I-3.42 J-0.0045
G3 X12.5268 Y38.1191 I2.0624 J-0.0026
G2 X12.5336 Y38.1123 I-2.415 J-2.4216
G3 X13.9955 Y37.5068 I1.4587 J1.4545
G2 X14.0049 I0.0052 J-3.42
G3 X15.4674 Y38.1127 I0.0025 J2.0619
G2 X15.4742 Y38.1195 I2.4216 J-2.415
G3 X15.5597 Y38.2101 I-1.4548 J1.459
G1 F50.0 X16.6961 Y37.2006
G3 F120.0 X17.5998 Y39.5835 I-2.6766 J2.3779
G2 Y39.5891 I1.9 J0.0027
G3 X16.5476 Y42.1294 I-3.5796 J0.0054
G2 X16.5437 Y42.1333 I1.3415 J1.3455
G3 X14.003 Y43.186 I-2.5363 J-2.5292
G2 X13.9985 I-0.0023 J1.9
G3 X11.4567 Y42.1332 I-0.0041 J-3.5849
G2 X11.4534 Y42.1298 I-1.345 J1.342
G3 X10.4008 Y39.5887 I2.5296 J-2.5364
G2 Y39.5839 I-1.9 J-0.0025
G3 X11.4535 Y37.0428 I3.5824 J-0.0045
G2 X11.4573 Y37.039 I-1.3417 J-1.3453
G3 X13.9978 Y35.9868 I2.5351 J2.5277
G2 X14.003 I0.0029 J-1.9
G3 X16.5437 Y37.0394 I0.0044 J3.5819
G2 X16.5475 Y37.0432 I1.3454 J-1.3417
G3 X16.6961 Y37.2006 I-2.528 J2.5353
G0 Z3.0
G0 X14.4234 Y39.2196
G0 Z0.0
G1 F50.0 Z-2.0
G3 F120.0 X14.5598 Y39.5793 I-0.404 J0.3589
G2 Y39.5937 I4.94 J0.007
G3 X14.4012 Y39.9766 I-0.5396 J0.0008
G2 X14.3911 Y39.9867 I3.488 J3.4982
G3 X14.0067 Y40.146 I-0.3837 J-0.3826
G2 X13.9951 I-0.006 J4.94
G3 X13.6087 Y39.9859 I-0.0006 J-0.5449
G2 X13.6001 Y39.9773 I-3.497 J3.4892
G3 X13.4408 Y39.5927 I0.3829 J-0.3839
G2 Y39.5801 I-4.94 J-0.0065
G3 X13.6002 Y39.1953 I0.5424 J-0.0007
G2 X13.61 Y39.1855 I-3.4883 J-3.4979
G3 X13.9932 Y39.0268 I0.3823 J0.3812
G2 X14.0068 I0.0075 J-4.94
G3 X14.3911 Y39.186 I0.0007 J0.5419
G2 X14.401 Y39.1959 I3.4979 J-3.4883
G3 X14.4234 Y39.2196 I-0.3815 J0.3826
G1 F50.0 X15.5597 Y38.2101
G3 F120.0 X16.0798 Y39.5814 I-1.5403 J1.3684
G2 Y39.5914 I3.42 J0.0048
G3 X15.4744 Y41.053 I-2.0596 J0.0031
G2 X15.4674 Y41.06 I2.4147 J2.4219
G3 X14.0049 Y41.666 I-1.46 J-1.4559
G2 X13.9968 I-0.0042 J3.42
G3 X12.5327 Y41.0595 I-0.0024 J-2.0649
G2 X12.5268 Y41.0536 I-2.421 J2.4156
G3 X11.9208 Y39.5907 I1.4562 J-1.4602
G2 Y39.582 I-3.42 J-0.0045
G3 X12.5268 Y38.1191 I2.0624 J-0.0026
G2 X12.5336 Y38.1123 I-2.415 J-2.4216
G3 X13.9955 Y37.5068 I1.4587 J1.4545
G2 X14.0049 I0.0052 J-3.42
G3 X15.4674 Y38.1127 I0.0025 J2.0619
G2 X15.4742 Y38.1195 I2.4216 J-2.415
G3 X15.5597 Y38.2101 I-1.4548 J1.459
G1 F50.0 X16.6961 Y37.2006
G3 F120.0 X17.5998 Y39.5835 I-2.6766 J2.3779
G2 Y39.5891 I1.9 J0.0027
G3 X16.5476 Y42.1294 I-3.5796 J0.0054
G2 X16.5437 Y42.1333 I1.3415 J1.3455
G3 X14.003 Y43.186 I-2.5363 J-2.5292
G2 X13.9985 I-0.0023 J1.9
G3 X11.4567 Y42.1332 I-0.0041 J-3.5849
G2 X11.4534 Y42.1298 I-1.345 J1.342
G3 X10.4008 Y39.5887 I2.5296 J-2.5364
G2 Y39.5839 I-1.9 J-0.0025
G3 X11.4535 Y37.0428 I3.5824 J-0.0045
G2 X11.4573 Y37.039 I-1.3417 J-1.3453
G3 X13.9978 Y35.9868 I2.5351 J2.5277
G2 X14.003 I0.0029 J-1.9
G3 X16.5437 Y37.0394 I0.0044 J3.5819
G2 X16.5475 Y37.0432 I1.3454 J-1.3417
G3 X16.6961 Y37.2006 I-2.528 J2.5353
G0 Z3.0
G0 X14.4234 Y39.2196
G0 Z-1.0
G1 F50.0 Z-3.0
G3 F120.0 X14.5598 Y39.5793 I-0.404 J0.3589
G2 Y39.5937 I4.94 J0.007
G3 X14.4012 Y39.9766 I-0.5396 J0.0008
G2 X14.3911 Y39.9867 I3.488 J3.4982
G3 X14.0067 Y40.146 I-0.3837 J-0.3826
G2 X13.9951 I-0.006 J4.94
G3 X13.6087 Y39.9859 I-0.0006 J-0.5449
G2 X13.6001 Y39.9773 I-3.497 J3.4892
G3 X13.4408 Y39.5927 I0.3829 J-0.3839
G2 Y39.5801 I-4.94 J-0.0065
G3 X13.6002 Y39.1953 I0.5424 J-0.0007
G2 X13.61 Y39.1855 I-3.4883 J-3.4979
G3 X13.9932 Y39.0268 I0.3823 J0.3812
G2 X14.0068 I0.0075 J-4.94
G3 X14.3911 Y39.186 I0.0007 J0.5419
G2 X14.401 Y39.1959 I3.4979 J-3.4883
G3 X14.4234 Y39.2196 I-0.3815 J0.3826
G1 F50.0 X15.5597 Y38.2101
G3 F120.0 X16.0798 Y39.5814 I-1.5403 J1.3684
G2 Y39.5914 I3.42 J0.0048
G3 X15.4744 Y41.053 I-2.0596 J0.0031
G2 X15.4674 Y41.06 I2.4147 J2.4219
G3 X14.0049 Y41.666 I-1.46 J-1.4559
G2 X13.9968 I-0.0042 J3.42
G3 X12.5327 Y41.0595 I-0.0024 J-2.0649
G2 X12.5268 Y41.0536 I-2.421 J2.4156
G3 X11.9208 Y39.5907 I1.4562 J-1.4602
G2 Y39.582 I-3.42 J-0.0045
G3 X12.5268 Y38.1191 I2.0624 J-0.0026
G2 X12.5336 Y38.1123 I-2.415 J-2.4216
G3 X13.9955 Y37.5068 I1.4587 J1.4545
G2 X14.0049 I0.0052 J-3.42
G3 X15.4674 Y38.1127 I0.0025 J2.0619
G2 X15.4742 Y38.1195 I2.4216 J-2.415
G3 X15.5597 Y38.2101 I-1.4548 J1.459
G1 F50.0 X16.6961 Y37.2006
G3 F120.0 X17.5998 Y39.5835 I-2.6766 J2.3779
G2 Y39.5891 I1.9 J0.0027
G3 X16.5476 Y42.1294 I-3.5796 J0.0054
G2 X16.5437 Y42.1333 I1.3415 J1.3455
G3 X14.003 Y43.186 I-2.5363 J-2.5292
G2 X13.9985 I-0.0023 J1.9
G3 X11.4567 Y42.1332 I-0.0041 J-3.5849
G2 X11.4534 Y42.1298 I-1.345 J1.342
G3 X10.4008 Y39.5887 I2.5296 J-2.5364
G2 Y39.5839 I-1.9 J-0.0025
G3 X11.4535 Y37.0428 I3.5824 J-0.0045
G2 X11.4573 Y37.039 I-1.3417 J-1.3453
G3 X13.9978 Y35.9868 I2.5351 J2.5277
G2 X14.003 I0.0029 J-1.9
G3 X16.5437 Y37.0394 I0.0044 J3.5819
G2 X16.5475 Y37.0432 I1.3454 J-1.3417
G3 X16.6961 Y37.2006 I-2.528 J2.5353
G0 Z3.0
G0 X14.4234 Y39.2196
G0 Z-2.0
G1 F50.0 Z-4.0
G3 F120.0 X14.5598 Y39.5793 I-0.404 J0.3589
G2 Y39.5937 I4.94 J0.007
G3 X14.4012 Y39.9766 I-0.5396 J0.0008
G2 X14.3911 Y39.9867 I3.488 J3.4982
G3 X14.0067 Y40.146 I-0.3837 J-0.3826
G2 X13.9951 I-0.006 J4.94
G3 X13.6087 Y39.9859 I-0.0006 J-0.5449
G2 X13.6001 Y39.9773 I-3.497 J3.4892
G3 X13.4408 Y39.5927 I0.3829 J-0.3839
G2 Y39.5801 I-4.94 J-0.0065
G3 X13.6002 Y39.1953 I0.5424 J-0.0007
G2 X13.61 Y39.1855 I-3.4883 J-3.4979
G3 X13.9932 Y39.0268 I0.3823 J0.3812
G2 X14.0068 I0.0075 J-4.94
G3 X14.3911 Y39.186 I0.0007 J0.5419
G2 X14.401 Y39.1959 I3.4979 J-3.4883
G3 X14.4234 Y39.2196 I-0.3815 J0.3826
G1 F50.0 X15.5597 Y38.2101
G3 F120.0 X16.0798 Y39.5814 I-1.5403 J1.3684
G2 Y39.5914 I3.42 J0.0048
G3 X15.4744 Y41.053 I-2.0596 J0.0031
G2 X15.4674 Y41.06 I2.4147 J2.4219
G3 X14.0049 Y41.666 I-1.46 J-1.4559
G2 X13.9968 I-0.0042 J3.42
G3 X12.5327 Y41.0595 I-0.0024 J-2.0649
G2 X12.5268 Y41.0536 I-2.421 J2.4156
G3 X11.9208 Y39.5907 I1.4562 J-1.4602
G2 Y39.582 I-3.42 J-0.0045
G3 X12.5268 Y38.1191 I2.0624 J-0.0026
G2 X12.5336 Y38.1123 I-2.415 J-2.4216
G3 X13.9955 Y37.5068 I1.4587 J1.4545
G2 X14.0049 I0.0052 J-3.42
G3 X15.4674 Y38.1127 I0.0025 J2.0619
G2 X15.4742 Y38.1195 I2.4216 J-2.415
G3 X15.5597 Y38.2101 I-1.4548 J1.459
G1 F50.0 X16.6961 Y37.2006
G3 F120.0 X17.5998 Y39.5835 I-2.6766 J2.3779
G2 Y39.5891 I1.9 J0.0027
G3 X16.5476 Y42.1294 I-3.5796 J0.0054
G2 X16.5437 Y42.1333 I1.3415 J1.3455
G3 X14.003 Y43.186 I-2.5363 J-2.5292
G2 X13.9985 I-0.0023 J1.9
G3 X11.4567 Y42.1332 I-0.0041 J-3.5849
G2 X11.4534 Y42.1298 I-1.345 J1.342
G3 X10.4008 Y39.5887 I2.5296 J-2.5364
G2 Y39.5839 I-1.9 J-0.0025
G3 X11.4535 Y37.0428 I3.5824 J-0.0045
G2 X11.4573 Y37.039 I-1.3417 J-1.3453
G3 X13.9978 Y35.9868 I2.5351 J2.5277
G2 X14.003 I0.0029 J-1.9
G3 X16.5437 Y37.0394 I0.0044 J3.5819
G2 X16.5475 Y37.0432 I1.3454 J-1.3417
G3 X16.6961 Y37.2006 I-2.528 J2.5353
G0 Z3.0
G0 X14.4234 Y39.2196
G0 Z-3.0
G1 F50.0 Z-5.0
G3 F120.0 X14.5598 Y39.5793 I-0.404 J0.3589
G2 Y39.5937 I4.94 J0.007
G3 X14.4012 Y39.9766 I-0.5396 J0.0008
G2 X14.3911 Y39.9867 I3.488 J3.4982
G3 X14.0067 Y40.146 I-0.3837 J-0.3826
G2 X13.9951 I-0.006 J4.94
G3 X13.6087 Y39.9859 I-0.0006 J-0.5449
G2 X13.6001 Y39.9773 I-3.497 J3.4892
G3 X13.4408 Y39.5927 I0.3829 J-0.3839
G2 Y39.5801 I-4.94 J-0.0065
G3 X13.6002 Y39.1953 I0.5424 J-0.0007
G2 X13.61 Y39.1855 I-3.4883 J-3.4979
G3 X13.9932 Y39.0268 I0.3823 J0.3812
G2 X14.0068 I0.0075 J-4.94
G3 X14.3911 Y39.186 I0.0007 J0.5419
G2 X14.401 Y39.1959 I3.4979 J-3.4883
G3 X14.4234 Y39.2196 I-0.3815 J0.3826
G1 F50.0 X15.5597 Y38.2101
G3 F120.0 X16.0798 Y39.5814 I-1.5403 J1.3684
G2 Y39.5914 I3.42 J0.0048
G3 X15.4744 Y41.053 I-2.0596 J0.0031
G2 X15.4674 Y41.06 I2.4147 J2.4219
G3 X14.0049 Y41.666 I-1.46 J-1.4559
G2 X13.9968 I-0.0042 J3.42
G3 X12.5327 Y41.0595 I-0.0024 J-2.0649
G2 X12.5268 Y41.0536 I-2.421 J2.4156
G3 X11.9208 Y39.5907 I1.4562 J-1.4602
G2 Y39.582 I-3.42 J-0.0045
G3 X12.5268 Y38.1191 I2.0624 J-0.0026
G2 X12.5336 Y38.1123 I-2.415 J-2.4216
G3 X13.9955 Y37.5068 I1.4587 J1.4545
G2 X14.0049 I0.0052 J-3.42
G3 X15.4674 Y38.1127 I0.0025 J2.0619
G2 X15.4742 Y38.1195 I2.4216 J-2.415
G3 X15.5597 Y38.2101 I-1.4548 J1.459
G1 F50.0 X16.6961 Y37.2006
G3 F120.0 X17.5998 Y39.5835 I-2.6766 J2.3779
G2 Y39.5891 I1.9 J0.0027
G3 X16.5476 Y42.1294 I-3.5796 J0.0054
G2 X16.5437 Y42.1333 I1.3415 J1.3455
G3 X14.003 Y43.186 I-2.5363 J-2.5292
G2 X13.9985 I-0.0023 J1.9
G3 X11.4567 Y42.1332 I-0.0041 J-3.5849
G2 X11.4534 Y42.1298 I-1.345 J1.342
G3 X10.4008 Y39.5887 I2.5296 J-2.5364
G2 Y39.5839 I-1.9 J-0.0025
G3 X11.4535 Y37.0428 I3.5824 J-0.0045
G2 X11.4573 Y37.039 I-1.3417 J-1.3453
G3 X13.9978 Y35.9868 I2.5351 J2.5277
G2 X14.003 I0.0029 J-1.9
G3 X16.5437 Y37.0394 I0.0044 J3.5819
G2 X16.5475 Y37.0432 I1.3454 J-1.3417
G3 X16.6961 Y37.2006 I-2.528 J2.5353
G0 Z3.0
G0 X14.4234 Y39.2196
G0 Z-4.0
G1 F50.0 Z-6.0
G3 F120.0 X14.5598 Y39.5793 I-0.404 J0.3589
G2 Y39.5937 I4.94 J0.007
G3 X14.4012 Y39.9766 I-0.5396 J0.0008
G2 X14.3911 Y39.9867 I3.488 J3.4982
G3 X14.0067 Y40.146 I-0.3837 J-0.3826
G2 X13.9951 I-0.006 J4.94
G3 X13.6087 Y39.9859 I-0.0006 J-0.5449
G2 X13.6001 Y39.9773 I-3.497 J3.4892
G3 X13.4408 Y39.5927 I0.3829 J-0.3839
G2 Y39.5801 I-4.94 J-0.0065
G3 X13.6002 Y39.1953 I0.5424 J-0.0007
G2 X13.61 Y39.1855 I-3.4883 J-3.4979
G3 X13.9932 Y39.0268 I0.3823 J0.3812
G2 X14.0068 I0.0075 J-4.94
G3 X14.3911 Y39.186 I0.0007 J0.5419
G2 X14.401 Y39.1959 I3.4979 J-3.4883
G3 X14.4234 Y39.2196 I-0.3815 J0.3826
G1 F50.0 X15.5597 Y38.2101
G3 F120.0 X16.0798 Y39.5814 I-1.5403 J1.3684
G2 Y39.5914 I3.42 J0.0048
G3 X15.4744 Y41.053 I-2.0596 J0.0031
G2 X15.4674 Y41.06 I2.4147 J2.4219
G3 X14.0049 Y41.666 I-1.46 J-1.4559
G2 X13.9968 I-0.0042 J3.42
G3 X12.5327 Y41.0595 I-0.0024 J-2.0649
G2 X12.5268 Y41.0536 I-2.421 J2.4156
G3 X11.9208 Y39.5907 I1.4562 J-1.4602
G2 Y39.582 I-3.42 J-0.0045
G3 X12.5268 Y38.1191 I2.0624 J-0.0026
G2 X12.5336 Y38.1123 I-2.415 J-2.4216
G3 X13.9955 Y37.5068 I1.4587 J1.4545
G2 X14.0049 I0.0052 J-3.42
G3 X15.4674 Y38.1127 I0.0025 J2.0619
G2 X15.4742 Y38.1195 I2.4216 J-2.415
G3 X15.5597 Y38.2101 I-1.4548 J1.459
G1 F50.0 X16.6961 Y37.2006
G3 F120.0 X17.5998 Y39.5835 I-2.6766 J2.3779
G2 Y39.5891 I1.9 J0.0027
G3 X16.5476 Y42.1294 I-3.5796 J0.0054
G2 X16.5437 Y42.1333 I1.3415 J1.3455
G3 X14.003 Y43.186 I-2.5363 J-2.5292
G2 X13.9985 I-0.0023 J1.9
G3 X11.4567 Y42.1332 I-0.0041 J-3.5849
G2 X11.4534 Y42.1298 I-1.345 J1.342
G3 X10.4008 Y39.5887 I2.5296 J-2.5364
G2 Y39.5839 I-1.9 J-0.0025
G3 X11.4535 Y37.0428 I3.5824 J-0.0045
G2 X11.4573 Y37.039 I-1.3417 J-1.3453
G3 X13.9978 Y35.9868 I2.5351 J2.5277
G2 X14.003 I0.0029 J-1.9
G3 X16.5437 Y37.0394 I0.0044 J3.5819
G2 X16.5475 Y37.0432 I1.3454 J-1.3417
G3 X16.6961 Y37.2006 I-2.528 J2.5353
G0 Z3.0
G0 X14.4234 Y39.2196
G0 Z-5.0
G1 F50.0 Z-6.5
G3 F120.0 X14.5598 Y39.5793 I-0.404 J0.3589
G2 Y39.5937 I4.94 J0.007
G3 X14.4012 Y39.9766 I-0.5396 J0.0008
G2 X14.3911 Y39.9867 I3.488 J3.4982
G3 X14.0067 Y40.146 I-0.3837 J-0.3826
G2 X13.9951 I-0.006 J4.94
G3 X13.6087 Y39.9859 I-0.0006 J-0.5449
G2 X13.6001 Y39.9773 I-3.497 J3.4892
G3 X13.4408 Y39.5927 I0.3829 J-0.3839
G2 Y39.5801 I-4.94 J-0.0065
G3 X13.6002 Y39.1953 I0.5424 J-0.0007
G2 X13.61 Y39.1855 I-3.4883 J-3.4979
G3 X13.9932 Y39.0268 I0.3823 J0.3812
G2 X14.0068 I0.0075 J-4.94
G3 X14.3911 Y39.186 I0.0007 J0.5419
G2 X14.401 Y39.1959 I3.4979 J-3.4883
G3 X14.4234 Y39.2196 I-0.3815 J0.3826
G1 F50.0 X15.5597 Y38.2101
G3 F120.0 X16.0798 Y39.5814 I-1.5403 J1.3684
G2 Y39.5914 I3.42 J0.0048
G3 X15.4744 Y41.053 I-2.0596 J0.0031
G2 X15.4674 Y41.06 I2.4147 J2.4219
G3 X14.0049 Y41.666 I-1.46 J-1.4559
G2 X13.9968 I-0.0042 J3.42
G3 X12.5327 Y41.0595 I-0.0024 J-2.0649
G2 X12.5268 Y41.0536 I-2.421 J2.4156
G3 X11.9208 Y39.5907 I1.4562 J-1.4602
G2 Y39.582 I-3.42 J-0.0045
G3 X12.5268 Y38.1191 I2.0624 J-0.0026
G2 X12.5336 Y38.1123 I-2.415 J-2.4216
G3 X13.9955 Y37.5068 I1.4587 J1.4545
G2 X14.0049 I0.0052 J-3.42
G3 X15.4674 Y38.1127 I0.0025 J2.0619
G2 X15.4742 Y38.1195 I2.4216 J-2.415
G3 X15.5597 Y38.2101 I-1.4548 J1.459
G1 F50.0 X16.6961 Y37.2006
G3 F120.0 X17.5998 Y39.5835 I-2.6766 J2.3779
G2 Y39.5891 I1.9 J0.0027
G3 X16.5476 Y42.1294 I-3.5796 J0.0054
G2 X16.5437 Y42.1333 I1.3415 J1.3455
G3 X14.003 Y43.186 I-2.5363 J-2.5292
G2 X13.9985 I-0.0023 J1.9
G3 X11.4567 Y42.1332 I-0.0041 J-3.5849
G2 X11.4534 Y42.1298 I-1.345 J1.342
G3 X10.4008 Y39.5887 I2.5296 J-2.5364
G2 Y39.5839 I-1.9 J-0.0025
G3 X11.4535 Y37.0428 I3.5824 J-0.0045
G2 X11.4573 Y37.039 I-1.3417 J-1.3453
G3 X13.9978 Y35.9868 I2.5351 J2.5277
G2 X14.003 I0.0029 J-1.9
G3 X16.5437 Y37.0394 I0.0044 J3.5819
G2 X16.5475 Y37.0432 I1.3454 J-1.3417
G3 X16.6961 Y37.2006 I-2.528 J2.5353
G0 Z3.0
M5
M30
