( Made using CamBam - http://www.cambam.co.uk )
( stepper mount - bearing 9/20/2013 4:19:31 PM )
( T0 : 3.9 )
G21 G90 G64 G40
G0 Z3.0
( T0 : 3.9 )
T0 M6
( Profile1 )
G17
M3 S1000
G0 X19.5996 Y39.5891
G0 Z1.0
G1 F50.0 Z-1.0
G3 F120.0 X17.9615 Y43.5441 I-5.5742 J0.0079
G2 X17.9577 Y43.5478 I1.3769 J1.3808
G3 X14.0025 Y45.1863 I-3.9481 J-3.9375
G2 X13.9973 I-0.0025 J1.95
G3 X10.0427 Y43.548 I-0.0078 J-5.5733
G2 X10.039 Y43.5443 I-1.3809 J1.3768
G3 X8.4006 Y39.5887 I3.9395 J-3.9488
G2 Y39.584 I-1.95 J-0.0024
G3 X10.0389 Y35.6285 I5.5774 J-0.0069
G2 X10.0424 Y35.6251 I-1.3772 J-1.3805
G3 X13.9975 Y33.9866 I3.9481 J3.9376
G2 X14.0024 I0.0025 J-1.95
G3 X17.9578 Y35.6251 I0.0069 J5.5767
G2 X17.9614 Y35.6287 I1.3806 J-1.3771
G3 X19.5996 Y39.5837 I-3.9365 J3.9473
G2 Y39.5891 I1.95 J0.0027
G1 F50.0 Z-2.0
G3 F120.0 X17.9615 Y43.5441 I-5.5742 J0.0079
G2 X17.9577 Y43.5478 I1.3769 J1.3808
G3 X14.0025 Y45.1863 I-3.9481 J-3.9375
G2 X13.9973 I-0.0025 J1.95
G3 X10.0427 Y43.548 I-0.0078 J-5.5733
G2 X10.039 Y43.5443 I-1.3809 J1.3768
G3 X8.4006 Y39.5887 I3.9395 J-3.9488
G2 Y39.584 I-1.95 J-0.0024
G3 X10.0389 Y35.6285 I5.5774 J-0.0069
G2 X10.0424 Y35.6251 I-1.3772 J-1.3805
G3 X13.9975 Y33.9866 I3.9481 J3.9376
G2 X14.0024 I0.0025 J-1.95
G3 X17.9578 Y35.6251 I0.0069 J5.5767
G2 X17.9614 Y35.6287 I1.3806 J-1.3771
G3 X19.5996 Y39.5837 I-3.9365 J3.9473
G2 Y39.5891 I1.95 J0.0027
G1 F50.0 Z-3.0
G3 F120.0 X17.9615 Y43.5441 I-5.5742 J0.0079
G2 X17.9577 Y43.5478 I1.3769 J1.3808
G3 X14.0025 Y45.1863 I-3.9481 J-3.9375
G2 X13.9973 I-0.0025 J1.95
G3 X10.0427 Y43.548 I-0.0078 J-5.5733
G2 X10.039 Y43.5443 I-1.3809 J1.3768
G3 X8.4006 Y39.5887 I3.9395 J-3.9488
G2 Y39.584 I-1.95 J-0.0024
G3 X10.0389 Y35.6285 I5.5774 J-0.0069
G2 X10.0424 Y35.6251 I-1.3772 J-1.3805
G3 X13.9975 Y33.9866 I3.9481 J3.9376
G2 X14.0024 I0.0025 J-1.95
G3 X17.9578 Y35.6251 I0.0069 J5.5767
G2 X17.9614 Y35.6287 I1.3806 J-1.3771
G3 X19.5996 Y39.5837 I-3.9365 J3.9473
G2 Y39.5891 I1.95 J0.0027
G1 F50.0 Z-4.0
G3 F120.0 X17.9615 Y43.5441 I-5.5742 J0.0079
G2 X17.9577 Y43.5478 I1.3769 J1.3808
G3 X14.0025 Y45.1863 I-3.9481 J-3.9375
G2 X13.9973 I-0.0025 J1.95
G3 X10.0427 Y43.548 I-0.0078 J-5.5733
G2 X10.039 Y43.5443 I-1.3809 J1.3768
G3 X8.4006 Y39.5887 I3.9395 J-3.9488
G2 Y39.584 I-1.95 J-0.0024
G3 X10.0389 Y35.6285 I5.5774 J-0.0069
G2 X10.0424 Y35.6251 I-1.3772 J-1.3805
G3 X13.9975 Y33.9866 I3.9481 J3.9376
G2 X14.0024 I0.0025 J-1.95
G3 X17.9578 Y35.6251 I0.0069 J5.5767
G2 X17.9614 Y35.6287 I1.3806 J-1.3771
G3 X19.5996 Y39.5837 I-3.9365 J3.9473
G2 Y39.5891 I1.95 J0.0027
G1 F50.0 Z-5.0
G3 F120.0 X17.9615 Y43.5441 I-5.5742 J0.0079
G2 X17.9577 Y43.5478 I1.3769 J1.3808
G3 X14.0025 Y45.1863 I-3.9481 J-3.9375
G2 X13.9973 I-0.0025 J1.95
G3 X10.0427 Y43.548 I-0.0078 J-5.5733
G2 X10.039 Y43.5443 I-1.3809 J1.3768
G3 X8.4006 Y39.5887 I3.9395 J-3.9488
G2 Y39.584 I-1.95 J-0.0024
G3 X10.0389 Y35.6285 I5.5774 J-0.0069
G2 X10.0424 Y35.6251 I-1.3772 J-1.3805
G3 X13.9975 Y33.9866 I3.9481 J3.9376
G2 X14.0024 I0.0025 J-1.95
G3 X17.9578 Y35.6251 I0.0069 J5.5767
G2 X17.9614 Y35.6287 I1.3806 J-1.3771
G3 X19.5996 Y39.5837 I-3.9365 J3.9473
G2 Y39.5891 I1.95 J0.0027
( Profile2 )
S1000
G0 Z3.0
G0 X30.3463 Y29.9864
G0 Z1.0
G1 F50.0 Z-1.0
G1 F120.0 X32.7721 Y18.4617
G3 X32.9575 Y17.959 I1.8703 J0.4043
G2 X32.9593 Y17.9557 I-1.761 J-0.9481
G3 X33.3108 Y17.4587 I2.174 J1.1651
G2 X33.3158 Y17.4532 I-1.4777 J-1.3477
G3 X34.3603 Y16.7326 I2.0529 J1.8582
G2 X34.3621 Y16.7319 I-0.7283 J-1.8627
G3 X35.0785 Y16.5931 I0.7349 J1.8742
G1 X46.6234
G3 X47.6976 Y17.0399 I-0.0006 J1.5161
G2 X47.7047 Y17.047 I1.4179 J-1.4105
G3 X48.1518 Y18.1218 I-1.0707 J1.0758
G1 Y29.4983
G3 X47.705 Y30.5725 I-1.5161 J-0.0006
G2 X47.6979 Y30.5796 I1.4105 J1.4179
G3 X46.6231 Y31.0268 I-1.0758 J-1.0707
G1 X31.1903
G2 X31.1826 I0.0 J2.0
G3 X30.8516 Y30.9857 I-0.0051 J-1.3139
G2 X30.8473 Y30.9846 I-0.4962 J1.9375
G3 X30.6244 Y30.8906 I0.1986 J-0.7826
G2 X30.6202 Y30.8881 I-1.0443 J1.7057
G3 X30.3731 Y30.5955 I0.3142 J-0.516
G3 X30.315 Y30.258 I0.8352 J-0.3174
G2 X30.3152 Y30.2524 I-1.9995 J-0.045
G3 X30.3453 Y29.9909 I1.3866 J0.0273
G2 X30.3463 Y29.9864 I-1.9562 J-0.4165
G1 F50.0 Z-2.0
G1 F120.0 X32.7721 Y18.4617
G3 X32.9575 Y17.959 I1.8703 J0.4043
G2 X32.9593 Y17.9557 I-1.761 J-0.9481
G3 X33.3108 Y17.4587 I2.174 J1.1651
G2 X33.3158 Y17.4532 I-1.4777 J-1.3477
G3 X34.3603 Y16.7326 I2.0529 J1.8582
G2 X34.3621 Y16.7319 I-0.7283 J-1.8627
G3 X35.0785 Y16.5931 I0.7349 J1.8742
G1 X46.6234
G3 X47.6976 Y17.0399 I-0.0006 J1.5161
G2 X47.7047 Y17.047 I1.4179 J-1.4105
G3 X48.1518 Y18.1218 I-1.0707 J1.0758
G1 Y29.4983
G3 X47.705 Y30.5725 I-1.5161 J-0.0006
G2 X47.6979 Y30.5796 I1.4105 J1.4179
G3 X46.6231 Y31.0268 I-1.0758 J-1.0707
G1 X31.1903
G2 X31.1826 I0.0 J2.0
G3 X30.8516 Y30.9857 I-0.0051 J-1.3139
G2 X30.8473 Y30.9846 I-0.4962 J1.9375
G3 X30.6244 Y30.8906 I0.1986 J-0.7826
G2 X30.6202 Y30.8881 I-1.0443 J1.7057
G3 X30.3731 Y30.5955 I0.3142 J-0.516
G3 X30.315 Y30.258 I0.8352 J-0.3174
G2 X30.3152 Y30.2524 I-1.9995 J-0.045
G3 X30.3453 Y29.9909 I1.3866 J0.0273
G2 X30.3463 Y29.9864 I-1.9562 J-0.4165
G1 F50.0 Z-3.0
G1 F120.0 X32.7721 Y18.4617
G3 X32.9575 Y17.959 I1.8703 J0.4043
G2 X32.9593 Y17.9557 I-1.761 J-0.9481
G3 X33.3108 Y17.4587 I2.174 J1.1651
G2 X33.3158 Y17.4532 I-1.4777 J-1.3477
G3 X34.3603 Y16.7326 I2.0529 J1.8582
G2 X34.3621 Y16.7319 I-0.7283 J-1.8627
G3 X35.0785 Y16.5931 I0.7349 J1.8742
G1 X46.6234
G3 X47.6976 Y17.0399 I-0.0006 J1.5161
G2 X47.7047 Y17.047 I1.4179 J-1.4105
G3 X48.1518 Y18.1218 I-1.0707 J1.0758
G1 Y29.4983
G3 X47.705 Y30.5725 I-1.5161 J-0.0006
G2 X47.6979 Y30.5796 I1.4105 J1.4179
G3 X46.6231 Y31.0268 I-1.0758 J-1.0707
G1 X31.1903
G2 X31.1826 I0.0 J2.0
G3 X30.8516 Y30.9857 I-0.0051 J-1.3139
G2 X30.8473 Y30.9846 I-0.4962 J1.9375
G3 X30.6244 Y30.8906 I0.1986 J-0.7826
G2 X30.6202 Y30.8881 I-1.0443 J1.7057
G3 X30.3731 Y30.5955 I0.3142 J-0.516
G3 X30.315 Y30.258 I0.8352 J-0.3174
G2 X30.3152 Y30.2524 I-1.9995 J-0.045
G3 X30.3453 Y29.9909 I1.3866 J0.0273
G2 X30.3463 Y29.9864 I-1.9562 J-0.4165
G1 F50.0 Z-4.0
G1 F120.0 X32.7721 Y18.4617
G3 X32.9575 Y17.959 I1.8703 J0.4043
G2 X32.9593 Y17.9557 I-1.761 J-0.9481
G3 X33.3108 Y17.4587 I2.174 J1.1651
G2 X33.3158 Y17.4532 I-1.4777 J-1.3477
G3 X34.3603 Y16.7326 I2.0529 J1.8582
G2 X34.3621 Y16.7319 I-0.7283 J-1.8627
G3 X35.0785 Y16.5931 I0.7349 J1.8742
G1 X46.6234
G3 X47.6976 Y17.0399 I-0.0006 J1.5161
G2 X47.7047 Y17.047 I1.4179 J-1.4105
G3 X48.1518 Y18.1218 I-1.0707 J1.0758
G1 Y29.4983
G3 X47.705 Y30.5725 I-1.5161 J-0.0006
G2 X47.6979 Y30.5796 I1.4105 J1.4179
G3 X46.6231 Y31.0268 I-1.0758 J-1.0707
G1 X31.1903
G2 X31.1826 I0.0 J2.0
G3 X30.8516 Y30.9857 I-0.0051 J-1.3139
G2 X30.8473 Y30.9846 I-0.4962 J1.9375
G3 X30.6244 Y30.8906 I0.1986 J-0.7826
G2 X30.6202 Y30.8881 I-1.0443 J1.7057
G3 X30.3731 Y30.5955 I0.3142 J-0.516
G3 X30.315 Y30.258 I0.8352 J-0.3174
G2 X30.3152 Y30.2524 I-1.9995 J-0.045
G3 X30.3453 Y29.9909 I1.3866 J0.0273
G2 X30.3463 Y29.9864 I-1.9562 J-0.4165
G1 F50.0 Z-5.0
G1 F120.0 X32.7721 Y18.4617
G3 X32.9575 Y17.959 I1.8703 J0.4043
G2 X32.9593 Y17.9557 I-1.761 J-0.9481
G3 X33.3108 Y17.4587 I2.174 J1.1651
G2 X33.3158 Y17.4532 I-1.4777 J-1.3477
G3 X34.3603 Y16.7326 I2.0529 J1.8582
G2 X34.3621 Y16.7319 I-0.7283 J-1.8627
G3 X35.0785 Y16.5931 I0.7349 J1.8742
G1 X46.6234
G3 X47.6976 Y17.0399 I-0.0006 J1.5161
G2 X47.7047 Y17.047 I1.4179 J-1.4105
G3 X48.1518 Y18.1218 I-1.0707 J1.0758
G1 Y29.4983
G3 X47.705 Y30.5725 I-1.5161 J-0.0006
G2 X47.6979 Y30.5796 I1.4105 J1.4179
G3 X46.6231 Y31.0268 I-1.0758 J-1.0707
G1 X31.1903
G2 X31.1826 I0.0 J2.0
G3 X30.8516 Y30.9857 I-0.0051 J-1.3139
G2 X30.8473 Y30.9846 I-0.4962 J1.9375
G3 X30.6244 Y30.8906 I0.1986 J-0.7826
G2 X30.6202 Y30.8881 I-1.0443 J1.7057
G3 X30.3731 Y30.5955 I0.3142 J-0.516
G3 X30.315 Y30.258 I0.8352 J-0.3174
G2 X30.3152 Y30.2524 I-1.9995 J-0.045
G3 X30.3453 Y29.9909 I1.3866 J0.0273
G2 X30.3463 Y29.9864 I-1.9562 J-0.4165
G1 F50.0 Z-6.0
G1 F120.0 X32.7721 Y18.4617
G3 X32.9575 Y17.959 I1.8703 J0.4043
G2 X32.9593 Y17.9557 I-1.761 J-0.9481
G3 X33.3108 Y17.4587 I2.174 J1.1651
G2 X33.3158 Y17.4532 I-1.4777 J-1.3477
G3 X34.3603 Y16.7326 I2.0529 J1.8582
G2 X34.3621 Y16.7319 I-0.7283 J-1.8627
G3 X35.0785 Y16.5931 I0.7349 J1.8742
G1 X46.6234
G3 X47.6976 Y17.0399 I-0.0006 J1.5161
G2 X47.7047 Y17.047 I1.4179 J-1.4105
G3 X48.1518 Y18.1218 I-1.0707 J1.0758
G1 Y29.4983
G3 X47.705 Y30.5725 I-1.5161 J-0.0006
G2 X47.6979 Y30.5796 I1.4105 J1.4179
G3 X46.6231 Y31.0268 I-1.0758 J-1.0707
G1 X31.1903
G2 X31.1826 I0.0 J2.0
G3 X30.8516 Y30.9857 I-0.0051 J-1.3139
G2 X30.8473 Y30.9846 I-0.4962 J1.9375
G3 X30.6244 Y30.8906 I0.1986 J-0.7826
G2 X30.6202 Y30.8881 I-1.0443 J1.7057
G3 X30.3731 Y30.5955 I0.3142 J-0.516
G3 X30.315 Y30.258 I0.8352 J-0.3174
G2 X30.3152 Y30.2524 I-1.9995 J-0.045
G3 X30.3453 Y29.9909 I1.3866 J0.0273
G2 X30.3463 Y29.9864 I-1.9562 J-0.4165
G1 F50.0 Z-6.5
G1 F120.0 X32.7721 Y18.4617
G3 X32.9575 Y17.959 I1.8703 J0.4043
G2 X32.9593 Y17.9557 I-1.761 J-0.9481
G3 X33.3108 Y17.4587 I2.174 J1.1651
G2 X33.3158 Y17.4532 I-1.4777 J-1.3477
G3 X34.3603 Y16.7326 I2.0529 J1.8582
G2 X34.3621 Y16.7319 I-0.7283 J-1.8627
G3 X35.0785 Y16.5931 I0.7349 J1.8742
G1 X46.6234
G3 X47.6976 Y17.0399 I-0.0006 J1.5161
G2 X47.7047 Y17.047 I1.4179 J-1.4105
G3 X48.1518 Y18.1218 I-1.0707 J1.0758
G1 Y29.4983
G3 X47.705 Y30.5725 I-1.5161 J-0.0006
G2 X47.6979 Y30.5796 I1.4105 J1.4179
G3 X46.6231 Y31.0268 I-1.0758 J-1.0707
G1 X31.1903
G2 X31.1826 I0.0 J2.0
G3 X30.8516 Y30.9857 I-0.0051 J-1.3139
G2 X30.8473 Y30.9846 I-0.4962 J1.9375
G3 X30.6244 Y30.8906 I0.1986 J-0.7826
G2 X30.6202 Y30.8881 I-1.0443 J1.7057
G3 X30.3731 Y30.5955 I0.3142 J-0.516
G3 X30.315 Y30.258 I0.8352 J-0.3174
G2 X30.3152 Y30.2524 I-1.9995 J-0.045
G3 X30.3453 Y29.9909 I1.3866 J0.0273
G2 X30.3463 Y29.9864 I-1.9562 J-0.4165
( Profile3 )
S1000
G0 Z3.0
G0 X30.3454 Y49.3823
G0 Z1.0
G1 F50.0 Z-1.0
G3 F120.0 X30.3152 Y49.1196 I1.3669 J-0.2906
G2 X30.3151 Y49.1152 I-1.9996 J0.04
G3 X30.3732 Y48.777 I0.8971 J-0.0199
G3 X30.6204 Y48.4844 I0.5619 J0.224
G2 X30.6246 Y48.4819 I-1.0403 J-1.7082
G3 X30.8472 Y48.388 I0.4208 J0.6871
G2 X30.8518 Y48.3869 I-0.4919 J-1.9386
G3 X31.1825 Y48.3458 I0.3256 J1.2708
G2 X31.1903 I0.0078 J-2.0
G1 X46.6231
G3 X47.6978 Y48.793 I-0.0012 J1.5181
G2 X47.7048 Y48.7999 I1.4175 J-1.4109
G3 X48.1518 Y49.8743 I-1.0699 J1.0754
G1 Y61.2501
G3 X47.7048 Y62.3243 I-1.5166 J-0.0009
G2 X47.6975 Y62.3317 I1.4105 J1.4179
G3 X46.6234 Y62.7785 I-1.0747 J-1.0691
G1 X35.0786
G3 X34.362 Y62.6396 I0.0186 J-2.0141
G2 X34.3604 Y62.639 I-0.73 J1.862
G3 X33.3159 Y61.9183 I1.0085 J-2.5789
G3 X32.9564 Y61.4105 I1.9314 J-1.7483
G3 X32.7722 Y60.9103 I1.6746 J-0.901
G1 X30.3462 Y49.3862
G2 X30.3454 Y49.3823 I-1.9571 J0.412
G1 F50.0 Z-2.0
G3 F120.0 X30.3152 Y49.1196 I1.3669 J-0.2906
G2 X30.3151 Y49.1152 I-1.9996 J0.04
G3 X30.3732 Y48.777 I0.8971 J-0.0199
G3 X30.6204 Y48.4844 I0.5619 J0.224
G2 X30.6246 Y48.4819 I-1.0403 J-1.7082
G3 X30.8472 Y48.388 I0.4208 J0.6871
G2 X30.8518 Y48.3869 I-0.4919 J-1.9386
G3 X31.1825 Y48.3458 I0.3256 J1.2708
G2 X31.1903 I0.0078 J-2.0
G1 X46.6231
G3 X47.6978 Y48.793 I-0.0012 J1.5181
G2 X47.7048 Y48.7999 I1.4175 J-1.4109
G3 X48.1518 Y49.8743 I-1.0699 J1.0754
G1 Y61.2501
G3 X47.7048 Y62.3243 I-1.5166 J-0.0009
G2 X47.6975 Y62.3317 I1.4105 J1.4179
G3 X46.6234 Y62.7785 I-1.0747 J-1.0691
G1 X35.0786
G3 X34.362 Y62.6396 I0.0186 J-2.0141
G2 X34.3604 Y62.639 I-0.73 J1.862
G3 X33.3159 Y61.9183 I1.0085 J-2.5789
G3 X32.9564 Y61.4105 I1.9314 J-1.7483
G3 X32.7722 Y60.9103 I1.6746 J-0.901
G1 X30.3462 Y49.3862
G2 X30.3454 Y49.3823 I-1.9571 J0.412
G1 F50.0 Z-3.0
G3 F120.0 X30.3152 Y49.1196 I1.3669 J-0.2906
G2 X30.3151 Y49.1152 I-1.9996 J0.04
G3 X30.3732 Y48.777 I0.8971 J-0.0199
G3 X30.6204 Y48.4844 I0.5619 J0.224
G2 X30.6246 Y48.4819 I-1.0403 J-1.7082
G3 X30.8472 Y48.388 I0.4208 J0.6871
G2 X30.8518 Y48.3869 I-0.4919 J-1.9386
G3 X31.1825 Y48.3458 I0.3256 J1.2708
G2 X31.1903 I0.0078 J-2.0
G1 X46.6231
G3 X47.6978 Y48.793 I-0.0012 J1.5181
G2 X47.7048 Y48.7999 I1.4175 J-1.4109
G3 X48.1518 Y49.8743 I-1.0699 J1.0754
G1 Y61.2501
G3 X47.7048 Y62.3243 I-1.5166 J-0.0009
G2 X47.6975 Y62.3317 I1.4105 J1.4179
G3 X46.6234 Y62.7785 I-1.0747 J-1.0691
G1 X35.0786
G3 X34.362 Y62.6396 I0.0186 J-2.0141
G2 X34.3604 Y62.639 I-0.73 J1.862
G3 X33.3159 Y61.9183 I1.0085 J-2.5789
G3 X32.9564 Y61.4105 I1.9314 J-1.7483
G3 X32.7722 Y60.9103 I1.6746 J-0.901
G1 X30.3462 Y49.3862
G2 X30.3454 Y49.3823 I-1.9571 J0.412
G1 F50.0 Z-4.0
G3 F120.0 X30.3152 Y49.1196 I1.3669 J-0.2906
G2 X30.3151 Y49.1152 I-1.9996 J0.04
G3 X30.3732 Y48.777 I0.8971 J-0.0199
G3 X30.6204 Y48.4844 I0.5619 J0.224
G2 X30.6246 Y48.4819 I-1.0403 J-1.7082
G3 X30.8472 Y48.388 I0.4208 J0.6871
G2 X30.8518 Y48.3869 I-0.4919 J-1.9386
G3 X31.1825 Y48.3458 I0.3256 J1.2708
G2 X31.1903 I0.0078 J-2.0
G1 X46.6231
G3 X47.6978 Y48.793 I-0.0012 J1.5181
G2 X47.7048 Y48.7999 I1.4175 J-1.4109
G3 X48.1518 Y49.8743 I-1.0699 J1.0754
G1 Y61.2501
G3 X47.7048 Y62.3243 I-1.5166 J-0.0009
G2 X47.6975 Y62.3317 I1.4105 J1.4179
G3 X46.6234 Y62.7785 I-1.0747 J-1.0691
G1 X35.0786
G3 X34.362 Y62.6396 I0.0186 J-2.0141
G2 X34.3604 Y62.639 I-0.73 J1.862
G3 X33.3159 Y61.9183 I1.0085 J-2.5789
G3 X32.9564 Y61.4105 I1.9314 J-1.7483
G3 X32.7722 Y60.9103 I1.6746 J-0.901
G1 X30.3462 Y49.3862
G2 X30.3454 Y49.3823 I-1.9571 J0.412
G1 F50.0 Z-5.0
G3 F120.0 X30.3152 Y49.1196 I1.3669 J-0.2906
G2 X30.3151 Y49.1152 I-1.9996 J0.04
G3 X30.3732 Y48.777 I0.8971 J-0.0199
G3 X30.6204 Y48.4844 I0.5619 J0.224
G2 X30.6246 Y48.4819 I-1.0403 J-1.7082
G3 X30.8472 Y48.388 I0.4208 J0.6871
G2 X30.8518 Y48.3869 I-0.4919 J-1.9386
G3 X31.1825 Y48.3458 I0.3256 J1.2708
G2 X31.1903 I0.0078 J-2.0
G1 X46.6231
G3 X47.6978 Y48.793 I-0.0012 J1.5181
G2 X47.7048 Y48.7999 I1.4175 J-1.4109
G3 X48.1518 Y49.8743 I-1.0699 J1.0754
G1 Y61.2501
G3 X47.7048 Y62.3243 I-1.5166 J-0.0009
G2 X47.6975 Y62.3317 I1.4105 J1.4179
G3 X46.6234 Y62.7785 I-1.0747 J-1.0691
G1 X35.0786
G3 X34.362 Y62.6396 I0.0186 J-2.0141
G2 X34.3604 Y62.639 I-0.73 J1.862
G3 X33.3159 Y61.9183 I1.0085 J-2.5789
G3 X32.9564 Y61.4105 I1.9314 J-1.7483
G3 X32.7722 Y60.9103 I1.6746 J-0.901
G1 X30.3462 Y49.3862
G2 X30.3454 Y49.3823 I-1.9571 J0.412
G1 F50.0 Z-6.0
G3 F120.0 X30.3152 Y49.1196 I1.3669 J-0.2906
G2 X30.3151 Y49.1152 I-1.9996 J0.04
G3 X30.3732 Y48.777 I0.8971 J-0.0199
G3 X30.6204 Y48.4844 I0.5619 J0.224
G2 X30.6246 Y48.4819 I-1.0403 J-1.7082
G3 X30.8472 Y48.388 I0.4208 J0.6871
G2 X30.8518 Y48.3869 I-0.4919 J-1.9386
G3 X31.1825 Y48.3458 I0.3256 J1.2708
G2 X31.1903 I0.0078 J-2.0
G1 X46.6231
G3 X47.6978 Y48.793 I-0.0012 J1.5181
G2 X47.7048 Y48.7999 I1.4175 J-1.4109
G3 X48.1518 Y49.8743 I-1.0699 J1.0754
G1 Y61.2501
G3 X47.7048 Y62.3243 I-1.5166 J-0.0009
G2 X47.6975 Y62.3317 I1.4105 J1.4179
G3 X46.6234 Y62.7785 I-1.0747 J-1.0691
G1 X35.0786
G3 X34.362 Y62.6396 I0.0186 J-2.0141
G2 X34.3604 Y62.639 I-0.73 J1.862
G3 X33.3159 Y61.9183 I1.0085 J-2.5789
G3 X32.9564 Y61.4105 I1.9314 J-1.7483
G3 X32.7722 Y60.9103 I1.6746 J-0.901
G1 X30.3462 Y49.3862
G2 X30.3454 Y49.3823 I-1.9571 J0.412
G1 F50.0 Z-6.5
G3 F120.0 X30.3152 Y49.1196 I1.3669 J-0.2906
G2 X30.3151 Y49.1152 I-1.9996 J0.04
G3 X30.3732 Y48.777 I0.8971 J-0.0199
G3 X30.6204 Y48.4844 I0.5619 J0.224
G2 X30.6246 Y48.4819 I-1.0403 J-1.7082
G3 X30.8472 Y48.388 I0.4208 J0.6871
G2 X30.8518 Y48.3869 I-0.4919 J-1.9386
G3 X31.1825 Y48.3458 I0.3256 J1.2708
G2 X31.1903 I0.0078 J-2.0
G1 X46.6231
G3 X47.6978 Y48.793 I-0.0012 J1.5181
G2 X47.7048 Y48.7999 I1.4175 J-1.4109
G3 X48.1518 Y49.8743 I-1.0699 J1.0754
G1 Y61.2501
G3 X47.7048 Y62.3243 I-1.5166 J-0.0009
G2 X47.6975 Y62.3317 I1.4105 J1.4179
G3 X46.6234 Y62.7785 I-1.0747 J-1.0691
G1 X35.0786
G3 X34.362 Y62.6396 I0.0186 J-2.0141
G2 X34.3604 Y62.639 I-0.73 J1.862
G3 X33.3159 Y61.9183 I1.0085 J-2.5789
G3 X32.9564 Y61.4105 I1.9314 J-1.7483
G3 X32.7722 Y60.9103 I1.6746 J-0.901
G1 X30.3462 Y49.3862
G2 X30.3454 Y49.3823 I-1.9571 J0.412
( Profile4 )
S1000
G0 Z3.0
G0 X53.236 Y81.1726
G0 Z1.0
G1 F50.0 Z-1.0
G2 F120.0 X56.063 Y79.9988 I-0.0004 J-3.992
G2 X57.2357 Y77.1738 I-2.8224 J-2.8275
G2 Y77.1726 I-2.0 J-0.0013
G1 Y1.9999
G2 Y1.9994 I-2.0 J0.0
G2 X56.0624 Y-0.8269 I-3.993 J0.001
G2 X53.2368 Y-2.0 I-2.8275 J2.821
G2 X53.2359 I-0.001 J2.0
G1 X33.0018
G2 X32.9849 Y-1.9999 I0.0 J2.0
G2 X31.827 Y-1.8376 I0.0379 J4.4801
G2 X31.8175 Y-1.8349 I0.5338 J1.9275
G2 X30.8333 Y-1.4439 I1.3971 J4.9501
G1 Y-1.4438
G1 X30.8334 Y-1.4439
G1 X30.8333
G2 X29.2215 Y-0.1387 I2.4243 J4.6418
G2 X28.4522 Y1.1978 I3.4625 J2.8824
G2 X28.4056 Y1.3422 I1.8786 J0.6863
G1 X22.2756 Y23.1191
G3 X22.2436 Y23.1733 I-0.3433 J-0.1664
G3 X22.0866 Y23.3523 I-0.9635 J-0.6866
G3 X21.6671 Y23.6076 I-0.8436 J-0.9137
G2 X21.6573 Y23.6112 I0.6821 J1.8801
G3 X21.4908 Y23.6425 I-0.1761 J-0.4777
G1 X15.3023
G2 X14.0115 Y23.5864 I-1.3923 J17.1508
G2 X14.0026 I-0.0118 J2.0
G2 X5.1077 Y26.2832 I-0.0234 J15.9399
G2 X-0.7844 Y33.4595 I8.9322 J13.3409
G2 X-0.7855 Y33.4623 I1.8467 J0.7679
G2 X-2.0 Y39.5859 I14.748 J6.1071
G2 X0.6968 Y48.4786 I15.9303 J0.0243
G2 X7.8728 Y54.3711 I13.3403 J-8.9304
G2 X7.8753 Y54.3721 I0.768 J-1.8467
G2 X14.0022 Y55.5869 I6.1067 J-14.7416
G2 X14.0101 I-0.0025 J-2.0
G2 X15.3148 Y55.5299 I-0.0884 J-16.9883
G1 X21.4991
G3 X21.5978 Y55.5439 I-0.0021 J0.3698
G2 X21.5991 Y55.5443 I0.5456 J-1.9241
G3 X21.8197 Y55.6319 I-0.3157 J1.1162
G3 X22.2003 Y55.9406 I-0.5712 J1.0934
G2 X22.2086 Y55.9506 I1.5432 J-1.2722
G3 X22.2765 Y56.0566 I-0.3837 J0.3206
G1 X28.4056 Y77.8304
G2 X28.4484 Y77.9642 I1.9252 J-0.5419
G2 X29.0004 Y79.0211 I4.1168 J-1.4777
G2 X29.697 Y79.8147 I4.2113 J-2.9937
G2 X29.6989 Y79.8165 I1.3605 J-1.466
G2 X31.4691 Y80.8965 I3.5633 J-3.8497
G2 X32.9828 Y81.1725 I1.5566 J-4.2478
G2 X33.0018 Y81.1726 I0.019 J-1.9999
G1 X53.2359
G1 X53.236
G1 F50.0 Z-2.0
G2 F120.0 X56.063 Y79.9988 I-0.0004 J-3.992
G2 X57.2357 Y77.1738 I-2.8224 J-2.8275
G2 Y77.1726 I-2.0 J-0.0013
G1 Y1.9999
G2 Y1.9994 I-2.0 J0.0
G2 X56.0624 Y-0.8269 I-3.993 J0.001
G2 X53.2368 Y-2.0 I-2.8275 J2.821
G2 X53.2359 I-0.001 J2.0
G1 X33.0018
G2 X32.9849 Y-1.9999 I0.0 J2.0
G2 X31.827 Y-1.8376 I0.0379 J4.4801
G2 X31.8175 Y-1.8349 I0.5338 J1.9275
G2 X30.8333 Y-1.4439 I1.3971 J4.9501
G1 Y-1.4438
G1 X30.8334 Y-1.4439
G1 X30.8333
G2 X29.2215 Y-0.1387 I2.4243 J4.6418
G2 X28.4522 Y1.1978 I3.4625 J2.8824
G2 X28.4056 Y1.3422 I1.8786 J0.6863
G1 X22.2756 Y23.1191
G3 X22.2436 Y23.1733 I-0.3433 J-0.1664
G3 X22.0866 Y23.3523 I-0.9635 J-0.6866
G3 X21.6671 Y23.6076 I-0.8436 J-0.9137
G2 X21.6573 Y23.6112 I0.6821 J1.8801
G3 X21.4908 Y23.6425 I-0.1761 J-0.4777
G1 X15.3023
G2 X14.0115 Y23.5864 I-1.3923 J17.1508
G2 X14.0026 I-0.0118 J2.0
G2 X5.1077 Y26.2832 I-0.0234 J15.9399
G2 X-0.7844 Y33.4595 I8.9322 J13.3409
G2 X-0.7855 Y33.4623 I1.8467 J0.7679
G2 X-2.0 Y39.5859 I14.748 J6.1071
G2 X0.6968 Y48.4786 I15.9303 J0.0243
G2 X7.8728 Y54.3711 I13.3403 J-8.9304
G2 X7.8753 Y54.3721 I0.768 J-1.8467
G2 X14.0022 Y55.5869 I6.1067 J-14.7416
G2 X14.0101 I-0.0025 J-2.0
G2 X15.3148 Y55.5299 I-0.0884 J-16.9883
G1 X21.4991
G3 X21.5978 Y55.5439 I-0.0021 J0.3698
G2 X21.5991 Y55.5443 I0.5456 J-1.9241
G3 X21.8197 Y55.6319 I-0.3157 J1.1162
G3 X22.2003 Y55.9406 I-0.5712 J1.0934
G2 X22.2086 Y55.9506 I1.5432 J-1.2722
G3 X22.2765 Y56.0566 I-0.3837 J0.3206
G1 X28.4056 Y77.8304
G2 X28.4484 Y77.9642 I1.9252 J-0.5419
G2 X29.0004 Y79.0211 I4.1168 J-1.4777
G2 X29.697 Y79.8147 I4.2113 J-2.9937
G2 X29.6989 Y79.8165 I1.3605 J-1.466
G2 X31.4691 Y80.8965 I3.5633 J-3.8497
G2 X32.9828 Y81.1725 I1.5566 J-4.2478
G2 X33.0018 Y81.1726 I0.019 J-1.9999
G1 X53.2359
G1 X53.236
G1 F50.0 Z-3.0
G2 F120.0 X56.063 Y79.9988 I-0.0004 J-3.992
G2 X57.2357 Y77.1738 I-2.8224 J-2.8275
G2 Y77.1726 I-2.0 J-0.0013
G1 Y1.9999
G2 Y1.9994 I-2.0 J0.0
G2 X56.0624 Y-0.8269 I-3.993 J0.001
G2 X53.2368 Y-2.0 I-2.8275 J2.821
G2 X53.2359 I-0.001 J2.0
G1 X33.0018
G2 X32.9849 Y-1.9999 I0.0 J2.0
G2 X31.827 Y-1.8376 I0.0379 J4.4801
G2 X31.8175 Y-1.8349 I0.5338 J1.9275
G2 X30.8333 Y-1.4439 I1.3971 J4.9501
G1 Y-1.4438
G1 X30.8334 Y-1.4439
G1 X30.8333
G2 X29.2215 Y-0.1387 I2.4243 J4.6418
G2 X28.4522 Y1.1978 I3.4625 J2.8824
G2 X28.4056 Y1.3422 I1.8786 J0.6863
G1 X22.2756 Y23.1191
G3 X22.2436 Y23.1733 I-0.3433 J-0.1664
G3 X22.0866 Y23.3523 I-0.9635 J-0.6866
G3 X21.6671 Y23.6076 I-0.8436 J-0.9137
G2 X21.6573 Y23.6112 I0.6821 J1.8801
G3 X21.4908 Y23.6425 I-0.1761 J-0.4777
G1 X15.3023
G2 X14.0115 Y23.5864 I-1.3923 J17.1508
G2 X14.0026 I-0.0118 J2.0
G2 X5.1077 Y26.2832 I-0.0234 J15.9399
G2 X-0.7844 Y33.4595 I8.9322 J13.3409
G2 X-0.7855 Y33.4623 I1.8467 J0.7679
G2 X-2.0 Y39.5859 I14.748 J6.1071
G2 X0.6968 Y48.4786 I15.9303 J0.0243
G2 X7.8728 Y54.3711 I13.3403 J-8.9304
G2 X7.8753 Y54.3721 I0.768 J-1.8467
G2 X14.0022 Y55.5869 I6.1067 J-14.7416
G2 X14.0101 I-0.0025 J-2.0
G2 X15.3148 Y55.5299 I-0.0884 J-16.9883
G1 X21.4991
G3 X21.5978 Y55.5439 I-0.0021 J0.3698
G2 X21.5991 Y55.5443 I0.5456 J-1.9241
G3 X21.8197 Y55.6319 I-0.3157 J1.1162
G3 X22.2003 Y55.9406 I-0.5712 J1.0934
G2 X22.2086 Y55.9506 I1.5432 J-1.2722
G3 X22.2765 Y56.0566 I-0.3837 J0.3206
G1 X28.4056 Y77.8304
G2 X28.4484 Y77.9642 I1.9252 J-0.5419
G2 X29.0004 Y79.0211 I4.1168 J-1.4777
G2 X29.697 Y79.8147 I4.2113 J-2.9937
G2 X29.6989 Y79.8165 I1.3605 J-1.466
G2 X31.4691 Y80.8965 I3.5633 J-3.8497
G2 X32.9828 Y81.1725 I1.5566 J-4.2478
G2 X33.0018 Y81.1726 I0.019 J-1.9999
G1 X53.2359
G1 X53.236
G1 F50.0 Z-4.0
G2 F120.0 X56.063 Y79.9988 I-0.0004 J-3.992
G2 X57.2357 Y77.1738 I-2.8224 J-2.8275
G2 Y77.1726 I-2.0 J-0.0013
G1 Y1.9999
G2 Y1.9994 I-2.0 J0.0
G2 X56.0624 Y-0.8269 I-3.993 J0.001
G2 X53.2368 Y-2.0 I-2.8275 J2.821
G2 X53.2359 I-0.001 J2.0
G1 X33.0018
G2 X32.9849 Y-1.9999 I0.0 J2.0
G2 X31.827 Y-1.8376 I0.0379 J4.4801
G2 X31.8175 Y-1.8349 I0.5338 J1.9275
G2 X30.8333 Y-1.4439 I1.3971 J4.9501
G1 Y-1.4438
G1 X30.8334 Y-1.4439
G1 X30.8333
G2 X29.2215 Y-0.1387 I2.4243 J4.6418
G2 X28.4522 Y1.1978 I3.4625 J2.8824
G2 X28.4056 Y1.3422 I1.8786 J0.6863
G1 X22.2756 Y23.1191
G3 X22.2436 Y23.1733 I-0.3433 J-0.1664
G3 X22.0866 Y23.3523 I-0.9635 J-0.6866
G3 X21.6671 Y23.6076 I-0.8436 J-0.9137
G2 X21.6573 Y23.6112 I0.6821 J1.8801
G3 X21.4908 Y23.6425 I-0.1761 J-0.4777
G1 X15.3023
G2 X14.0115 Y23.5864 I-1.3923 J17.1508
G2 X14.0026 I-0.0118 J2.0
G2 X5.1077 Y26.2832 I-0.0234 J15.9399
G2 X-0.7844 Y33.4595 I8.9322 J13.3409
G2 X-0.7855 Y33.4623 I1.8467 J0.7679
G2 X-2.0 Y39.5859 I14.748 J6.1071
G2 X0.6968 Y48.4786 I15.9303 J0.0243
G2 X7.8728 Y54.3711 I13.3403 J-8.9304
G2 X7.8753 Y54.3721 I0.768 J-1.8467
G2 X14.0022 Y55.5869 I6.1067 J-14.7416
G2 X14.0101 I-0.0025 J-2.0
G2 X15.3148 Y55.5299 I-0.0884 J-16.9883
G1 X21.4991
G3 X21.5978 Y55.5439 I-0.0021 J0.3698
G2 X21.5991 Y55.5443 I0.5456 J-1.9241
G3 X21.8197 Y55.6319 I-0.3157 J1.1162
G3 X22.2003 Y55.9406 I-0.5712 J1.0934
G2 X22.2086 Y55.9506 I1.5432 J-1.2722
G3 X22.2765 Y56.0566 I-0.3837 J0.3206
G1 X28.4056 Y77.8304
G2 X28.4484 Y77.9642 I1.9252 J-0.5419
G2 X29.0004 Y79.0211 I4.1168 J-1.4777
G2 X29.697 Y79.8147 I4.2113 J-2.9937
G2 X29.6989 Y79.8165 I1.3605 J-1.466
G2 X31.4691 Y80.8965 I3.5633 J-3.8497
G2 X32.9828 Y81.1725 I1.5566 J-4.2478
G2 X33.0018 Y81.1726 I0.019 J-1.9999
G1 X53.2359
G1 X53.236
G1 F50.0 Z-5.0
G2 F120.0 X56.063 Y79.9988 I-0.0004 J-3.992
G2 X57.2357 Y77.1738 I-2.8224 J-2.8275
G2 Y77.1726 I-2.0 J-0.0013
G1 Y1.9999
G2 Y1.9994 I-2.0 J0.0
G2 X56.0624 Y-0.8269 I-3.993 J0.001
G2 X53.2368 Y-2.0 I-2.8275 J2.821
G2 X53.2359 I-0.001 J2.0
G1 X33.0018
G2 X32.9849 Y-1.9999 I0.0 J2.0
G2 X31.827 Y-1.8376 I0.0379 J4.4801
G2 X31.8175 Y-1.8349 I0.5338 J1.9275
G2 X30.8333 Y-1.4439 I1.3971 J4.9501
G1 Y-1.4438
G1 X30.8334 Y-1.4439
G1 X30.8333
G2 X29.2215 Y-0.1387 I2.4243 J4.6418
G2 X28.4522 Y1.1978 I3.4625 J2.8824
G2 X28.4056 Y1.3422 I1.8786 J0.6863
G1 X22.2756 Y23.1191
G3 X22.2436 Y23.1733 I-0.3433 J-0.1664
G3 X22.0866 Y23.3523 I-0.9635 J-0.6866
G3 X21.6671 Y23.6076 I-0.8436 J-0.9137
G2 X21.6573 Y23.6112 I0.6821 J1.8801
G3 X21.4908 Y23.6425 I-0.1761 J-0.4777
G1 X15.3023
G2 X14.0115 Y23.5864 I-1.3923 J17.1508
G2 X14.0026 I-0.0118 J2.0
G2 X5.1077 Y26.2832 I-0.0234 J15.9399
G2 X-0.7844 Y33.4595 I8.9322 J13.3409
G2 X-0.7855 Y33.4623 I1.8467 J0.7679
G2 X-2.0 Y39.5859 I14.748 J6.1071
G2 X0.6968 Y48.4786 I15.9303 J0.0243
G2 X7.8728 Y54.3711 I13.3403 J-8.9304
G2 X7.8753 Y54.3721 I0.768 J-1.8467
G2 X14.0022 Y55.5869 I6.1067 J-14.7416
G2 X14.0101 I-0.0025 J-2.0
G2 X15.3148 Y55.5299 I-0.0884 J-16.9883
G1 X21.4991
G3 X21.5978 Y55.5439 I-0.0021 J0.3698
G2 X21.5991 Y55.5443 I0.5456 J-1.9241
G3 X21.8197 Y55.6319 I-0.3157 J1.1162
G3 X22.2003 Y55.9406 I-0.5712 J1.0934
G2 X22.2086 Y55.9506 I1.5432 J-1.2722
G3 X22.2765 Y56.0566 I-0.3837 J0.3206
G1 X28.4056 Y77.8304
G2 X28.4484 Y77.9642 I1.9252 J-0.5419
G2 X29.0004 Y79.0211 I4.1168 J-1.4777
G2 X29.697 Y79.8147 I4.2113 J-2.9937
G2 X29.6989 Y79.8165 I1.3605 J-1.466
G2 X31.4691 Y80.8965 I3.5633 J-3.8497
G2 X32.9828 Y81.1725 I1.5566 J-4.2478
G2 X33.0018 Y81.1726 I0.019 J-1.9999
G1 X53.2359
G1 X53.236
G1 F50.0 Z-6.0
G2 F120.0 X56.063 Y79.9988 I-0.0004 J-3.992
G2 X57.2357 Y77.1738 I-2.8224 J-2.8275
G2 Y77.1726 I-2.0 J-0.0013
G1 Y1.9999
G2 Y1.9994 I-2.0 J0.0
G2 X56.0624 Y-0.8269 I-3.993 J0.001
G2 X53.2368 Y-2.0 I-2.8275 J2.821
G2 X53.2359 I-0.001 J2.0
G1 X33.0018
G2 X32.9849 Y-1.9999 I0.0 J2.0
G2 X31.827 Y-1.8376 I0.0379 J4.4801
G2 X31.8175 Y-1.8349 I0.5338 J1.9275
G2 X30.8333 Y-1.4439 I1.3971 J4.9501
G1 Y-1.4438
G1 X30.8334 Y-1.4439
G1 X30.8333
G2 X29.2215 Y-0.1387 I2.4243 J4.6418
G2 X28.4522 Y1.1978 I3.4625 J2.8824
G2 X28.4056 Y1.3422 I1.8786 J0.6863
G1 X22.2756 Y23.1191
G3 X22.2436 Y23.1733 I-0.3433 J-0.1664
G3 X22.0866 Y23.3523 I-0.9635 J-0.6866
G3 X21.6671 Y23.6076 I-0.8436 J-0.9137
G2 X21.6573 Y23.6112 I0.6821 J1.8801
G3 X21.4908 Y23.6425 I-0.1761 J-0.4777
G1 X15.3023
G2 X14.0115 Y23.5864 I-1.3923 J17.1508
G2 X14.0026 I-0.0118 J2.0
G2 X5.1077 Y26.2832 I-0.0234 J15.9399
G2 X-0.7844 Y33.4595 I8.9322 J13.3409
G2 X-0.7855 Y33.4623 I1.8467 J0.7679
G2 X-2.0 Y39.5859 I14.748 J6.1071
G2 X0.6968 Y48.4786 I15.9303 J0.0243
G2 X7.8728 Y54.3711 I13.3403 J-8.9304
G2 X7.8753 Y54.3721 I0.768 J-1.8467
G2 X14.0022 Y55.5869 I6.1067 J-14.7416
G2 X14.0101 I-0.0025 J-2.0
G2 X15.3148 Y55.5299 I-0.0884 J-16.9883
G1 X21.4991
G3 X21.5978 Y55.5439 I-0.0021 J0.3698
G2 X21.5991 Y55.5443 I0.5456 J-1.9241
G3 X21.8197 Y55.6319 I-0.3157 J1.1162
G3 X22.2003 Y55.9406 I-0.5712 J1.0934
G2 X22.2086 Y55.9506 I1.5432 J-1.2722
G3 X22.2765 Y56.0566 I-0.3837 J0.3206
G1 X28.4056 Y77.8304
G2 X28.4484 Y77.9642 I1.9252 J-0.5419
G2 X29.0004 Y79.0211 I4.1168 J-1.4777
G2 X29.697 Y79.8147 I4.2113 J-2.9937
G2 X29.6989 Y79.8165 I1.3605 J-1.466
G2 X31.4691 Y80.8965 I3.5633 J-3.8497
G2 X32.9828 Y81.1725 I1.5566 J-4.2478
G2 X33.0018 Y81.1726 I0.019 J-1.9999
G1 X53.2359
G1 X53.236
G1 F50.0 Z-6.5
G2 F120.0 X56.063 Y79.9988 I-0.0004 J-3.992
G2 X57.2357 Y77.1738 I-2.8224 J-2.8275
G2 Y77.1726 I-2.0 J-0.0013
G1 Y1.9999
G2 Y1.9994 I-2.0 J0.0
G2 X56.0624 Y-0.8269 I-3.993 J0.001
G2 X53.2368 Y-2.0 I-2.8275 J2.821
G2 X53.2359 I-0.001 J2.0
G1 X33.0018
G2 X32.9849 Y-1.9999 I0.0 J2.0
G2 X31.827 Y-1.8376 I0.0379 J4.4801
G2 X31.8175 Y-1.8349 I0.5338 J1.9275
G2 X30.8333 Y-1.4439 I1.3971 J4.9501
G1 Y-1.4438
G1 X30.8334 Y-1.4439
G1 X30.8333
G2 X29.2215 Y-0.1387 I2.4243 J4.6418
G2 X28.4522 Y1.1978 I3.4625 J2.8824
G2 X28.4056 Y1.3422 I1.8786 J0.6863
G1 X22.2756 Y23.1191
G3 X22.2436 Y23.1733 I-0.3433 J-0.1664
G3 X22.0866 Y23.3523 I-0.9635 J-0.6866
G3 X21.6671 Y23.6076 I-0.8436 J-0.9137
G2 X21.6573 Y23.6112 I0.6821 J1.8801
G3 X21.4908 Y23.6425 I-0.1761 J-0.4777
G1 X15.3023
G2 X14.0115 Y23.5864 I-1.3923 J17.1508
G2 X14.0026 I-0.0118 J2.0
G2 X5.1077 Y26.2832 I-0.0234 J15.9399
G2 X-0.7844 Y33.4595 I8.9322 J13.3409
G2 X-0.7855 Y33.4623 I1.8467 J0.7679
G2 X-2.0 Y39.5859 I14.748 J6.1071
G2 X0.6968 Y48.4786 I15.9303 J0.0243
G2 X7.8728 Y54.3711 I13.3403 J-8.9304
G2 X7.8753 Y54.3721 I0.768 J-1.8467
G2 X14.0022 Y55.5869 I6.1067 J-14.7416
G2 X14.0101 I-0.0025 J-2.0
G2 X15.3148 Y55.5299 I-0.0884 J-16.9883
G1 X21.4991
G3 X21.5978 Y55.5439 I-0.0021 J0.3698
G2 X21.5991 Y55.5443 I0.5456 J-1.9241
G3 X21.8197 Y55.6319 I-0.3157 J1.1162
G3 X22.2003 Y55.9406 I-0.5712 J1.0934
G2 X22.2086 Y55.9506 I1.5432 J-1.2722
G3 X22.2765 Y56.0566 I-0.3837 J0.3206
G1 X28.4056 Y77.8304
G2 X28.4484 Y77.9642 I1.9252 J-0.5419
G2 X29.0004 Y79.0211 I4.1168 J-1.4777
G2 X29.697 Y79.8147 I4.2113 J-2.9937
G2 X29.6989 Y79.8165 I1.3605 J-1.466
G2 X31.4691 Y80.8965 I3.5633 J-3.8497
G2 X32.9828 Y81.1725 I1.5566 J-4.2478
G2 X33.0018 Y81.1726 I0.019 J-1.9999
G1 X53.2359
G1 X53.236
G0 Z3.0
M5
M30
